P3
200 100
255
206 227 255
206 227 255
205 227 255
205 227 255
205 227 255
205 227 255
205 227 255
205 226 255
205 226 255
205 226 255
204 226 255
204 226 255
204 226 255
204 226 255
204 226 255
204 226 255
204 226 255
204 226 255
204 226 255
203 226 255
203 226 255
203 226 255
203 225 255
203 225 255
203 225 255
203 225 255
202 225 255
202 225 255
202 225 255
202 225 255
202 225 255
202 225 255
202 225 255
201 225 255
201 225 255
201 224 255
201 224 255
201 224 255
201 224 255
201 224 255
200 224 255
200 224 255
200 224 255
200 224 255
200 224 255
200 224 255
199 224 255
199 223 255
199 223 255
199 223 255
199 223 255
199 223 255
198 223 255
198 223 255
198 223 255
198 223 255
198 223 255
198 223 255
198 223 255
197 222 255
197 222 255
197 222 255
197 222 255
197 222 255
197 222 255
196 222 255
196 222 255
196 222 255
196 222 255
196 222 255
196 222 255
196 222 255
195 221 255
195 221 255
195 221 255
195 221 255
195 221 255
195 221 255
195 221 255
195 221 255
195 221 255
194 221 255
194 221 255
194 221 255
194 221 255
194 221 255
194 221 255
194 221 255
194 221 255
194 221 255
194 221 255
194 220 255
194 220 255
194 220 255
194 220 255
194 220 255
193 220 255
193 220 255
193 220 255
193 220 255
193 220 255
193 220 255
193 220 255
194 220 255
194 220 255
194 220 255
194 220 255
194 220 255
194 220 255
194 221 255
194 221 255
194 221 255
194 221 255
194 221 255
194 221 255
194 221 255
194 221 255
194 221 255
194 221 255
195 221 255
195 221 255
195 221 255
195 221 255
195 221 255
195 221 255
195 221 255
195 221 255
195 221 255
196 222 255
196 222 255
196 222 255
196 222 255
196 222 255
196 222 255
196 222 255
197 222 255
197 222 255
197 222 255
197 222 255
197 222 255
197 222 255
198 223 255
198 223 255
198 223 255
198 223 255
198 223 255
198 223 255
198 223 255
199 223 255
199 223 255
199 223 255
199 223 255
199 223 255
199 224 255
200 224 255
200 224 255
200 224 255
200 224 255
200 224 255
200 224 255
201 224 255
201 224 255
201 224 255
201 224 255
201 224 255
201 225 255
201 225 255
202 225 255
202 225 255
202 225 255
202 225 255
202 225 255
202 225 255
202 225 255
203 225 255
203 225 255
203 225 255
203 225 255
203 226 255
203 226 255
203 226 255
204 226 255
204 226 255
204 226 255
204 226 255
204 226 255
204 226 255
204 226 255
204 226 255
204 226 255
205 226 255
205 226 255
205 226 255
205 227 255
205 227 255
205 227 255
205 227 255
205 227 255
206 227 255
206 227 255
206 227 255
206 227 255
206 227 255
206 227 255
205 227 255
205 227 255
205 227 255
205 227 255
205 227 255
205 226 255
205 226 255
205 226 255
205 226 255
204 226 255
204 226 255
204 226 255
204 226 255
204 226 255
204 226 255
204 226 255
204 226 255
203 226 255
203 226 255
203 226 255
203 225 255
203 225 255
203 225 255
203 225 255
202 225 255
202 225 255
202 225 255
202 225 255
202 225 255
202 225 255
202 225 255
201 225 255
201 225 255
201 224 255
201 224 255
201 224 255
201 224 255
201 224 255
200 224 255
200 224 255
200 224 255
200 224 255
200 224 255
200 224 255
199 224 255
199 223 255
199 223 255
199 223 255
199 223 255
199 223 255
198 223 255
198 223 255
198 223 255
198 223 255
198 223 255
198 223 255
198 223 255
197 222 255
197 222 255
197 222 255
197 222 255
197 222 255
197 222 255
197 222 255
196 222 255
196 222 255
196 222 255
196 222 255
196 222 255
196 222 255
196 221 255
195 221 255
195 221 255
195 221 255
195 221 255
195 221 255
195 221 255
195 221 255
195 221 255
195 221 255
194 221 255
194 221 255
194 221 255
194 221 255
194 221 255
194 221 255
194 221 255
194 221 255
194 221 255
194 221 255
194 221 255
194 221 255
194 221 255
194 221 255
194 221 255
194 221 255
194 221 255
194 221 255
194 221 255
194 221 255
194 221 255
194 221 255
194 221 255
194 221 255
194 221 255
194 221 255
194 221 255
194 221 255
194 221 255
194 221 255
194 221 255
194 221 255
195 221 255
195 221 255
195 221 255
195 221 255
195 221 255
195 221 255
195 221 255
195 221 255
195 221 255
196 221 255
196 222 255
196 222 255
196 222 255
196 222 255
196 222 255
196 222 255
197 222 255
197 222 255
197 222 255
197 222 255
197 222 255
197 222 255
197 222 255
198 223 255
198 223 255
198 223 255
198 223 255
198 223 255
198 223 255
199 223 255
199 223 255
199 223 255
199 223 255
199 223 255
199 223 255
199 224 255
200 224 255
200 224 255
200 224 255
200 224 255
200 224 255
200 224 255
201 224 255
201 224 255
201 224 255
201 224 255
201 224 255
201 225 255
201 225 255
202 225 255
202 225 255
202 225 255
202 225 255
202 225 255
202 225 255
202 225 255
203 225 255
203 225 255
203 225 255
203 225 255
203 226 255
203 226 255
203 226 255
204 226 255
204 226 255
204 226 255
204 226 255
204 226 255
204 226 255
204 226 255
204 226 255
205 226 255
205 226 255
205 226 255
205 227 255
205 227 255
205 227 255
205 227 255
205 227 255
205 227 255
206 227 255
206 227 255
206 227 255
206 227 255
206 227 255
206 227 255
206 227 255
206 227 255
206 227 255
206 227 255
206 227 255
205 227 255
205 227 255
205 227 255
205 227 255
205 227 255
205 226 255
205 226 255
205 226 255
204 226 255
204 226 255
204 226 255
204 226 255
204 226 255
204 226 255
204 226 255
204 226 255
203 226 255
203 226 255
203 226 255
203 225 255
203 225 255
203 225 255
203 225 255
202 225 255
202 225 255
202 225 255
202 225 255
202 225 255
202 225 255
202 225 255
201 225 255
201 225 255
201 224 255
201 224 255
201 224 255
201 224 255
201 224 255
200 224 255
200 224 255
200 224 255
200 224 255
200 224 255
200 224 255
199 224 255
199 223 255
199 223 255
199 223 255
199 223 255
199 223 255
199 223 255
198 223 255
198 223 255
198 223 255
198 223 255
198 223 255
198 223 255
197 222 255
197 222 255
197 222 255
197 222 255
197 222 255
197 222 255
197 222 255
196 222 255
196 222 255
196 222 255
196 222 255
196 222 255
196 222 255
196 222 255
196 221 255
195 221 255
195 221 255
195 221 255
195 221 255
195 221 255
195 221 255
195 221 255
195 221 255
195 221 255
195 221 255
194 221 255
194 221 255
194 221 255
194 221 255
194 221 255
194 221 255
194 221 255
194 221 255
194 221 255
194 221 255
194 221 255
194 221 255
194 221 255
194 221 255
194 221 255
194 221 255
194 221 255
194 221 255
194 221 255
194 221 255
194 221 255
194 221 255
194 221 255
194 221 255
195 221 255
195 221 255
195 221 255
195 221 255
195 221 255
195 221 255
195 221 255
195 221 255
195 221 255
195 221 255
196 221 255
196 222 255
196 222 255
196 222 255
196 222 255
196 222 255
196 222 255
196 222 255
197 222 255
197 222 255
197 222 255
197 222 255
197 222 255
197 222 255
197 222 255
198 223 255
198 223 255
198 223 255
198 223 255
198 223 255
198 223 255
198 223 255
199 223 255
199 223 255
199 223 255
199 223 255
199 223 255
199 224 255
200 224 255
200 224 255
200 224 255
200 224 255
200 224 255
200 224 255
201 224 255
201 224 255
201 224 255
201 224 255
201 224 255
201 225 255
201 225 255
202 225 255
202 225 255
202 225 255
202 225 255
202 225 255
202 225 255
202 225 255
203 225 255
203 225 255
203 225 255
203 225 255
203 226 255
203 226 255
203 226 255
204 226 255
204 226 255
204 226 255
204 226 255
204 226 255
204 226 255
204 226 255
204 226 255
205 226 255
205 226 255
205 226 255
205 227 255
205 227 255
205 227 255
205 227 255
205 227 255
206 227 255
206 227 255
206 227 255
206 227 255
206 227 255
206 227 255
206 227 255
206 227 255
206 227 255
206 227 255
206 227 255
206 227 255
206 227 255
206 227 255
206 227 255
206 227 255
205 227 255
205 227 255
205 227 255
205 227 255
205 227 255
205 226 255
205 226 255
205 226 255
205 226 255
204 226 255
204 226 255
204 226 255
204 226 255
204 226 255
204 226 255
204 226 255
203 226 255
203 226 255
203 226 255
203 226 255
203 225 255
203 225 255
203 225 255
203 225 255
202 225 255
202 225 255
202 225 255
202 225 255
202 225 255
202 225 255
201 225 255
201 225 255
201 224 255
201 224 255
201 224 255
201 224 255
201 224 255
200 224 255
200 224 255
200 224 255
200 224 255
200 224 255
200 224 255
199 224 255
199 223 255
199 223 255
199 223 255
199 223 255
199 223 255
199 223 255
198 223 255
198 223 255
198 223 255
198 223 255
198 223 255
198 223 255
197 222 255
197 222 255
197 222 255
197 222 255
197 222 255
197 222 255
197 222 255
196 222 255
196 222 255
196 222 255
196 222 255
196 222 255
196 222 255
196 222 255
196 222 255
196 221 255
195 221 255
195 221 255
195 221 255
195 221 255
195 221 255
195 221 255
195 221 255
195 221 255
195 221 255
195 221 255
195 221 255
195 221 255
195 221 255
195 221 255
194 221 255
194 221 255
194 221 255
194 221 255
194 221 255
194 221 255
194 221 255
194 221 255
194 221 255
194 221 255
194 221 255
195 221 255
195 221 255
195 221 255
195 221 255
195 221 255
195 221 255
195 221 255
195 221 255
195 221 255
195 221 255
195 221 255
195 221 255
195 221 255
196 221 255
196 222 255
196 222 255
196 222 255
196 222 255
196 222 255
196 222 255
196 222 255
196 222 255
197 222 255
197 222 255
197 222 255
197 222 255
197 222 255
197 222 255
197 222 255
198 223 255
198 223 255
198 223 255
198 223 255
198 223 255
198 223 255
199 223 255
199 223 255
199 223 255
199 223 255
199 223 255
199 223 255
199 224 255
200 224 255
200 224 255
200 224 255
200 224 255
200 224 255
200 224 255
201 224 255
201 224 255
201 224 255
201 224 255
201 224 255
201 225 255
201 225 255
202 225 255
202 225 255
202 225 255
202 225 255
202 225 255
202 225 255
203 225 255
203 225 255
203 225 255
203 225 255
203 226 255
203 226 255
203 226 255
203 226 255
204 226 255
204 226 255
204 226 255
204 226 255
204 226 255
204 226 255
204 226 255
205 226 255
205 226 255
205 226 255
205 226 255
205 227 255
205 227 255
205 227 255
205 227 255
205 227 255
206 227 255
206 227 255
206 227 255
206 227 255
206 227 255
206 227 255
206 227 255
206 227 255
206 227 255
207 227 255
207 227 255
207 227 255
206 227 255
206 227 255
206 227 255
206 227 255
206 227 255
206 227 255
206 227 255
206 227 255
206 227 255
205 227 255
205 227 255
205 227 255
205 227 255
205 227 255
205 226 255
205 226 255
205 226 255
204 226 255
204 226 255
204 226 255
204 226 255
204 226 255
204 226 255
204 226 255
204 226 255
203 226 255
203 226 255
203 226 255
203 225 255
203 225 255
203 225 255
203 225 255
202 225 255
202 225 255
202 225 255
202 225 255
202 225 255
202 225 255
202 225 255
201 225 255
201 224 255
201 224 255
201 224 255
201 224 255
201 224 255
200 224 255
200 224 255
200 224 255
200 224 255
200 224 255
200 224 255
200 224 255
199 223 255
199 223 255
199 223 255
199 223 255
199 223 255
199 223 255
198 223 255
198 223 255
198 223 255
198 223 255
198 223 255
198 223 255
198 223 255
197 222 255
197 222 255
197 222 255
197 222 255
197 222 255
197 222 255
197 222 255
196 222 255
196 222 255
196 222 255
196 222 255
196 222 255
196 222 255
196 222 255
196 222 255
196 221 255
195 221 255
195 221 255
195 221 255
195 221 255
195 221 255
195 221 255
195 221 255
195 221 255
195 221 255
195 221 255
195 221 255
195 221 255
195 221 255
195 221 255
195 221 255
195 221 255
195 221 255
195 221 255
195 221 255
195 221 255
195 221 255
195 221 255
195 221 255
195 221 255
195 221 255
195 221 255
195 221 255
195 221 255
195 221 255
195 221 255
195 221 255
195 221 255
196 221 255
196 222 255
196 222 255
196 222 255
196 222 255
196 222 255
196 222 255
196 222 255
196 222 255
197 222 255
197 222 255
197 222 255
197 222 255
197 222 255
197 222 255
197 222 255
198 223 255
198 223 255
198 223 255
198 223 255
198 223 255
198 223 255
198 223 255
199 223 255
199 223 255
199 223 255
199 223 255
199 223 255
199 223 255
200 224 255
200 224 255
200 224 255
200 224 255
200 224 255
200 224 255
200 224 255
201 224 255
201 224 255
201 224 255
201 224 255
201 225 255
201 225 255
202 225 255
202 225 255
202 225 255
202 225 255
202 225 255
202 225 255
202 225 255
203 225 255
203 225 255
203 225 255
203 225 255
203 226 255
203 226 255
203 226 255
204 226 255
204 226 255
204 226 255
204 226 255
204 226 255
204 226 255
204 226 255
204 226 255
205 226 255
205 226 255
205 226 255
205 227 255
205 227 255
205 227 255
205 227 255
205 227 255
206 227 255
206 227 255
206 227 255
206 227 255
206 227 255
206 227 255
206 227 255
206 227 255
206 227 255
207 227 255
207 227 255
207 227 255
207 228 255
207 228 255
207 228 255
207 227 255
207 227 255
207 227 255
206 227 255
206 227 255
206 227 255
206 227 255
206 227 255
206 227 255
206 227 255
206 227 255
205 227 255
205 227 255
205 227 255
205 227 255
205 227 255
205 226 255
205 226 255
205 226 255
205 226 255
204 226 255
204 226 255
204 226 255
204 226 255
204 226 255
204 226 255
204 226 255
203 226 255
203 226 255
203 226 255
203 225 255
203 225 255
203 225 255
203 225 255
202 225 255
202 225 255
202 225 255
202 225 255
202 225 255
202 225 255
202 225 255
201 225 255
201 225 255
201 224 255
201 224 255
201 224 255
201 224 255
200 224 255
200 224 255
200 224 255
200 224 255
200 224 255
200 224 255
200 224 255
199 224 255
199 223 255
199 223 255
199 223 255
199 223 255
199 223 255
198 223 255
198 223 255
198 223 255
198 223 255
198 223 255
198 223 255
198 223 255
197 222 255
197 222 255
197 222 255
197 222 255
197 222 255
197 222 255
197 222 255
197 222 255
196 222 255
196 222 255
196 222 255
196 222 255
196 222 255
196 222 255
196 222 255
196 222 255
196 222 255
196 221 255
195 221 255
195 221 255
195 221 255
195 221 255
195 221 255
195 221 255
195 221 255
195 221 255
195 221 255
195 221 255
195 221 255
195 221 255
195 221 255
195 221 255
195 221 255
195 221 255
195 221 255
195 221 255
195 221 255
195 221 255
195 221 255
195 221 255
195 221 255
195 221 255
196 221 255
196 222 255
196 222 255
196 222 255
196 222 255
196 222 255
196 222 255
196 222 255
196 222 255
196 222 255
197 222 255
197 222 255
197 222 255
197 222 255
197 222 255
197 222 255
197 222 255
197 222 255
198 223 255
198 223 255
198 223 255
198 223 255
198 223 255
198 223 255
198 223 255
199 223 255
199 223 255
199 223 255
199 223 255
199 223 255
199 224 255
200 224 255
200 224 255
200 224 255
200 224 255
200 224 255
200 224 255
200 224 255
201 224 255
201 224 255
201 224 255
201 224 255
201 225 255
201 225 255
202 225 255
202 225 255
202 225 255
202 225 255
202 225 255
202 225 255
202 225 255
203 225 255
203 225 255
203 225 255
203 225 255
203 226 255
203 226 255
203 226 255
204 226 255
204 226 255
204 226 255
204 226 255
204 226 255
204 226 255
204 226 255
204 226 255
205 226 255
205 226 255
205 226 255
205 227 255
205 227 255
205 227 255
205 227 255
205 227 255
206 227 255
206 227 255
206 227 255
206 227 255
206 227 255
206 227 255
206 227 255
206 227 255
207 227 255
207 227 255
207 227 255
207 228 255
207 228 255
207 228 255
207 228 255
207 228 255
207 228 255
207 228 255
207 228 255
207 228 255
207 227 255
207 227 255
206 227 255
206 227 255
206 227 255
206 227 255
206 227 255
206 227 255
206 227 255
206 227 255
206 227 255
205 227 255
205 227 255
205 227 255
205 227 255
205 227 255
205 226 255
205 226 255
205 226 255
204 226 255
204 226 255
204 226 255
204 226 255
204 226 255
204 226 255
204 226 255
203 226 255
203 226 255
203 226 255
203 226 255
203 225 255
203 225 255
203 225 255
202 225 255
202 225 255
202 225 255
202 225 255
202 225 255
202 225 255
202 225 255
201 225 255
201 225 255
201 224 255
201 224 255
201 224 255
201 224 255
201 224 255
200 224 255
200 224 255
200 224 255
200 224 255
200 224 255
200 224 255
199 224 255
199 223 255
199 223 255
199 223 255
199 223 255
199 223 255
199 223 255
198 223 255
198 223 255
198 223 255
198 223 255
198 223 255
198 223 255
198 223 255
197 222 255
197 222 255
197 222 255
197 222 255
197 222 255
197 222 255
197 222 255
197 222 255
196 222 255
196 222 255
196 222 255
196 222 255
196 222 255
196 222 255
196 222 255
196 222 255
196 222 255
196 222 255
196 222 255
196 222 255
196 221 255
196 221 255
196 221 255
195 221 255
195 221 255
195 221 255
195 221 255
195 221 255
195 221 255
195 221 255
195 221 255
196 221 255
196 221 255
196 221 255
196 222 255
196 222 255
196 222 255
196 222 255
196 222 255
196 222 255
196 222 255
196 222 255
196 222 255
196 222 255
196 222 255
196 222 255
197 222 255
197 222 255
197 222 255
197 222 255
197 222 255
197 222 255
197 222 255
197 222 255
198 223 255
198 223 255
198 223 255
198 223 255
198 223 255
198 223 255
198 223 255
199 223 255
199 223 255
199 223 255
199 223 255
199 223 255
199 223 255
199 224 255
200 224 255
200 224 255
200 224 255
200 224 255
200 224 255
200 224 255
201 224 255
201 224 255
201 224 255
201 224 255
201 224 255
201 225 255
201 225 255
202 225 255
202 225 255
202 225 255
202 225 255
202 225 255
202 225 255
202 225 255
203 225 255
203 225 255
203 225 255
203 226 255
203 226 255
203 226 255
203 226 255
204 226 255
204 226 255
204 226 255
204 226 255
204 226 255
204 226 255
204 226 255
205 226 255
205 226 255
205 226 255
205 227 255
205 227 255
205 227 255
205 227 255
205 227 255
206 227 255
206 227 255
206 227 255
206 227 255
206 227 255
206 227 255
206 227 255
206 227 255
206 227 255
207 227 255
207 227 255
207 228 255
207 228 255
207 228 255
207 228 255
207 228 255
207 228 255
208 228 255
208 228 255
207 228 255
207 228 255
207 228 255
207 228 255
207 228 255
207 228 255
207 228 255
207 227 255
207 227 255
206 227 255
206 227 255
206 227 255
206 227 255
206 227 255
206 227 255
206 227 255
206 227 255
206 227 255
205 227 255
205 227 255
205 227 255
205 227 255
205 226 255
205 226 255
205 226 255
205 226 255
204 226 255
204 226 255
204 226 255
204 226 255
204 226 255
204 226 255
204 226 255
203 226 255
203 226 255
203 226 255
203 225 255
203 225 255
203 225 255
203 225 255
202 225 255
202 225 255
202 225 255
202 225 255
202 225 255
202 225 255
201 225 255
201 225 255
201 224 255
201 224 255
201 224 255
201 224 255
201 224 255
200 224 255
200 224 255
200 224 255
200 224 255
200 224 255
200 224 255
199 224 255
199 223 255
199 223 255
199 223 255
199 223 255
199 223 255
199 223 255
198 223 255
198 223 255
198 223 255
198 223 255
198 223 255
198 223 255
198 223 255
198 223 255
197 222 255
197 222 255
197 222 255
197 222 255
197 222 255
197 222 255
197 222 255
197 222 255
197 222 255
196 222 255
196 222 255
196 222 255
196 222 255
196 222 255
196 222 255
196 222 255
196 222 255
196 222 255
196 222 255
196 222 255
196 222 255
196 222 255
196 222 255
196 222 255
196 222 255
196 222 255
196 222 255
196 222 255
196 222 255
196 222 255
196 222 255
196 222 255
196 222 255
196 222 255
196 222 255
196 222 255
196 222 255
196 222 255
196 222 255
197 222 255
197 222 255
197 222 255
197 222 255
197 222 255
197 222 255
197 222 255
197 222 255
197 222 255
197 223 255
198 223 255
198 223 255
198 223 255
198 223 255
198 223 255
198 223 255
198 223 255
199 223 255
199 223 255
199 223 255
199 223 255
199 223 255
199 224 255
199 224 255
200 224 255
200 224 255
200 224 255
200 224 255
200 224 255
200 224 255
201 224 255
201 224 255
201 224 255
201 224 255
201 224 255
201 225 255
201 225 255
202 225 255
202 225 255
202 225 255
202 225 255
202 225 255
202 225 255
203 225 255
203 225 255
203 225 255
203 225 255
203 226 255
203 226 255
203 226 255
204 226 255
204 226 255
204 226 255
204 226 255
204 226 255
204 226 255
204 226 255
204 226 255
205 226 255
205 226 255
205 226 255
205 227 255
205 227 255
205 227 255
205 227 255
206 227 255
206 227 255
206 227 255
206 227 255
206 227 255
206 227 255
206 227 255
206 227 255
206 227 255
207 227 255
207 227 255
207 228 255
207 228 255
207 228 255
207 228 255
207 228 255
207 228 255
207 228 255
208 228 255
208 228 255
208 228 255
208 228 255
208 228 255
208 228 255
207 228 255
207 228 255
207 228 255
207 228 255
207 228 255
207 228 255
207 228 255
207 227 255
207 227 255
207 227 255
206 227 255
206 227 255
206 227 255
206 227 255
206 227 255
206 227 255
206 227 255
206 227 255
205 227 255
205 227 255
205 227 255
205 227 255
205 227 255
205 226 255
205 226 255
205 226 255
204 226 255
204 226 255
204 226 255
204 226 255
204 226 255
204 226 255
204 226 255
203 226 255
203 226 255
203 226 255
203 225 255
203 225 255
203 225 255
203 225 255
202 225 255
202 225 255
202 225 255
202 225 255
202 225 255
202 225 255
202 225 255
201 225 255
201 225 255
201 224 255
201 224 255
201 224 255
201 224 255
200 224 255
200 224 255
200 224 255
200 224 255
200 224 255
200 224 255
200 224 255
199 224 255
199 223 255
199 223 255
199 223 255
199 223 255
199 223 255
199 223 255
198 223 255
198 223 255
198 223 255
198 223 255
198 223 255
198 223 255
198 223 255
198 223 255
197 222 255
197 222 255
197 222 255
197 222 255
197 222 255
197 222 255
197 222 255
197 222 255
197 222 255
197 222 255
197 222 255
196 222 255
196 222 255
196 222 255
196 222 255
196 222 255
196 222 255
196 222 255
196 222 255
196 222 255
196 222 255
196 222 255
196 222 255
196 222 255
196 222 255
196 222 255
196 222 255
196 222 255
196 222 255
196 222 255
196 222 255
197 222 255
197 222 255
197 222 255
197 222 255
197 222 255
197 222 255
197 222 255
197 222 255
197 222 255
197 222 255
197 222 255
198 223 255
198 223 255
198 223 255
198 223 255
198 223 255
198 223 255
198 223 255
198 223 255
199 223 255
199 223 255
199 223 255
199 223 255
199 223 255
199 223 255
199 224 255
200 224 255
200 224 255
200 224 255
200 224 255
200 224 255
200 224 255
200 224 255
201 224 255
201 224 255
201 224 255
201 224 255
201 225 255
201 225 255
202 225 255
202 225 255
202 225 255
202 225 255
202 225 255
202 225 255
202 225 255
203 225 255
203 225 255
203 225 255
203 225 255
203 226 255
203 226 255
203 226 255
204 226 255
204 226 255
204 226 255
204 226 255
204 226 255
204 226 255
204 226 255
205 226 255
205 226 255
205 226 255
205 227 255
205 227 255
205 227 255
205 227 255
205 227 255
206 227 255
206 227 255
206 227 255
206 227 255
206 227 255
206 227 255
206 227 255
206 227 255
207 227 255
207 227 255
207 228 255
207 228 255
207 228 255
207 228 255
207 228 255
207 228 255
207 228 255
208 228 255
208 228 255
208 228 255
208 228 255
208 228 255
208 228 255
208 228 255
208 228 255
208 228 255
208 228 255
208 228 255
208 228 255
207 228 255
207 228 255
207 228 255
207 228 255
207 228 255
207 228 255
207 228 255
207 227 255
207 227 255
207 227 255
206 227 255
206 227 255
206 227 255
206 227 255
206 227 255
206 227 255
206 227 255
206 227 255
205 227 255
205 227 255
205 227 255
205 227 255
205 226 255
205 226 255
205 226 255
205 226 255
204 226 255
204 226 255
204 226 255
204 226 255
204 226 255
204 226 255
204 226 255
203 226 255
203 226 255
203 226 255
203 225 255
203 225 255
203 225 255
202 225 255
202 225 255
202 225 255
202 225 255
202 225 255
202 225 255
202 225 255
201 225 255
201 225 255
201 224 255
201 224 255
201 224 255
201 224 255
201 224 255
200 224 255
200 224 255
200 224 255
200 224 255
200 224 255
200 224 255
200 224 255
199 224 255
199 223 255
199 223 255
199 223 255
199 223 255
199 223 255
199 223 255
198 223 255
198 223 255
198 223 255
198 223 255
198 223 255
198 223 255
198 223 255
198 223 255
197 223 255
197 222 255
197 222 255
197 222 255
197 222 255
197 222 255
197 222 255
197 222 255
197 222 255
197 222 255
197 222 255
197 222 255
197 222 255
197 222 255
197 222 255
197 222 255
197 222 255
197 222 255
197 222 255
197 222 255
197 222 255
197 222 255
197 222 255
197 222 255
197 222 255
197 222 255
197 222 255
197 222 255
197 222 255
197 222 255
197 222 255
197 222 255
197 222 255
197 222 255
197 222 255
197 223 255
198 223 255
198 223 255
198 223 255
198 223 255
198 223 255
198 223 255
198 223 255
198 223 255
199 223 255
199 223 255
199 223 255
199 223 255
199 223 255
199 223 255
199 223 255
200 224 255
200 224 255
200 224 255
200 224 255
200 224 255
200 224 255
200 224 255
201 224 255
201 224 255
201 224 255
201 224 255
201 224 255
201 225 255
201 225 255
202 225 255
202 225 255
202 225 255
202 225 255
202 225 255
202 225 255
203 225 255
203 225 255
203 225 255
203 225 255
203 226 255
203 226 255
203 226 255
204 226 255
204 226 255
204 226 255
204 226 255
204 226 255
204 226 255
204 226 255
205 226 255
205 226 255
205 226 255
205 227 255
205 227 255
205 227 255
205 227 255
205 227 255
206 227 255
206 227 255
206 227 255
206 227 255
206 227 255
206 227 255
206 227 255
206 227 255
206 227 255
207 227 255
207 227 255
207 228 255
207 228 255
207 228 255
207 228 255
207 228 255
207 228 255
207 228 255
208 228 255
208 228 255
208 228 255
208 228 255
208 228 255
208 228 255
208 228 255
208 228 255
208 228 255
208 228 255
208 228 255
208 228 255
208 228 255
208 228 255
208 228 255
208 228 255
208 228 255
207 228 255
207 228 255
207 228 255
207 228 255
207 228 255
207 228 255
207 228 255
207 227 255
207 227 255
206 227 255
206 227 255
206 227 255
206 227 255
206 227 255
206 227 255
206 227 255
206 227 255
206 227 255
205 227 255
205 227 255
205 227 255
205 227 255
205 226 255
205 226 255
205 226 255
204 226 255
204 226 255
204 226 255
204 226 255
204 226 255
204 226 255
204 226 255
203 226 255
203 226 255
203 226 255
203 225 255
203 225 255
203 225 255
203 225 255
202 225 255
202 225 255
202 225 255
202 225 255
202 225 255
202 225 255
202 225 255
201 225 255
201 225 255
201 224 255
201 224 255
201 224 255
201 224 255
200 224 255
200 224 255
200 224 255
200 224 255
200 224 255
200 224 255
200 224 255
199 224 255
199 223 255
199 223 255
199 223 255
199 223 255
199 223 255
199 223 255
199 223 255
198 223 255
198 223 255
198 223 255
198 223 255
198 223 255
198 223 255
198 223 255
198 223 255
198 223 255
198 223 255
197 222 255
197 222 255
197 222 255
197 222 255
197 222 255
197 222 255
197 222 255
197 222 255
197 222 255
197 222 255
197 222 255
197 222 255
197 222 255
197 222 255
197 222 255
197 222 255
197 222 255
197 222 255
197 222 255
197 222 255
197 222 255
197 222 255
197 222 255
197 222 255
197 222 255
197 222 255
198 223 255
198 223 255
198 223 255
198 223 255
198 223 255
198 223 255
198 223 255
198 223 255
198 223 255
198 223 255
199 223 255
199 223 255
199 223 255
199 223 255
199 223 255
199 223 255
199 223 255
199 224 255
200 224 255
200 224 255
200 224 255
200 224 255
200 224 255
200 224 255
200 224 255
201 224 255
201 224 255
201 224 255
201 224 255
201 225 255
201 225 255
202 225 255
202 225 255
202 225 255
202 225 255
202 225 255
202 225 255
202 225 255
203 225 255
203 225 255
203 225 255
203 225 255
203 226 255
203 226 255
203 226 255
204 226 255
204 226 255
204 226 255
204 226 255
204 226 255
204 226 255
204 226 255
205 226 255
205 226 255
205 226 255
205 227 255
205 227 255
205 227 255
205 227 255
206 227 255
206 227 255
206 227 255
206 227 255
206 227 255
206 227 255
206 227 255
206 227 255
206 227 255
207 227 255
207 227 255
207 228 255
207 228 255
207 228 255
207 228 255
207 228 255
207 228 255
207 228 255
208 228 255
208 228 255
208 228 255
208 228 255
208 228 255
208 228 255
208 228 255
208 228 255
208 228 255
208 228 255
209 229 255
209 229 255
209 229 255
208 228 255
208 228 255
208 228 255
208 228 255
208 228 255
208 228 255
208 228 255
208 228 255
208 228 255
208 228 255
207 228 255
207 228 255
207 228 255
207 228 255
207 228 255
207 228 255
207 228 255
207 227 255
207 227 255
206 227 255
206 227 255
206 227 255
206 227 255
206 227 255
206 227 255
206 227 255
206 227 255
205 227 255
205 227 255
205 227 255
205 227 255
205 227 255
205 226 255
205 226 255
205 226 255
204 226 255
204 226 255
204 226 255
204 226 255
204 226 255
204 226 255
204 226 255
203 226 255
203 226 255
203 226 255
203 225 255
203 225 255
203 225 255
203 225 255
202 225 255
202 225 255
202 225 255
202 225 255
202 225 255
202 225 255
201 225 255
201 225 255
201 224 255
201 224 255
201 224 255
201 224 255
201 224 255
200 224 255
200 224 255
200 224 255
200 224 255
200 224 255
200 224 255
200 224 255
199 224 255
199 223 255
199 223 255
199 223 255
199 223 255
199 223 255
199 223 255
199 223 255
198 223 255
198 223 255
198 223 255
198 223 255
198 223 255
198 223 255
198 223 255
198 223 255
198 223 255
198 223 255
198 223 255
198 223 255
198 223 255
198 223 255
197 222 255
197 222 255
197 222 255
197 222 255
197 222 255
197 222 255
197 222 255
197 222 255
197 222 255
197 222 255
197 222 255
197 222 255
198 223 255
198 223 255
198 223 255
198 223 255
198 223 255
198 223 255
198 223 255
198 223 255
198 223 255
198 223 255
198 223 255
198 223 255
198 223 255
198 223 255
199 223 255
199 223 255
199 223 255
199 223 255
199 223 255
199 223 255
199 223 255
199 224 255
200 224 255
200 224 255
200 224 255
200 224 255
200 224 255
200 224 255
200 224 255
201 224 255
201 224 255
201 224 255
201 224 255
201 224 255
201 225 255
201 225 255
202 225 255
202 225 255
202 225 255
202 225 255
202 225 255
202 225 255
203 225 255
203 225 255
203 225 255
203 225 255
203 226 255
203 226 255
203 226 255
204 226 255
204 226 255
204 226 255
204 226 255
204 226 255
204 226 255
204 226 255
205 226 255
205 226 255
205 226 255
205 227 255
205 227 255
205 227 255
205 227 255
205 227 255
206 227 255
206 227 255
206 227 255
206 227 255
206 227 255
206 227 255
206 227 255
206 227 255
207 227 255
207 227 255
207 228 255
207 228 255
207 228 255
207 228 255
207 228 255
207 228 255
207 228 255
208 228 255
208 228 255
208 228 255
208 228 255
208 228 255
208 228 255
208 228 255
208 228 255
208 228 255
208 228 255
209 229 255
209 229 255
209 229 255
209 229 255
209 229 255
209 229 255
209 229 255
209 229 255
209 229 255
208 228 255
208 228 255
208 228 255
208 228 255
208 228 255
208 228 255
208 228 255
208 228 255
208 228 255
208 228 255
207 228 255
207 228 255
207 228 255
207 228 255
207 228 255
207 228 255
207 228 255
207 227 255
207 227 255
206 227 255
206 227 255
206 227 255
206 227 255
206 227 255
206 227 255
206 227 255
206 227 255
205 227 255
205 227 255
205 227 255
205 227 255
205 226 255
205 226 255
205 226 255
205 226 255
204 226 255
204 226 255
204 226 255
204 226 255
204 226 255
204 226 255
204 226 255
203 226 255
203 226 255
203 226 255
203 225 255
203 225 255
203 225 255
202 225 255
202 225 255
202 225 255
202 225 255
202 225 255
202 225 255
202 225 255
201 225 255
201 225 255
201 224 255
201 224 255
201 224 255
201 224 255
201 224 255
200 224 255
200 224 255
200 224 255
200 224 255
200 224 255
200 224 255
200 224 255
199 224 255
199 224 255
199 223 255
199 223 255
199 223 255
199 223 255
199 223 255
199 223 255
199 223 255
199 223 255
198 223 255
198 223 255
198 223 255
198 223 255
198 223 255
198 223 255
198 223 255
198 223 255
198 223 255
198 223 255
198 223 255
198 223 255
198 223 255
198 223 255
198 223 255
198 223 255
198 223 255
198 223 255
198 223 255
198 223 255
198 223 255
198 223 255
198 223 255
198 223 255
198 223 255
198 223 255
198 223 255
198 223 255
198 223 255
198 223 255
198 223 255
199 223 255
199 223 255
199 223 255
199 223 255
199 223 255
199 223 255
199 223 255
199 224 255
200 224 255
200 224 255
200 224 255
200 224 255
200 224 255
200 224 255
200 224 255
200 224 255
201 224 255
201 224 255
201 224 255
201 224 255
201 224 255
201 225 255
201 225 255
202 225 255
202 225 255
202 225 255
202 225 255
202 225 255
202 225 255
203 225 255
203 225 255
203 225 255
203 225 255
203 225 255
203 226 255
203 226 255
204 226 255
204 226 255
204 226 255
204 226 255
204 226 255
204 226 255
204 226 255
205 226 255
205 226 255
205 226 255
205 226 255
205 227 255
205 227 255
205 227 255
205 227 255
206 227 255
206 227 255
206 227 255
206 227 255
206 227 255
206 227 255
206 227 255
206 227 255
207 227 255
207 227 255
207 228 255
207 228 255
207 228 255
207 228 255
207 228 255
207 228 255
207 228 255
208 228 255
208 228 255
208 228 255
208 228 255
208 228 255
208 228 255
208 228 255
208 228 255
208 228 255
209 228 255
209 229 255
209 229 255
209 229 255
209 229 255
209 229 255
209 229 255
209 229 255
209 229 255
209 229 255
209 229 255
209 229 255
209 229 255
209 229 255
209 229 255
209 229 255
209 228 255
208 228 255
208 228 255
208 228 255
208 228 255
208 228 255
208 228 255
208 228 255
208 228 255
208 228 255
207 228 255
207 228 255
207 228 255
207 228 255
207 228 255
207 228 255
207 228 255
207 227 255
207 227 255
206 227 255
206 227 255
206 227 255
206 227 255
206 227 255
206 227 255
206 227 255
206 227 255
205 227 255
205 227 255
205 227 255
205 227 255
205 226 255
205 226 255
205 226 255
204 226 255
204 226 255
204 226 255
204 226 255
204 226 255
204 226 255
204 226 255
203 226 255
203 226 255
203 226 255
203 225 255
203 225 255
203 225 255
203 225 255
202 225 255
202 225 255
202 225 255
202 225 255
202 225 255
202 225 255
202 225 255
201 225 255
201 225 255
201 224 255
201 224 255
201 224 255
201 224 255
201 224 255
200 224 255
200 224 255
200 224 255
200 224 255
200 224 255
200 224 255
200 224 255
200 224 255
199 224 255
199 223 255
199 223 255
199 223 255
199 223 255
199 223 255
199 223 255
199 223 255
199 223 255
199 223 255
199 223 255
198 223 255
198 223 255
198 223 255
198 223 255
198 223 255
198 223 255
198 223 255
198 223 255
198 223 255
198 223 255
198 223 255
198 223 255
198 223 255
198 223 255
198 223 255
198 223 255
198 223 255
198 223 255
198 223 255
199 223 255
199 223 255
199 223 255
199 223 255
199 223 255
199 223 255
199 223 255
199 223 255
199 223 255
199 223 255
199 224 255
199 224 255
200 224 255
200 224 255
200 224 255
200 224 255
200 224 255
200 224 255
200 224 255
200 224 255
201 224 255
201 224 255
201 224 255
201 224 255
201 224 255
201 225 255
201 225 255
202 225 255
202 225 255
202 225 255
202 225 255
202 225 255
202 225 255
202 225 255
203 225 255
203 225 255
203 225 255
203 225 255
203 226 255
203 226 255
203 226 255
204 226 255
204 226 255
204 226 255
204 226 255
204 226 255
204 226 255
204 226 255
205 226 255
205 226 255
205 226 255
205 227 255
205 227 255
205 227 255
205 227 255
206 227 255
206 227 255
206 227 255
206 227 255
206 227 255
206 227 255
206 227 255
206 227 255
207 227 255
207 227 255
207 228 255
207 228 255
207 228 255
207 228 255
207 228 255
207 228 255
207 228 255
208 228 255
208 228 255
208 228 255
208 228 255
208 228 255
208 228 255
208 228 255
208 228 255
208 228 255
209 228 255
209 229 255
209 229 255
209 229 255
209 229 255
209 229 255
209 229 255
209 229 255
209 229 255
209 229 255
210 229 255
210 229 255
209 229 255
209 229 255
209 229 255
209 229 255
209 229 255
209 229 255
209 229 255
209 229 255
209 229 255
209 229 255
209 228 255
208 228 255
208 228 255
208 228 255
208 228 255
208 228 255
208 228 255
208 228 255
208 228 255
208 228 255
208 228 255
207 228 255
207 228 255
207 228 255
207 228 255
207 228 255
207 228 255
207 227 255
207 227 255
206 227 255
206 227 255
206 227 255
206 227 255
206 227 255
206 227 255
206 227 255
206 227 255
205 227 255
205 227 255
205 227 255
205 227 255
205 226 255
205 226 255
205 226 255
204 226 255
204 226 255
204 226 255
204 226 255
204 226 255
204 226 255
204 226 255
203 226 255
203 226 255
203 226 255
203 225 255
203 225 255
203 225 255
203 225 255
202 225 255
202 225 255
202 225 255
202 225 255
202 225 255
202 225 255
202 225 255
201 225 255
201 225 255
201 224 255
201 224 255
201 224 255
201 224 255
201 224 255
200 224 255
200 224 255
200 224 255
200 224 255
200 224 255
200 224 255
200 224 255
200 224 255
200 224 255
199 224 255
199 224 255
199 223 255
199 223 255
199 223 255
199 223 255
199 223 255
199 223 255
199 223 255
199 223 255
199 223 255
199 223 255
199 223 255
199 223 255
199 223 255
199 223 255
199 223 255
199 223 255
199 223 255
199 223 255
199 223 255
199 223 255
199 223 255
199 223 255
199 223 255
199 223 255
199 223 255
199 223 255
199 223 255
199 223 255
199 223 255
199 223 255
199 224 255
199 224 255
200 224 255
200 224 255
200 224 255
200 224 255
200 224 255
200 224 255
200 224 255
200 224 255
200 224 255
201 224 255
201 224 255
201 224 255
201 224 255
201 224 255
201 225 255
201 225 255
202 225 255
202 225 255
202 225 255
202 225 255
202 225 255
202 225 255
202 225 255
203 225 255
203 225 255
203 225 255
203 225 255
203 226 255
203 226 255
203 226 255
204 226 255
204 226 255
204 226 255
204 226 255
204 226 255
204 226 255
204 226 255
205 226 255
205 226 255
205 226 255
205 227 255
205 227 255
205 227 255
205 227 255
206 227 255
206 227 255
206 227 255
206 227 255
206 227 255
206 227 255
206 227 255
206 227 255
207 227 255
207 227 255
207 228 255
207 228 255
207 228 255
207 228 255
207 228 255
207 228 255
207 228 255
208 228 255
208 228 255
208 228 255
208 228 255
208 228 255
208 228 255
208 228 255
208 228 255
208 228 255
209 228 255
209 229 255
209 229 255
209 229 255
209 229 255
209 229 255
209 229 255
209 229 255
209 229 255
209 229 255
209 229 255
210 229 255
210 229 255
210 229 255
210 229 255
210 229 255
210 229 255
210 229 255
210 229 255
209 229 255
209 229 255
209 229 255
209 229 255
209 229 255
209 229 255
209 229 255
209 229 255
209 229 255
209 229 255
208 228 255
208 228 255
208 228 255
208 228 255
208 228 255
208 228 255
208 228 255
208 228 255
208 228 255
208 228 255
207 228 255
207 228 255
207 228 255
207 228 255
207 228 255
207 228 255
207 227 255
207 227 255
206 227 255
206 227 255
206 227 255
206 227 255
206 227 255
206 227 255
206 227 255
206 227 255
205 227 255
205 227 255
205 227 255
205 227 255
205 226 255
205 226 255
205 226 255
204 226 255
204 226 255
204 226 255
204 226 255
204 226 255
204 226 255
204 226 255
203 226 255
203 226 255
203 226 255
203 225 255
203 225 255
203 225 255
203 225 255
202 225 255
202 225 255
202 225 255
202 225 255
202 225 255
202 225 255
202 225 255
201 225 255
201 225 255
201 224 255
201 224 255
201 224 255
201 224 255
201 224 255
201 224 255
200 224 255
200 224 255
200 224 255
200 224 255
200 224 255
200 224 255
200 224 255
200 224 255
200 224 255
200 224 255
200 224 255
199 224 255
199 224 255
199 223 255
199 223 255
199 223 255
199 223 255
199 223 255
199 223 255
199 223 255
199 223 255
199 223 255
199 223 255
199 223 255
199 223 255
199 223 255
199 223 255
199 223 255
199 223 255
199 223 255
199 223 255
199 224 255
199 224 255
200 224 255
200 224 255
200 224 255
200 224 255
200 224 255
200 224 255
200 224 255
200 224 255
200 224 255
200 224 255
200 224 255
201 224 255
201 224 255
201 224 255
201 224 255
201 224 255
201 224 255
201 225 255
201 225 255
202 225 255
202 225 255
202 225 255
202 225 255
202 225 255
202 225 255
202 225 255
203 225 255
203 225 255
203 225 255
203 225 255
203 226 255
203 226 255
203 226 255
204 226 255
204 226 255
204 226 255
204 226 255
204 226 255
204 226 255
204 226 255
205 226 255
205 226 255
205 226 255
205 227 255
205 227 255
205 227 255
205 227 255
206 227 255
206 227 255
206 227 255
206 227 255
206 227 255
206 227 255
206 227 255
206 227 255
207 227 255
207 227 255
207 228 255
207 228 255
207 228 255
207 228 255
207 228 255
207 228 255
208 228 255
208 228 255
208 228 255
208 228 255
208 228 255
208 228 255
208 228 255
208 228 255
208 228 255
208 228 255
209 229 255
209 229 255
209 229 255
209 229 255
209 229 255
209 229 255
209 229 255
209 229 255
209 229 255
209 229 255
210 229 255
210 229 255
210 229 255
210 229 255
210 229 255
210 229 255
210 229 255
210 229 255
210 229 255
210 229 255
210 229 255
210 229 255
210 229 255
210 229 255
210 229 255
210 229 255
209 229 255
209 229 255
209 229 255
209 229 255
209 229 255
209 229 255
209 229 255
209 229 255
209 229 255
209 228 255
208 228 255
208 228 255
208 228 255
208 228 255
208 228 255
208 228 255
208 228 255
208 228 255
208 228 255
207 228 255
207 228 255
207 228 255
207 228 255
207 228 255
207 228 255
207 227 255
207 227 255
206 227 255
206 227 255
206 227 255
206 227 255
206 227 255
206 227 255
206 227 255
206 227 255
205 227 255
205 227 255
205 227 255
205 227 255
205 226 255
205 226 255
205 226 255
204 226 255
204 226 255
204 226 255
204 226 255
204 226 255
204 226 255
204 226 255
203 226 255
203 226 255
203 226 255
203 225 255
203 225 255
203 225 255
203 225 255
202 225 255
202 225 255
202 225 255
202 225 255
202 225 255
202 225 255
202 225 255
201 225 255
201 225 255
201 225 255
201 224 255
201 224 255
201 224 255
201 224 255
201 224 255
201 224 255
200 224 255
200 224 255
200 224 255
200 224 255
200 224 255
200 224 255
200 224 255
200 224 255
200 224 255
200 224 255
200 224 255
200 224 255
200 224 255
200 224 255
200 224 255
200 224 255
200 224 255
200 224 255
200 224 255
200 224 255
200 224 255
200 224 255
200 224 255
200 224 255
200 224 255
200 224 255
200 224 255
200 224 255
200 224 255
200 224 255
200 224 255
200 224 255
200 224 255
200 224 255
200 224 255
200 224 255
201 224 255
201 224 255
201 224 255
201 224 255
201 224 255
201 224 255
201 225 255
201 225 255
201 225 255
202 225 255
202 225 255
202 225 255
202 225 255
202 225 255
202 225 255
202 225 255
203 225 255
203 225 255
203 225 255
203 225 255
203 226 255
203 226 255
203 226 255
204 226 255
204 226 255
204 226 255
204 226 255
204 226 255
204 226 255
204 226 255
205 226 255
205 226 255
205 226 255
205 227 255
205 227 255
205 227 255
205 227 255
206 227 255
206 227 255
206 227 255
206 227 255
206 227 255
206 227 255
206 227 255
206 227 255
207 227 255
207 227 255
207 228 255
207 228 255
207 228 255
207 228 255
207 228 255
207 228 255
208 228 255
208 228 255
208 228 255
208 228 255
208 228 255
208 228 255
208 228 255
208 228 255
208 228 255
209 228 255
209 229 255
209 229 255
209 229 255
209 229 255
209 229 255
209 229 255
209 229 255
209 229 255
209 229 255
210 229 255
210 229 255
210 229 255
210 229 255
210 229 255
210 229 255
210 229 255
210 229 255
210 229 255
210 229 255
211 230 255
211 230 255
210 230 255
210 229 255
210 229 255
210 229 255
210 229 255
210 229 255
210 229 255
210 229 255
210 229 255
210 229 255
210 229 255
209 229 255
209 229 255
209 229 255
209 229 255
209 229 255
209 229 255
209 229 255
209 229 255
209 229 255
209 228 255
208 228 255
208 228 255
208 228 255
208 228 255
208 228 255
208 228 255
208 228 255
208 228 255
208 228 255
207 228 255
207 228 255
207 228 255
207 228 255
207 228 255
207 228 255
207 227 255
207 227 255
206 227 255
206 227 255
206 227 255
206 227 255
206 227 255
206 227 255
206 227 255
206 227 255
205 227 255
205 227 255
205 227 255
205 227 255
205 226 255
205 226 255
205 226 255
204 226 255
204 226 255
204 226 255
204 226 255
204 226 255
204 226 255
204 226 255
203 226 255
203 226 255
203 226 255
203 225 255
203 225 255
203 225 255
203 225 255
202 225 255
202 225 255
202 225 255
202 225 255
202 225 255
202 225 255
202 225 255
202 225 255
201 225 255
201 225 255
201 225 255
201 224 255
201 224 255
201 224 255
201 224 255
201 224 255
201 224 255
201 224 255
201 224 255
200 224 255
200 224 255
200 224 255
200 224 255
200 224 255
200 224 255
200 224 255
200 224 255
200 224 255
200 224 255
200 224 255
200 224 255
200 224 255
200 224 255
200 224 255
200 224 255
200 224 255
200 224 255
200 224 255
200 224 255
200 224 255
200 224 255
200 224 255
200 224 255
201 224 255
201 224 255
201 224 255
201 224 255
201 224 255
201 224 255
201 224 255
201 224 255
201 225 255
201 225 255
201 225 255
202 225 255
202 225 255
202 225 255
202 225 255
202 225 255
202 225 255
202 225 255
202 225 255
203 225 255
203 225 255
203 225 255
203 225 255
203 226 255
203 226 255
203 226 255
204 226 255
204 226 255
204 226 255
204 226 255
204 226 255
204 226 255
204 226 255
205 226 255
205 226 255
205 226 255
205 227 255
205 227 255
205 227 255
205 227 255
206 227 255
206 227 255
206 227 255
206 227 255
206 227 255
206 227 255
206 227 255
206 227 255
207 227 255
207 227 255
207 228 255
207 228 255
207 228 255
207 228 255
207 228 255
207 228 255
208 228 255
208 228 255
208 228 255
208 228 255
208 228 255
208 228 255
208 228 255
208 228 255
208 228 255
209 228 255
209 229 255
209 229 255
209 229 255
209 229 255
209 229 255
209 229 255
209 229 255
209 229 255
209 229 255
210 229 255
210 229 255
210 229 255
210 229 255
210 229 255
210 229 255
210 229 255
210 229 255
210 229 255
210 229 255
210 230 255
211 230 255
211 230 255
211 230 255
211 230 255
211 230 255
211 230 255
211 230 255
210 230 255
210 230 255
210 229 255
210 229 255
210 229 255
210 229 255
210 229 255
210 229 255
210 229 255
210 229 255
210 229 255
210 229 255
209 229 255
209 229 255
209 229 255
209 229 255
209 229 255
209 229 255
209 229 255
209 229 255
209 229 255
208 228 255
208 228 255
208 228 255
208 228 255
208 228 255
208 228 255
208 228 255
208 228 255
208 228 255
207 228 255
207 228 255
207 228 255
207 228 255
207 228 255
207 228 255
207 227 255
207 227 255
206 227 255
206 227 255
206 227 255
206 227 255
206 227 255
206 227 255
206 227 255
206 227 255
205 227 255
205 227 255
205 227 255
205 227 255
205 226 255
205 226 255
205 226 255
204 226 255
204 226 255
204 226 255
204 226 255
204 226 255
204 226 255
204 226 255
203 226 255
203 226 255
203 226 255
203 226 255
203 225 255
203 225 255
203 225 255
203 225 255
202 225 255
202 225 255
202 225 255
202 225 255
202 225 255
202 225 255
202 225 255
202 225 255
202 225 255
201 225 255
201 225 255
201 225 255
201 224 255
201 224 255
201 224 255
201 224 255
201 224 255
201 224 255
201 224 255
201 224 255
201 224 255
201 224 255
201 224 255
201 224 255
201 224 255
201 224 255
201 224 255
201 224 255
201 224 255
201 224 255
201 224 255
201 224 255
201 224 255
201 224 255
201 224 255
201 224 255
201 224 255
201 224 255
201 224 255
201 224 255
201 224 255
201 224 255
201 225 255
201 225 255
201 225 255
202 225 255
202 225 255
202 225 255
202 225 255
202 225 255
202 225 255
202 225 255
202 225 255
202 225 255
203 225 255
203 225 255
203 225 255
203 225 255
203 226 255
203 226 255
203 226 255
203 226 255
204 226 255
204 226 255
204 226 255
204 226 255
204 226 255
204 226 255
204 226 255
205 226 255
205 226 255
205 226 255
205 227 255
205 227 255
205 227 255
205 227 255
206 227 255
206 227 255
206 227 255
206 227 255
206 227 255
206 227 255
206 227 255
206 227 255
207 227 255
207 227 255
207 228 255
207 228 255
207 228 255
207 228 255
207 228 255
207 228 255
208 228 255
208 228 255
208 228 255
208 228 255
208 228 255
208 228 255
208 228 255
208 228 255
208 228 255
209 229 255
209 229 255
209 229 255
209 229 255
209 229 255
209 229 255
209 229 255
209 229 255
209 229 255
210 229 255
210 229 255
210 229 255
210 229 255
210 229 255
210 229 255
210 229 255
210 229 255
210 229 255
210 229 255
210 230 255
210 230 255
211 230 255
211 230 255
211 230 255
211 230 255
211 230 255
211 230 255
211 230 255
211 230 255
211 230 255
211 230 255
211 230 255
211 230 255
211 230 255
211 230 255
210 230 255
210 229 255
210 229 255
210 229 255
210 229 255
210 229 255
210 229 255
210 229 255
210 229 255
210 229 255
210 229 255
209 229 255
209 229 255
209 229 255
209 229 255
209 229 255
209 229 255
209 229 255
209 229 255
209 229 255
209 228 255
208 228 255
208 228 255
208 228 255
208 228 255
208 228 255
208 228 255
208 228 255
208 228 255
208 228 255
207 228 255
207 228 255
207 228 255
207 228 255
207 228 255
207 228 255
207 227 255
206 227 255
206 227 255
206 227 255
206 227 255
206 227 255
206 227 255
206 227 255
206 227 255
205 227 255
205 227 255
205 227 255
205 227 255
205 226 255
205 226 255
205 226 255
204 226 255
204 226 255
204 226 255
204 226 255
204 226 255
204 226 255
204 226 255
204 226 255
203 226 255
203 226 255
203 226 255
203 225 255
203 225 255
203 225 255
203 225 255
203 225 255
202 225 255
202 225 255
202 225 255
202 225 255
202 225 255
202 225 255
202 225 255
202 225 255
202 225 255
202 225 255
201 225 255
201 225 255
201 225 255
201 225 255
201 225 255
201 224 255
201 224 255
201 224 255
201 224 255
201 224 255
201 224 255
201 224 255
201 224 255
201 224 255
201 224 255
201 224 255
201 224 255
201 224 255
201 224 255
201 224 255
201 225 255
201 225 255
201 225 255
201 225 255
201 225 255
201 225 255
202 225 255
202 225 255
202 225 255
202 225 255
202 225 255
202 225 255
202 225 255
202 225 255
202 225 255
202 225 255
203 225 255
203 225 255
203 225 255
203 225 255
203 225 255
203 226 255
203 226 255
203 226 255
204 226 255
204 226 255
204 226 255
204 226 255
204 226 255
204 226 255
204 226 255
204 226 255
205 226 255
205 226 255
205 227 255
205 227 255
205 227 255
205 227 255
205 227 255
206 227 255
206 227 255
206 227 255
206 227 255
206 227 255
206 227 255
206 227 255
207 227 255
207 227 255
207 228 255
207 228 255
207 228 255
207 228 255
207 228 255
207 228 255
207 228 255
208 228 255
208 228 255
208 228 255
208 228 255
208 228 255
208 228 255
208 228 255
208 228 255
209 228 255
209 229 255
209 229 255
209 229 255
209 229 255
209 229 255
209 229 255
209 229 255
209 229 255
209 229 255
210 229 255
210 229 255
210 229 255
210 229 255
210 229 255
210 229 255
210 229 255
210 229 255
210 229 255
210 229 255
210 230 255
211 230 255
211 230 255
211 230 255
211 230 255
211 230 255
211 230 255
211 230 255
211 230 255
211 230 255
212 230 255
211 230 255
211 230 255
211 230 255
211 230 255
211 230 255
211 230 255
211 230 255
211 230 255
211 230 255
211 230 255
211 230 255
211 230 255
210 230 255
210 229 255
210 229 255
210 229 255
210 229 255
210 229 255
210 229 255
210 229 255
210 229 255
210 229 255
210 229 255
209 229 255
209 229 255
209 229 255
209 229 255
209 229 255
209 229 255
209 229 255
209 229 255
209 229 255
208 228 255
208 228 255
208 228 255
208 228 255
208 228 255
208 228 255
208 228 255
208 228 255
208 228 255
207 228 255
207 228 255
207 228 255
207 228 255
207 228 255
207 228 255
207 227 255
207 227 255
206 227 255
206 227 255
206 227 255
206 227 255
206 227 255
206 227 255
206 227 255
205 227 255
205 227 255
205 227 255
205 227 255
205 227 255
205 226 255
205 226 255
205 226 255
204 226 255
204 226 255
204 226 255
204 226 255
204 226 255
204 226 255
204 226 255
204 226 255
203 226 255
203 226 255
203 226 255
203 225 255
203 225 255
203 225 255
203 225 255
203 225 255
203 225 255
202 225 255
202 225 255
202 225 255
202 225 255
202 225 255
202 225 255
202 225 255
202 225 255
202 225 255
202 225 255
202 225 255
202 225 255
202 225 255
202 225 255
202 225 255
202 225 255
202 225 255
202 225 255
202 225 255
202 225 255
202 225 255
202 225 255
202 225 255
202 225 255
202 225 255
202 225 255
202 225 255
202 225 255
202 225 255
202 225 255
202 225 255
202 225 255
202 225 255
202 225 255
202 225 255
202 225 255
203 225 255
203 225 255
203 225 255
203 225 255
203 225 255
203 225 255
203 226 255
203 226 255
203 226 255
204 226 255
204 226 255
204 226 255
204 226 255
204 226 255
204 226 255
204 226 255
204 226 255
205 226 255
205 226 255
205 226 255
205 227 255
205 227 255
205 227 255
205 227 255
206 227 255
206 227 255
206 227 255
206 227 255
206 227 255
206 227 255
206 227 255
206 227 255
207 227 255
207 227 255
207 228 255
207 228 255
207 228 255
207 228 255
207 228 255
207 228 255
208 228 255
208 228 255
208 228 255
208 228 255
208 228 255
208 228 255
208 228 255
208 228 255
208 228 255
209 229 255
209 229 255
209 229 255
209 229 255
209 229 255
209 229 255
209 229 255
209 229 255
209 229 255
210 229 255
210 229 255
210 229 255
210 229 255
210 229 255
210 229 255
210 229 255
210 229 255
210 229 255
210 230 255
210 230 255
211 230 255
211 230 255
211 230 255
211 230 255
211 230 255
211 230 255
211 230 255
211 230 255
211 230 255
211 230 255
211 230 255
211 230 255
212 230 255
212 230 255
212 230 255
212 230 255
212 230 255
212 230 255
211 230 255
211 230 255
211 230 255
211 230 255
211 230 255
211 230 255
211 230 255
211 230 255
211 230 255
211 230 255
211 230 255
211 230 255
210 230 255
210 229 255
210 229 255
210 229 255
210 229 255
210 229 255
210 229 255
210 229 255
210 229 255
210 229 255
209 229 255
209 229 255
209 229 255
209 229 255
209 229 255
209 229 255
209 229 255
209 229 255
209 229 255
209 228 255
208 228 255
208 228 255
208 228 255
208 228 255
208 228 255
208 228 255
208 228 255
208 228 255
207 228 255
207 228 255
207 228 255
207 228 255
207 228 255
207 228 255
207 227 255
207 227 255
206 227 255
206 227 255
206 227 255
206 227 255
206 227 255
206 227 255
206 227 255
206 227 255
205 227 255
205 227 255
205 227 255
205 227 255
205 227 255
205 226 255
205 226 255
205 226 255
204 226 255
204 226 255
204 226 255
204 226 255
204 226 255
204 226 255
204 226 255
204 226 255
203 226 255
203 226 255
203 226 255
203 226 255
203 225 255
203 225 255
203 225 255
203 225 255
203 225 255
203 225 255
203 225 255
202 225 255
202 225 255
202 225 255
202 225 255
202 225 255
198 220 250
185 206 233
169 188 214
169 188 214
158 176 200
158 176 199
153 170 193
153 170 194
154 172 195
158 176 200
162 181 205
176 196 223
188 210 238
198 220 250
202 225 255
202 225 255
202 225 255
202 225 255
202 225 255
203 225 255
203 225 255
203 225 255
203 225 255
203 225 255
203 225 255
203 225 255
203 226 255
203 226 255
203 226 255
203 226 255
204 226 255
204 226 255
204 226 255
204 226 255
204 226 255
204 226 255
204 226 255
204 226 255
204 226 255
205 226 255
205 226 255
205 226 255
205 227 255
205 227 255
205 227 255
205 227 255
206 227 255
206 227 255
206 227 255
206 227 255
206 227 255
206 227 255
206 227 255
206 227 255
207 227 255
207 227 255
207 228 255
207 228 255
207 228 255
207 228 255
207 228 255
207 228 255
208 228 255
208 228 255
208 228 255
208 228 255
208 228 255
208 228 255
208 228 255
208 228 255
209 228 255
209 229 255
209 229 255
209 229 255
209 229 255
209 229 255
209 229 255
209 229 255
209 229 255
209 229 255
210 229 255
210 229 255
210 229 255
210 229 255
210 229 255
210 229 255
210 229 255
210 229 255
210 229 255
210 230 255
211 230 255
211 230 255
211 230 255
211 230 255
211 230 255
211 230 255
211 230 255
211 230 255
211 230 255
211 230 255
211 230 255
211 230 255
212 230 255
212 230 255
212 230 255
212 230 255
212 230 255
212 230 255
212 230 255
212 230 255
212 230 255
212 230 255
212 230 255
212 230 255
212 230 255
212 230 255
211 230 255
211 230 255
211 230 255
211 230 255
211 230 255
211 230 255
211 230 255
211 230 255
211 230 255
211 230 255
211 230 255
211 230 255
210 230 255
210 229 255
210 229 255
210 229 255
210 229 255
210 229 255
210 229 255
210 229 255
210 229 255
210 229 255
210 229 255
209 229 255
209 229 255
209 229 255
209 229 255
209 229 255
209 229 255
209 229 255
209 229 255
209 228 255
208 228 255
208 228 255
208 228 255
208 228 255
208 228 255
208 228 255
208 228 255
208 228 255
207 228 255
207 228 255
207 228 255
207 228 255
207 228 255
207 228 255
207 227 255
207 227 255
206 227 255
206 227 255
206 227 255
206 227 255
206 227 255
206 227 255
206 227 255
206 227 255
205 227 255
205 227 255
205 227 255
205 227 255
205 226 255
205 226 255
205 226 255
205 226 255
204 226 255
204 226 255
204 226 255
204 226 255
204 226 255
204 226 255
204 226 255
204 226 255
204 226 255
203 226 255
203 226 255
203 226 255
203 226 255
203 226 255
203 226 255
203 225 255
202 224 254
192 213 242
172 191 217
151 168 190
143 159 181
143 159 181
141 157 178
143 159 180
142 158 179
143 159 180
143 159 180
142 158 180
142 158 179
143 159 180
142 158 179
142 158 179
143 159 181
142 158 179
150 167 189
169 188 213
186 207 234
202 225 255
203 225 255
203 225 255
203 226 255
203 226 255
203 226 255
203 226 255
203 226 255
204 226 255
204 226 255
204 226 255
204 226 255
204 226 255
204 226 255
204 226 255
204 226 255
204 226 255
205 226 255
205 226 255
205 226 255
205 226 255
205 227 255
205 227 255
205 227 255
205 227 255
206 227 255
206 227 255
206 227 255
206 227 255
206 227 255
206 227 255
206 227 255
206 227 255
207 227 255
207 227 255
207 228 255
207 228 255
207 228 255
207 228 255
207 228 255
207 228 255
208 228 255
208 228 255
208 228 255
208 228 255
208 228 255
208 228 255
208 228 255
208 228 255
209 228 255
209 229 255
209 229 255
209 229 255
209 229 255
209 229 255
209 229 255
209 229 255
209 229 255
209 229 255
210 229 255
210 229 255
210 229 255
210 229 255
210 229 255
210 229 255
210 229 255
210 229 255
210 229 255
210 230 255
211 230 255
211 230 255
211 230 255
211 230 255
211 230 255
211 230 255
211 230 255
211 230 255
211 230 255
211 230 255
211 230 255
211 230 255
212 230 255
212 230 255
212 230 255
212 230 255
212 230 255
212 230 255
212 230 255
212 230 255
212 230 255
212 231 255
212 231 255
212 231 255
212 231 255
212 230 255
212 230 255
212 230 255
212 230 255
212 230 255
212 230 255
212 230 255
212 230 255
212 230 255
212 230 255
211 230 255
211 230 255
211 230 255
211 230 255
211 230 255
211 230 255
211 230 255
211 230 255
211 230 255
211 230 255
211 230 255
210 230 255
210 229 255
210 229 255
210 229 255
210 229 255
210 229 255
210 229 255
210 229 255
210 229 255
210 229 255
209 229 255
209 229 255
209 229 255
209 229 255
209 229 255
209 229 255
209 229 255
209 229 255
209 229 255
208 228 255
208 228 255
208 228 255
208 228 255
208 228 255
208 228 255
208 228 255
208 228 255
208 228 255
207 228 255
207 228 255
207 228 255
207 228 255
207 228 255
207 228 255
207 227 255
207 227 255
206 227 255
206 227 255
206 227 255
206 227 255
206 227 255
206 227 255
206 227 255
206 227 255
205 227 255
205 227 255
205 227 255
205 227 255
205 227 255
205 226 255
205 226 255
205 226 255
205 226 255
204 226 255
204 226 255
204 226 255
204 226 255
204 226 255
204 226 255
204 226 255
204 226 255
204 226 255
203 225 255
174 193 218
149 166 188
143 158 179
142 158 179
143 159 180
143 159 180
143 159 180
142 158 179
141 157 177
142 158 179
142 157 178
139 154 175
142 157 178
142 158 179
142 157 178
142 158 179
143 159 180
141 157 177
141 157 177
143 159 180
141 157 178
143 159 180
149 165 187
177 196 222
201 223 252
204 226 255
204 226 255
204 226 255
204 226 255
204 226 255
204 226 255
204 226 255
204 226 255
204 226 255
204 226 255
205 226 255
205 226 255
205 226 255
205 227 255
205 227 255
205 227 255
205 227 255
205 227 255
206 227 255
206 227 255
206 227 255
206 227 255
206 227 255
206 227 255
206 227 255
206 227 255
207 227 255
207 227 255
207 228 255
207 228 255
207 228 255
207 228 255
207 228 255
207 228 255
208 228 255
208 228 255
208 228 255
208 228 255
208 228 255
208 228 255
208 228 255
208 228 255
208 228 255
209 228 255
209 229 255
209 229 255
209 229 255
209 229 255
209 229 255
209 229 255
209 229 255
209 229 255
210 229 255
210 229 255
210 229 255
210 229 255
210 229 255
210 229 255
210 229 255
210 229 255
210 229 255
210 230 255
211 230 255
211 230 255
211 230 255
211 230 255
211 230 255
211 230 255
211 230 255
211 230 255
211 230 255
211 230 255
211 230 255
212 230 255
212 230 255
212 230 255
212 230 255
212 230 255
212 230 255
212 230 255
212 230 255
212 230 255
212 230 255
212 231 255
212 231 255
212 231 255
212 231 255
213 231 255
213 231 255
213 231 255
213 231 255
213 231 255
212 231 255
212 231 255
212 231 255
212 231 255
212 230 255
212 230 255
212 230 255
212 230 255
212 230 255
212 230 255
212 230 255
212 230 255
212 230 255
211 230 255
211 230 255
211 230 255
211 230 255
211 230 255
211 230 255
211 230 255
211 230 255
211 230 255
211 230 255
211 230 255
210 230 255
210 229 255
210 229 255
210 229 255
210 229 255
210 229 255
210 229 255
210 229 255
210 229 255
210 229 255
209 229 255
209 229 255
209 229 255
209 229 255
209 229 255
209 229 255
209 229 255
209 229 255
209 229 255
208 228 255
208 228 255
208 228 255
208 228 255
208 228 255
208 228 255
208 228 255
208 228 255
208 228 255
207 228 255
207 228 255
207 228 255
207 228 255
207 228 255
207 228 255
207 227 255
207 227 255
206 227 255
206 227 255
206 227 255
206 227 255
206 227 255
206 227 255
206 227 255
206 227 255
205 227 255
205 227 255
205 227 255
205 227 255
205 227 255
205 227 255
205 226 255
205 226 255
205 226 255
205 226 255
204 226 255
204 226 255
203 225 254
180 200 226
145 161 182
143 158 179
144 159 180
143 158 179
143 158 179
143 159 180
142 158 178
141 157 177
142 158 178
141 157 177
142 157 178
142 157 178
142 158 179
142 157 178
141 157 177
142 157 178
142 158 179
143 158 179
141 157 177
143 158 179
141 157 177
141 156 177
142 158 178
143 159 180
143 159 180
149 165 186
177 196 222
199 220 249
204 226 255
204 226 255
205 226 255
205 226 255
205 226 255
205 226 255
205 226 255
205 227 255
205 227 255
205 227 255
205 227 255
205 227 255
206 227 255
206 227 255
206 227 255
206 227 255
206 227 255
206 227 255
206 227 255
206 227 255
207 227 255
207 227 255
207 227 255
207 228 255
207 228 255
207 228 255
207 228 255
207 228 255
207 228 255
208 228 255
208 228 255
208 228 255
208 228 255
208 228 255
208 228 255
208 228 255
208 228 255
209 228 255
209 229 255
209 229 255
209 229 255
209 229 255
209 229 255
209 229 255
209 229 255
209 229 255
210 229 255
210 229 255
210 229 255
210 229 255
210 229 255
210 229 255
210 229 255
210 229 255
210 229 255
210 230 255
211 230 255
211 230 255
211 230 255
211 230 255
211 230 255
211 230 255
211 230 255
211 230 255
211 230 255
211 230 255
211 230 255
212 230 255
212 230 255
212 230 255
212 230 255
212 230 255
212 230 255
212 230 255
212 230 255
212 230 255
212 231 255
212 231 255
212 231 255
212 231 255
213 231 255
213 231 255
213 231 255
213 231 255
213 231 255
213 231 255
213 231 255
213 231 255
213 231 255
213 231 255
213 231 255
213 231 255
213 231 255
213 231 255
212 231 255
212 231 255
212 231 255
212 231 255
212 231 255
212 230 255
212 230 255
212 230 255
212 230 255
212 230 255
212 230 255
212 230 255
212 230 255
211 230 255
211 230 255
211 230 255
211 230 255
211 230 255
211 230 255
211 230 255
211 230 255
211 230 255
211 230 255
211 230 255
210 230 255
210 229 255
210 229 255
210 229 255
210 229 255
210 229 255
210 229 255
210 229 255
210 229 255
210 229 255
209 229 255
209 229 255
209 229 255
209 229 255
209 229 255
209 229 255
209 229 255
209 229 255
209 229 255
208 228 255
208 228 255
208 228 255
208 228 255
208 228 255
208 228 255
208 228 255
208 228 255
207 228 255
207 228 255
207 228 255
207 228 255
207 228 255
207 228 255
207 228 255
207 227 255
207 227 255
206 227 255
206 227 255
206 227 255
206 227 255
206 227 255
206 227 255
206 227 255
206 227 255
206 227 255
205 227 255
205 227 255
205 227 255
205 227 255
205 227 255
205 227 255
187 207 233
152 168 189
143 158 179
144 159 179
143 158 179
143 158 179
142 157 178
142 157 178
141 157 177
142 157 178
142 157 178
142 157 177
140 155 175
141 157 177
143 159 179
143 159 179
141 157 177
142 157 177
141 156 176
143 159 179
143 158 178
143 158 179
143 159 179
142 157 178
143 158 178
142 157 178
143 159 179
142 157 177
144 160 180
144 159 179
151 167 188
182 202 227
205 227 255
205 227 255
205 227 255
205 227 255
205 227 255
205 227 255
206 227 255
206 227 255
206 227 255
206 227 255
206 227 255
206 227 255
206 227 255
206 227 255
206 227 255
207 227 255
207 227 255
207 228 255
207 228 255
207 228 255
207 228 255
207 228 255
207 228 255
208 228 255
208 228 255
208 228 255
208 228 255
208 228 255
208 228 255
208 228 255
208 228 255
208 228 255
209 229 255
209 229 255
209 229 255
209 229 255
209 229 255
209 229 255
209 229 255
209 229 255
209 229 255
210 229 255
210 229 255
210 229 255
210 229 255
210 229 255
210 229 255
210 229 255
210 229 255
210 230 255
210 230 255
211 230 255
211 230 255
211 230 255
211 230 255
211 230 255
211 230 255
211 230 255
211 230 255
211 230 255
211 230 255
211 230 255
212 230 255
212 230 255
212 230 255
212 230 255
212 230 255
212 230 255
212 230 255
212 230 255
212 231 255
212 231 255
212 231 255
212 231 255
212 231 255
213 231 255
213 231 255
213 231 255
213 231 255
213 231 255
213 231 255
213 231 255
213 231 255
213 231 255
213 231 255
213 231 255
213 231 255
213 231 255
213 231 255
213 231 255
213 231 255
213 231 255
213 231 255
213 231 255
213 231 255
213 231 255
213 231 255
213 231 255
212 231 255
212 231 255
212 231 255
212 231 255
212 230 255
212 230 255
212 230 255
212 230 255
212 230 255
212 230 255
212 230 255
212 230 255
212 230 255
211 230 255
211 230 255
211 230 255
211 230 255
211 230 255
211 230 255
211 230 255
211 230 255
211 230 255
211 230 255
211 230 255
210 230 255
210 229 255
210 229 255
210 229 255
210 229 255
210 229 255
210 229 255
210 229 255
210 229 255
209 229 255
209 229 255
209 229 255
209 229 255
209 229 255
209 229 255
209 229 255
209 229 255
209 228 255
208 228 255
208 228 255
208 228 255
208 228 255
208 228 255
208 228 255
208 228 255
208 228 255
208 228 255
207 228 255
207 228 255
207 228 255
207 228 255
207 228 255
207 228 255
207 228 255
207 227 255
207 227 255
206 227 255
206 227 255
206 227 255
206 227 255
206 227 255
206 227 255
206 227 255
206 227 255
202 223 251
167 184 207
144 159 180
143 157 177
144 159 180
142 157 177
143 158 178
143 159 179
142 157 177
143 158 179
142 157 177
142 157 177
142 157 177
142 157 177
142 157 177
141 156 175
142 157 177
141 156 176
141 156 176
143 158 178
142 157 177
141 156 175
142 157 177
143 158 178
143 158 179
141 156 175
143 158 178
142 156 176
143 158 178
143 158 178
142 157 177
144 159 179
143 158 178
143 157 177
167 185 208
202 223 251
206 227 255
206 227 255
206 227 255
206 227 255
206 227 255
206 227 255
206 227 255
206 227 255
207 227 255
207 227 255
207 228 255
207 228 255
207 228 255
207 228 255
207 228 255
207 228 255
207 228 255
208 228 255
208 228 255
208 228 255
208 228 255
208 228 255
208 228 255
208 228 255
208 228 255
208 228 255
209 229 255
209 229 255
209 229 255
209 229 255
209 229 255
209 229 255
209 229 255
209 229 255
209 229 255
210 229 255
210 229 255
210 229 255
210 229 255
210 229 255
210 229 255
210 229 255
210 229 255
210 230 255
211 230 255
211 230 255
211 230 255
211 230 255
211 230 255
211 230 255
211 230 255
211 230 255
211 230 255
211 230 255
211 230 255
212 230 255
212 230 255
212 230 255
212 230 255
212 230 255
212 230 255
212 230 255
212 230 255
212 230 255
212 231 255
212 231 255
212 231 255
213 231 255
213 231 255
213 231 255
213 231 255
213 231 255
213 231 255
213 231 255
213 231 255
213 231 255
213 231 255
213 231 255
213 231 255
213 231 255
213 231 255
213 231 255
214 231 255
214 231 255
214 231 255
214 231 255
214 231 255
213 231 255
213 231 255
213 231 255
213 231 255
213 231 255
213 231 255
213 231 255
213 231 255
213 231 255
213 231 255
213 231 255
213 231 255
213 231 255
213 231 255
212 231 255
212 231 255
212 231 255
212 231 255
212 230 255
212 230 255
212 230 255
212 230 255
212 230 255
212 230 255
212 230 255
212 230 255
211 230 255
211 230 255
211 230 255
211 230 255
211 230 255
211 230 255
211 230 255
211 230 255
211 230 255
211 230 255
211 230 255
210 230 255
210 229 255
210 229 255
210 229 255
210 229 255
210 229 255
210 229 255
210 229 255
210 229 255
210 229 255
209 229 255
209 229 255
209 229 255
209 229 255
209 229 255
209 229 255
209 229 255
209 229 255
209 228 255
208 228 255
208 228 255
208 228 255
208 228 255
208 228 255
208 228 255
208 228 255
208 228 255
208 228 255
207 228 255
207 228 255
207 228 255
207 228 255
207 228 255
207 228 255
207 228 255
207 227 255
207 227 255
207 227 255
206 227 255
197 217 244
151 166 187
143 158 178
143 157 177
143 157 177
143 158 178
143 158 177
142 157 176
143 158 177
143 158 178
140 155 175
143 158 178
142 157 176
142 156 176
141 155 175
144 159 179
141 156 175
143 158 178
141 156 175
142 157 176
143 158 178
141 156 176
143 157 177
141 155 175
140 155 174
142 157 176
143 157 177
143 157 177
142 156 176
142 157 176
143 158 178
144 159 179
142 157 176
141 156 175
144 158 178
145 159 179
150 165 185
196 216 243
206 227 255
207 227 255
207 227 255
207 227 255
207 228 255
207 228 255
207 228 255
207 228 255
207 228 255
207 228 255
207 228 255
208 228 255
208 228 255
208 228 255
208 228 255
208 228 255
208 228 255
208 228 255
208 228 255
208 228 255
209 228 255
209 229 255
209 229 255
209 229 255
209 229 255
209 229 255
209 229 255
209 229 255
209 229 255
210 229 255
210 229 255
210 229 255
210 229 255
210 229 255
210 229 255
210 229 255
210 229 255
210 229 255
210 230 255
211 230 255
211 230 255
211 230 255
211 230 255
211 230 255
211 230 255
211 230 255
211 230 255
211 230 255
211 230 255
212 230 255
212 230 255
212 230 255
212 230 255
212 230 255
212 230 255
212 230 255
212 230 255
212 230 255
212 231 255
212 231 255
212 231 255
212 231 255
213 231 255
213 231 255
213 231 255
213 231 255
213 231 255
213 231 255
213 231 255
213 231 255
213 231 255
213 231 255
213 231 255
213 231 255
213 231 255
213 231 255
214 231 255
214 231 255
214 231 255
214 231 255
214 231 255
214 232 255
214 232 255
214 231 255
214 231 255
214 231 255
214 231 255
214 231 255
214 231 255
214 231 255
214 231 255
213 231 255
213 231 255
213 231 255
213 231 255
213 231 255
213 231 255
213 231 255
213 231 255
213 231 255
213 231 255
213 231 255
213 231 255
213 231 255
213 231 255
212 231 255
212 231 255
212 231 255
212 231 255
212 230 255
212 230 255
212 230 255
212 230 255
212 230 255
212 230 255
212 230 255
212 230 255
211 230 255
211 230 255
211 230 255
211 230 255
211 230 255
211 230 255
211 230 255
211 230 255
211 230 255
211 230 255
211 230 255
210 230 255
210 229 255
210 229 255
210 229 255
210 229 255
210 229 255
210 229 255
210 229 255
210 229 255
209 229 255
209 229 255
209 229 255
209 229 255
209 229 255
209 229 255
209 229 255
209 229 255
209 229 255
209 228 255
208 228 255
208 228 255
208 228 255
208 228 255
208 228 255
208 228 255
208 228 255
208 228 255
208 228 255
207 228 255
207 228 255
207 228 255
207 228 255
207 228 255
191 210 236
146 160 180
145 159 179
143 158 177
143 157 177
140 154 173
142 156 175
142 157 176
142 157 176
143 158 177
143 158 177
141 155 174
142 156 175
142 156 176
141 155 175
140 154 174
142 156 176
140 155 174
143 157 177
141 156 175
143 157 177
142 156 176
145 160 180
143 158 178
143 158 177
143 158 177
139 153 172
143 158 177
142 156 176
142 156 176
144 159 178
142 156 175
144 159 178
143 157 177
144 158 178
143 157 177
145 159 179
145 159 179
148 163 183
191 210 236
207 228 255
207 228 255
207 228 255
207 228 255
207 228 255
208 228 255
208 228 255
208 228 255
208 228 255
208 228 255
208 228 255
208 228 255
208 228 255
208 228 255
208 228 255
209 229 255
209 229 255
209 229 255
209 229 255
209 229 255
209 229 255
209 229 255
209 229 255
210 229 255
210 229 255
210 229 255
210 229 255
210 229 255
210 229 255
210 229 255
210 229 255
210 229 255
210 230 255
211 230 255
211 230 255
211 230 255
211 230 255
211 230 255
211 230 255
211 230 255
211 230 255
211 230 255
211 230 255
211 230 255
212 230 255
212 230 255
212 230 255
212 230 255
212 230 255
212 230 255
212 230 255
212 230 255
212 231 255
212 231 255
212 231 255
212 231 255
213 231 255
213 231 255
213 231 255
213 231 255
213 231 255
213 231 255
213 231 255
213 231 255
213 231 255
213 231 255
213 231 255
213 231 255
213 231 255
213 231 255
214 231 255
214 231 255
214 231 255
214 231 255
214 231 255
214 231 255
214 231 255
214 231 255
214 231 255
214 232 255
214 232 255
214 232 255
214 232 255
214 232 255
214 232 255
214 232 255
214 232 255
214 231 255
214 231 255
214 231 255
214 231 255
214 231 255
214 231 255
214 231 255
214 231 255
214 231 255
213 231 255
213 231 255
213 231 255
213 231 255
213 231 255
213 231 255
213 231 255
213 231 255
213 231 255
213 231 255
213 231 255
213 231 255
213 231 255
213 231 255
212 231 255
212 231 255
212 231 255
212 230 255
212 230 255
212 230 255
212 230 255
212 230 255
212 230 255
212 230 255
212 230 255
211 230 255
211 230 255
211 230 255
211 230 255
211 230 255
211 230 255
211 230 255
211 230 255
211 230 255
211 230 255
211 230 255
210 229 255
210 229 255
210 229 255
210 229 255
210 229 255
210 229 255
210 229 255
210 229 255
210 229 255
209 229 255
209 229 255
209 229 255
209 229 255
209 229 255
209 229 255
209 229 255
209 229 255
209 229 255
209 228 255
208 228 255
208 228 255
208 228 255
208 228 255
208 228 255
208 228 255
208 228 255
208 228 255
190 209 234
146 160 179
144 158 177
143 157 176
144 159 178
143 157 176
143 157 176
142 156 175
143 157 176
141 155 174
142 156 175
141 155 174
144 158 177
141 155 174
141 155 175
142 157 176
139 153 172
143 157 176
142 156 175
142 156 175
141 155 174
140 155 174
140 155 174
142 156 175
142 156 175
142 156 175
142 157 176
143 157 177
142 156 175
143 157 176
142 156 175
141 155 174
141 156 175
141 156 175
143 157 176
141 155 174
145 159 179
143 157 176
144 159 178
144 158 177
144 158 177
191 210 236
208 228 255
208 228 255
208 228 255
208 228 255
208 228 255
208 228 255
208 228 255
208 228 255
209 228 255
209 229 255
209 229 255
209 229 255
209 229 255
209 229 255
209 229 255
209 229 255
209 229 255
209 229 255
210 229 255
210 229 255
210 229 255
210 229 255
210 229 255
210 229 255
210 229 255
210 229 255
210 229 255
211 230 255
211 230 255
211 230 255
211 230 255
211 230 255
211 230 255
211 230 255
211 230 255
211 230 255
211 230 255
211 230 255
212 230 255
212 230 255
212 230 255
212 230 255
212 230 255
212 230 255
212 230 255
212 230 255
212 231 255
212 231 255
212 231 255
212 231 255
213 231 255
213 231 255
213 231 255
213 231 255
213 231 255
213 231 255
213 231 255
213 231 255
213 231 255
213 231 255
213 231 255
213 231 255
213 231 255
214 231 255
214 231 255
214 231 255
214 231 255
214 231 255
214 231 255
214 231 255
214 231 255
214 232 255
214 232 255
214 232 255
214 232 255
214 232 255
214 232 255
214 232 255
214 232 255
215 232 255
215 232 255
215 232 255
215 232 255
215 232 255
214 232 255
214 232 255
214 232 255
214 232 255
214 232 255
214 232 255
214 232 255
214 232 255
214 231 255
214 231 255
214 231 255
214 231 255
214 231 255
214 231 255
214 231 255
214 231 255
213 231 255
213 231 255
213 231 255
213 231 255
213 231 255
213 231 255
213 231 255
213 231 255
213 231 255
213 231 255
213 231 255
213 231 255
213 231 255
213 231 255
212 231 255
212 231 255
212 231 255
212 230 255
212 230 255
212 230 255
212 230 255
212 230 255
212 230 255
212 230 255
212 230 255
211 230 255
211 230 255
211 230 255
211 230 255
211 230 255
211 230 255
211 230 255
211 230 255
211 230 255
211 230 255
211 230 255
210 229 255
210 229 255
210 229 255
210 229 255
210 229 255
210 229 255
210 229 255
210 229 255
210 229 255
209 229 255
209 229 255
209 229 255
209 229 255
209 229 255
209 229 255
209 229 255
209 229 255
209 229 255
209 229 255
209 228 255
208 228 255
192 210 235
147 161 180
144 158 177
143 157 175
143 157 176
142 155 174
145 159 178
143 157 176
142 156 175
143 157 175
141 155 174
145 159 179
141 155 174
141 155 174
140 154 173
141 155 174
142 156 175
142 156 175
142 156 175
142 156 175
143 157 176
141 155 174
143 157 176
141 155 174
140 154 173
143 157 176
144 158 177
140 154 173
143 157 176
143 157 176
142 157 175
142 157 175
143 157 176
141 155 174
142 155 174
144 158 177
143 157 175
143 157 175
142 156 175
142 156 174
144 158 177
142 156 174
144 158 176
188 206 231
208 228 255
209 228 255
209 229 255
209 229 255
209 229 255
209 229 255
209 229 255
209 229 255
209 229 255
209 229 255
209 229 255
209 229 255
210 229 255
210 229 255
210 229 255
210 229 255
210 229 255
210 229 255
210 229 255
210 229 255
210 229 255
210 230 255
211 230 255
211 230 255
211 230 255
211 230 255
211 230 255
211 230 255
211 230 255
211 230 255
211 230 255
211 230 255
212 230 255
212 230 255
212 230 255
212 230 255
212 230 255
212 230 255
212 230 255
212 230 255
212 231 255
212 231 255
212 231 255
213 231 255
213 231 255
213 231 255
213 231 255
213 231 255
213 231 255
213 231 255
213 231 255
213 231 255
213 231 255
213 231 255
213 231 255
213 231 255
213 231 255
214 231 255
214 231 255
214 231 255
214 231 255
214 231 255
214 231 255
214 231 255
214 231 255
214 232 255
214 232 255
214 232 255
214 232 255
214 232 255
214 232 255
214 232 255
214 232 255
215 232 255
215 232 255
215 232 255
215 232 255
215 232 255
215 232 255
215 232 255
215 232 255
215 232 255
215 232 255
215 232 255
215 232 255
215 232 255
215 232 255
215 232 255
215 232 255
214 232 255
214 232 255
214 232 255
214 232 255
214 232 255
214 232 255
214 232 255
214 232 255
214 231 255
214 231 255
214 231 255
214 231 255
214 231 255
214 231 255
214 231 255
214 231 255
213 231 255
213 231 255
213 231 255
213 231 255
213 231 255
213 231 255
213 231 255
213 231 255
213 231 255
213 231 255
213 231 255
213 231 255
213 231 255
212 231 255
212 231 255
212 231 255
212 231 255
212 230 255
212 230 255
212 230 255
212 230 255
212 230 255
212 230 255
212 230 255
212 230 255
211 230 255
211 230 255
211 230 255
211 230 255
211 230 255
211 230 255
211 230 255
211 230 255
211 230 255
211 230 255
210 230 255
210 229 255
210 229 255
210 229 255
210 229 255
210 229 255
210 229 255
210 229 255
210 229 255
210 229 255
210 229 255
209 229 255
209 229 255
209 229 255
209 229 255
196 215 240
145 159 178
143 157 175
146 159 178
143 157 175
142 156 175
145 159 178
144 158 177
139 153 171
142 155 174
141 155 173
140 153 172
143 157 175
141 155 174
142 156 175
142 155 174
141 155 173
139 152 171
142 155 174
139 152 171
143 157 175
141 155 174
144 158 177
141 155 174
144 158 177
141 154 173
140 154 172
139 153 171
139 152 171
141 155 173
142 155 174
140 153 172
142 156 175
144 158 177
143 156 175
143 157 176
143 157 176
143 157 176
144 157 176
143 156 175
142 155 174
143 157 175
146 159 178
142 156 174
146 160 179
197 216 241
209 229 255
209 229 255
209 229 255
209 229 255
210 229 255
210 229 255
210 229 255
210 229 255
210 229 255
210 229 255
210 229 255
210 229 255
210 229 255
210 229 255
210 230 255
211 230 255
211 230 255
211 230 255
211 230 255
211 230 255
211 230 255
211 230 255
211 230 255
211 230 255
211 230 255
212 230 255
212 230 255
212 230 255
212 230 255
212 230 255
212 230 255
212 230 255
212 230 255
212 231 255
212 231 255
212 231 255
212 231 255
213 231 255
213 231 255
213 231 255
213 231 255
213 231 255
213 231 255
213 231 255
213 231 255
213 231 255
213 231 255
213 231 255
213 231 255
213 231 255
214 231 255
214 231 255
214 231 255
214 231 255
214 231 255
214 231 255
214 231 255
214 231 255
214 232 255
214 232 255
214 232 255
214 232 255
214 232 255
214 232 255
214 232 255
214 232 255
215 232 255
215 232 255
215 232 255
215 232 255
215 232 255
215 232 255
215 232 255
215 232 255
215 232 255
215 232 255
215 232 255
215 232 255
215 232 255
215 232 255
215 232 255
215 232 255
215 232 255
215 232 255
215 232 255
215 232 255
215 232 255
215 232 255
215 232 255
215 232 255
215 232 255
215 232 255
215 232 255
215 232 255
215 232 255
214 232 255
214 232 255
214 232 255
214 232 255
214 232 255
214 232 255
214 232 255
214 231 255
214 231 255
214 231 255
214 231 255
214 231 255
214 231 255
214 231 255
214 231 255
213 231 255
213 231 255
213 231 255
213 231 255
213 231 255
213 231 255
213 231 255
213 231 255
213 231 255
213 231 255
213 231 255
213 231 255
213 231 255
212 231 255
212 231 255
212 231 255
212 230 255
212 230 255
212 230 255
212 230 255
212 230 255
212 230 255
212 230 255
212 230 255
211 230 255
211 230 255
211 230 255
211 230 255
211 230 255
211 230 255
211 230 255
211 230 255
211 230 255
211 230 255
211 230 255
210 230 255
210 229 255
210 229 255
210 229 255
210 229 255
210 229 255
210 229 255
210 229 255
204 223 249
151 165 184
144 157 175
142 156 174
142 156 174
142 156 174
145 159 177
141 154 172
140 153 171
141 155 173
142 155 174
141 154 172
142 156 174
142 156 174
143 157 175
143 157 175
141 154 173
141 155 173
142 156 174
141 154 172
143 156 175
139 153 171
142 156 175
141 154 173
142 155 174
141 155 173
141 155 173
143 156 175
143 157 175
141 154 172
143 157 175
142 156 174
143 157 175
141 154 172
138 152 169
142 155 174
143 157 175
144 157 175
143 156 175
141 154 172
143 157 175
145 158 177
143 156 175
145 159 177
143 156 175
145 158 176
151 165 184
205 224 250
210 229 255
210 229 255
210 229 255
210 229 255
210 229 255
210 229 255
210 229 255
210 230 255
211 230 255
211 230 255
211 230 255
211 230 255
211 230 255
211 230 255
211 230 255
211 230 255
211 230 255
211 230 255
211 230 255
212 230 255
212 230 255
212 230 255
212 230 255
212 230 255
212 230 255
212 230 255
212 230 255
212 231 255
212 231 255
212 231 255
213 231 255
213 231 255
213 231 255
213 231 255
213 231 255
213 231 255
213 231 255
213 231 255
213 231 255
213 231 255
213 231 255
213 231 255
213 231 255
214 231 255
214 231 255
214 231 255
214 231 255
214 231 255
214 231 255
214 231 255
214 231 255
214 232 255
214 232 255
214 232 255
214 232 255
214 232 255
214 232 255
214 232 255
215 232 255
215 232 255
215 232 255
215 232 255
215 232 255
215 232 255
215 232 255
215 232 255
215 232 255
215 232 255
215 232 255
215 232 255
215 232 255
215 232 255
215 232 255
215 232 255
215 232 255
215 232 255
216 232 255
216 232 255
216 232 255
216 232 255
216 232 255
215 232 255
215 232 255
215 232 255
215 232 255
215 232 255
215 232 255
215 232 255
215 232 255
215 232 255
215 232 255
215 232 255
215 232 255
215 232 255
215 232 255
215 232 255
215 232 255
215 232 255
215 232 255
215 232 255
214 232 255
214 232 255
214 232 255
214 232 255
214 232 255
214 232 255
214 232 255
214 231 255
214 231 255
214 231 255
214 231 255
214 231 255
214 231 255
214 231 255
214 231 255
213 231 255
213 231 255
213 231 255
213 231 255
213 231 255
213 231 255
213 231 255
213 231 255
213 231 255
213 231 255
213 231 255
213 231 255
213 231 255
212 231 255
212 231 255
212 230 255
212 230 255
212 230 255
212 230 255
212 230 255
212 230 255
212 230 255
212 230 255
212 230 255
211 230 255
211 230 255
211 230 255
211 230 255
211 230 255
211 230 255
211 230 255
211 230 255
211 230 255
211 230 255
211 230 255
211 230 255
210 230 255
168 183 204
145 158 176
144 158 175
144 157 175
143 157 175
142 155 173
144 157 175
143 156 174
142 155 173
144 157 175
142 155 173
142 156 174
141 154 172
140 153 171
142 156 174
142 156 174
142 156 174
142 155 173
143 157 175
141 154 172
142 155 173
142 156 174
142 155 173
143 156 175
142 155 174
141 154 172
142 156 174
141 154 172
142 156 174
140 154 171
141 154 172
142 155 173
144 158 176
142 155 173
143 156 174
145 158 176
141 154 172
142 155 173
142 155 173
144 158 176
143 156 174
142 155 173
142 155 173
143 156 174
146 159 177
144 158 175
143 156 174
167 183 203
210 229 255
211 230 255
211 230 255
211 230 255
211 230 255
211 230 255
211 230 255
211 230 255
211 230 255
211 230 255
211 230 255
211 230 255
211 230 255
212 230 255
212 230 255
212 230 255
212 230 255
212 230 255
212 230 255
212 230 255
212 230 255
212 231 255
212 231 255
212 231 255
213 231 255
213 231 255
213 231 255
213 231 255
213 231 255
213 231 255
213 231 255
213 231 255
213 231 255
213 231 255
213 231 255
213 231 255
213 231 255
214 231 255
214 231 255
214 231 255
214 231 255
214 231 255
214 231 255
214 231 255
214 232 255
214 232 255
214 232 255
214 232 255
214 232 255
214 232 255
214 232 255
214 232 255
215 232 255
215 232 255
215 232 255
215 232 255
215 232 255
215 232 255
215 232 255
215 232 255
215 232 255
215 232 255
215 232 255
215 232 255
215 232 255
215 232 255
215 232 255
215 232 255
215 232 255
215 232 255
215 232 255
216 232 255
216 232 255
216 232 255
216 232 255
216 232 255
216 233 255
216 233 255
216 233 255
216 233 255
216 233 255
216 233 255
216 232 255
216 232 255
216 232 255
216 232 255
216 232 255
216 232 255
216 232 255
215 232 255
215 232 255
215 232 255
215 232 255
215 232 255
215 232 255
215 232 255
215 232 255
215 232 255
215 232 255
215 232 255
215 232 255
215 232 255
215 232 255
215 232 255
215 232 255
215 232 255
215 232 255
214 232 255
214 232 255
214 232 255
214 232 255
214 232 255
214 232 255
214 232 255
214 231 255
214 231 255
214 231 255
214 231 255
214 231 255
214 231 255
214 231 255
213 231 255
213 231 255
213 231 255
213 231 255
213 231 255
213 231 255
213 231 255
213 231 255
213 231 255
213 231 255
213 231 255
213 231 255
213 231 255
212 231 255
212 231 255
212 231 255
212 230 255
212 230 255
212 230 255
212 230 255
212 230 255
212 230 255
212 230 255
212 230 255
212 230 255
211 230 255
211 230 255
211 230 255
211 230 255
211 230 255
186 202 225
144 157 175
143 156 173
144 157 175
142 155 172
141 154 171
141 153 171
144 157 175
142 155 173
143 156 173
141 154 172
141 154 171
140 153 171
140 153 170
144 157 175
140 152 170
142 155 173
140 152 170
142 155 172
139 152 169
139 151 169
144 157 175
144 157 175
143 156 174
141 154 172
141 154 172
143 156 174
141 154 171
143 156 174
141 154 171
141 154 171
143 156 174
139 152 169
142 155 172
142 155 172
141 154 171
140 153 171
141 154 172
141 154 171
143 156 174
141 154 172
141 154 172
141 154 172
142 154 172
140 153 170
145 158 175
142 155 173
144 157 175
141 154 171
190 207 230
211 230 255
211 230 255
211 230 255
211 230 255
211 230 255
212 230 255
212 230 255
212 230 255
212 230 255
212 230 255
212 230 255
212 230 255
212 230 255
212 231 255
212 231 255
212 231 255
212 231 255
213 231 255
213 231 255
213 231 255
213 231 255
213 231 255
213 231 255
213 231 255
213 231 255
213 231 255
213 231 255
213 231 255
213 231 255
214 231 255
214 231 255
214 231 255
214 231 255
214 231 255
214 231 255
214 231 255
214 231 255
214 232 255
214 232 255
214 232 255
214 232 255
214 232 255
214 232 255
214 232 255
215 232 255
215 232 255
215 232 255
215 232 255
215 232 255
215 232 255
215 232 255
215 232 255
215 232 255
215 232 255
215 232 255
215 232 255
215 232 255
215 232 255
215 232 255
215 232 255
215 232 255
215 232 255
215 232 255
216 232 255
216 232 255
216 232 255
216 232 255
216 232 255
216 232 255
216 233 255
216 233 255
216 233 255
216 233 255
216 233 255
216 233 255
216 233 255
216 233 255
216 233 255
216 233 255
216 233 255
216 233 255
216 233 255
216 233 255
216 233 255
216 233 255
216 233 255
216 233 255
216 233 255
216 233 255
216 232 255
216 232 255
216 232 255
216 232 255
216 232 255
216 232 255
215 232 255
215 232 255
215 232 255
215 232 255
215 232 255
215 232 255
215 232 255
215 232 255
215 232 255
215 232 255
215 232 255
215 232 255
215 232 255
215 232 255
215 232 255
215 232 255
215 232 255
214 232 255
214 232 255
214 232 255
214 232 255
214 232 255
214 232 255
214 232 255
214 231 255
214 231 255
214 231 255
214 231 255
214 231 255
214 231 255
214 231 255
214 231 255
213 231 255
213 231 255
213 231 255
213 231 255
213 231 255
213 231 255
213 231 255
213 231 255
213 231 255
213 231 255
213 231 255
213 231 255
213 231 255
212 231 255
212 231 255
212 231 255
212 230 255
212 230 255
212 230 255
212 230 255
212 230 255
212 230 255
209 227 252
153 166 185
145 158 175
142 155 172
145 158 175
144 157 175
144 157 174
142 155 172
142 154 171
142 155 172
143 156 174
143 155 173
141 154 171
144 157 175
141 154 171
142 155 173
141 154 171
144 157 175
143 156 173
144 156 174
143 156 173
140 153 170
141 154 171
141 154 171
140 153 170
142 155 172
141 154 171
141 154 171
142 154 172
139 151 168
143 156 174
142 155 172
140 152 169
141 154 171
138 151 168
145 158 175
142 155 172
142 154 172
143 155 173
141 154 171
143 156 173
141 153 170
144 157 174
145 157 175
144 157 174
142 155 172
142 154 171
144 156 174
142 155 172
144 157 174
150 163 181
206 224 249
212 230 255
212 230 255
212 230 255
212 230 255
212 230 255
212 231 255
212 231 255
212 231 255
212 231 255
213 231 255
213 231 255
213 231 255
213 231 255
213 231 255
213 231 255
213 231 255
213 231 255
213 231 255
213 231 255
213 231 255
213 231 255
213 231 255
214 231 255
214 231 255
214 231 255
214 231 255
214 231 255
214 231 255
214 231 255
214 232 255
214 232 255
214 232 255
214 232 255
214 232 255
214 232 255
214 232 255
214 232 255
215 232 255
215 232 255
215 232 255
215 232 255
215 232 255
215 232 255
215 232 255
215 232 255
215 232 255
215 232 255
215 232 255
215 232 255
215 232 255
215 232 255
215 232 255
215 232 255
215 232 255
216 232 255
216 232 255
216 232 255
216 232 255
216 232 255
216 232 255
216 233 255
216 233 255
216 233 255
216 233 255
216 233 255
216 233 255
216 233 255
216 233 255
216 233 255
216 233 255
216 233 255
216 233 255
216 233 255
216 233 255
217 233 255
217 233 255
217 233 255
217 233 255
217 233 255
217 233 255
216 233 255
216 233 255
216 233 255
216 233 255
216 233 255
216 233 255
216 233 255
216 233 255
216 233 255
216 233 255
216 233 255
216 233 255
216 233 255
216 233 255
216 233 255
216 233 255
216 232 255
216 232 255
216 232 255
216 232 255
216 232 255
216 232 255
215 232 255
215 232 255
215 232 255
215 232 255
215 232 255
215 232 255
215 232 255
215 232 255
215 232 255
215 232 255
215 232 255
215 232 255
215 232 255
215 232 255
215 232 255
215 232 255
215 232 255
214 232 255
214 232 255
214 232 255
214 232 255
214 232 255
214 232 255
214 232 255
214 231 255
214 231 255
214 231 255
214 231 255
214 231 255
214 231 255
214 231 255
213 231 255
213 231 255
213 231 255
213 231 255
213 231 255
213 231 255
213 231 255
213 231 255
213 231 255
213 231 255
213 231 255
213 231 255
213 231 255
213 231 255
212 231 255
176 191 211
146 158 175
143 155 172
143 156 173
143 155 172
144 156 173
141 154 170
143 155 172
145 158 175
140 153 169
143 156 173
139 151 168
143 156 173
139 152 168
141 153 170
143 156 173
143 155 172
141 154 171
141 154 171
139 152 168
142 155 172
141 154 171
138 151 167
142 155 172
142 155 172
142 155 172
142 155 172
142 154 171
139 152 168
140 152 169
142 154 171
141 154 171
141 153 170
140 153 170
140 152 169
140 152 169
139 152 168
139 152 168
144 156 174
141 154 171
139 152 168
141 153 170
142 155 172
142 155 172
142 155 172
141 153 170
142 155 172
142 154 171
145 157 174
143 155 172
143 155 172
182 198 219
212 231 255
213 231 255
213 231 255
213 231 255
213 231 255
213 231 255
213 231 255
213 231 255
213 231 255
213 231 255
213 231 255
213 231 255
213 231 255
213 231 255
213 231 255
214 231 255
214 231 255
214 231 255
214 231 255
214 231 255
214 231 255
214 231 255
214 232 255
214 232 255
214 232 255
214 232 255
214 232 255
214 232 255
214 232 255
215 232 255
215 232 255
215 232 255
215 232 255
215 232 255
215 232 255
215 232 255
215 232 255
215 232 255
215 232 255
215 232 255
215 232 255
215 232 255
215 232 255
215 232 255
215 232 255
215 232 255
216 232 255
216 232 255
216 232 255
216 232 255
216 232 255
216 232 255
216 233 255
216 233 255
216 233 255
216 233 255
216 233 255
216 233 255
216 233 255
216 233 255
216 233 255
216 233 255
216 233 255
216 233 255
216 233 255
216 233 255
216 233 255
216 233 255
217 233 255
217 233 255
217 233 255
217 233 255
217 233 255
217 233 255
217 233 255
217 233 255
217 233 255
217 233 255
217 233 255
217 233 255
217 233 255
217 233 255
217 233 255
217 233 255
217 233 255
217 233 255
217 233 255
217 233 255
217 233 255
216 233 255
216 233 255
216 233 255
216 233 255
216 233 255
216 233 255
216 233 255
216 233 255
216 233 255
216 233 255
216 233 255
216 233 255
216 233 255
216 233 255
216 233 255
216 232 255
216 232 255
216 232 255
216 232 255
216 232 255
216 232 255
215 232 255
215 232 255
215 232 255
215 232 255
215 232 255
215 232 255
215 232 255
215 232 255
215 232 255
215 232 255
215 232 255
215 232 255
215 232 255
215 232 255
215 232 255
215 232 255
214 232 255
214 232 255
214 232 255
214 232 255
214 232 255
214 232 255
214 232 255
214 231 255
214 231 255
214 231 255
214 231 255
214 231 255
214 231 255
214 231 255
214 231 255
213 231 255
213 231 255
213 231 255
213 231 255
213 231 255
213 231 255
208 225 249
148 161 178
141 153 169
145 157 174
141 153 169
141 153 169
145 158 175
142 154 171
141 153 169
144 156 173
142 154 170
140 152 169
141 153 170
143 155 172
140 152 168
139 151 167
143 155 172
141 153 169
139 151 167
141 153 169
140 152 168
141 153 169
141 154 170
141 154 170
141 153 169
143 156 173
142 154 171
142 154 171
137 149 165
140 152 168
142 154 171
142 154 171
141 153 170
138 150 166
141 154 170
142 154 171
141 154 170
141 154 170
139 151 168
143 155 172
141 153 170
140 152 168
141 153 169
141 153 170
139 151 167
140 152 169
141 153 169
143 155 172
144 156 173
143 156 172
143 155 171
143 155 172
149 161 178
211 229 253
213 231 255
213 231 255
213 231 255
213 231 255
213 231 255
213 231 255
214 231 255
214 231 255
214 231 255
214 231 255
214 231 255
214 231 255
214 231 255
214 232 255
214 232 255
214 232 255
214 232 255
214 232 255
214 232 255
214 232 255
215 232 255
215 232 255
215 232 255
215 232 255
215 232 255
215 232 255
215 232 255
215 232 255
215 232 255
215 232 255
215 232 255
215 232 255
215 232 255
215 232 255
215 232 255
215 232 255
215 232 255
216 232 255
216 232 255
216 232 255
216 232 255
216 232 255
216 232 255
216 233 255
216 233 255
216 233 255
216 233 255
216 233 255
216 233 255
216 233 255
216 233 255
216 233 255
216 233 255
216 233 255
216 233 255
216 233 255
216 233 255
216 233 255
217 233 255
217 233 255
217 233 255
217 233 255
217 233 255
217 233 255
217 233 255
217 233 255
217 233 255
217 233 255
217 233 255
217 233 255
217 233 255
217 233 255
217 233 255
217 233 255
217 233 255
217 233 255
217 233 255
217 233 255
217 233 255
217 233 255
217 233 255
217 233 255
217 233 255
217 233 255
217 233 255
217 233 255
217 233 255
217 233 255
217 233 255
217 233 255
217 233 255
217 233 255
217 233 255
217 233 255
217 233 255
217 233 255
217 233 255
217 233 255
216 233 255
216 233 255
216 233 255
216 233 255
216 233 255
216 233 255
216 233 255
216 233 255
216 233 255
216 233 255
216 233 255
216 233 255
216 233 255
216 233 255
216 232 255
216 232 255
216 232 255
216 232 255
216 232 255
215 232 255
215 232 255
215 232 255
215 232 255
215 232 255
215 232 255
215 232 255
215 232 255
215 232 255
215 232 255
215 232 255
215 232 255
215 232 255
215 232 255
215 232 255
215 232 255
215 232 255
214 232 255
214 232 255
214 232 255
214 232 255
214 232 255
214 232 255
214 232 255
214 231 255
214 231 255
214 231 255
214 231 255
214 231 255
187 203 224
144 155 172
146 158 175
145 157 173
143 154 171
140 152 168
140 152 168
142 154 170
143 155 171
142 154 170
142 154 171
140 152 168
141 153 169
140 151 167
140 152 168
140 152 168
143 156 172
140 152 168
138 150 166
140 152 168
142 154 171
140 152 168
139 151 167
143 155 171
141 153 170
145 157 174
143 155 171
141 153 169
139 151 167
141 153 170
142 154 170
140 152 168
141 153 169
139 151 167
141 153 169
140 152 168
143 155 171
139 151 167
142 154 171
144 156 173
140 152 168
139 151 167
139 151 167
144 156 172
146 158 175
144 157 173
144 156 173
143 154 171
144 156 173
141 153 169
143 155 171
145 157 173
143 155 171
187 202 223
214 231 255
214 231 255
214 231 255
214 231 255
214 232 255
214 232 255
214 232 255
214 232 255
214 232 255
214 232 255
214 232 255
214 232 255
215 232 255
215 232 255
215 232 255
215 232 255
215 232 255
215 232 255
215 232 255
215 232 255
215 232 255
215 232 255
215 232 255
215 232 255
215 232 255
215 232 255
215 232 255
215 232 255
215 232 255
216 232 255
216 232 255
216 232 255
216 232 255
216 232 255
216 232 255
216 233 255
216 233 255
216 233 255
216 233 255
216 233 255
216 233 255
216 233 255
216 233 255
216 233 255
216 233 255
216 233 255
216 233 255
216 233 255
216 233 255
217 233 255
217 233 255
217 233 255
217 233 255
217 233 255
217 233 255
217 233 255
217 233 255
217 233 255
217 233 255
217 233 255
217 233 255
217 233 255
217 233 255
217 233 255
217 233 255
217 233 255
217 233 255
217 233 255
217 233 255
217 233 255
217 233 255
217 233 255
217 233 255
218 234 255
218 234 255
218 234 255
218 234 255
218 233 255
218 233 255
218 233 255
217 233 255
217 233 255
217 233 255
217 233 255
217 233 255
217 233 255
217 233 255
217 233 255
217 233 255
217 233 255
217 233 255
217 233 255
217 233 255
217 233 255
217 233 255
217 233 255
217 233 255
217 233 255
217 233 255
217 233 255
217 233 255
217 233 255
217 233 255
217 233 255
217 233 255
217 233 255
217 233 255
216 233 255
216 233 255
216 233 255
216 233 255
216 233 255
216 233 255
216 233 255
216 233 255
216 233 255
216 233 255
216 233 255
216 233 255
216 233 255
216 233 255
216 232 255
216 232 255
216 232 255
216 232 255
216 232 255
216 232 255
215 232 255
215 232 255
215 232 255
215 232 255
215 232 255
215 232 255
215 232 255
215 232 255
215 232 255
215 232 255
215 232 255
215 232 255
215 232 255
215 232 255
215 232 255
215 232 255
215 232 255
214 232 255
214 231 255
153 165 182
143 155 171
142 153 169
145 157 173
144 156 172
141 153 169
144 156 172
142 154 170
143 154 170
142 154 170
143 155 171
141 153 168
142 153 169
144 155 172
140 151 167
142 154 170
139 150 166
143 155 171
139 151 166
142 154 170
140 152 168
142 154 170
141 153 169
143 155 172
138 149 165
141 153 169
140 152 168
141 153 169
139 151 167
140 151 167
142 154 170
141 153 169
140 151 167
142 154 170
140 151 167
142 154 170
143 154 171
142 154 170
142 154 170
138 150 165
146 158 175
144 156 173
143 155 171
144 155 172
140 152 167
141 152 168
140 151 167
138 149 165
143 155 171
143 155 171
142 153 169
143 154 170
142 154 169
150 162 179
214 231 255
214 232 255
215 232 255
215 232 255
215 232 255
215 232 255
215 232 255
215 232 255
215 232 255
215 232 255
215 232 255
215 232 255
215 232 255
215 232 255
215 232 255
215 232 255
215 232 255
215 232 255
215 232 255
216 232 255
216 232 255
216 232 255
216 232 255
216 232 255
216 232 255
216 232 255
216 233 255
216 233 255
216 233 255
216 233 255
216 233 255
216 233 255
216 233 255
216 233 255
216 233 255
216 233 255
216 233 255
216 233 255
216 233 255
217 233 255
217 233 255
217 233 255
217 233 255
217 233 255
217 233 255
217 233 255
217 233 255
217 233 255
217 233 255
217 233 255
217 233 255
217 233 255
217 233 255
217 233 255
217 233 255
217 233 255
217 233 255
217 233 255
217 233 255
217 233 255
217 233 255
217 233 255
217 233 255
217 233 255
217 233 255
217 233 255
218 233 255
218 233 255
218 233 255
218 233 255
218 234 255
218 234 255
218 234 255
218 234 255
218 234 255
218 234 255
218 234 255
218 234 255
218 234 255
218 234 255
218 234 255
218 234 255
218 234 255
218 234 255
218 234 255
218 234 255
218 234 255
218 234 255
218 233 255
218 233 255
218 233 255
218 233 255
217 233 255
217 233 255
217 233 255
217 233 255
217 233 255
217 233 255
217 233 255
217 233 255
217 233 255
217 233 255
217 233 255
217 233 255
217 233 255
217 233 255
217 233 255
217 233 255
217 233 255
217 233 255
217 233 255
217 233 255
217 233 255
217 233 255
217 233 255
217 233 255
217 233 255
216 233 255
216 233 255
216 233 255
216 233 255
216 233 255
216 233 255
216 233 255
216 233 255
216 233 255
216 233 255
216 233 255
216 233 255
216 233 255
216 233 255
216 232 255
216 232 255
216 232 255
216 232 255
216 232 255
216 232 255
215 232 255
215 232 255
215 232 255
215 232 255
215 232 255
215 232 255
215 232 255
215 232 255
198 214 235
141 152 168
142 154 169
142 153 168
140 151 167
142 154 169
144 155 171
139 151 166
143 154 170
143 154 170
143 154 170
144 155 171
139 151 166
138 150 165
139 150 166
142 154 169
138 149 165
143 155 171
142 153 169
145 157 173
141 153 168
139 151 166
142 153 169
142 154 170
140 151 167
140 151 167
143 154 170
139 150 165
142 153 169
142 153 169
141 152 168
142 154 170
138 149 165
141 153 168
142 154 170
137 148 164
142 153 169
142 153 169
142 153 169
144 155 171
142 154 170
139 150 166
141 152 168
139 151 166
140 152 167
142 153 169
141 152 168
142 154 169
137 148 163
140 151 167
141 153 168
143 155 170
139 150 165
140 152 167
144 155 171
197 213 234
215 232 255
215 232 255
215 232 255
215 232 255
215 232 255
215 232 255
215 232 255
215 232 255
215 232 255
216 232 255
216 232 255
216 232 255
216 232 255
216 232 255
216 232 255
216 233 255
216 233 255
216 233 255
216 233 255
216 233 255
216 233 255
216 233 255
216 233 255
216 233 255
216 233 255
216 233 255
216 233 255
216 233 255
217 233 255
217 233 255
217 233 255
217 233 255
217 233 255
217 233 255
217 233 255
217 233 255
217 233 255
217 233 255
217 233 255
217 233 255
217 233 255
217 233 255
217 233 255
217 233 255
217 233 255
217 233 255
217 233 255
217 233 255
217 233 255
217 233 255
217 233 255
217 233 255
217 233 255
217 233 255
218 233 255
218 233 255
218 234 255
218 234 255
218 234 255
218 234 255
218 234 255
218 234 255
218 234 255
218 234 255
218 234 255
218 234 255
218 234 255
218 234 255
218 234 255
218 234 255
218 234 255
218 234 255
218 234 255
218 234 255
218 234 255
218 234 255
218 234 255
218 234 255
218 234 255
218 234 255
218 234 255
218 234 255
218 234 255
218 234 255
218 234 255
218 234 255
218 234 255
218 234 255
218 234 255
218 234 255
218 234 255
218 234 255
218 234 255
218 234 255
218 234 255
218 234 255
218 234 255
218 234 255
218 234 255
218 234 255
218 233 255
218 233 255
217 233 255
217 233 255
217 233 255
217 233 255
217 233 255
217 233 255
217 233 255
217 233 255
217 233 255
217 233 255
217 233 255
217 233 255
217 233 255
217 233 255
217 233 255
217 233 255
217 233 255
217 233 255
217 233 255
217 233 255
217 233 255
217 233 255
217 233 255
217 233 255
217 233 255
216 233 255
216 233 255
216 233 255
216 233 255
216 233 255
216 233 255
216 233 255
216 233 255
216 233 255
216 233 255
216 233 255
216 233 255
216 233 255
216 233 255
216 232 255
216 232 255
216 232 255
179 193 212
140 150 165
145 157 172
144 155 171
142 153 168
142 153 168
143 154 169
142 153 168
142 153 169
140 151 166
142 153 168
142 153 169
141 152 167
136 147 162
139 150 165
138 148 163
138 149 164
144 156 171
140 152 167
140 151 166
140 151 166
141 152 168
140 152 167
137 148 163
140 151 166
143 154 170
139 150 165
139 150 165
144 155 171
140 152 167
141 152 167
141 152 167
141 152 168
140 151 166
139 150 165
140 151 166
139 150 165
139 150 165
142 153 168
142 153 169
141 152 168
139 150 165
137 148 163
142 153 168
140 151 166
142 153 168
143 154 170
140 151 167
139 150 165
141 152 167
139 150 165
140 151 166
145 156 172
142 153 168
140 151 166
180 194 213
216 232 255
216 232 255
216 232 255
216 233 255
216 233 255
216 233 255
216 233 255
216 233 255
216 233 255
216 233 255
216 233 255
216 233 255
216 233 255
216 233 255
216 233 255
216 233 255
216 233 255
217 233 255
217 233 255
217 233 255
217 233 255
217 233 255
217 233 255
217 233 255
217 233 255
217 233 255
217 233 255
217 233 255
217 233 255
217 233 255
217 233 255
217 233 255
217 233 255
217 233 255
217 233 255
217 233 255
217 233 255
217 233 255
217 233 255
217 233 255
217 233 255
218 233 255
218 233 255
218 233 255
218 234 255
218 234 255
218 234 255
218 234 255
218 234 255
218 234 255
218 234 255
218 234 255
218 234 255
218 234 255
218 234 255
218 234 255
218 234 255
218 234 255
218 234 255
218 234 255
218 234 255
218 234 255
218 234 255
218 234 255
218 234 255
218 234 255
218 234 255
218 234 255
218 234 255
218 234 255
218 234 255
218 234 255
219 234 255
219 234 255
219 234 255
219 234 255
219 234 255
219 234 255
219 234 255
219 234 255
219 234 255
219 234 255
218 234 255
218 234 255
218 234 255
218 234 255
218 234 255
218 234 255
218 234 255
218 234 255
218 234 255
218 234 255
218 234 255
218 234 255
218 234 255
218 234 255
218 234 255
218 234 255
218 234 255
218 234 255
218 234 255
218 234 255
218 234 255
218 234 255
218 234 255
218 234 255
218 234 255
218 234 255
218 234 255
218 234 255
218 234 255
218 234 255
218 234 255
218 233 255
218 233 255
217 233 255
217 233 255
217 233 255
217 233 255
217 233 255
217 233 255
217 233 255
217 233 255
217 233 255
217 233 255
217 233 255
217 233 255
217 233 255
217 233 255
217 233 255
217 233 255
217 233 255
217 233 255
217 233 255
217 233 255
217 233 255
217 233 255
217 233 255
217 233 255
217 233 255
216 233 255
216 233 255
216 233 255
216 233 255
156 168 185
143 154 169
141 152 166
143 154 169
139 150 165
139 150 164
142 152 167
142 153 168
141 151 166
140 151 165
141 152 167
136 146 161
141 152 167
139 150 165
142 153 168
139 149 164
140 151 166
139 150 165
141 152 167
143 154 169
143 154 169
142 153 168
140 150 165
141 152 167
142 153 168
138 149 164
141 152 167
142 153 168
140 151 166
140 150 165
143 154 169
139 150 165
140 151 166
139 150 164
142 154 169
142 153 168
137 148 163
141 152 167
137 147 162
141 152 167
140 151 166
140 151 166
144 155 170
141 152 167
140 151 165
140 151 166
142 153 168
141 151 166
139 150 165
143 154 169
139 150 165
142 153 168
140 150 165
139 149 164
141 151 166
155 167 183
216 233 255
216 233 255
216 233 255
216 233 255
217 233 255
217 233 255
217 233 255
217 233 255
217 233 255
217 233 255
217 233 255
217 233 255
217 233 255
217 233 255
217 233 255
217 233 255
217 233 255
217 233 255
217 233 255
217 233 255
217 233 255
217 233 255
217 233 255
217 233 255
217 233 255
217 233 255
217 233 255
217 233 255
218 233 255
218 233 255
218 233 255
218 234 255
218 234 255
218 234 255
218 234 255
218 234 255
218 234 255
218 234 255
218 234 255
218 234 255
218 234 255
218 234 255
218 234 255
218 234 255
218 234 255
218 234 255
218 234 255
218 234 255
218 234 255
218 234 255
218 234 255
218 234 255
218 234 255
218 234 255
218 234 255
218 234 255
218 234 255
218 234 255
218 234 255
218 234 255
218 234 255
218 234 255
218 234 255
219 234 255
219 234 255
219 234 255
219 234 255
219 234 255
219 234 255
219 234 255
219 234 255
219 234 255
219 234 255
219 234 255
219 234 255
219 234 255
219 234 255
219 234 255
219 234 255
219 234 255
219 234 255
219 234 255
219 234 255
219 234 255
219 234 255
219 234 255
219 234 255
219 234 255
219 234 255
219 234 255
219 234 255
219 234 255
219 234 255
219 234 255
219 234 255
219 234 255
219 234 255
219 234 255
218 234 255
218 234 255
218 234 255
218 234 255
218 234 255
218 234 255
218 234 255
218 234 255
218 234 255
218 234 255
218 234 255
218 234 255
218 234 255
218 234 255
218 234 255
218 234 255
218 234 255
218 234 255
218 234 255
218 234 255
218 234 255
218 234 255
218 234 255
218 234 255
218 234 255
218 234 255
218 234 255
218 234 255
218 234 255
218 234 255
218 233 255
218 233 255
217 233 255
217 233 255
217 233 255
217 233 255
217 233 255
217 233 255
217 233 255
217 233 255
217 233 255
217 233 255
217 233 255
217 233 255
217 233 255
211 226 248
144 155 170
140 150 165
140 150 165
143 154 169
140 151 165
142 153 167
144 155 170
139 149 164
143 153 168
137 148 162
143 153 168
142 153 168
138 149 163
139 149 163
139 149 164
138 148 162
139 149 164
140 150 165
142 153 167
140 150 165
143 153 168
138 149 163
142 153 168
143 153 168
139 150 165
142 153 168
142 152 167
139 149 164
141 151 166
140 151 166
139 149 164
139 149 164
139 149 164
142 152 167
141 152 166
143 153 168
139 150 164
139 149 164
141 152 167
140 151 165
139 149 164
146 157 172
140 151 165
140 151 165
143 154 169
143 153 168
139 150 164
138 149 163
142 152 167
139 150 164
140 151 165
140 150 165
142 153 168
139 150 164
145 156 171
146 157 172
210 226 248
217 233 255
217 233 255
217 233 255
217 233 255
217 233 255
217 233 255
217 233 255
217 233 255
217 233 255
217 233 255
217 233 255
217 233 255
217 233 255
218 233 255
218 233 255
218 233 255
218 234 255
218 234 255
218 234 255
218 234 255
218 234 255
218 234 255
218 234 255
218 234 255
218 234 255
218 234 255
218 234 255
218 234 255
218 234 255
218 234 255
218 234 255
218 234 255
218 234 255
218 234 255
218 234 255
218 234 255
218 234 255
218 234 255
218 234 255
218 234 255
218 234 255
218 234 255
218 234 255
218 234 255
218 234 255
219 234 255
219 234 255
219 234 255
219 234 255
219 234 255
219 234 255
219 234 255
219 234 255
219 234 255
219 234 255
219 234 255
219 234 255
219 234 255
219 234 255
219 234 255
219 234 255
219 234 255
219 234 255
219 234 255
219 234 255
219 234 255
219 234 255
219 234 255
219 234 255
219 234 255
219 234 255
219 234 255
219 234 255
219 234 255
219 234 255
219 234 255
219 234 255
219 234 255
219 234 255
219 234 255
219 234 255
219 234 255
219 234 255
219 234 255
219 234 255
219 234 255
219 234 255
219 234 255
219 234 255
219 234 255
219 234 255
219 234 255
219 234 255
219 234 255
219 234 255
219 234 255
219 234 255
219 234 255
219 234 255
219 234 255
219 234 255
219 234 255
219 234 255
219 234 255
219 234 255
219 234 255
219 234 255
219 234 255
219 234 255
219 234 255
219 234 255
219 234 255
219 234 255
219 234 255
218 234 255
218 234 255
218 234 255
218 234 255
218 234 255
218 234 255
218 234 255
218 234 255
218 234 255
218 234 255
218 234 255
218 234 255
218 234 255
218 234 255
218 234 255
218 234 255
218 234 255
218 234 255
218 234 255
218 234 255
218 234 255
218 234 255
218 234 255
218 234 255
218 234 255
218 234 255
218 234 255
218 234 255
194 208 227
147 158 173
142 152 166
140 150 165
139 149 163
138 149 163
141 151 165
140 151 165
142 152 167
140 150 164
141 152 166
139 149 163
136 146 160
139 149 163
141 151 166
142 152 167
143 154 169
143 153 168
141 151 165
143 154 168
136 146 160
142 152 167
141 151 165
142 152 167
141 151 166
139 149 163
141 151 166
143 153 168
138 148 162
140 151 165
142 153 167
138 148 162
140 151 165
137 147 161
144 155 169
140 151 165
139 150 164
140 150 165
138 148 162
144 155 170
141 151 165
141 151 166
141 151 166
139 150 164
143 153 168
140 151 165
142 152 167
140 150 165
143 154 168
141 152 166
138 148 163
142 153 167
140 150 165
142 152 167
142 152 167
141 151 165
143 154 168
197 211 231
218 234 255
218 234 255
218 234 255
218 234 255
218 234 255
218 234 255
218 234 255
218 234 255
218 234 255
218 234 255
218 234 255
218 234 255
218 234 255
218 234 255
218 234 255
218 234 255
218 234 255
218 234 255
218 234 255
218 234 255
218 234 255
218 234 255
218 234 255
218 234 255
218 234 255
218 234 255
218 234 255
218 234 255
219 234 255
219 234 255
219 234 255
219 234 255
219 234 255
219 234 255
219 234 255
219 234 255
219 234 255
219 234 255
219 234 255
219 234 255
219 234 255
219 234 255
219 234 255
219 234 255
219 234 255
219 234 255
219 234 255
219 234 255
219 234 255
219 234 255
219 234 255
219 234 255
219 234 255
219 234 255
219 234 255
219 234 255
219 234 255
219 234 255
219 234 255
219 234 255
219 234 255
219 234 255
219 234 255
219 234 255
219 234 255
219 234 255
219 234 255
219 234 255
219 234 255
219 234 255
219 234 255
220 235 255
220 235 255
220 235 255
220 235 255
220 235 255
220 235 255
220 235 255
220 235 255
220 235 255
220 235 255
220 235 255
220 235 255
220 235 255
220 235 255
220 235 255
220 235 255
219 235 255
219 235 255
219 235 255
219 235 255
219 235 255
219 235 255
219 234 255
219 234 255
219 234 255
219 234 255
219 234 255
219 234 255
219 234 255
219 234 255
219 234 255
219 234 255
219 234 255
219 234 255
219 234 255
219 234 255
219 234 255
219 234 255
219 234 255
219 234 255
219 234 255
219 234 255
219 234 255
219 234 255
219 234 255
219 234 255
219 234 255
219 234 255
219 234 255
219 234 255
219 234 255
219 234 255
219 234 255
219 234 255
219 234 255
219 234 255
219 234 255
219 234 255
219 234 255
219 234 255
219 234 255
219 234 255
219 234 255
219 234 255
218 234 255
218 234 255
218 234 255
218 234 255
218 234 255
218 234 255
218 234 255
184 197 215
139 149 163
140 150 164
137 147 160
139 149 163
142 153 167
138 148 161
141 151 165
141 151 165
141 151 165
139 149 163
137 146 160
139 149 163
138 148 162
141 151 165
140 151 165
142 152 166
138 148 162
138 148 161
141 151 165
141 151 166
143 154 168
138 148 162
141 151 165
139 149 163
136 146 159
140 151 165
140 150 165
136 146 160
136 146 160
144 154 169
139 149 163
137 147 161
139 149 163
138 148 162
142 152 166
137 147 161
135 145 158
139 149 163
135 145 159
140 150 165
143 153 168
139 150 164
141 151 165
139 149 163
138 148 161
143 153 167
139 149 163
140 150 164
142 152 166
139 149 163
143 153 167
138 148 162
141 151 165
142 152 166
141 151 165
142 152 166
182 195 213
218 234 255
218 234 255
218 234 255
218 234 255
218 234 255
218 234 255
218 234 255
218 234 255
219 234 255
219 234 255
219 234 255
219 234 255
219 234 255
219 234 255
219 234 255
219 234 255
219 234 255
219 234 255
219 234 255
219 234 255
219 234 255
219 234 255
219 234 255
219 234 255
219 234 255
219 234 255
219 234 255
219 234 255
219 234 255
219 234 255
219 234 255
219 234 255
219 234 255
219 234 255
219 234 255
219 234 255
219 234 255
219 234 255
219 234 255
219 234 255
219 234 255
219 234 255
219 234 255
219 234 255
219 234 255
219 234 255
219 234 255
219 234 255
219 234 255
219 235 255
219 235 255
219 235 255
219 235 255
219 235 255
219 235 255
220 235 255
220 235 255
220 235 255
220 235 255
220 235 255
220 235 255
220 235 255
220 235 255
220 235 255
220 235 255
220 235 255
220 235 255
220 235 255
220 235 255
220 235 255
220 235 255
220 235 255
220 235 255
220 235 255
220 235 255
220 235 255
220 235 255
220 235 255
220 235 255
220 235 255
220 235 255
220 235 255
220 235 255
220 235 255
220 235 255
220 235 255
220 235 255
220 235 255
220 235 255
220 235 255
220 235 255
220 235 255
220 235 255
220 235 255
220 235 255
220 235 255
220 235 255
220 235 255
220 235 255
220 235 255
220 235 255
220 235 255
220 235 255
220 235 255
220 235 255
220 235 255
220 235 255
220 235 255
220 235 255
220 235 255
220 235 255
220 235 255
220 235 255
220 235 255
219 235 255
219 235 255
219 235 255
219 235 255
219 234 255
219 235 255
219 234 255
219 234 255
219 234 255
219 234 255
219 234 255
219 234 255
219 234 255
219 234 255
219 234 255
219 234 255
219 234 255
219 234 255
219 234 255
219 234 255
219 234 255
219 234 255
219 234 255
219 234 255
219 234 255
219 234 255
219 234 255
219 234 255
177 189 206
143 153 167
139 149 163
137 147 160
141 150 164
139 149 162
142 152 166
141 151 164
140 150 164
139 149 163
142 152 166
139 149 162
139 149 163
141 151 164
139 148 162
139 149 163
137 147 160
139 148 162
139 149 163
139 149 163
136 146 159
138 147 161
135 144 157
136 146 159
136 145 159
135 145 158
139 149 163
139 148 162
143 153 167
139 149 163
143 153 167
140 150 163
137 146 160
140 150 164
142 152 166
141 151 165
138 147 161
137 147 160
140 150 164
141 151 165
140 150 164
138 148 161
138 148 161
143 153 167
139 149 163
139 149 163
141 151 165
142 152 166
143 153 167
139 148 162
146 156 170
136 146 159
140 149 163
139 149 162
138 148 162
138 148 161
139 148 162
164 176 192
219 234 255
219 234 255
219 234 255
219 234 255
219 234 255
219 234 255
219 234 255
219 234 255
219 234 255
219 234 255
219 234 255
219 234 255
219 234 255
219 234 255
219 234 255
219 234 255
219 234 255
219 234 255
219 234 255
219 234 255
219 234 255
219 234 255
219 234 255
219 235 255
219 235 255
219 235 255
219 235 255
219 235 255
220 235 255
220 235 255
220 235 255
220 235 255
220 235 255
220 235 255
220 235 255
220 235 255
220 235 255
220 235 255
220 235 255
220 235 255
220 235 255
220 235 255
220 235 255
220 235 255
220 235 255
220 235 255
220 235 255
220 235 255
220 235 255
220 235 255
220 235 255
220 235 255
220 235 255
220 235 255
220 235 255
220 235 255
220 235 255
220 235 255
220 235 255
220 235 255
220 235 255
220 235 255
220 235 255
220 235 255
220 235 255
220 235 255
220 235 255
220 235 255
220 235 255
220 235 255
220 235 255
220 235 255
220 235 255
220 235 255
220 235 255
220 235 255
220 235 255
220 235 255
220 235 255
220 235 255
220 235 255
220 235 255
220 235 255
220 235 255
220 235 255
220 235 255
220 235 255
220 235 255
220 235 255
220 235 255
220 235 255
220 235 255
220 235 255
220 235 255
220 235 255
220 235 255
220 235 255
220 235 255
220 235 255
220 235 255
220 235 255
220 235 255
220 235 255
220 235 255
220 235 255
220 235 255
220 235 255
220 235 255
220 235 255
220 235 255
220 235 255
220 235 255
220 235 255
220 235 255
220 235 255
220 235 255
220 235 255
220 235 255
220 235 255
220 235 255
220 235 255
220 235 255
220 235 255
220 235 255
220 235 255
220 235 255
220 235 255
220 235 255
220 235 255
220 235 255
220 235 255
220 235 255
220 235 255
220 235 255
220 235 255
220 235 255
220 235 255
220 235 255
220 235 255
220 235 255
220 235 255
220 235 255
159 169 185
140 149 163
140 149 162
139 149 162
142 151 165
139 149 162
141 150 164
141 151 164
138 148 161
140 150 163
139 149 162
141 151 164
140 149 163
138 147 160
138 148 161
141 151 164
141 150 164
142 151 165
140 150 163
139 148 161
134 143 156
139 149 162
140 150 163
138 148 161
139 149 162
141 151 165
137 147 160
141 151 165
138 148 161
135 144 157
140 150 163
141 150 164
141 150 164
137 147 160
142 151 165
141 151 165
135 145 158
139 149 162
143 153 166
144 154 167
141 150 164
137 146 159
141 151 164
138 147 161
138 148 161
140 150 163
139 149 162
141 150 164
138 148 161
139 149 162
141 151 164
136 145 158
141 150 164
141 150 164
140 149 163
140 149 162
139 149 162
166 178 194
220 235 255
220 235 255
220 235 255
220 235 255
220 235 255
220 235 255
220 235 255
220 235 255
220 235 255
220 235 255
220 235 255
220 235 255
220 235 255
220 235 255
220 235 255
220 235 255
220 235 255
220 235 255
220 235 255
220 235 255
220 235 255
220 235 255
220 235 255
220 235 255
220 235 255
220 235 255
220 235 255
220 235 255
220 235 255
220 235 255
220 235 255
220 235 255
220 235 255
220 235 255
220 235 255
220 235 255
220 235 255
220 235 255
220 235 255
220 235 255
220 235 255
220 235 255
220 235 255
220 235 255
220 235 255
220 235 255
220 235 255
220 235 255
220 235 255
220 235 255
220 235 255
220 235 255
220 235 255
220 235 255
220 235 255
220 235 255
220 235 255
220 235 255
220 235 255
220 235 255
220 235 255
220 235 255
220 235 255
220 235 255
220 235 255
220 235 255
220 235 255
220 235 255
220 235 255
220 235 255
220 235 255
221 235 255
221 235 255
221 235 255
221 235 255
221 235 255
221 235 255
221 235 255
221 235 255
221 235 255
221 235 255
221 235 255
221 235 255
221 235 255
221 235 255
221 235 255
221 235 255
221 235 255
221 235 255
221 235 255
221 235 255
221 235 255
221 235 255
221 235 255
221 235 255
221 235 255
221 235 255
221 235 255
221 235 255
221 235 255
221 235 255
221 235 255
221 235 255
221 235 255
221 235 255
221 235 255
221 235 255
220 235 255
220 235 255
220 235 255
220 235 255
220 235 255
220 235 255
220 235 255
220 235 255
220 235 255
220 235 255
220 235 255
220 235 255
220 235 255
220 235 255
220 235 255
220 235 255
220 235 255
220 235 255
220 235 255
220 235 255
220 235 255
220 235 255
220 235 255
220 235 255
220 235 255
220 235 255
220 235 255
220 235 255
220 235 255
220 235 255
220 235 255
220 235 255
220 235 255
220 235 255
220 235 255
162 173 188
136 146 158
140 150 163
139 148 161
140 149 162
138 147 160
140 149 162
143 153 166
139 148 161
136 145 158
138 147 160
142 152 165
135 144 156
138 147 160
142 152 165
140 149 162
142 152 165
143 153 166
141 151 164
140 149 162
137 147 159
136 146 158
139 148 162
142 152 165
139 148 162
142 151 164
141 150 163
137 146 159
138 147 160
140 150 163
138 147 160
145 155 168
141 150 163
141 151 164
137 146 159
137 146 159
137 147 159
141 150 164
138 147 160
141 151 164
138 147 160
140 150 163
143 153 166
143 153 166
139 148 161
138 147 160
139 149 162
139 148 161
136 145 158
140 149 162
143 152 165
140 150 163
140 149 162
141 151 164
134 143 156
139 148 161
140 149 162
161 171 186
220 235 255
220 235 255
220 235 255
220 235 255
220 235 255
220 235 255
220 235 255
220 235 255
220 235 255
220 235 255
220 235 255
220 235 255
220 235 255
220 235 255
220 235 255
220 235 255
220 235 255
220 235 255
220 235 255
220 235 255
220 235 255
220 235 255
220 235 255
220 235 255
220 235 255
220 235 255
220 235 255
220 235 255
220 235 255
220 235 255
220 235 255
220 235 255
221 235 255
220 235 255
221 235 255
221 235 255
221 235 255
221 235 255
221 235 255
221 235 255
221 235 255
221 235 255
221 235 255
221 235 255
221 235 255
221 235 255
221 235 255
221 235 255
221 235 255
221 235 255
221 235 255
221 235 255
221 235 255
221 235 255
221 235 255
221 235 255
221 235 255
221 235 255
221 235 255
221 235 255
221 235 255
221 235 255
221 235 255
221 235 255
221 235 255
221 235 255
221 235 255
221 235 255
221 235 255
221 235 255
221 235 255
221 235 255
221 235 255
221 235 255
221 235 255
221 235 255
221 235 255
221 235 255
221 235 255
221 235 255
221 235 255
221 235 255
221 235 255
221 235 255
221 235 255
221 235 255
221 235 255
221 235 255
221 235 255
221 235 255
221 235 255
221 235 255
221 235 255
221 235 255
221 235 255
221 235 255
221 235 255
221 235 255
221 235 255
221 235 255
221 235 255
221 235 255
221 235 255
221 235 255
221 235 255
221 235 255
221 235 255
221 235 255
221 235 255
221 235 255
221 235 255
221 235 255
221 235 255
221 235 255
221 235 255
221 235 255
221 235 255
221 235 255
221 235 255
221 235 255
221 235 255
221 235 255
221 235 255
221 235 255
221 235 255
221 235 255
221 235 255
221 235 255
221 235 255
221 235 255
221 235 255
221 235 255
221 235 255
221 235 255
221 235 255
221 235 255
221 235 255
221 235 255
221 235 255
221 235 255
221 235 255
221 235 255
146 155 169
141 150 163
141 150 163
138 147 159
138 147 160
137 146 159
142 151 164
139 148 161
139 148 161
142 151 164
141 150 163
140 150 162
141 150 163
137 146 158
140 150 162
141 150 163
140 149 162
135 143 156
137 146 159
141 150 163
142 152 165
133 142 154
139 148 161
143 152 165
137 146 159
140 150 162
141 150 163
141 150 163
141 150 163
138 147 160
137 146 159
133 142 154
141 150 163
133 141 153
139 148 161
140 149 162
137 146 159
143 152 165
140 149 162
140 149 162
142 152 165
139 148 160
141 150 163
139 149 161
134 143 155
138 147 160
141 150 163
141 150 163
138 147 160
138 147 159
139 148 160
139 148 161
138 147 159
139 148 161
138 147 159
138 147 159
141 150 163
147 156 170
221 235 255
221 235 255
221 235 255
221 235 255
221 235 255
221 235 255
221 235 255
221 235 255
221 235 255
221 235 255
221 235 255
221 235 255
221 235 255
221 235 255
221 235 255
221 235 255
221 235 255
221 235 255
221 235 255
221 235 255
221 235 255
221 235 255
221 235 255
221 235 255
221 235 255
221 235 255
221 235 255
221 235 255
221 235 255
221 235 255
221 235 255
221 235 255
221 235 255
221 235 255
221 235 255
221 235 255
221 235 255
221 235 255
221 235 255
221 235 255
221 235 255
221 235 255
221 235 255
221 235 255
221 235 255
221 235 255
221 235 255
221 235 255
221 235 255
221 235 255
221 235 255
221 235 255
221 235 255
221 235 255
221 235 255
221 235 255
221 235 255
221 235 255
221 235 255
221 235 255
221 235 255
221 235 255
221 235 255
221 235 255
221 235 255
221 235 255
221 235 255
221 235 255
221 235 255
221 235 255
221 235 255
221 236 255
221 236 255
221 236 255
221 236 255
221 236 255
221 236 255
221 236 255
221 236 255
221 236 255
221 236 255
221 236 255
221 236 255
221 236 255
221 236 255
221 236 255
221 236 255
221 236 255
221 236 255
221 236 255
221 236 255
221 236 255
221 236 255
221 236 255
221 236 255
221 236 255
221 236 255
221 236 255
221 236 255
221 236 255
221 236 255
221 236 255
221 236 255
221 236 255
221 236 255
221 236 255
221 236 255
221 236 255
221 236 255
221 236 255
221 236 255
221 236 255
221 236 255
221 236 255
221 236 255
221 236 255
221 236 255
221 236 255
221 236 255
221 236 255
221 236 255
221 236 255
221 236 255
221 236 255
221 236 255
221 236 255
221 236 255
221 236 255
221 236 255
221 236 255
221 236 255
221 236 255
221 236 255
221 236 255
221 236 255
221 236 255
221 236 255
222 236 255
222 236 255
221 236 255
222 236 255
221 236 255
147 157 170
140 149 161
139 148 161
137 145 158
140 149 162
139 148 161
138 147 159
141 150 162
136 145 157
139 148 160
139 148 161
136 145 157
143 153 165
139 147 160
138 147 159
141 150 163
140 149 161
139 148 161
138 147 159
140 149 162
135 144 156
146 156 169
140 149 161
138 147 159
139 148 160
140 148 161
136 145 157
136 145 157
141 150 163
136 145 157
138 147 159
136 145 157
137 146 158
136 145 157
137 145 158
140 149 162
139 148 160
139 148 161
140 149 161
140 148 161
139 148 160
139 148 160
138 147 159
140 149 162
138 146 159
136 145 157
138 147 160
138 147 159
138 147 159
134 143 155
140 149 161
141 150 163
137 146 158
139 148 160
139 148 161
140 148 161
139 148 160
146 156 169
222 236 255
222 236 255
222 236 255
222 236 255
222 236 255
222 236 255
221 236 255
222 236 255
222 236 255
221 236 255
221 236 255
222 236 255
221 236 255
221 236 255
221 236 255
221 236 255
221 236 255
221 236 255
221 236 255
221 236 255
221 236 255
221 236 255
221 236 255
221 236 255
221 236 255
221 236 255
221 236 255
221 236 255
221 236 255
221 236 255
221 236 255
221 236 255
221 236 255
221 236 255
221 236 255
221 236 255
221 236 255
221 236 255
221 236 255
221 236 255
221 236 255
221 236 255
221 236 255
221 236 255
221 236 255
221 236 255
221 236 255
221 236 255
221 236 255
221 236 255
221 236 255
221 236 255
221 236 255
221 236 255
221 236 255
221 236 255
221 236 255
221 236 255
221 236 255
221 236 255
221 236 255
221 236 255
221 236 255
221 236 255
221 236 255
221 236 255
221 236 255
221 236 255
221 236 255
221 236 255
221 236 255
222 236 255
222 236 255
222 236 255
222 236 255
222 236 255
222 236 255
222 236 255
222 236 255
222 236 255
222 236 255
222 236 255
222 236 255
222 236 255
222 236 255
222 236 255
222 236 255
222 236 255
222 236 255
222 236 255
222 236 255
222 236 255
222 236 255
222 236 255
222 236 255
222 236 255
222 236 255
222 236 255
222 236 255
222 236 255
222 236 255
222 236 255
222 236 255
222 236 255
222 236 255
222 236 255
222 236 255
222 236 255
222 236 255
222 236 255
222 236 255
222 236 255
222 236 255
222 236 255
222 236 255
222 236 255
222 236 255
222 236 255
222 236 255
222 236 255
222 236 255
222 236 255
222 236 255
222 236 255
222 236 255
222 236 255
222 236 255
222 236 255
222 236 255
222 236 255
222 236 255
222 236 255
222 236 255
222 236 255
222 236 255
222 236 255
222 236 255
222 236 255
222 236 255
222 236 255
222 236 255
222 236 255
159 169 183
139 148 160
136 145 156
139 147 160
140 149 161
144 153 165
137 145 157
137 145 157
137 146 158
135 144 155
137 146 158
140 149 161
135 144 156
143 151 164
137 146 158
139 147 159
141 150 162
142 151 163
135 143 155
138 146 158
135 144 155
138 146 158
136 145 157
137 146 158
138 147 159
139 148 160
138 146 158
136 145 157
140 149 161
138 146 158
136 145 157
140 148 161
137 146 158
134 142 154
138 147 159
138 147 159
142 151 163
138 146 158
140 149 161
137 145 157
135 144 156
139 148 160
140 148 160
138 146 158
141 149 162
141 149 162
138 147 159
141 150 162
139 148 160
138 147 159
139 147 159
138 147 159
137 145 157
138 147 159
137 146 158
134 143 154
139 147 160
152 161 175
222 236 255
222 236 255
222 236 255
222 236 255
222 236 255
222 236 255
222 236 255
222 236 255
222 236 255
222 236 255
222 236 255
222 236 255
222 236 255
222 236 255
222 236 255
222 236 255
222 236 255
222 236 255
222 236 255
222 236 255
222 236 255
222 236 255
222 236 255
222 236 255
222 236 255
222 236 255
222 236 255
222 236 255
222 236 255
222 236 255
222 236 255
222 236 255
222 236 255
222 236 255
222 236 255
222 236 255
222 236 255
222 236 255
222 236 255
222 236 255
222 236 255
222 236 255
222 236 255
222 236 255
222 236 255
222 236 255
222 236 255
222 236 255
222 236 255
222 236 255
222 236 255
222 236 255
222 236 255
222 236 255
222 236 255
222 236 255
222 236 255
222 236 255
222 236 255
222 236 255
222 236 255
222 236 255
222 236 255
222 236 255
222 236 255
222 236 255
222 236 255
222 236 255
222 236 255
222 236 255
222 236 255
222 236 255
222 236 255
222 236 255
222 236 255
222 236 255
222 236 255
222 236 255
222 236 255
222 236 255
222 236 255
222 236 255
222 236 255
222 236 255
222 236 255
222 236 255
222 236 255
222 236 255
222 236 255
222 236 255
222 236 255
222 236 255
222 236 255
222 236 255
222 236 255
222 236 255
222 236 255
222 236 255
222 236 255
222 236 255
222 236 255
222 236 255
222 236 255
222 236 255
222 236 255
222 236 255
222 236 255
222 236 255
222 236 255
222 236 255
222 236 255
222 236 255
222 236 255
222 236 255
222 236 255
222 236 255
222 236 255
222 236 255
222 236 255
222 236 255
222 236 255
222 236 255
223 236 255
223 236 255
223 236 255
223 236 255
223 236 255
223 236 255
223 236 255
223 236 255
223 236 255
223 236 255
223 236 255
223 236 255
223 236 255
223 236 255
223 236 255
223 236 255
223 236 255
223 236 255
223 236 255
223 236 255
163 173 187
137 146 158
138 147 158
140 149 161
136 144 156
139 147 159
135 144 155
137 145 157
137 145 157
135 143 155
137 146 157
136 144 155
138 146 158
138 147 158
138 147 158
136 144 156
139 147 159
142 151 163
138 147 159
137 145 157
134 142 154
135 143 155
137 145 157
138 146 158
139 148 159
136 144 155
139 147 159
140 148 160
136 145 156
140 148 160
139 148 160
138 146 158
139 148 160
139 147 159
144 153 165
139 148 160
140 148 160
139 148 159
142 151 163
140 149 161
137 146 157
137 145 157
137 145 157
140 149 161
139 148 160
134 142 154
137 146 157
134 142 154
133 142 153
133 141 152
138 147 158
140 149 161
138 146 158
140 148 160
136 144 156
144 153 165
136 145 156
155 164 177
223 236 255
223 236 255
223 236 255
223 236 255
223 236 255
223 236 255
223 236 255
223 236 255
223 236 255
223 236 255
223 236 255
223 236 255
223 236 255
223 236 255
223 236 255
223 236 255
223 236 255
223 236 255
223 236 255
222 236 255
222 236 255
222 236 255
222 236 255
222 236 255
222 236 255
222 236 255
222 236 255
222 236 255
222 236 255
222 236 255
222 236 255
222 236 255
222 236 255
222 236 255
222 236 255
222 236 255
222 236 255
222 236 255
222 236 255
222 236 255
222 236 255
222 236 255
222 236 255
222 236 255
222 236 255
222 236 255
222 236 255
222 236 255
222 236 255
222 236 255
222 236 255
222 236 255
222 236 255
222 236 255
222 236 255
222 236 255
222 236 255
222 236 255
222 236 255
222 236 255
222 236 255
222 236 255
222 236 255
222 236 255
222 236 255
222 236 255
222 236 255
222 236 255
222 236 255
222 236 255
222 236 255
222 236 255
222 236 255
222 236 255
222 236 255
222 236 255
222 236 255
222 236 255
222 236 255
222 236 255
222 236 255
222 236 255
222 236 255
222 236 255
222 236 255
223 236 255
223 236 255
223 236 255
223 236 255
223 236 255
223 236 255
223 236 255
223 236 255
223 236 255
223 236 255
223 236 255
223 236 255
223 236 255
223 236 255
223 236 255
223 236 255
223 236 255
223 236 255
223 236 255
223 236 255
223 236 255
223 236 255
223 236 255
223 236 255
223 236 255
223 236 255
223 236 255
223 236 255
223 236 255
223 236 255
223 236 255
223 236 255
223 237 255
223 237 255
223 237 255
223 237 255
223 237 255
223 237 255
223 237 255
223 237 255
223 237 255
223 237 255
223 237 255
223 237 255
223 237 255
223 237 255
223 237 255
223 237 255
223 237 255
223 237 255
223 237 255
223 237 255
223 237 255
223 237 255
223 237 255
223 237 255
223 237 255
176 186 201
137 146 157
137 145 157
142 151 162
137 145 157
138 147 158
138 146 157
135 143 155
136 144 156
137 145 157
133 141 152
137 145 156
137 145 157
139 147 158
142 151 162
138 146 158
139 147 159
140 148 160
131 139 150
132 140 151
137 146 157
139 147 159
137 145 157
139 147 158
139 148 159
139 147 158
133 141 152
140 148 160
136 144 155
136 144 155
138 146 158
140 148 160
139 147 158
136 144 155
140 149 160
139 147 159
141 149 161
135 143 154
138 146 158
134 142 153
137 145 157
137 145 156
137 145 157
137 145 157
141 149 161
135 143 154
135 143 154
138 147 158
139 147 159
140 149 160
137 145 157
136 144 155
132 140 151
142 151 163
139 147 159
141 150 162
141 150 162
163 173 186
223 237 255
223 237 255
223 237 255
223 237 255
223 237 255
223 237 255
223 237 255
223 237 255
223 237 255
223 237 255
223 237 255
223 237 255
223 237 255
223 237 255
223 237 255
223 237 255
223 237 255
223 237 255
223 237 255
223 237 255
223 237 255
223 237 255
223 237 255
223 237 255
223 237 255
223 236 255
223 236 255
223 236 255
223 236 255
223 236 255
223 236 255
223 236 255
223 236 255
223 236 255
223 236 255
223 236 255
223 236 255
223 236 255
223 236 255
223 236 255
223 236 255
223 236 255
223 236 255
223 236 255
223 236 255
223 236 255
223 236 255
223 236 255
223 236 255
223 236 255
223 236 255
223 236 255
223 236 255
223 236 255
223 236 255
223 236 255
222 236 255
222 236 255
222 236 255
222 236 255
222 236 255
222 236 255
222 236 255
222 236 255
222 236 255
222 236 255
222 236 255
222 236 255
222 236 255
222 236 255
222 236 255
223 236 255
223 236 255
223 236 255
223 236 255
223 236 255
223 236 255
223 236 255
223 236 255
223 236 255
223 236 255
223 236 255
223 236 255
223 236 255
223 236 255
223 236 255
223 236 255
223 236 255
223 236 255
223 236 255
223 236 255
223 237 255
223 237 255
223 237 255
223 237 255
223 237 255
223 237 255
223 237 255
223 237 255
223 237 255
223 237 255
223 237 255
223 237 255
223 237 255
223 237 255
223 237 255
223 237 255
223 237 255
223 237 255
223 237 255
223 237 255
223 237 255
223 237 255
223 237 255
223 237 255
223 237 255
223 237 255
223 237 255
223 237 255
223 237 255
224 237 255
224 237 255
224 237 255
224 237 255
224 237 255
224 237 255
224 237 255
224 237 255
224 237 255
224 237 255
224 237 255
224 237 255
224 237 255
224 237 255
224 237 255
224 237 255
224 237 255
224 237 255
224 237 255
224 237 255
224 237 255
224 237 255
182 193 208
133 141 152
136 144 155
138 146 158
138 146 157
141 149 161
139 147 158
137 145 156
136 144 155
140 149 160
138 145 157
138 146 157
138 146 157
135 143 154
136 144 155
137 145 156
142 150 161
136 143 154
137 145 157
138 146 157
139 147 158
133 141 152
143 151 163
139 147 158
140 148 159
139 147 158
142 150 161
139 147 159
136 144 155
138 146 157
140 148 159
134 142 153
144 152 164
137 145 157
137 145 156
138 145 157
135 143 154
137 144 155
139 147 159
136 144 155
139 147 158
137 145 156
138 146 157
139 147 158
136 144 155
138 146 157
140 148 159
139 147 158
138 146 157
135 143 154
138 146 157
135 143 154
137 145 156
138 146 157
139 147 158
135 143 154
135 142 153
181 191 206
224 237 255
224 237 255
224 237 255
224 237 255
224 237 255
224 237 255
224 237 255
224 237 255
224 237 255
224 237 255
224 237 255
224 237 255
224 237 255
224 237 255
224 237 255
224 237 255
224 237 255
224 237 255
224 237 255
224 237 255
224 237 255
224 237 255
224 237 255
223 237 255
223 237 255
223 237 255
223 237 255
223 237 255
223 237 255
223 237 255
223 237 255
223 237 255
223 237 255
223 237 255
223 237 255
223 237 255
223 237 255
223 237 255
223 237 255
223 237 255
223 237 255
223 237 255
223 237 255
223 237 255
223 237 255
223 237 255
223 237 255
223 237 255
223 237 255
223 237 255
223 237 255
223 236 255
223 236 255
223 236 255
223 236 255
223 236 255
223 236 255
223 236 255
223 236 255
223 236 255
223 236 255
223 236 255
223 236 255
223 236 255
223 236 255
223 236 255
223 236 255
223 236 255
223 236 255
223 236 255
223 236 255
223 237 255
223 237 255
223 237 255
223 237 255
223 237 255
223 237 255
223 237 255
223 237 255
223 237 255
223 237 255
223 237 255
223 237 255
223 237 255
223 237 255
223 237 255
223 237 255
223 237 255
223 237 255
223 237 255
223 237 255
223 237 255
223 237 255
223 237 255
223 237 255
223 237 255
223 237 255
223 237 255
223 237 255
224 237 255
224 237 255
224 237 255
224 237 255
224 237 255
224 237 255
224 237 255
224 237 255
224 237 255
224 237 255
224 237 255
224 237 255
224 237 255
224 237 255
224 237 255
224 237 255
224 237 255
224 237 255
224 237 255
224 237 255
224 237 255
224 237 255
224 237 255
224 237 255
224 237 255
224 237 255
224 237 255
224 237 255
224 237 255
224 237 255
224 237 255
222 235 253
220 232 250
216 229 246
213 225 242
206 218 235
207 219 236
198 210 226
199 210 226
198 209 225
191 202 217
186 196 211
186 196 211
171 180 194
141 149 160
132 140 150
139 147 158
137 145 156
137 145 156
137 145 156
135 143 153
132 139 150
133 141 152
138 145 156
139 147 158
133 141 152
138 146 157
136 144 155
137 144 155
135 142 153
136 144 155
136 143 154
135 142 153
143 151 162
142 150 161
140 148 159
138 145 156
134 141 152
139 147 158
140 148 159
133 140 151
140 148 159
141 149 160
139 147 158
135 143 153
137 144 155
139 146 157
137 145 156
136 144 155
139 147 158
140 148 159
141 149 160
139 147 158
140 148 159
139 147 158
139 147 158
138 145 156
134 142 152
137 145 156
136 144 154
138 145 156
139 147 158
140 148 159
138 146 157
140 148 159
133 140 151
129 137 147
138 146 157
136 144 154
134 142 153
163 172 185
180 191 205
189 200 215
184 195 210
194 205 220
200 212 228
201 212 228
201 213 229
212 224 241
215 227 244
215 228 245
220 232 250
223 236 254
224 237 255
224 237 255
224 237 255
224 237 255
224 237 255
224 237 255
224 237 255
224 237 255
224 237 255
224 237 255
224 237 255
224 237 255
224 237 255
224 237 255
224 237 255
224 237 255
224 237 255
224 237 255
224 237 255
224 237 255
224 237 255
224 237 255
224 237 255
224 237 255
224 237 255
224 237 255
224 237 255
224 237 255
224 237 255
224 237 255
224 237 255
223 237 255
223 237 255
223 237 255
223 237 255
223 237 255
223 237 255
223 237 255
223 237 255
223 237 255
223 237 255
223 237 255
223 237 255
223 237 255
223 237 255
223 237 255
223 237 255
223 237 255
223 237 255
223 237 255
223 237 255
223 237 255
223 237 255
223 237 255
223 237 255
223 237 255
223 237 255
223 237 255
223 237 255
223 237 255
223 237 255
223 237 255
223 237 255
223 237 255
223 237 255
223 237 255
223 237 255
223 237 255
224 237 255
224 237 255
224 237 255
224 237 255
224 237 255
224 237 255
224 237 255
224 237 255
224 237 255
224 237 255
224 237 255
224 237 255
224 237 255
224 237 255
224 237 255
224 237 255
224 237 255
224 237 255
224 237 255
224 237 255
224 237 255
224 237 255
224 237 255
224 237 255
224 237 255
224 237 255
224 237 255
224 237 255
224 237 255
224 237 255
224 237 255
224 237 255
224 237 255
224 237 255
224 237 255
224 237 255
222 235 253
219 231 249
214 226 244
208 220 237
203 214 231
200 211 227
192 203 218
190 201 216
183 194 208
185 196 211
177 187 201
174 184 198
165 174 188
160 169 181
159 168 181
159 168 181
159 168 181
159 168 181
159 168 181
159 168 181
159 168 181
159 168 181
159 168 181
159 168 181
159 168 181
159 168 181
156 165 177
135 142 153
135 142 153
134 142 152
137 145 155
140 147 158
137 144 155
139 147 158
138 146 157
131 139 149
138 145 156
140 148 158
139 147 157
137 145 155
138 145 156
133 140 151
139 146 157
130 137 147
135 143 153
132 139 149
137 144 155
137 144 155
139 146 157
135 143 153
141 148 159
133 141 151
137 145 155
141 149 159
133 140 150
134 141 151
138 145 156
134 141 151
137 145 155
135 143 153
141 149 160
138 145 156
140 147 158
138 146 157
137 144 155
136 144 154
137 145 156
135 142 153
137 144 155
140 148 159
131 138 148
136 143 154
137 144 155
140 148 159
135 142 153
137 144 155
140 148 159
137 145 155
141 149 160
136 143 154
134 142 152
135 143 153
135 142 153
155 164 176
159 168 181
159 168 181
159 168 181
159 168 181
159 168 181
159 168 181
159 168 181
159 168 181
159 168 181
159 168 181
159 168 181
159 168 181
160 170 182
166 175 188
173 183 197
179 189 203
180 190 204
184 194 209
196 207 223
190 201 217
196 207 223
199 210 226
211 223 240
211 223 240
220 233 250
220 233 250
223 236 254
224 237 255
224 237 255
224 237 255
224 237 255
224 237 255
224 237 255
224 237 255
224 237 255
224 237 255
224 237 255
224 237 255
224 237 255
224 237 255
224 237 255
224 237 255
224 237 255
224 237 255
224 237 255
224 237 255
224 237 255
224 237 255
224 237 255
224 237 255
224 237 255
224 237 255
224 237 255
224 237 255
224 237 255
224 237 255
224 237 255
224 237 255
224 237 255
224 237 255
224 237 255
223 237 255
223 237 255
223 237 255
223 237 255
223 237 255
223 237 255
223 237 255
223 237 255
223 237 255
223 237 255
224 237 255
224 237 255
224 237 255
224 237 255
224 237 255
224 237 255
224 237 255
224 237 255
224 237 255
224 237 255
224 237 255
224 237 255
224 237 255
224 237 255
224 237 255
224 237 255
224 237 255
224 237 255
224 237 255
224 237 255
224 237 255
224 237 255
224 237 255
224 237 255
224 237 255
224 237 255
224 237 255
224 237 255
224 237 255
224 237 255
224 237 255
224 237 255
218 231 248
215 228 245
211 223 240
206 218 235
206 218 234
194 205 220
191 201 217
194 206 221
184 195 210
178 188 202
173 182 196
170 179 193
160 170 182
159 168 181
159 168 181
159 168 181
159 168 181
159 168 181
159 168 181
159 168 181
159 168 181
159 168 181
159 168 181
159 168 181
159 168 181
159 168 181
159 168 181
159 168 181
159 168 181
159 168 181
159 168 181
159 168 181
159 168 181
159 168 181
159 168 181
159 168 181
160 168 181
160 168 181
160 168 181
160 168 181
137 144 155
136 144 154
134 141 151
132 139 149
130 137 147
133 140 150
130 137 147
138 146 156
137 144 155
136 144 154
136 143 153
137 145 155
138 146 156
131 138 148
133 140 150
130 137 147
140 148 158
141 149 159
132 139 149
140 147 158
137 145 155
139 146 157
137 145 155
136 143 153
140 147 158
133 140 150
133 140 150
137 144 154
139 147 157
137 144 154
139 146 157
134 142 152
133 140 149
134 141 151
139 146 157
138 145 155
139 146 156
141 148 159
134 141 151
136 143 154
137 144 154
136 143 153
136 144 154
131 138 148
141 148 159
139 146 156
134 141 151
137 144 155
136 143 153
134 141 151
135 142 152
138 146 156
138 145 156
137 144 155
132 139 149
138 145 156
160 168 181
160 168 181
160 168 181
160 168 181
159 168 181
159 168 181
159 168 181
159 168 181
159 168 181
159 168 181
159 168 181
159 168 181
159 168 181
159 168 181
159 168 181
159 168 181
159 168 181
159 168 181
159 168 181
159 168 181
159 168 181
159 168 181
159 168 181
159 168 181
159 168 181
159 168 181
159 168 181
161 170 183
166 175 188
167 177 190
176 186 200
182 193 207
191 201 217
187 197 212
192 203 218
202 214 230
211 223 240
212 224 241
216 228 246
222 235 253
224 237 255
224 237 255
224 237 255
224 237 255
224 237 255
224 237 255
224 237 255
224 237 255
224 237 255
224 237 255
224 237 255
224 237 255
224 237 255
224 237 255
224 237 255
224 237 255
224 237 255
224 237 255
224 237 255
224 237 255
224 237 255
224 237 255
224 237 255
224 237 255
224 237 255
224 237 255
224 237 255
224 237 255
224 237 255
224 237 255
224 237 255
224 237 255
224 237 255
224 237 255
224 237 255
224 237 255
224 237 255
224 237 255
224 237 255
224 237 255
224 237 255
224 237 255
224 237 255
224 237 255
224 237 255
224 237 255
224 237 255
224 237 255
224 237 255
224 237 255
224 237 255
224 237 255
222 234 252
214 226 243
208 220 237
208 219 236
199 210 226
195 206 222
194 205 220
185 195 210
180 191 205
171 181 194
166 175 188
160 170 182
159 168 181
159 168 181
159 168 181
159 168 181
159 168 181
159 168 181
159 168 181
159 168 181
159 168 181
159 168 181
159 168 181
159 168 181
159 168 181
159 168 181
159 168 181
159 168 181
159 168 181
159 168 181
159 168 181
159 168 181
159 168 181
159 168 181
160 168 181
160 168 181
160 168 181
160 168 181
160 168 181
160 168 181
160 168 181
160 168 181
160 168 181
160 168 181
160 168 181
160 168 181
160 168 181
160 168 181
160 168 181
160 168 181
160 169 181
160 169 181
145 153 164
134 141 151
135 142 152
131 138 148
137 144 154
135 143 153
135 142 152
136 144 154
128 135 144
135 142 152
134 141 151
135 142 152
134 141 151
136 143 153
137 144 154
137 144 154
135 142 152
137 144 154
136 143 153
140 147 157
133 140 149
134 141 151
134 141 150
133 140 149
136 143 153
135 142 152
136 143 153
140 147 157
130 137 146
133 140 150
134 141 151
139 146 156
139 146 156
139 147 157
136 143 153
135 142 151
135 142 152
134 141 151
137 144 154
137 144 154
137 144 154
135 142 152
134 141 151
133 140 150
131 138 147
140 147 157
140 148 158
131 138 148
134 141 151
135 142 152
138 145 155
132 139 148
135 142 152
135 142 152
136 144 154
144 152 162
160 169 181
160 169 181
160 168 181
160 168 181
160 168 181
160 168 181
160 168 181
160 168 181
160 168 181
160 168 181
160 168 181
160 168 181
160 168 181
160 168 181
160 168 181
160 168 181
160 168 181
159 168 181
159 168 181
159 168 181
159 168 181
159 168 181
159 168 181
159 168 181
159 168 181
159 168 181
159 168 181
159 168 181
159 168 181
159 168 181
159 168 181
159 168 181
159 168 181
159 168 181
159 168 181
159 168 181
159 168 181
159 168 181
159 168 181
159 168 181
160 169 181
165 174 188
176 186 200
177 187 201
185 196 211
191 201 217
197 208 224
200 212 228
208 220 237
211 223 240
216 229 246
222 234 252
224 237 255
224 237 255
224 237 255
224 237 255
224 237 255
224 237 255
224 237 255
224 237 255
224 237 255
224 237 255
224 237 255
224 237 255
224 237 255
224 237 255
224 237 255
224 237 255
224 237 255
224 237 255
224 237 255
224 237 255
224 237 255
224 237 255
224 237 255
224 237 255
224 237 255
224 237 255
224 237 255
224 237 255
224 237 255
221 233 251
213 225 242
209 221 238
203 215 231
198 209 225
194 205 220
182 193 207
176 186 200
178 188 202
168 178 191
166 175 188
159 168 181
159 168 181
159 168 181
159 168 181
159 168 181
159 168 181
159 168 181
159 168 181
159 168 181
159 168 181
159 168 181
159 168 181
159 168 181
159 168 181
159 168 181
159 168 181
159 168 181
159 168 181
159 168 181
159 168 181
159 168 181
159 168 181
159 168 181
159 168 181
160 168 181
160 168 181
160 168 181
160 168 181
160 168 181
160 168 181
160 168 181
160 168 181
160 168 181
160 168 181
160 168 181
160 168 181
160 168 181
160 168 181
160 168 181
160 169 181
160 169 181
160 169 181
160 168 180
160 169 181
160 169 181
160 169 181
160 169 181
160 169 181
160 169 181
160 168 180
160 169 181
160 169 181
151 159 170
132 139 148
135 142 152
133 140 150
135 142 151
136 143 153
132 139 148
137 144 154
137 144 154
136 143 152
137 144 154
135 142 152
131 138 147
135 142 152
132 138 148
135 142 152
134 141 150
140 147 157
133 140 149
135 142 151
135 142 151
135 142 151
137 144 153
136 143 152
135 142 151
135 142 151
135 142 152
138 145 155
132 139 148
137 144 153
134 140 150
135 142 151
137 143 153
134 141 150
134 141 150
138 145 155
136 143 153
135 142 151
134 141 151
132 139 148
134 141 151
138 145 155
137 143 153
133 140 149
136 143 153
133 140 150
134 141 150
135 142 151
135 141 151
137 144 154
132 139 149
134 141 150
137 144 154
132 139 149
136 143 153
156 164 175
160 169 181
160 169 181
160 169 181
160 169 181
160 169 181
160 169 181
160 169 181
160 169 181
160 169 181
160 169 181
160 169 181
160 169 181
160 169 181
160 168 181
160 168 181
160 168 181
160 168 181
160 168 181
160 168 181
160 168 181
160 168 181
160 168 181
160 168 181
160 168 181
160 168 181
160 168 181
160 168 181
160 168 181
159 168 181
159 168 181
159 168 181
159 168 181
159 168 181
159 168 181
159 168 181
159 168 181
159 168 181
159 168 181
159 168 181
159 168 181
159 168 181
159 168 181
159 168 181
159 168 181
159 168 181
159 168 181
159 168 181
159 168 181
159 168 181
159 168 181
159 168 181
159 168 181
164 173 186
165 174 188
173 182 196
181 191 206
193 204 219
196 208 223
194 206 221
196 207 223
206 218 235
210 222 239
218 231 248
223 236 254
224 237 255
224 237 255
224 237 255
224 237 255
224 237 255
224 237 255
224 237 255
224 237 255
205 217 233
203 214 231
196 208 223
191 202 217
174 184 198
172 182 195
167 176 189
163 172 185
159 168 181
159 168 181
159 168 181
159 168 181
159 168 181
159 168 181
159 168 181
159 168 181
159 168 181
159 168 181
159 168 181
159 168 181
159 168 181
159 168 181
159 168 181
159 168 181
159 168 181
159 168 181
159 168 181
159 168 181
159 168 181
159 168 181
159 168 181
159 168 181
159 168 181
160 168 181
160 168 181
160 168 181
160 168 181
160 168 181
160 168 181
160 168 181
160 168 181
160 168 181
160 168 181
160 168 181
160 168 181
160 168 181
160 168 181
160 168 181
160 168 181
160 169 181
160 169 181
160 169 181
160 169 181
160 169 181
160 169 181
160 169 181
160 169 181
160 169 181
160 169 181
160 169 181
160 168 180
160 169 181
161 169 181
161 169 181
161 169 181
160 168 180
161 169 181
161 169 181
161 169 181
160 168 180
160 169 180
160 169 180
161 169 181
138 145 155
129 136 145
131 138 147
131 137 146
135 142 151
134 141 151
131 137 147
133 140 149
134 141 150
129 135 144
137 144 154
136 143 152
133 139 148
137 143 153
131 137 146
131 138 147
132 138 147
136 142 152
137 144 153
133 139 148
131 137 146
135 142 151
136 143 152
134 141 150
137 143 153
134 141 150
139 146 155
136 143 152
136 142 151
135 141 150
136 143 152
137 144 153
140 147 156
137 143 153
135 142 151
138 145 154
127 133 142
134 141 150
134 141 150
140 147 157
137 143 153
136 143 152
137 143 153
131 138 147
132 138 148
136 143 152
134 141 150
135 141 151
133 139 149
132 139 148
131 138 147
133 140 149
129 136 145
134 141 150
161 169 180
161 169 181
161 169 181
160 169 180
160 168 180
161 169 181
161 169 181
161 169 181
161 169 181
161 169 181
161 169 181
160 169 181
160 169 181
160 169 181
160 169 181
160 169 181
160 169 181
160 169 181
160 169 181
160 169 181
160 169 181
160 169 181
160 169 181
160 169 181
160 169 181
160 168 181
160 168 181
160 168 181
160 168 181
160 168 181
160 168 181
160 168 181
160 168 181
160 168 181
160 168 181
160 168 181
160 168 181
160 168 181
160 168 181
160 168 181
159 168 181
159 168 181
159 168 181
159 168 181
159 168 181
159 168 181
159 168 181
159 168 181
159 168 181
159 168 181
159 168 181
159 168 181
159 168 181
159 168 181
159 168 181
159 168 181
159 168 181
159 168 181
159 168 181
159 168 181
159 168 181
159 168 181
159 168 181
159 168 181
159 168 181
164 174 187
170 180 194
180 191 205
185 195 210
193 204 220
198 210 226
205 217 233
206 218 234
159 168 181
159 168 181
159 168 181
159 168 181
159 168 181
159 168 181
159 168 181
159 168 181
159 168 181
159 168 181
159 168 181
159 168 181
159 168 181
159 168 181
159 168 181
159 168 181
159 168 181
159 168 181
159 168 181
159 168 181
159 168 181
159 168 181
159 168 181
159 168 181
160 168 181
160 168 181
160 168 181
160 168 181
160 168 181
160 168 181
160 168 181
160 168 181
160 168 181
160 168 181
160 168 181
160 168 181
160 168 181
160 168 181
160 168 181
160 169 181
160 169 181
160 169 181
160 169 181
160 169 181
160 169 181
160 169 181
160 169 181
160 169 181
160 169 181
160 169 181
160 169 181
160 169 181
160 169 181
161 169 181
161 169 181
161 169 181
161 169 181
161 169 181
161 169 181
161 169 181
161 169 181
160 169 180
161 169 181
160 168 180
161 169 181
160 168 180
161 169 181
161 169 181
161 169 181
161 169 181
161 169 180
161 169 181
161 169 181
147 154 164
132 138 147
135 141 151
129 135 144
132 139 148
129 135 144
129 136 144
133 139 148
141 147 157
129 135 144
136 142 152
134 140 149
134 140 149
133 140 149
133 139 148
135 142 151
137 143 152
132 139 148
131 138 146
133 139 148
133 139 148
135 141 150
133 140 149
139 145 155
137 143 152
135 141 150
136 142 151
130 136 145
136 142 151
139 145 155
133 140 149
133 139 148
132 138 147
135 141 150
130 136 145
137 144 153
137 143 153
138 144 154
134 140 149
137 143 153
133 139 148
136 142 152
135 142 151
132 138 147
135 142 151
129 135 144
140 146 156
131 137 146
132 138 147
128 134 143
137 144 153
134 140 150
126 132 141
148 155 165
161 169 180
161 169 180
161 169 181
161 169 181
161 169 181
161 169 180
161 169 181
160 168 180
161 169 180
161 169 181
161 169 180
161 169 181
161 169 181
161 169 181
161 169 181
161 169 181
161 169 181
161 169 181
161 169 181
161 169 181
160 169 181
160 169 181
160 169 181
160 169 181
160 169 181
160 169 181
160 169 181
160 169 181
160 169 181
160 169 181
160 169 181
160 169 181
160 169 181
160 169 181
160 168 181
160 168 181
160 168 181
160 168 181
160 168 181
160 168 181
160 168 181
160 168 181
159 168 180
160 168 181
160 168 181
160 168 181
160 168 181
160 168 181
160 168 181
159 168 181
159 168 181
159 168 181
159 168 181
159 168 181
159 168 181
159 168 181
159 168 181
159 168 181
159 168 181
159 168 181
159 168 181
159 168 181
159 168 181
159 168 181
159 168 181
159 168 181
159 168 181
159 168 181
159 168 181
159 168 181
159 168 181
159 168 181
159 168 181
159 168 181
159 168 181
159 168 181
159 168 181
159 168 181
159 168 181
159 168 181
159 168 181
159 168 181
159 168 181
159 168 181
159 168 181
159 168 181
159 168 181
159 168 181
160 168 181
160 168 181
160 168 181
160 168 181
160 168 181
160 168 181
160 168 181
160 168 181
160 168 181
160 168 181
160 168 181
160 168 181
160 168 181
160 168 181
160 168 181
160 168 181
160 169 181
160 169 181
160 169 181
160 169 181
160 169 181
160 169 181
160 169 181
160 169 181
160 168 180
160 169 181
160 169 181
160 169 181
160 169 181
161 169 181
161 169 181
161 169 181
161 169 181
161 169 181
161 169 181
161 169 181
161 169 181
161 169 181
161 169 181
161 169 181
161 169 181
161 169 181
161 169 181
161 169 181
161 169 181
161 169 180
161 169 181
161 169 180
161 169 181
160 168 179
161 169 181
161 169 180
161 169 180
162 169 181
162 169 181
160 168 179
162 169 181
161 169 180
158 166 177
133 139 148
132 138 147
128 134 143
133 139 148
131 137 146
130 137 145
129 135 144
135 141 150
130 136 144
135 142 151
136 142 151
136 143 152
129 135 144
136 143 152
135 141 150
130 136 145
140 146 155
141 147 157
134 140 149
134 140 149
129 135 144
135 141 150
134 141 149
133 139 148
137 143 152
134 141 149
132 138 147
134 141 149
137 143 152
131 137 146
137 143 152
133 139 148
131 137 146
127 133 141
132 138 146
136 142 151
135 141 150
134 140 149
132 138 147
134 140 149
133 140 148
133 139 148
135 142 151
128 134 142
133 139 148
135 141 150
137 144 153
128 134 143
137 143 152
133 139 148
128 134 143
132 138 147
158 166 177
160 168 179
161 169 180
161 168 179
161 169 180
162 169 181
161 169 180
161 169 181
161 169 181
161 169 180
161 169 181
161 169 181
161 169 180
161 169 181
161 169 181
161 169 181
161 169 181
161 169 181
161 169 181
161 169 181
161 169 181
161 169 181
161 169 181
161 169 181
161 169 181
161 169 181
160 168 180
161 169 181
161 169 181
160 168 180
160 169 181
160 169 181
160 169 181
160 169 181
160 169 181
160 169 181
160 169 181
160 169 181
160 169 181
160 169 181
160 169 181
160 169 181
160 169 181
160 169 181
160 168 181
160 168 181
160 168 181
160 168 181
160 168 181
160 168 181
160 168 181
160 168 181
160 168 181
160 168 181
160 168 181
160 168 181
160 168 181
160 168 181
160 168 181
159 168 181
159 168 181
159 168 181
159 168 181
159 168 181
159 168 181
159 168 181
159 168 181
159 168 181
159 168 181
159 168 181
159 168 181
159 168 181
159 168 181
159 168 181
159 168 181
159 168 181
159 168 181
159 168 181
159 168 181
160 168 181
160 168 181
160 168 181
160 168 181
160 168 181
160 168 181
160 168 181
160 168 181
160 168 181
160 168 181
160 168 181
160 168 181
160 168 181
160 168 181
160 168 181
160 168 181
160 168 181
160 169 181
160 169 181
160 169 181
160 169 181
160 169 181
160 169 181
160 169 181
160 169 181
160 169 181
160 169 181
160 169 181
160 169 181
160 169 181
160 169 181
161 169 181
161 169 181
161 169 181
161 169 181
161 169 181
161 169 181
161 169 181
161 169 181
161 169 181
161 169 181
161 169 181
161 169 181
161 169 180
161 169 181
161 169 181
161 169 181
161 169 181
161 169 180
161 169 181
161 169 180
161 169 181
161 169 180
160 168 179
162 169 181
162 169 181
161 169 180
162 169 181
161 169 180
161 169 180
161 169 180
161 169 180
161 169 180
162 170 181
162 170 181
162 169 180
161 169 180
161 169 179
161 168 179
147 154 164
129 135 144
129 135 144
132 138 147
134 140 149
129 135 144
130 136 145
135 141 150
130 136 145
130 136 144
128 133 142
131 137 146
136 142 151
137 143 152
135 141 150
131 137 145
130 136 145
133 139 148
132 138 146
134 140 149
134 140 149
130 136 144
133 139 147
131 137 145
133 139 148
131 137 145
129 135 143
133 139 148
136 142 150
135 140 149
135 141 149
137 143 151
133 139 147
129 135 143
133 139 147
135 141 150
132 138 146
135 141 150
135 141 149
132 138 146
136 142 151
133 139 147
132 138 146
134 140 149
131 137 146
133 140 148
133 139 148
132 138 147
128 134 142
130 136 144
132 138 146
141 147 157
162 170 181
162 169 180
162 170 181
162 170 181
162 169 180
161 169 179
162 170 181
161 169 180
160 168 179
162 170 181
161 169 180
162 169 181
162 169 181
161 169 180
161 169 180
162 169 181
161 169 180
161 169 180
161 169 181
161 169 180
161 169 181
161 169 181
161 169 181
161 169 181
161 169 181
161 169 181
161 169 181
161 169 181
161 169 181
161 169 181
161 169 181
161 169 181
161 169 181
161 169 181
161 169 181
161 169 181
160 168 180
161 169 181
160 169 181
160 169 181
160 169 181
160 169 181
160 169 181
160 169 181
160 169 181
160 169 181
160 169 181
160 169 181
160 169 181
160 169 181
160 169 181
160 169 181
160 168 181
160 168 181
160 168 181
160 168 181
160 168 181
160 168 181
160 168 181
160 168 181
160 168 181
160 168 181
160 168 181
160 168 181
160 168 181
160 168 181
160 168 181
160 168 181
159 168 181
159 168 181
159 168 181
159 168 181
159 168 181
159 168 181
160 168 181
160 168 181
160 168 181
160 168 181
160 168 181
160 168 181
160 168 181
160 168 181
160 168 181
160 168 181
160 168 181
160 168 181
160 168 181
160 168 181
160 168 181
160 169 181
160 169 181
160 169 181
160 169 181
160 169 181
160 169 181
160 169 181
160 169 181
160 169 181
160 169 181
160 169 181
160 169 181
160 169 181
160 169 181
161 169 181
161 169 181
161 169 181
161 169 181
161 169 181
161 169 181
161 169 181
161 169 181
161 169 181
161 169 181
161 169 181
161 169 180
161 169 181
161 169 180
161 169 181
161 169 180
161 169 180
161 169 181
161 169 181
161 169 181
161 169 181
161 169 181
161 169 180
161 169 180
161 169 180
161 169 180
162 169 181
162 170 181
161 169 180
161 169 180
162 170 181
162 169 180
161 169 180
162 169 180
162 170 181
162 169 180
162 170 181
161 169 180
162 169 180
161 168 179
161 169 179
161 168 178
162 169 180
162 169 180
162 169 180
159 166 176
129 135 143
129 134 143
129 135 143
132 138 146
128 134 142
128 134 142
131 136 145
130 136 144
129 135 143
129 135 143
125 130 138
135 141 150
131 137 145
124 129 137
131 137 145
134 140 149
137 143 151
130 136 144
132 137 145
131 137 145
127 133 141
129 135 143
132 138 146
129 135 143
129 135 143
137 143 151
131 137 145
127 133 141
132 138 146
134 139 148
130 135 143
129 135 143
136 142 151
134 140 148
132 138 146
137 143 151
130 136 144
133 139 148
131 136 145
131 137 145
131 137 145
128 134 142
129 134 142
126 131 139
130 136 145
132 138 146
130 136 144
128 134 142
127 132 140
126 132 140
161 168 179
162 170 180
162 170 180
161 168 178
162 169 180
162 169 180
161 169 179
161 168 179
160 168 178
161 169 180
161 169 180
162 169 180
162 170 181
162 169 180
162 170 181
161 169 180
162 170 181
161 168 179
161 169 180
162 169 181
162 169 181
161 169 180
162 169 181
161 169 181
161 169 181
161 169 181
161 169 181
161 169 181
161 169 181
161 169 181
161 169 181
161 169 181
161 169 181
161 169 181
161 169 181
161 169 181
161 169 181
161 169 181
161 169 181
161 169 181
161 169 181
161 169 181
161 169 181
161 169 181
161 169 181
160 168 180
160 169 181
160 169 181
160 169 181
160 169 181
160 169 181
160 169 181
160 169 181
160 169 181
160 169 181
160 169 181
160 169 181
160 169 181
160 169 181
160 169 181
160 169 181
160 168 181
160 168 181
160 168 181
160 168 181
160 168 181
160 168 181
160 168 181
160 168 181
160 168 181
160 168 181
160 168 181
160 168 181
160 168 181
160 168 181
160 168 181
160 168 181
160 168 181
160 168 181
160 168 181
160 168 181
160 169 181
160 169 181
160 169 181
160 169 181
160 169 181
160 169 181
160 169 181
160 169 181
160 168 180
160 169 181
160 169 181
160 169 181
160 169 181
160 169 181
160 169 181
161 169 181
161 169 181
161 169 181
161 169 181
161 169 181
161 169 181
161 169 181
161 169 181
161 169 181
161 169 181
161 169 181
161 169 181
161 169 181
161 169 181
161 169 181
161 169 181
161 169 181
161 169 180
161 169 181
161 169 181
161 169 181
161 169 181
161 169 181
161 169 181
160 168 179
162 169 181
162 169 181
162 169 181
162 169 181
161 169 180
162 170 181
162 170 181
162 170 181
162 169 180
162 170 181
160 168 178
162 169 180
161 169 180
162 170 181
162 169 180
162 169 180
162 169 180
161 169 179
162 169 180
163 170 181
162 169 180
161 168 178
161 168 178
162 169 179
161 168 178
162 169 179
162 169 179
159 167 177
161 169 179
148 155 164
128 134 142
124 129 137
129 135 143
129 134 142
132 138 146
126 131 139
125 130 138
135 141 149
132 137 145
132 137 145
132 138 146
130 135 143
133 139 147
131 137 144
137 143 151
134 140 148
127 132 140
130 136 144
134 140 148
128 133 141
135 141 149
133 139 147
130 136 144
133 138 146
130 135 143
132 138 146
129 135 142
129 135 143
126 131 139
134 139 147
131 136 144
132 137 145
130 135 143
136 142 150
130 135 143
130 135 143
128 134 142
133 139 147
130 136 144
130 135 143
132 137 146
132 138 146
127 133 141
133 138 147
128 133 141
130 135 143
125 131 139
127 132 140
150 157 166
159 166 176
161 168 178
159 166 176
160 168 178
162 169 179
162 170 180
161 168 179
161 168 179
161 169 179
163 170 181
161 169 179
162 169 180
162 170 181
161 168 179
162 170 181
161 169 179
162 169 180
162 170 181
162 169 180
161 168 179
162 170 181
162 169 180
162 170 181
162 170 181
161 169 180
161 169 180
162 169 181
161 169 180
162 169 181
162 169 181
161 169 180
161 169 181
161 169 181
161 169 180
161 169 181
161 169 180
161 169 181
161 169 181
161 169 181
161 169 181
161 169 181
161 169 181
161 169 181
161 169 181
161 169 181
161 169 181
161 169 181
161 169 181
161 169 181
161 169 181
161 169 181
161 169 181
161 169 181
160 169 181
160 169 181
160 169 181
160 169 181
160 169 181
160 168 180
160 169 181
160 169 181
160 169 181
160 169 181
160 169 181
160 169 181
160 169 181
160 169 181
160 169 181
160 168 181
160 168 181
160 168 181
160 168 181
160 168 181
160 168 181
160 168 181
160 169 181
160 169 181
160 169 181
160 169 181
160 169 181
160 169 181
160 169 181
160 169 181
160 169 181
160 169 181
160 169 181
160 169 181
160 169 181
160 169 181
161 169 181
161 169 181
161 169 181
161 169 181
161 169 181
161 169 181
161 169 181
161 169 181
161 169 181
161 169 181
160 169 180
161 169 181
161 169 181
161 169 181
161 169 181
161 169 181
161 169 181
161 169 181
161 169 181
161 169 181
161 169 181
161 169 181
161 169 181
161 169 181
162 169 181
162 169 181
162 169 181
162 169 181
161 169 180
162 170 181
162 170 181
162 170 181
162 170 181
162 170 181
162 169 180
162 169 180
162 170 181
162 170 181
162 169 180
162 169 180
161 169 179
162 170 181
162 169 180
162 169 180
160 168 178
163 170 181
162 170 180
162 169 179
163 170 181
162 170 180
162 170 180
162 169 179
160 167 177
161 168 178
162 169 180
162 169 179
160 167 177
160 167 177
163 170 180
160 166 176
161 168 178
160 166 176
132 137 145
128 134 141
130 135 143
123 128 136
127 132 140
129 135 142
127 133 140
127 132 140
130 135 143
132 138 146
136 141 149
130 135 143
127 133 140
132 137 145
131 137 145
135 141 149
135 140 148
136 141 149
136 141 149
130 135 143
132 137 145
136 141 149
131 137 144
127 132 140
129 134 142
127 132 139
134 140 148
132 138 146
129 135 142
131 136 144
133 139 147
129 134 142
131 136 144
135 141 149
129 134 142
132 137 145
134 139 147
127 132 140
128 133 141
130 136 143
130 136 143
131 137 145
129 134 142
130 135 143
122 127 135
125 130 138
122 127 134
128 133 141
156 163 172
160 167 177
158 164 174
160 167 176
162 169 179
161 168 178
159 166 176
162 169 180
162 169 179
162 169 179
163 170 180
162 170 180
162 169 180
163 170 181
162 169 180
163 170 181
163 170 181
163 170 181
162 170 180
162 170 181
162 170 181
161 168 178
161 169 180
162 169 180
162 169 180
161 168 179
162 169 180
162 169 180
161 169 179
161 169 180
162 170 181
162 170 181
162 170 181
162 169 181
162 169 181
161 169 180
161 169 180
162 169 181
161 169 181
161 169 180
161 169 181
161 169 181
161 169 181
161 169 180
161 169 180
161 169 181
161 169 181
161 169 181
161 169 181
161 169 181
160 168 180
161 169 181
161 169 181
161 169 181
160 169 180
161 169 181
161 169 181
161 169 181
161 169 181
161 169 181
161 169 181
160 169 181
160 169 181
160 169 181
160 169 181
160 169 181
160 169 181
160 169 181
160 169 181
160 169 181
160 169 181
160 169 181
160 169 181
160 169 181
160 169 181
160 169 181
160 169 181
160 169 181
160 169 181
160 169 181
160 169 181
160 169 181
160 169 181
160 169 181
161 169 181
161 169 181
161 169 181
161 169 181
161 169 181
161 169 181
161 169 181
161 169 181
161 169 181
161 169 181
161 169 181
161 169 181
161 169 181
161 169 181
161 169 181
161 169 181
161 169 181
161 169 181
161 169 180
161 169 181
161 169 181
161 169 181
161 169 181
161 169 181
161 169 180
161 169 180
162 169 181
162 169 181
162 169 181
162 170 181
162 170 181
161 169 180
162 169 180
162 169 180
161 169 180
162 170 181
162 169 180
162 169 180
162 170 181
162 169 180
162 170 181
162 170 181
162 170 181
163 170 181
163 170 181
162 170 180
162 169 179
162 169 180
162 170 180
163 170 181
160 167 177
163 170 180
162 169 179
161 169 179
162 169 179
163 170 180
160 167 177
161 168 178
160 167 177
162 169 178
160 167 177
161 168 178
162 169 179
161 167 177
160 167 176
162 168 178
158 164 174
157 164 173
153 160 169
132 137 145
125 130 137
128 133 140
127 132 139
128 134 141
130 135 142
126 131 139
129 134 142
128 133 140
127 132 139
129 134 141
130 135 143
130 135 143
127 132 140
135 141 148
131 137 144
122 127 134
127 132 139
130 135 142
128 133 140
130 135 143
127 132 140
132 138 145
128 133 140
133 138 146
132 138 145
131 137 144
131 136 143
133 138 145
132 137 144
128 133 140
128 133 140
132 137 144
131 136 144
129 134 142
130 135 143
130 136 143
128 133 141
132 137 145
130 136 143
127 132 140
130 135 143
128 134 141
124 129 137
126 132 139
133 139 147
154 161 170
160 167 176
161 167 177
158 164 174
161 167 177
161 168 178
162 169 179
159 166 176
161 168 178
162 169 178
163 170 180
163 170 180
162 170 180
162 169 179
162 169 179
162 170 180
162 169 180
162 169 180
161 168 179
162 169 180
162 170 180
161 168 179
162 169 180
163 170 181
162 169 179
161 168 179
162 170 181
162 170 181
162 170 181
162 169 180
162 170 181
161 168 179
162 170 181
161 169 179
162 170 181
162 170 181
162 170 181
162 170 181
162 170 181
162 170 181
162 169 181
162 169 181
162 169 181
162 169 181
161 169 181
161 169 181
161 169 181
161 169 181
161 169 181
161 169 180
161 169 181
161 169 181
161 169 181
161 169 181
161 169 181
161 169 181
161 169 181
161 169 181
161 169 181
161 169 181
161 169 181
161 169 181
161 169 181
161 169 181
160 168 180
160 168 180
161 169 181
161 169 181
161 169 181
160 169 181
160 169 181
160 169 181
160 169 181
160 169 181
160 169 181
160 169 181
160 169 181
160 169 181
161 169 181
161 169 181
161 169 181
161 169 181
161 169 181
161 169 181
161 169 181
161 169 181
161 169 181
161 169 181
160 169 180
161 169 181
161 169 181
161 169 181
161 169 180
161 169 181
160 168 180
161 169 181
161 169 181
161 169 181
161 169 181
161 169 181
161 169 181
161 169 181
161 169 181
161 169 180
162 169 181
162 169 181
162 169 181
162 169 181
161 169 180
162 170 181
162 170 181
162 170 181
162 170 181
162 170 181
162 169 180
162 170 181
162 169 180
162 170 181
162 169 180
162 170 181
162 169 180
162 170 181
162 170 181
162 169 179
162 169 180
163 170 181
162 170 180
163 170 181
162 169 180
163 170 181
162 170 180
161 168 178
160 167 178
162 170 180
162 169 179
161 168 178
161 168 178
161 168 178
160 167 177
160 167 177
163 169 179
161 168 178
159 165 175
161 168 177
161 168 177
159 166 175
161 168 177
162 168 178
158 164 174
157 163 173
160 166 176
157 164 173
155 162 171
156 163 172
146 152 160
120 125 132
123 128 135
120 125 132
129 134 142
125 130 137
124 129 136
133 138 146
127 132 139
128 133 140
125 130 137
128 133 140
131 136 143
129 134 141
132 137 144
129 134 142
125 130 137
128 133 140
130 135 142
127 132 139
125 129 136
128 133 140
126 130 137
130 135 142
130 135 142
131 136 143
130 135 142
126 131 138
131 136 143
127 132 139
130 135 143
125 130 137
129 134 141
132 137 144
126 131 138
128 133 141
123 128 135
128 133 141
128 133 140
126 131 138
124 129 136
132 137 145
131 136 143
121 126 133
128 133 140
151 157 166
153 159 168
155 161 170
158 165 174
159 166 175
158 164 173
160 167 176
159 165 175
159 165 175
162 169 178
162 169 178
160 167 177
160 167 176
161 168 178
160 167 177
162 169 178
160 166 176
162 169 179
161 168 178
163 170 180
162 169 180
162 169 179
162 169 180
161 168 178
161 168 179
162 170 180
162 169 179
163 170 181
163 170 181
163 170 181
163 170 181
162 170 180
161 169 179
162 170 181
162 170 181
162 170 181
162 169 180
162 169 180
162 170 181
162 170 181
162 170 181
162 170 181
162 169 180
162 170 181
161 169 180
162 170 181
162 170 181
162 169 181
162 169 181
162 169 181
161 169 180
161 169 181
161 169 181
161 169 181
161 169 181
161 169 181
161 169 180
161 169 181
161 169 180
161 169 181
161 169 181
161 169 181
161 169 181
161 169 181
161 169 181
161 169 181
161 169 181
161 169 181
161 169 181
160 169 180
161 169 181
161 169 181
161 169 181
161 169 181
161 169 181
160 168 180
161 169 181
160 169 181
161 169 181
161 169 181
161 169 181
161 169 181
161 169 181
161 169 181
161 169 181
161 169 180
161 169 181
161 169 181
161 169 181
161 169 181
161 169 181
161 169 180
161 169 181
161 169 181
161 169 180
161 169 181
161 169 181
161 169 181
161 169 180
162 169 181
162 169 181
162 169 181
162 169 181
162 169 181
162 170 181
162 170 181
162 170 181
162 170 181
162 169 180
162 170 181
161 169 179
162 170 181
162 170 181
162 170 181
162 170 181
162 170 181
162 170 181
162 169 180
162 170 180
162 169 180
163 170 181
162 169 180
163 170 181
161 169 179
162 169 180
163 170 180
163 170 180
162 169 180
162 169 179
163 170 180
161 168 178
161 168 178
162 169 179
162 169 179
163 170 180
162 169 179
162 169 178
161 167 177
162 169 179
163 169 179
160 167 177
163 169 179
158 165 174
160 166 176
158 165 174
161 168 177
159 165 175
161 167 177
158 165 174
156 162 171
156 162 171
154 161 169
153 159 167
153 159 168
157 163 172
149 155 163
141 147 155
124 129 135
120 124 131
119 123 130
127 132 139
127 132 139
125 130 137
128 133 140
125 130 137
124 129 135
131 136 143
122 126 133
131 136 143
128 133 140
125 130 136
129 133 140
127 132 138
126 131 138
128 133 140
123 128 135
131 136 143
130 135 142
126 131 138
130 135 142
126 131 138
125 130 137
124 128 135
128 132 139
129 133 140
124 129 135
128 133 140
128 133 139
125 130 137
127 132 138
122 126 133
123 128 135
129 134 141
124 128 135
125 130 137
116 121 127
124 129 135
125 129 136
127 132 139
141 147 154
155 161 170
154 160 169
156 163 171
154 160 169
157 164 173
156 163 172
159 165 174
162 168 178
159 166 175
157 163 172
159 166 175
160 167 176
161 167 177
160 167 176
162 168 178
161 168 178
162 169 179
163 170 180
161 168 177
163 170 180
163 170 180
163 170 180
162 169 179
162 169 179
163 170 180
163 170 180
162 169 179
163 170 181
161 168 178
163 170 180
163 170 181
162 169 180
162 169 179
162 170 180
162 170 180
163 170 181
162 169 180
162 170 181
162 170 181
162 170 181
162 169 180
162 169 180
162 170 181
162 170 181
162 170 181
162 170 181
162 170 181
162 170 181
162 169 180
162 170 181
161 169 180
162 170 181
162 169 181
162 169 181
162 169 181
162 169 181
162 169 181
161 169 181
161 169 180
161 169 181
161 169 181
161 169 181
161 169 181
161 169 181
161 169 181
161 169 180
161 169 181
161 169 181
161 169 181
161 169 180
161 169 181
161 169 181
161 169 181
161 169 181
161 169 181
161 169 181
161 169 181
160 168 180
161 169 181
161 169 181
161 169 181
161 169 181
161 169 180
161 169 181
161 169 181
161 169 181
161 169 181
161 169 181
161 169 180
161 169 181
161 169 181
161 169 181
160 168 179
162 169 181
162 169 181
162 169 181
161 169 180
162 169 181
162 169 181
161 169 180
162 170 181
162 170 181
162 169 180
162 170 181
162 170 181
161 169 180
162 169 180
162 170 181
162 170 181
162 170 181
162 170 181
161 169 179
162 170 181
162 169 180
162 170 180
163 170 181
163 170 181
162 170 180
163 170 181
162 169 180
162 169 179
163 170 180
162 169 179
163 170 180
163 170 181
162 169 179
163 170 181
161 168 178
161 168 178
161 168 178
162 169 179
162 169 179
163 170 180
162 169 179
161 168 178
163 170 179
163 170 179
163 169 179
160 166 176
163 169 179
162 168 178
159 165 175
160 166 176
161 168 177
159 165 174
158 164 173
157 163 172
157 163 172
159 165 174
153 159 168
156 162 171
156 162 171
156 162 170
149 155 163
147 153 161
148 154 162
141 147 154
137 143 150
123 128 134
120 124 131
121 125 132
124 128 135
123 128 134
123 128 134
121 125 132
130 135 141
123 128 134
123 128 134
126 130 137
128 133 139
128 132 139
122 126 133
122 127 133
132 137 144
124 128 135
125 129 136
125 130 136
123 128 134
122 127 133
127 132 139
123 127 134
127 132 139
131 136 143
128 133 140
126 131 138
123 128 134
125 130 137
127 132 138
125 129 136
127 131 138
123 128 135
119 124 130
121 126 132
131 136 143
130 135 142
119 124 130
118 123 129
119 123 130
141 146 154
148 154 162
142 147 155
152 157 166
147 153 161
151 157 165
157 163 171
154 160 168
158 164 173
160 166 175
157 163 172
160 167 176
158 164 173
162 168 177
161 167 177
164 170 180
162 169 178
162 168 178
160 167 176
162 169 178
161 168 177
163 169 179
161 168 178
163 170 180
161 168 178
162 169 179
162 169 179
163 169 179
163 170 180
163 170 180
163 170 180
161 168 178
163 170 180
162 169 180
162 169 179
161 168 178
162 169 179
162 170 180
162 170 180
163 170 181
163 170 181
163 170 181
163 170 181
162 170 180
162 170 180
162 170 181
162 170 181
162 169 180
162 169 180
162 169 180
162 170 181
162 170 181
161 169 180
162 170 181
161 169 179
162 170 181
162 170 181
161 169 180
162 170 181
161 169 180
161 169 180
162 169 181
162 169 181
161 169 180
162 169 181
161 169 181
161 169 181
161 169 181
161 169 181
161 169 181
161 169 181
161 169 181
161 169 181
161 169 181
161 169 181
161 169 181
161 169 181
161 169 181
161 169 181
161 169 180
161 169 181
161 169 181
161 169 181
161 169 181
161 169 181
161 169 181
161 169 180
161 169 181
161 169 181
161 169 181
162 169 181
162 169 181
162 169 181
162 169 181
161 169 180
161 169 180
162 170 181
162 170 181
162 170 181
162 170 181
162 170 181
161 168 179
162 170 181
162 170 181
162 170 181
162 169 180
162 170 181
162 169 180
162 169 180
162 170 181
162 170 181
163 170 181
163 170 181
162 170 180
163 170 181
163 170 181
163 170 181
162 169 179
162 169 179
163 170 180
162 169 180
163 170 181
162 169 180
163 170 181
162 169 179
163 170 181
163 170 180
162 169 179
164 171 181
164 171 181
163 170 180
162 169 179
163 169 179
162 169 178
162 169 178
161 168 177
160 167 176
161 168 177
160 166 176
160 167 176
158 164 174
161 167 176
161 168 177
161 167 177
160 166 175
157 164 172
162 168 177
158 164 173
152 158 166
159 165 174
161 167 176
156 162 170
154 160 168
150 156 164
150 156 164
146 152 159
149 155 163
144 150 157
139 144 151
138 143 150
134 139 146
115 119 125
120 124 131
121 126 132
119 123 129
125 129 136
124 128 135
125 130 136
124 129 135
120 124 130
125 130 136
122 127 133
128 133 139
129 134 140
126 130 136
131 136 143
126 130 136
128 132 138
122 126 132
124 128 135
124 128 134
126 130 137
124 128 134
121 125 132
127 132 138
125 129 135
124 128 135
125 130 136
125 129 135
119 123 129
127 131 138
120 124 131
125 130 136
122 126 132
120 124 130
121 125 132
119 123 129
112 116 122
118 122 129
128 132 139
141 146 153
143 149 156
147 153 160
147 152 160
146 152 160
153 159 167
147 153 161
156 162 170
157 163 172
154 160 169
157 163 172
159 165 174
158 164 173
159 165 174
160 166 175
159 166 175
162 169 178
160 166 175
160 166 175
160 167 176
159 166 175
160 167 176
163 170 179
160 167 176
163 170 180
162 169 178
163 170 180
163 170 179
162 169 178
162 169 178
159 166 175
164 171 181
161 168 178
163 170 180
162 169 179
163 170 180
161 168 178
163 170 181
163 170 180
163 170 180
162 169 179
162 169 180
162 169 179
162 169 179
162 169 180
163 170 181
162 170 180
163 170 181
163 170 181
161 169 179
162 169 180
162 169 180
162 169 180
162 169 180
162 170 181
162 169 180
162 169 180
162 170 181
161 169 180
162 170 181
162 170 181
162 170 181
162 170 181
162 170 181
161 169 180
162 169 181
162 169 181
162 169 181
162 169 181
162 169 181
161 169 181
161 169 181
161 169 181
161 169 181
161 169 181
161 169 180
161 169 181
161 169 181
161 169 181
161 169 181
161 169 181
161 169 181
161 169 181
161 169 180
162 169 181
162 169 181
161 169 180
161 169 180
162 169 181
162 169 181
162 170 181
161 169 180
162 170 181
162 170 181
161 169 180
162 170 181
162 169 180
162 169 180
162 170 181
162 170 181
162 169 180
162 170 181
162 170 181
161 169 179
162 170 181
162 169 180
163 170 181
163 170 181
162 169 180
162 169 179
162 169 179
163 170 181
162 170 180
162 169 180
163 170 181
162 169 179
163 170 181
163 170 180
162 169 179
163 170 181
163 170 180
163 170 181
162 169 179
163 170 180
162 169 179
163 170 180
164 171 181
163 170 180
163 170 179
163 169 179
161 167 177
162 169 178
162 168 178
160 166 176
163 169 179
163 169 178
161 168 177
162 169 178
162 168 177
161 167 176
163 169 178
161 167 176
158 164 173
162 168 177
158 164 173
160 166 175
155 160 169
155 161 170
157 163 171
153 159 167
154 160 169
152 158 166
152 158 166
155 161 169
148 154 162
149 154 162
142 147 154
141 146 153
137 142 149
132 137 144
125 130 136
128 132 139
115 119 125
119 123 129
122 126 132
123 127 133
116 120 125
130 134 141
121 125 131
118 122 128
124 128 134
124 128 134
125 129 135
121 125 131
122 127 133
119 123 129
120 124 130
122 126 132
125 129 135
126 130 136
127 132 138
123 127 133
123 127 133
124 128 134
121 126 132
120 124 130
123 128 134
124 129 135
120 124 130
123 127 133
119 123 129
121 125 131
117 121 127
122 126 132
121 125 131
117 121 127
116 121 126
116 121 127
124 128 135
132 136 143
133 137 144
140 145 152
144 149 156
140 145 152
151 156 164
151 156 164
150 155 163
158 164 173
157 163 171
154 160 168
150 156 164
156 162 171
155 161 169
157 163 172
158 164 173
161 167 176
160 167 176
159 165 174
162 168 178
162 168 177
160 166 175
160 167 176
161 167 176
164 170 180
161 168 177
161 167 177
161 168 177
163 169 179
162 169 178
163 170 179
161 168 178
162 169 179
163 170 179
163 170 180
164 171 181
162 169 179
162 169 179
162 169 179
163 170 180
163 170 181
163 170 181
163 170 181
162 169 180
162 169 179
163 170 181
163 170 181
163 170 181
162 170 180
163 170 181
162 170 180
162 170 180
162 170 180
162 170 180
163 170 181
162 170 180
162 169 180
162 170 181
162 169 180
161 169 180
161 169 179
162 170 181
162 169 180
162 170 181
162 170 181
162 170 181
162 169 180
162 170 181
161 169 180
162 170 181
162 170 181
162 169 181
162 169 181
162 169 181
162 169 181
162 169 181
162 169 181
161 169 181
161 169 181
161 169 180
161 169 181
162 169 181
162 169 181
162 169 181
161 169 180
162 170 181
162 170 181
162 170 181
162 170 181
162 170 181
162 170 181
162 170 181
162 170 181
161 169 180
162 170 181
162 170 181
162 170 181
162 169 180
162 169 180
162 170 181
162 170 181
162 170 181
162 169 180
162 170 180
163 170 181
163 170 181
162 170 180
162 170 180
163 170 181
163 170 181
162 169 180
163 170 181
162 170 180
163 170 181
163 170 181
163 170 180
163 170 181
162 169 179
162 169 179
163 170 180
164 171 181
164 171 181
163 170 180
164 171 181
163 170 179
163 170 180
163 170 180
163 170 180
163 170 179
163 170 179
163 169 179
162 169 178
164 170 180
163 169 179
162 169 178
161 167 177
161 167 176
164 170 180
162 168 177
157 163 172
161 168 176
159 165 174
159 165 174
162 169 177
157 163 172
157 163 171
158 164 173
154 160 168
151 157 165
155 161 169
152 158 166
151 157 164
150 156 164
148 153 161
143 149 156
139 144 152
141 146 154
136 141 148
134 139 146
137 142 149
130 134 141
130 134 141
118 123 128
121 125 131
112 116 121
119 123 129
119 124 129
116 120 126
121 125 131
118 122 127
119 123 129
123 127 133
123 127 133
116 120 126
120 124 130
120 124 129
115 119 124
123 127 132
120 124 130
122 126 132
121 125 131
119 123 129
121 125 131
118 122 128
123 127 133
125 130 136
123 127 132
120 124 130
123 127 133
119 123 129
117 121 127
123 127 133
120 125 130
123 127 133
115 119 125
118 122 127
111 115 120
108 112 118
122 126 132
121 125 132
131 135 142
127 132 138
128 132 139
139 144 151
143 148 155
146 151 158
142 147 155
150 156 163
145 150 157
156 162 170
152 157 165
153 158 166
149 154 162
155 161 169
157 163 171
159 165 174
154 160 168
158 164 173
160 166 175
160 166 175
158 164 173
161 167 176
158 164 173
160 166 175
161 167 176
160 167 176
161 168 177
163 170 179
162 169 178
163 170 179
162 169 178
163 169 179
162 169 178
161 168 177
163 170 179
163 170 179
164 171 181
164 171 181
163 170 180
163 170 179
161 168 178
162 168 178
163 170 180
162 169 179
163 170 180
162 169 179
161 168 178
163 170 181
163 170 181
163 170 181
162 169 179
163 170 180
163 170 180
162 170 180
163 170 181
162 169 180
162 169 180
162 170 180
163 170 181
163 170 181
162 170 181
162 170 181
162 170 181
162 170 181
162 170 181
162 170 181
162 170 181
162 169 180
162 170 181
162 170 181
162 170 181
161 169 180
161 169 180
162 170 181
162 170 181
162 170 181
162 169 181
162 169 181
161 169 180
161 169 180
162 169 181
162 170 181
162 170 181
162 170 181
161 169 180
162 170 181
162 170 181
162 170 181
162 170 181
162 170 181
162 170 181
162 170 181
162 170 181
162 169 180
162 170 181
162 170 181
162 170 181
163 170 181
162 170 180
162 169 179
163 170 181
162 170 180
163 170 181
163 170 181
162 170 180
163 170 181
163 170 180
163 170 181
162 169 180
163 170 180
162 169 180
162 169 179
163 170 180
163 170 180
161 168 178
164 171 181
162 168 178
163 170 180
163 170 180
161 168 178
162 169 178
163 169 179
164 171 181
163 170 180
162 169 178
162 169 178
163 170 179
164 171 180
161 168 177
163 169 178
164 171 180
162 168 177
162 168 177
161 167 176
162 168 177
163 169 178
159 165 174
161 167 176
160 166 175
159 165 174
160 166 174
162 168 177
156 162 170
158 164 172
158 164 172
157 163 171
154 160 168
157 162 171
153 159 167
154 159 167
148 153 161
151 156 164
146 151 158
152 157 165
147 152 159
142 147 155
140 145 152
143 147 155
134 139 145
130 134 141
120 124 130
114 118 123
122 126 132
116 120 125
115 118 124
107 110 116
110 114 119
113 117 123
112 116 122
113 117 122
116 120 125
112 116 121
121 125 130
121 125 130
119 123 128
115 119 124
122 126 132
122 126 132
117 120 126
112 115 121
121 125 131
122 126 132
121 125 131
121 124 130
127 131 137
122 125 131
119 123 128
113 116 122
117 121 126
111 115 120
116 120 126
115 119 124
116 120 125
111 115 120
111 115 120
111 115 120
107 111 116
112 116 121
111 115 121
111 115 121
125 129 135
132 137 143
133 138 144
128 132 138
137 142 149
147 152 159
144 149 156
145 150 157
146 151 159
148 153 161
147 152 159
155 160 168
154 160 168
153 159 167
153 158 166
156 162 170
160 165 174
158 163 172
158 163 172
159 165 173
160 166 175
161 168 176
159 165 173
162 168 177
162 168 177
159 165 174
161 167 176
161 167 176
162 168 178
161 168 177
162 168 178
161 167 176
160 167 176
161 168 177
163 169 179
163 169 179
162 169 178
163 169 179
163 170 180
162 168 178
164 170 180
163 170 180
163 170 180
163 170 180
163 170 180
163 170 180
163 170 180
163 170 180
163 170 181
163 170 180
162 170 180
163 170 181
162 169 180
163 170 181
163 170 181
162 169 179
163 170 181
163 170 181
163 170 181
163 170 181
162 170 180
162 170 180
162 169 180
163 170 181
163 170 181
162 170 181
162 170 181
162 170 181
162 170 181
162 169 180
162 170 181
162 169 180
162 170 181
162 170 181
162 170 181
162 170 181
162 170 181
162 170 181
161 169 180
162 170 181
162 170 181
162 170 181
162 170 181
162 170 181
162 170 181
162 169 180
162 169 180
162 170 181
162 169 180
162 169 180
162 170 181
162 170 181
162 170 180
163 170 181
163 170 181
163 170 181
163 170 181
163 170 181
162 169 179
162 170 180
163 170 180
162 169 180
162 170 180
163 170 181
163 170 180
163 170 180
163 170 180
163 170 181
163 170 180
163 170 181
162 169 179
164 171 181
162 169 179
164 171 181
163 170 180
163 170 180
163 170 180
163 170 179
163 170 180
163 170 180
163 169 179
162 169 178
163 169 179
163 169 179
161 168 177
164 170 180
163 170 179
162 168 177
161 167 176
163 169 178
162 168 177
163 170 179
160 166 175
162 168 177
162 168 177
161 167 176
161 167 176
161 167 175
158 164 173
156 162 170
160 166 174
157 162 171
162 168 176
159 164 173
158 164 172
157 162 171
159 164 172
155 161 169
155 161 168
148 153 161
146 151 158
149 154 161
148 153 161
148 153 160
147 152 159
142 147 154
137 142 149
140 145 151
141 145 152
133 138 144
126 131 137
124 128 134
107 110 115
109 112 118
105 109 114
99 103 107
92 95 99
90 93 97
105 109 114
111 115 120
105 108 113
109 113 118
114 117 123
117 120 126
116 120 125
113 117 122
121 125 130
112 115 121
114 118 123
121 124 130
116 119 125
120 123 129
117 120 126
110 114 119
119 122 128
113 116 121
117 121 126
116 120 125
113 116 122
112 115 121
111 115 120
107 110 115
112 115 121
109 113 118
95 98 102
94 97 101
101 104 109
99 102 107
114 117 123
121 125 131
116 120 126
130 134 140
125 129 135
127 131 138
135 139 146
139 143 150
137 142 149
142 147 154
146 151 158
144 149 156
153 159 166
151 156 163
154 160 167
152 158 166
153 159 166
154 160 168
158 164 172
154 160 168
155 161 169
158 164 172
155 161 169
158 163 172
154 159 167
161 167 175
162 168 176
158 164 173
161 167 176
164 170 179
162 168 177
163 169 178
161 168 177
163 169 178
163 170 179
159 165 174
164 171 180
164 170 179
163 169 178
163 170 179
162 168 178
163 170 179
162 169 178
162 169 178
163 170 180
163 170 179
162 169 178
163 170 180
163 169 179
163 170 179
163 170 180
163 170 180
163 170 180
163 170 180
163 170 180
162 169 179
163 170 181
162 170 180
163 170 181
163 170 181
163 170 181
162 170 180
163 170 181
162 170 180
162 170 180
163 170 181
163 170 181
161 169 179
163 170 181
162 170 180
163 170 181
162 170 181
162 169 180
162 169 180
162 170 181
162 170 181
162 170 181
162 169 180
162 170 181
162 169 180
162 170 181
162 170 181
162 170 181
162 170 181
162 170 181
162 170 181
162 170 181
162 170 181
162 169 180
162 170 181
161 169 179
163 170 181
162 169 179
163 170 181
163 170 181
163 170 181
162 170 180
163 170 181
163 170 181
163 170 180
163 170 180
162 170 180
162 169 180
163 170 181
163 170 180
162 170 180
162 169 179
162 169 179
163 170 180
163 170 180
163 170 180
163 170 180
163 170 180
163 170 179
163 170 180
163 170 180
164 171 181
164 170 180
163 169 179
163 170 180
162 168 178
164 170 180
163 169 178
163 170 179
164 170 180
164 170 179
162 168 177
164 171 180
162 168 177
163 169 178
162 168 177
161 167 176
164 170 179
161 167 176
160 166 175
157 163 172
161 167 175
161 167 175
159 164 173
157 163 171
159 164 173
160 166 174
157 162 171
163 169 177
158 164 172
158 164 172
157 163 171
151 156 164
157 162 170
151 156 164
154 159 166
149 154 162
150 155 162
151 156 163
140 145 152
145 150 157
137 142 148
145 149 156
137 142 148
133 137 143
133 137 144
123 127 133
123 127 133
115 119 124
113 116 121
103 106 111
107 110 115
100 103 108
87 90 94
91 94 98
65 67 69
84 86 90
100 103 108
104 108 112
96 99 104
105 108 113
115 119 124
109 113 118
113 116 121
111 115 119
113 116 121
112 115 120
113 116 121
113 116 121
111 114 119
112 116 120
110 113 118
114 118 123
110 114 119
109 112 117
103 106 111
108 111 116
109 112 117
96 99 103
93 96 100
82 84 88
84 86 90
96 99 103
89 92 96
100 104 108
110 113 118
100 103 108
118 122 128
126 130 136
133 137 143
133 137 143
129 133 139
137 141 148
138 143 149
145 149 156
141 146 153
145 150 157
145 150 157
147 152 159
146 151 159
157 162 170
157 163 170
156 161 169
157 163 171
156 162 169
155 160 168
163 169 177
160 166 174
159 165 173
158 163 172
159 165 173
157 163 171
159 165 173
163 169 178
160 166 175
161 167 176
161 167 176
163 170 179
161 167 175
158 164 173
163 169 178
162 168 177
163 170 179
164 170 179
164 170 179
162 169 178
163 169 179
163 169 178
160 166 175
162 168 178
163 169 179
162 169 178
163 169 179
163 170 180
162 168 178
164 171 181
163 169 179
163 170 180
163 170 180
163 170 180
163 170 180
162 169 179
162 169 179
162 169 179
163 170 180
163 170 181
163 170 180
162 169 179
163 170 180
163 170 180
163 170 180
163 170 181
163 170 181
163 170 181
163 170 181
163 170 181
163 170 181
162 170 180
163 170 181
163 170 181
162 169 179
162 170 181
162 170 181
162 170 181
162 170 181
162 170 181
162 169 180
162 170 181
162 170 181
162 170 181
162 170 180
162 169 180
162 169 180
163 170 181
163 170 181
163 170 181
162 169 179
163 170 181
163 170 181
163 170 181
163 170 181
163 170 181
163 170 180
163 170 181
163 170 181
162 169 179
163 170 180
163 170 181
163 170 181
162 169 179
163 170 180
163 170 180
163 170 180
163 170 180
163 170 180
163 170 179
163 170 179
164 171 181
163 169 179
162 169 179
163 170 179
163 169 179
163 169 179
162 168 178
163 170 179
164 171 180
162 168 177
163 169 179
163 170 179
160 167 176
163 169 178
164 170 179
162 168 177
163 169 178
161 167 176
163 169 178
163 169 178
162 168 177
162 168 177
159 165 173
159 165 173
158 164 173
161 167 175
159 164 173
161 167 175
159 165 173
160 166 174
155 160 168
160 166 174
154 159 167
152 158 165
153 158 166
156 161 169
157 163 170
152 157 165
148 153 160
148 153 160
148 153 160
149 154 161
143 148 155
136 141 147
136 141 147
127 131 137
139 144 150
133 137 143
129 133 139
120 124 129
123 127 132
119 123 128
98 101 106
115 119 124
103 106 111
111 115 119
95 98 103
92 95 99
78 80 83
65 67 70
66 68 71
62 64 67
82 84 88
96 99 103
95 98 102
107 110 114
102 105 109
109 112 117
106 109 113
106 109 113
103 106 110
107 110 115
112 116 120
103 106 111
106 109 114
105 108 112
93 96 100
96 99 103
99 102 106
83 85 89
69 71 74
69 71 74
64 66 69
73 76 79
90 93 97
92 95 99
96 99 104
107 111 116
104 108 112
111 114 119
120 124 129
119 123 128
126 130 136
130 134 140
132 136 142
136 140 146
139 143 150
140 145 151
140 144 151
147 152 159
148 153 160
147 152 159
153 158 165
145 149 156
153 158 166
151 156 163
153 158 165
156 161 169
161 167 175
156 161 169
157 163 171
161 167 175
158 164 172
157 162 170
158 164 172
161 167 175
158 164 172
158 164 172
160 166 175
162 168 176
162 168 177
162 168 177
162 168 176
162 168 177
161 167 175
164 170 179
163 169 178
161 168 177
163 169 178
163 170 179
163 170 179
165 171 181
164 170 180
163 170 179
164 170 180
164 171 180
163 170 179
161 168 177
163 169 179
163 169 179
163 169 179
164 170 180
164 170 180
163 170 180
163 170 180
164 171 181
163 170 180
164 171 181
163 170 180
163 171 181
163 170 181
163 170 181
163 170 181
163 170 180
163 170 180
163 170 180
163 170 181
163 170 181
163 170 181
163 170 181
163 170 181
163 170 181
163 170 181
163 170 181
162 170 180
163 170 181
163 170 181
163 170 181
162 170 181
162 170 181
162 169 180
163 170 181
163 170 181
163 170 181
163 170 181
163 170 181
162 170 180
162 169 180
163 170 181
163 170 180
162 169 180
162 169 180
162 169 180
163 170 180
162 169 179
163 170 181
163 170 181
163 170 181
163 170 180
164 171 181
164 171 181
164 171 181
163 170 180
163 170 179
164 171 181
164 170 180
162 169 179
164 170 180
161 168 177
162 169 178
162 169 178
164 170 180
163 170 179
163 170 179
163 169 178
163 169 178
164 170 179
162 169 178
163 170 179
163 169 178
163 169 178
162 169 178
164 170 179
162 168 177
164 170 179
163 169 178
162 168 177
160 166 175
160 166 174
164 170 179
161 167 175
161 167 175
161 167 175
163 169 177
161 166 175
158 164 172
160 166 174
160 166 174
160 166 174
158 164 172
157 163 171
156 161 169
152 157 165
156 161 169
155 161 168
152 157 164
158 163 171
149 154 161
150 155 162
147 152 159
144 149 155
140 145 151
145 150 156
138 142 148
139 143 149
142 147 153
137 141 147
133 137 143
132 136 142
114 117 122
120 124 129
111 114 119
119 123 128
114 117 122
103 106 111
99 102 106
98 101 105
91 94 98
89 92 95
76 78 82
68 70 73
65 67 70
44 45 47
35 36 37
54 55 58
57 59 61
70 73 75
79 81 85
82 85 88
88 91 94
100 102 107
79 81 85
85 87 91
87 89 93
77 79 82
65 66 69
51 52 54
56 57 60
43 45 46
53 54 56
59 61 63
69 71 74
78 80 83
85 87 91
78 81 84
89 92 96
87 89 93
104 107 112
106 109 113
116 119 124
119 123 128
117 121 126
123 127 133
128 132 138
141 145 151
136 140 146
136 140 146
141 145 152
145 150 156
136 140 147
146 151 158
147 152 158
144 149 156
148 153 160
153 158 165
149 154 162
151 156 163
155 160 167
156 162 169
149 154 161
158 164 172
154 160 167
157 162 170
158 164 172
157 163 171
155 160 168
161 166 175
162 168 176
160 166 174
162 168 177
158 164 172
159 165 173
161 167 176
164 170 179
164 170 179
162 169 177
163 169 178
161 167 176
163 169 178
164 170 179
164 171 180
163 169 178
162 168 178
162 168 178
164 170 179
163 169 178
163 170 179
163 170 179
163 170 179
163 170 179
163 170 179
163 170 179
163 170 180
162 169 178
163 170 180
163 169 179
163 170 179
163 170 180
163 170 180
163 170 180
163 170 180
163 170 180
163 170 180
163 171 181
163 170 181
163 170 181
163 170 181
161 168 178
163 170 181
162 169 179
163 170 181
163 170 181
163 170 181
162 170 180
163 170 181
163 170 181
162 169 180
163 170 181
163 170 181
162 169 180
162 170 180
163 170 181
163 170 181
163 170 180
163 170 180
163 170 181
163 170 181
163 170 180
163 170 181
163 170 181
163 170 180
163 170 181
163 170 180
163 170 180
163 171 181
163 170 180
163 169 179
163 170 179
164 171 181
163 170 180
161 168 178
163 170 179
164 170 180
163 170 180
162 169 179
163 170 180
163 170 179
164 170 180
164 170 180
162 168 178
164 171 181
164 170 180
165 171 181
165 171 181
159 166 175
163 170 179
165 171 181
163 169 178
164 170 179
163 169 178
160 166 175
164 170 179
165 171 180
163 169 178
164 170 179
162 168 177
163 168 177
163 169 177
160 166 174
159 165 173
163 169 178
161 167 175
161 167 175
161 167 175
159 164 172
159 164 172
158 164 172
159 165 173
162 168 176
158 163 171
156 161 168
154 159 166
158 163 171
155 160 168
155 160 167
149 154 161
153 158 165
150 155 162
146 151 158
150 154 161
138 143 149
139 143 149
145 150 156
138 142 148
137 141 147
134 138 144
135 139 145
128 132 137
128 132 137
120 124 129
114 117 122
118 121 126
111 114 119
107 111 115
103 106 111
98 101 105
97 100 104
73 75 78
82 84 88
82 84 88
73 75 78
71 73 76
77 79 83
65 67 69
52 54 56
54 56 58
57 59 61
43 44 46
30 31 33
31 32 33
41 43 44
50 51 53
52 54 56
39 40 41
43 44 45
36 37 38
45 46 48
55 57 59
52 54 56
55 57 59
73 75 78
68 70 73
76 78 81
89 91 95
93 96 99
104 107 112
93 96 100
105 108 112
102 105 109
111 114 119
120 123 128
117 120 125
122 126 131
131 135 140
140 144 150
134 138 144
137 142 148
137 141 147
143 147 154
143 147 154
144 149 155
151 155 162
148 153 160
143 148 154
148 152 159
153 158 165
147 152 159
155 160 167
152 157 164
154 159 166
152 157 164
156 161 169
152 157 165
158 164 171
156 161 169
158 164 172
161 167 175
158 163 171
158 163 171
162 168 176
160 166 174
158 164 172
161 167 176
162 168 176
161 167 175
163 169 178
162 168 176
163 170 178
161 167 176
160 166 175
164 170 179
162 169 178
164 170 179
162 169 178
164 170 179
163 169 178
163 169 178
163 170 179
163 169 179
164 171 180
163 170 179
163 170 179
163 170 179
163 169 179
164 171 181
163 170 180
163 170 179
163 170 180
164 171 181
163 169 179
164 171 181
163 170 180
163 170 180
163 170 180
164 171 181
163 170 180
163 170 180
162 169 179
163 170 181
162 169 179
163 170 180
162 169 179
163 170 181
163 170 180
163 170 180
163 170 181
163 170 181
163 170 181
163 170 181
163 170 181
163 170 181
163 170 181
163 170 181
163 170 180
163 170 180
163 170 180
163 170 181
162 170 180
163 170 180
163 170 180
163 171 181
163 169 179
164 171 181
162 169 178
163 170 180
164 171 181
163 170 180
163 170 180
164 171 181
163 169 179
163 170 179
164 170 180
164 170 180
162 169 178
164 170 180
163 170 179
163 169 179
162 169 178
163 170 179
163 170 179
164 170 179
163 170 179
164 170 179
162 168 177
164 170 179
163 170 179
163 169 178
163 169 178
163 169 178
165 171 180
163 169 178
163 170 178
161 167 175
163 169 178
162 168 177
160 166 174
163 169 177
163 169 177
160 165 173
162 167 176
160 166 174
161 166 175
160 165 173
161 166 174
162 168 176
164 169 177
159 164 172
159 165 172
157 162 170
156 161 169
159 164 172
157 162 169
157 162 169
158 163 170
152 157 164
150 155 162
147 151 158
151 155 162
149 153 160
146 151 157
146 150 157
140 145 151
144 149 155
139 143 149
145 149 155
136 140 146
132 136 142
137 141 146
132 136 141
126 129 135
121 125 130
109 112 116
108 111 116
99 102 106
109 112 116
93 95 99
104 107 111
92 94 98
97 100 104
79 81 84
77 79 82
71 73 76
73 75 78
69 71 73
68 70 72
46 47 49
66 68 71
49 50 52
41 42 43
55 57 59
51 52 54
45 46 48
59 60 62
50 52 54
63 65 67
62 64 67
71 73 76
74 76 79
64 66 69
76 78 81
87 90 93
78 80 83
91 93 97
86 88 92
95 98 102
86 89 92
100 103 107
108 111 115
110 113 117
121 124 129
122 125 130
123 127 132
128 131 137
133 136 142
125 128 134
129 133 139
135 139 145
139 143 149
144 148 154
145 149 156
143 147 154
146 150 157
151 155 162
143 147 154
146 151 157
150 155 161
150 154 161
158 163 170
156 161 168
155 160 167
158 163 171
158 164 171
159 164 172
155 160 168
158 163 170
159 164 172
159 165 173
163 169 177
163 168 176
163 168 177
161 167 175
159 164 172
162 168 176
160 166 174
163 169 177
164 170 178
164 170 179
163 169 178
163 169 177
163 169 178
162 168 177
162 168 176
161 167 176
161 167 176
163 170 178
163 170 178
163 169 178
163 169 178
162 169 178
163 169 178
164 170 180
164 170 180
165 171 181
164 170 180
163 170 179
163 170 179
163 170 179
162 169 178
164 171 180
163 169 179
164 170 180
162 169 179
164 171 181
162 169 179
163 170 180
162 169 179
164 171 181
164 171 181
163 170 180
163 170 180
164 171 181
163 171 181
163 170 181
163 170 181
163 170 181
163 170 181
163 170 181
163 170 181
163 170 181
163 170 181
163 170 180
163 170 181
163 170 181
163 170 181
163 170 181
162 169 179
163 170 181
164 171 181
163 170 180
163 170 180
163 170 179
164 171 181
164 171 181
161 168 178
164 171 181
164 170 180
164 170 180
163 170 180
164 170 180
163 170 180
164 170 180
164 171 181
163 170 179
164 171 181
164 170 179
163 170 179
164 170 180
163 169 178
164 171 180
164 170 179
164 171 180
164 170 179
164 171 180
163 169 178
164 170 179
163 170 178
163 169 178
164 170 179
164 170 179
160 166 174
164 170 178
162 167 176
162 168 176
162 168 177
162 168 176
162 168 176
163 169 177
164 170 178
160 166 174
163 168 176
161 166 174
159 165 173
163 168 176
159 165 173
161 167 174
157 162 169
159 164 172
161 167 174
159 164 172
153 158 165
156 161 168
153 158 165
159 164 172
158 163 170
148 153 160
151 156 162
152 157 163
151 156 162
148 152 159
146 151 157
143 147 153
143 148 154
138 142 148
146 150 156
141 145 151
132 135 141
127 130 136
130 134 139
133 137 142
115 118 123
123 127 132
122 125 130
121 125 130
116 120 124
111 114 118
106 109 113
100 103 107
106 109 113
86 89 92
96 98 102
87 90 93
93 95 99
80 82 85
74 76 79
74 76 79
69 70 73
80 83 86
64 66 68
60 61 64
56 58 60
71 73 76
68 70 72
64 66 68
64 66 68
65 67 69
69 71 74
74 76 79
71 73 76
73 75 77
80 82 85
63 65 67
78 80 83
83 85 88
92 94 98
100 103 107
112 115 119
110 113 117
110 113 117
109 112 116
109 112 117
116 119 124
120 123 128
120 123 128
128 132 137
129 132 138
145 149 155
134 138 144
135 139 145
143 147 153
137 141 146
143 147 154
141 145 151
140 144 150
154 159 166
148 153 159
151 156 163
153 157 164
150 155 161
152 157 164
157 162 170
157 162 170
153 158 165
161 166 173
156 161 168
161 166 174
155 160 168
160 165 173
157 162 169
162 168 175
160 166 174
160 166 174
161 167 175
161 166 175
161 167 175
162 168 176
162 167 175
164 170 178
162 167 176
163 169 177
161 167 175
163 169 177
163 169 177
164 170 179
164 170 179
163 169 177
164 171 179
164 170 179
164 170 179
163 169 178
164 170 179
162 169 178
162 168 177
164 171 180
164 170 180
163 169 178
163 170 179
163 169 178
164 170 180
164 170 180
163 170 179
164 171 180
164 171 181
164 170 180
163 170 179
163 170 180
164 171 181
164 170 180
163 170 180
164 171 181
163 170 180
162 169 179
163 170 180
163 170 180
164 171 181
164 171 181
163 170 180
163 170 181
163 170 181
162 170 180
163 170 181
163 170 180
163 170 181
163 170 181
163 170 180
163 170 180
163 170 180
164 171 181
163 170 180
163 170 180
164 171 181
162 169 179
163 170 180
164 171 181
164 171 181
164 171 181
164 170 180
164 171 181
164 171 181
163 170 179
164 170 180
164 170 180
165 171 181
164 170 179
163 170 179
164 170 179
164 170 179
164 171 180
164 171 180
164 171 180
162 168 177
162 169 178
164 170 179
163 170 178
161 167 176
163 169 178
163 169 178
162 168 177
163 169 178
163 169 177
161 167 175
162 168 177
162 168 176
162 168 176
162 167 175
161 167 175
161 167 175
159 165 173
162 167 176
161 166 174
161 167 175
160 166 174
162 167 175
161 166 174
159 164 172
156 162 169
160 165 173
156 161 168
156 161 168
157 162 169
157 162 170
152 157 164
157 162 169
157 162 169
151 155 162
156 161 168
150 154 161
149 153 160
152 157 163
145 149 156
139 143 149
142 146 152
148 152 158
143 147 153
134 138 144
137 141 146
132 136 141
129 133 138
136 139 145
126 130 135
125 129 134
126 129 134
118 121 125
121 124 129
116 119 124
112 115 120
111 114 119
104 107 111
103 105 109
100 102 106
91 94 97
85 88 91
84 86 89
85 87 90
87 90 93
81 83 86
81 84 87
83 85 88
85 88 91
69 71 74
76 78 81
63 65 67
65 67 69
78 80 83
72 74 76
75 77 79
85 87 90
77 79 82
80 82 85
89 91 95
95 97 101
99 102 106
87 89 93
95 98 101
97 100 103
110 113 117
104 107 111
106 109 113
122 125 130
120 123 127
119 123 127
117 121 125
131 135 140
121 124 129
130 133 139
140 144 150
140 144 150
140 144 150
144 148 154
144 148 154
144 148 154
143 147 153
148 152 158
150 155 161
147 151 157
147 152 158
151 156 162
151 156 162
156 161 168
154 159 165
150 154 161
154 159 166
157 162 169
153 158 165
158 163 170
161 166 173
156 161 168
159 165 172
158 163 171
154 159 166
161 166 174
162 167 175
159 165 172
163 168 176
161 167 174
163 168 176
159 165 173
163 168 177
161 166 175
160 166 174
163 169 177
163 169 178
163 169 178
162 167 176
159 165 173
164 170 179
163 169 178
162 168 177
163 169 178
164 171 179
165 171 180
165 171 180
164 170 179
162 168 177
163 169 178
165 171 181
162 168 177
162 168 177
163 169 178
164 170 180
163 169 178
164 171 180
163 169 179
164 170 180
163 170 179
164 171 181
164 171 181
164 170 180
163 170 179
163 170 180
163 170 180
163 170 180
163 170 180
162 169 179
164 171 181
163 170 180
163 170 180
162 169 179
164 171 181
164 171 181
163 170 180
163 170 180
164 171 181
163 170 180
164 171 181
164 171 181
164 171 181
164 171 181
163 170 179
163 170 179
164 171 181
164 171 181
162 169 178
163 169 179
164 171 181
163 170 179
164 171 181
164 170 180
164 171 180
164 170 180
162 168 177
164 170 179
162 169 178
164 170 179
164 170 179
164 171 180
164 171 180
165 171 181
164 171 180
164 170 179
163 169 178
162 168 177
162 168 177
163 169 177
164 170 179
164 170 178
164 170 179
163 169 178
163 169 178
163 169 177
165 171 179
165 171 180
162 168 176
164 170 178
162 167 175
161 166 174
162 167 175
161 167 175
159 165 172
161 166 174
161 167 174
162 167 175
160 165 173
160 165 173
161 166 174
158 163 170
160 165 173
154 159 166
157 161 169
158 163 170
158 163 170
157 161 168
155 160 167
150 154 161
151 156 163
151 156 162
158 163 170
147 151 158
149 153 160
153 157 163
150 154 160
146 150 156
140 144 150
143 147 153
142 145 151
140 144 150
133 136 141
141 145 151
132 135 140
136 139 145
120 124 128
127 130 135
117 120 124
120 123 127
112 115 119
114 116 121
120 123 127
107 110 114
106 108 112
104 107 110
104 107 111
100 102 106
88 90 94
95 97 100
100 103 106
90 92 95
89 91 94
81 83 86
87 90 93
87 90 93
104 106 110
77 79 82
77 79 81
88 90 93
76 78 81
78 80 83
78 80 83
96 98 102
89 92 95
97 99 103
96 98 102
95 97 101
97 99 103
111 114 118
98 101 104
104 107 111
99 101 105
119 122 127
122 125 129
114 117 122
121 124 129
131 135 140
131 135 140
129 132 137
129 133 138
127 130 135
135 138 144
134 137 143
133 137 142
142 146 152
135 138 144
146 150 156
148 152 158
152 156 162
150 154 161
145 149 155
155 160 166
150 154 160
153 158 164
154 159 165
156 161 167
154 158 165
154 159 166
157 162 169
160 165 172
160 165 173
158 163 170
161 166 173
162 168 175
157 162 169
158 163 171
159 164 171
162 167 175
163 168 176
163 168 176
162 167 175
163 168 176
161 166 174
163 168 176
163 168 176
161 167 175
164 169 178
163 169 178
163 168 177
162 168 177
165 170 179
164 170 179
163 169 178
163 169 177
163 169 177
165 171 180
164 170 179
164 170 179
162 168 177
163 169 178
165 171 180
165 171 180
164 170 179
164 170 179
164 170 179
164 170 179
163 169 178
164 171 180
163 170 179
164 171 180
164 171 180
164 171 181
164 171 181
164 171 180
162 168 178
164 171 181
164 170 180
164 170 180
163 170 180
164 170 180
164 171 181
163 169 179
163 170 180
163 170 180
164 171 181
163 170 180
164 171 181
163 170 180
162 169 178
162 169 179
163 170 180
164 171 181
163 170 180
163 170 179
163 170 179
164 171 180
163 170 179
164 171 180
164 170 180
164 171 180
164 170 179
164 171 180
163 169 179
164 171 180
164 171 180
163 170 179
163 169 178
164 170 179
164 170 179
165 171 180
164 170 179
163 170 178
164 170 179
165 171 180
165 171 180
162 168 177
160 166 174
165 171 180
162 167 176
165 171 180
163 169 178
162 168 176
163 169 177
163 169 178
161 167 175
163 169 177
163 168 176
164 170 178
162 167 175
158 163 171
163 168 176
161 166 174
161 167 174
160 166 173
161 166 174
161 166 173
161 166 174
161 166 174
162 167 174
160 165 172
160 165 173
156 161 168
158 163 170
160 165 172
157 162 169
155 160 167
157 162 169
154 159 165
158 162 169
147 152 158
148 152 158
153 157 163
141 145 151
154 158 165
145 149 155
145 149 155
146 150 156
146 150 156
145 149 154
146 150 156
134 138 143
129 133 138
138 142 147
140 144 149
127 130 135
133 136 141
130 133 138
121 124 129
125 128 133
120 123 128
113 116 120
120 124 128
124 127 131
113 116 120
99 101 105
114 117 121
98 100 104
97 99 103
95 98 101
87 89 93
102 104 108
95 97 101
86 88 91
91 93 96
93 95 98
88 91 94
92 94 97
88 90 93
92 94 97
91 93 96
90 92 95
97 99 103
93 95 99
102 104 108
95 97 101
107 109 113
99 101 105
109 112 116
102 105 109
108 110 114
110 112 116
115 118 122
111 114 118
114 117 121
115 118 122
129 132 137
124 127 132
124 127 132
118 121 126
129 132 137
136 139 145
133 137 142
127 131 135
147 151 156
134 137 143
137 141 147
149 153 159
143 147 152
142 146 152
146 150 156
148 152 159
154 158 164
150 155 161
143 147 153
159 164 171
157 162 168
150 155 161
157 161 168
162 167 174
155 159 166
160 164 172
155 159 166
157 161 168
159 164 171
160 166 173
159 164 171
160 165 172
162 167 174
163 169 176
163 169 176
161 166 174
164 169 177
160 165 173
162 168 176
163 169 177
161 166 174
163 168 176
164 170 178
164 170 178
161 167 175
163 169 178
165 171 179
163 169 177
164 170 178
164 170 178
164 170 178
164 170 178
164 170 179
162 169 177
165 171 180
164 170 179
165 171 180
164 171 180
165 172 181
165 171 180
164 170 179
162 168 177
164 170 179
163 169 178
164 170 179
163 169 178
163 170 179
163 170 179
164 171 180
165 171 181
164 170 180
164 171 181
163 170 179
164 171 180
164 171 181
163 170 179
164 170 180
163 170 180
164 171 181
164 171 181
163 170 180
163 170 180
164 170 180
164 171 181
162 169 178
162 169 178
164 170 180
164 171 180
164 170 180
164 171 180
163 170 179
163 170 179
163 170 179
163 170 179
164 171 180
162 168 178
163 169 178
164 171 180
165 171 181
164 170 179
163 169 178
164 170 179
165 171 180
164 170 179
162 169 177
164 170 179
165 171 180
164 170 179
163 169 178
165 171 179
163 169 177
161 166 175
165 171 180
163 168 177
164 170 178
164 169 178
164 170 178
163 169 177
165 171 179
163 169 177
162 167 175
163 169 177
163 169 177
163 169 177
161 166 174
162 167 175
164 169 177
160 165 173
164 169 177
161 166 173
160 165 173
163 168 175
160 165 173
160 165 172
159 164 171
160 164 172
159 164 171
156 161 168
156 160 167
157 162 168
153 158 164
155 160 166
154 158 165
153 157 163
158 163 169
152 156 163
155 159 166
152 156 163
147 151 157
148 152 158
143 147 153
151 155 161
143 147 153
140 144 150
144 148 153
145 149 154
137 141 146
128 131 136
130 133 138
125 128 133
126 130 134
128 132 136
127 130 135
124 127 132
125 128 132
119 122 127
117 120 124
112 115 119
113 116 120
110 113 117
113 116 120
108 111 115
119 122 126
98 100 103
104 106 110
98 100 104
108 110 114
99 101 105
101 103 107
103 105 109
89 91 94
100 102 106
94 96 99
97 99 103
103 106 109
95 97 100
98 100 103
102 105 108
103 106 109
104 107 111
106 109 112
102 104 108
106 109 112
116 119 123
116 119 123
116 119 123
118 121 126
115 118 122
122 125 130
123 126 130
132 135 140
129 132 137
121 124 128
135 138 143
131 135 140
137 141 146
139 143 148
137 140 146
127 130 135
140 144 149
142 145 151
142 146 151
145 149 155
137 141 146
147 151 157
147 151 157
152 156 162
151 155 162
151 156 162
145 149 155
154 159 165
157 162 168
155 160 166
159 164 171
157 162 169
156 160 167
158 163 170
158 162 169
156 160 167
158 163 170
159 163 171
161 166 173
159 164 171
160 165 172
160 165 172
162 168 175
161 166 174
159 164 172
162 168 176
164 170 178
163 168 176
162 167 175
165 171 179
164 169 178
163 169 177
162 168 176
164 170 178
163 169 177
164 169 178
163 169 177
163 168 177
163 169 177
162 168 177
163 169 178
164 170 179
165 171 180
165 171 179
164 170 179
165 171 180
165 171 180
164 170 179
164 170 179
164 171 180
164 170 179
164 170 179
164 171 180
162 169 178
164 171 180
165 171 181
164 170 180
164 170 180
164 171 180
162 169 178
163 170 179
163 169 179
164 171 181
164 171 181
163 170 179
164 170 180
163 170 180
164 171 181
163 170 180
163 169 179
163 170 180
163 170 179
164 170 180
164 171 181
163 170 179
164 170 180
163 170 179
163 169 178
164 170 180
164 171 180
164 171 180
164 171 180
164 171 180
164 170 179
163 169 178
164 171 180
165 171 180
165 171 180
164 170 179
165 172 181
164 170 179
165 171 180
163 169 178
165 171 179
162 168 176
163 169 178
163 169 177
163 169 178
164 170 179
165 171 179
163 169 177
163 169 177
163 169 177
164 170 178
164 170 178
164 169 177
162 168 176
163 168 176
161 167 174
163 168 176
160 166 173
159 165 172
164 170 177
159 164 172
159 164 172
159 164 172
159 164 172
163 168 176
162 167 175
159 164 171
161 166 173
160 165 172
156 161 168
156 161 168
158 162 169
161 166 173
152 157 163
153 158 164
159 164 171
155 160 166
154 158 164
155 160 166
151 155 161
150 154 160
147 151 157
150 154 160
148 152 157
148 152 158
142 146 152
147 151 156
137 140 146
143 146 152
143 147 152
145 149 154
139 143 148
136 140 145
131 135 140
123 126 130
126 130 134
131 134 139
125 128 132
125 128 132
119 122 126
126 129 133
121 124 128
114 117 121
120 123 127
109 112 115
110 113 117
108 111 114
106 109 112
107 110 113
113 116 120
111 113 117
121 124 128
109 111 115
103 105 109
109 112 115
103 105 109
113 116 119
107 110 113
116 118 122
112 115 119
106 109 112
104 107 110
100 102 106
102 105 108
110 113 116
118 121 125
128 131 135
110 113 116
116 119 123
125 128 132
124 127 131
118 121 125
123 126 130
128 131 136
115 118 122
129 132 137
129 132 137
137 140 145
138 142 147
134 138 142
138 142 147
133 137 142
134 137 142
144 148 153
147 151 156
144 148 153
142 146 152
150 154 160
153 157 163
146 150 156
152 156 162
153 157 163
155 160 166
154 158 164
153 157 164
154 158 165
159 163 170
148 152 158
158 163 170
155 159 166
156 161 167
160 165 172
158 163 170
158 163 170
158 163 170
161 165 173
159 164 171
162 167 174
162 167 175
162 167 174
160 165 172
159 165 172
162 167 175
162 167 175
163 168 176
163 168 176
162 167 175
164 169 177
164 170 178
163 169 177
163 169 177
161 166 174
163 169 177
162 168 176
164 169 178
163 169 177
164 170 178
164 170 178
165 170 179
165 171 180
164 169 178
163 169 178
164 170 178
164 170 179
164 170 179
164 170 179
164 171 179
164 170 179
163 169 178
164 170 179
164 170 179
164 170 179
164 170 179
164 170 179
162 168 178
164 170 180
164 171 180
164 170 179
163 170 179
165 171 181
164 171 180
164 170 180
164 170 180
164 171 180
163 170 179
164 171 181
164 171 181
163 170 179
164 171 181
164 171 180
164 171 180
165 171 181
162 169 178
164 170 179
164 171 180
165 171 180
163 169 178
162 168 177
164 171 180
164 171 180
163 169 178
163 170 178
162 168 177
164 170 179
164 170 179
164 170 179
165 171 179
162 168 177
164 169 178
165 171 179
163 169 178
165 171 179
164 170 178
163 169 177
164 170 178
164 169 178
163 169 177
164 170 178
164 170 178
164 169 177
165 170 178
163 168 176
164 170 178
162 167 175
161 166 174
165 170 178
163 169 176
158 163 170
160 165 172
163 168 176
163 168 176
161 166 174
162 167 174
163 168 175
161 166 173
163 168 175
159 164 171
155 160 167
158 162 169
160 164 171
158 163 170
159 164 171
155 159 166
154 159 165
155 160 166
156 160 166
150 154 160
157 161 168
149 153 159
155 160 166
151 155 161
152 156 161
148 152 158
147 151 156
150 154 160
145 149 154
141 145 150
143 146 152
145 149 154
142 146 151
135 138 143
137 140 145
134 138 142
134 137 142
129 132 136
137 140 145
127 130 134
131 134 139
134 137 141
124 126 131
119 121 125
130 133 137
121 124 128
121 124 128
131 134 138
109 112 115
116 118 122
113 115 119
109 111 115
111 114 117
112 115 118
111 114 118
113 115 119
120 123 127
110 113 116
118 121 125
105 108 111
112 115 118
103 105 108
107 109 113
116 119 123
110 113 116
108 110 114
114 116 120
115 117 121
116 119 123
115 118 122
112 115 119
120 122 126
122 125 129
123 126 130
116 119 123
129 132 136
131 134 139
138 141 146
129 132 137
134 137 141
136 139 144
131 134 139
138 141 146
129 132 137
144 148 153
136 139 144
146 150 155
141 145 150
144 147 153
142 146 151
144 147 153
146 150 156
145 149 154
152 156 162
146 150 156
144 148 154
153 157 163
153 157 163
158 163 169
155 160 166
158 163 169
158 163 169
158 162 169
155 159 166
158 163 169
157 162 169
159 164 171
159 164 170
160 164 171
161 165 172
161 166 174
164 169 176
157 162 169
162 168 175
164 170 177
163 168 175
161 166 174
162 168 175
162 168 175
162 167 175
163 169 176
162 168 175
165 170 178
161 166 174
162 168 176
165 171 179
161 167 175
164 170 178
164 170 178
164 170 178
162 168 176
164 170 178
163 169 177
162 168 177
166 171 180
164 170 179
163 169 178
163 169 178
163 169 177
165 171 180
164 170 178
165 171 180
163 169 178
164 170 179
164 170 179
165 171 181
163 169 178
165 171 181
164 170 179
165 171 180
163 170 179
164 170 179
163 170 179
165 171 181
163 169 179
163 170 179
163 169 179
163 170 179
163 170 179
165 171 181
164 171 180
164 171 180
163 170 179
164 170 180
164 171 180
165 171 180
164 170 179
163 170 179
163 169 178
164 170 179
164 170 179
162 168 177
165 171 180
164 170 178
164 170 179
164 170 179
165 171 179
164 170 178
163 169 178
164 170 179
164 170 178
164 170 179
165 171 179
162 168 176
163 169 177
164 170 178
164 170 178
164 170 178
164 170 178
164 169 177
159 165 172
166 171 179
164 169 177
164 170 178
164 169 177
163 169 176
164 170 178
163 168 175
163 168 176
163 168 176
162 167 174
160 165 172
162 167 174
165 170 178
162 167 174
161 166 173
162 167 174
159 163 170
160 165 172
161 166 173
159 164 171
160 165 171
157 162 168
157 161 168
157 162 168
159 164 170
152 157 163
152 156 162
154 158 165
153 158 164
150 154 160
158 162 168
157 161 167
147 150 156
147 151 157
154 158 164
148 152 157
148 152 158
145 149 154
141 144 149
141 144 149
143 147 152
147 151 156
138 141 146
140 143 148
137 141 145
139 143 148
140 143 148
130 133 137
131 134 139
135 138 142
134 137 142
129 132 136
130 133 137
132 134 139
121 123 127
124 126 130
126 129 133
126 128 132
117 119 123
125 127 131
125 128 132
118 121 125
112 114 118
119 122 126
120 122 126
108 111 114
113 115 119
116 118 122
119 122 125
110 112 115
118 120 124
114 117 120
117 119 123
121 124 128
120 122 126
133 136 140
125 128 131
116 118 122
119 121 125
126 129 133
128 131 135
129 132 136
126 128 133
126 128 132
133 136 140
132 135 139
122 125 129
124 127 131
129 132 136
139 142 147
137 140 144
129 132 136
137 141 145
141 145 150
141 145 150
140 143 148
136 139 144
145 149 154
147 151 156
146 149 155
146 150 155
151 155 161
149 153 159
149 153 159
152 156 162
153 157 163
155 159 165
155 159 165
155 159 166
154 158 165
154 158 165
156 160 166
154 158 164
160 164 171
157 161 168
157 162 169
159 164 171
157 161 168
159 163 170
161 166 173
156 161 168
163 168 175
161 166 173
161 166 174
162 167 174
161 166 174
162 167 174
164 170 177
163 168 175
163 168 175
161 166 174
163 168 176
160 165 173
163 168 176
162 167 175
163 169 177
163 168 176
164 170 178
163 169 177
162 167 175
162 168 176
164 170 178
166 172 181
164 169 178
164 170 178
160 166 174
163 169 178
164 170 178
165 171 180
165 171 179
166 172 181
164 170 179
165 171 180
164 170 178
165 171 180
164 170 179
165 172 181
164 170 179
164 171 180
164 170 179
165 171 180
163 169 178
164 170 179
165 171 181
164 170 180
164 170 179
165 171 181
164 171 180
164 171 180
164 170 180
164 170 180
165 171 180
164 170 179
164 170 179
165 171 181
164 171 180
164 170 179
162 168 177
165 171 180
164 171 179
166 172 181
164 170 179
163 169 178
165 171 179
164 170 179
165 171 180
165 171 180
165 170 179
162 168 176
163 169 177
163 169 177
163 168 176
165 171 179
165 171 179
165 171 179
165 171 179
164 170 178
162 168 176
162 167 175
164 170 178
164 169 177
164 170 177
164 169 177
162 167 175
164 169 176
162 167 174
163 168 176
165 170 177
161 166 174
164 169 177
165 170 178
162 167 174
162 167 175
163 167 175
161 166 173
159 164 171
159 164 171
161 165 172
160 165 171
158 163 169
156 160 167
158 163 169
158 162 168
159 164 170
160 164 171
156 160 167
154 158 164
153 157 163
155 159 165
149 152 158
151 155 161
156 160 166
154 158 164
146 150 155
148 152 157
149 153 159
152 156 162
146 150 155
152 156 161
141 144 149
147 151 156
146 149 154
141 144 149
144 147 152
142 145 150
134 137 142
136 139 144
137 140 145
139 142 147
136 139 144
129 131 136
133 136 140
134 136 141
133 136 140
119 122 125
134 137 141
127 130 134
121 123 127
119 121 125
117 119 123
125 128 132
117 119 123
118 120 124
125 127 131
116 119 122
123 125 129
125 127 131
119 121 125
111 113 117
111 113 116
121 124 127
117 119 123
121 123 127
123 126 129
129 132 136
117 120 123
125 127 131
124 127 131
130 132 136
115 118 122
130 133 137
135 138 142
125 127 131
136 139 144
128 131 135
133 136 140
134 137 142
133 136 140
136 140 144
141 144 148
145 148 153
140 143 148
135 138 143
143 147 152
145 148 153
144 148 153
147 150 155
146 149 154
144 148 153
145 149 154
150 154 160
152 156 161
155 159 164
155 159 165
156 160 166
150 154 160
157 162 168
153 157 163
154 158 164
155 160 166
155 160 166
159 163 170
159 164 170
161 166 172
159 163 170
157 162 168
161 165 172
158 162 169
159 163 170
160 165 172
160 165 172
162 167 174
162 166 173
163 168 175
162 167 174
163 168 176
161 165 173
161 166 173
162 167 174
162 167 175
163 168 175
158 163 170
162 167 175
164 169 177
162 167 175
164 170 178
164 170 178
165 170 178
163 169 177
164 170 178
162 167 175
163 169 177
164 170 178
164 170 178
165 171 180
165 171 179
163 169 177
164 170 179
162 168 176
165 171 180
163 168 177
164 170 178
163 169 178
165 171 180
164 170 179
164 170 179
165 171 180
164 170 178
163 169 178
165 171 180
163 169 178
165 171 180
165 171 181
163 169 178
165 171 181
164 170 179
165 171 181
165 171 181
164 170 180
165 171 181
165 171 180
165 171 180
164 170 179
164 170 179
162 168 177
163 170 178
163 169 178
164 170 179
165 171 180
165 171 180
165 171 179
165 171 180
164 170 179
165 171 180
165 171 180
165 170 179
165 171 180
165 171 180
163 169 177
165 171 179
164 169 177
165 171 179
162 168 176
164 169 177
163 169 177
163 169 177
163 168 176
163 169 177
161 166 174
165 170 178
163 169 176
163 169 176
161 167 174
164 169 177
164 169 176
164 169 177
166 172 179
161 166 174
166 171 178
164 169 176
162 167 174
161 166 173
161 166 173
162 167 174
159 163 170
161 166 173
161 166 172
159 163 170
159 164 171
157 161 168
158 162 168
161 166 172
162 166 173
157 162 168
155 159 165
157 161 167
156 160 166
152 156 162
159 163 169
150 154 159
158 162 168
152 156 162
151 155 161
151 154 160
143 147 152
155 159 165
144 147 152
146 150 155
151 154 159
145 148 153
150 153 159
142 145 150
134 137 141
141 144 149
135 138 143
140 143 148
144 147 152
145 148 153
141 144 149
136 139 143
134 137 141
136 139 143
133 136 140
131 134 138
130 132 136
129 131 135
135 138 142
131 134 138
123 126 130
122 124 128
122 125 128
124 127 131
125 127 131
127 130 133
128 131 135
122 125 128
117 119 122
118 120 124
126 128 132
125 128 132
120 123 126
127 129 133
128 131 135
126 128 132
129 132 136
131 133 137
134 137 141
133 136 140
132 134 138
124 127 131
128 131 135
130 133 137
131 134 138
131 134 138
126 129 133
133 136 140
135 138 142
132 135 139
137 140 144
134 137 142
138 142 146
141 145 149
146 149 154
148 152 157
141 144 149
149 153 158
145 149 154
154 158 163
151 155 160
148 152 157
150 154 159
151 155 160
149 153 158
155 159 165
152 155 161
150 154 160
156 160 166
155 159 165
155 160 165
155 159 165
156 160 166
155 160 166
159 164 170
158 162 168
159 163 170
158 163 169
160 164 171
161 165 172
159 164 170
156 161 167
161 165 172
163 167 174
157 162 169
162 166 173
164 169 176
159 164 171
156 161 168
164 169 176
165 170 177
162 167 174
162 167 175
164 169 176
163 168 175
161 166 174
163 169 176
165 171 178
165 170 178
164 170 178
164 169 177
164 169 177
166 172 180
164 169 177
165 170 178
165 171 179
165 171 179
165 170 179
162 168 176
164 170 178
165 171 179
164 170 178
161 167 175
165 171 179
164 170 178
164 170 178
163 169 178
163 169 178
162 168 177
162 168 177
165 171 180
163 169 178
163 169 178
164 171 180
165 171 180
164 170 179
163 169 178
165 171 181
164 171 180
163 169 178
163 170 178
164 170 179
163 169 178
164 170 179
165 171 180
164 171 179
164 170 179
166 172 181
162 168 177
166 172 181
164 170 179
164 170 179
165 171 179
164 170 178
166 172 181
165 171 180
164 170 178
164 169 178
162 168 176
164 170 178
164 170 178
164 170 178
165 170 178
165 171 179
164 169 177
166 172 180
165 170 178
164 170 178
164 170 178
164 170 177
164 169 177
164 170 177
164 169 177
163 168 175
163 168 176
164 169 177
160 165 172
159 164 171
159 164 171
161 166 173
161 166 173
161 166 173
159 164 171
163 168 175
159 164 171
162 166 173
157 161 168
163 168 175
158 162 169
161 166 172
161 165 172
158 162 168
158 162 168
158 163 169
157 161 167
154 158 164
157 162 168
156 160 166
148 152 158
152 156 161
156 160 166
149 153 158
153 156 162
152 156 161
152 156 161
152 156 161
151 155 160
148 152 157
147 151 156
148 151 156
144 147 152
140 144 148
145 149 153
143 146 151
143 146 151
142 145 150
141 144 148
144 147 152
136 139 143
137 140 145
144 147 152
140 143 147
137 140 144
138 141 145
136 139 143
132 134 138
132 134 138
135 137 141
132 135 139
138 141 145
130 133 137
126 128 132
129 132 135
130 132 136
127 129 133
121 124 127
120 123 126
122 124 128
127 130 134
129 132 135
123 125 129
126 128 132
131 134 138
129 131 135
134 137 140
131 133 137
122 124 128
129 132 135
129 131 135
126 128 132
137 139 143
131 133 137
130 132 136
138 141 145
133 136 140
135 138 142
138 140 145
145 148 152
134 136 141
144 147 152
140 143 148
139 142 147
142 145 150
151 154 159
141 144 149
140 143 148
136 139 144
144 147 152
140 144 148
147 151 155
154 158 163
149 153 158
143 146 151
152 155 161
149 152 157
151 155 160
153 156 162
151 154 160
154 158 163
156 159 165
156 160 166
164 168 174
158 162 168
159 163 169
157 162 168
155 159 165
155 159 165
157 162 168
160 164 171
156 161 167
160 165 171
160 165 172
160 164 171
161 166 173
159 164 171
160 165 172
161 166 173
163 168 175
164 169 176
162 167 174
164 169 176
164 169 176
163 168 175
161 166 174
164 169 176
162 167 174
165 171 178
166 171 179
166 171 179
165 170 178
165 170 178
163 168 176
165 170 178
162 167 175
163 169 177
163 169 177
163 168 176
164 170 178
166 172 180
164 169 177
165 171 179
164 170 178
165 171 179
166 172 180
163 169 177
163 169 178
166 172 180
164 170 178
165 171 180
164 170 179
164 170 179
165 171 179
165 171 180
164 171 179
165 171 180
164 170 179
163 169 178
164 170 179
164 170 179
165 171 180
163 169 178
165 171 180
164 170 178
163 170 178
165 171 180
165 171 179
164 170 179
165 171 179
164 170 179
164 170 179
164 170 179
165 171 180
165 171 179
165 171 179
165 171 179
164 170 178
164 170 178
165 171 179
164 169 178
164 170 178
164 170 178
166 171 179
165 170 178
163 168 176
162 167 175
163 168 176
163 168 176
164 169 177
163 168 176
165 170 178
164 170 177
164 169 177
163 168 176
162 167 175
165 170 178
162 167 174
162 167 174
164 169 176
165 170 177
164 168 175
162 167 174
165 170 177
163 168 175
161 166 172
164 169 176
163 167 174
156 161 167
162 167 174
160 165 171
161 165 172
161 165 172
160 164 171
160 164 171
158 162 169
158 162 168
159 163 169
160 164 170
157 161 166
160 164 169
154 158 163
154 158 164
157 161 167
154 157 163
148 151 157
156 160 165
147 150 155
147 150 155
151 155 160
153 156 161
147 151 156
150 153 158
145 149 153
147 150 155
149 152 157
139 142 147
143 146 150
142 145 150
149 152 157
142 145 149
138 141 145
133 136 140
144 147 152
138 141 145
133 136 140
139 142 146
135 138 142
133 136 139
129 131 135
138 141 145
134 136 140
138 141 145
135 137 141
134 136 140
135 138 141
128 130 134
132 135 138
130 133 136
121 123 126
133 135 139
129 131 135
131 133 137
134 137 141
128 131 134
129 131 135
123 125 128
126 128 132
126 129 132
133 136 140
132 135 138
131 134 138
134 137 141
144 147 151
131 134 138
128 130 134
129 132 136
135 138 142
140 143 147
140 143 148
136 139 143
141 144 148
137 139 144
142 145 150
139 142 146
142 145 150
146 149 154
145 148 153
147 150 155
148 152 157
148 151 156
148 151 156
148 152 157
154 157 162
149 152 158
148 151 156
151 154 160
157 161 167
149 152 158
151 155 160
154 157 163
156 160 166
153 157 163
160 164 170
154 158 164
154 158 164
164 168 174
155 159 165
158 162 168
159 163 170
154 158 164
160 164 171
161 165 171
163 167 174
162 166 173
162 167 173
159 163 170
162 167 174
162 167 174
160 165 172
162 167 174
158 163 170
167 172 179
161 166 173
163 167 175
161 166 173
163 168 176
162 167 175
164 169 176
164 169 176
162 168 175
163 168 175
165 170 178
164 170 177
163 169 176
165 170 178
164 170 177
164 170 178
165 171 179
164 170 178
165 171 179
164 170 178
162 168 176
165 171 179
164 170 178
164 170 178
164 170 178
165 171 179
165 170 179
164 170 178
164 170 178
163 169 178
164 170 179
164 170 179
164 170 179
165 171 180
165 171 179
164 170 179
163 169 178
163 169 178
165 171 180
164 170 179
164 171 179
165 171 180
165 171 180
165 171 179
164 170 178
165 171 179
164 170 179
165 171 179
164 169 178
163 169 177
165 171 180
165 171 179
165 171 180
163 169 177
164 170 178
164 170 178
165 171 179
165 171 179
165 171 179
164 170 178
164 169 177
167 172 180
166 171 179
164 169 177
163 168 176
164 170 177
165 171 178
166 171 179
165 170 178
165 170 178
163 168 175
164 169 176
166 171 178
165 170 177
165 170 177
164 169 176
163 168 175
162 167 174
165 170 177
167 172 179
159 164 171
161 166 172
161 166 173
165 170 176
165 170 177
162 167 173
164 168 175
161 166 172
164 169 175
161 165 171
160 164 170
159 163 169
159 163 169
158 162 168
154 158 163
154 158 164
155 159 165
155 159 165
155 159 165
155 159 164
156 160 165
153 157 162
154 157 163
154 158 163
157 160 166
152 155 160
154 157 162
155 159 164
154 158 163
153 156 161
153 157 162
150 153 158
142 145 150
146 149 154
146 149 153
148 151 155
151 154 158
139 142 146
139 142 146
140 143 147
140 143 147
135 137 141
145 148 152
148 151 155
128 131 135
140 143 147
139 142 146
134 137 140
136 139 142
137 140 143
136 138 142
138 140 144
131 134 137
129 132 135
136 139 142
135 137 141
128 130 134
129 131 135
141 144 148
143 145 149
128 130 134
129 131 135
135 138 142
131 134 137
133 136 139
133 136 140
130 132 136
136 138 142
130 132 136
137 139 143
140 143 147
136 138 142
133 135 139
138 141 145
129 131 135
138 140 144
134 137 141
142 145 149
140 143 147
145 147 152
150 153 157
141 144 148
138 141 145
146 149 153
148 151 156
140 143 147
153 157 162
148 151 156
149 152 157
152 156 161
147 151 156
154 158 163
151 154 159
153 156 162
150 154 159
152 155 160
153 157 162
153 156 162
154 158 163
158 162 167
156 159 165
161 165 171
156 160 166
161 165 171
160 164 170
159 163 169
159 164 170
162 166 172
156 160 166
163 167 174
162 166 173
164 168 175
163 167 174
161 165 172
162 167 173
160 165 171
158 163 169
164 168 175
166 171 178
159 163 170
161 166 173
161 166 173
163 168 175
165 169 177
162 167 174
165 170 177
165 170 177
164 169 176
162 167 174
165 170 178
164 169 176
164 169 176
165 170 178
165 171 178
165 170 178
166 171 179
165 170 178
164 170 178
165 170 178
165 170 178
165 170 178
164 170 178
164 170 178
166 172 180
161 166 174
163 169 177
166 172 180
165 171 179
165 171 179
163 169 178
164 170 178
165 171 179
165 171 180
164 170 179
162 168 177
163 169 178
164 170 179
165 171 180
166 172 181
165 171 180
163 169 178
165 171 180
164 170 179
165 171 179
165 171 180
163 169 177
164 170 178
164 170 178
164 169 178
165 170 179
164 169 178
164 170 178
165 171 179
165 171 179
164 170 178
165 171 179
163 169 177
164 170 178
164 170 178
164 169 177
165 171 179
164 169 177
166 172 179
162 167 175
163 168 175
161 167 174
167 172 180
162 167 174
165 170 177
164 169 177
165 170 178
166 171 179
163 168 175
164 169 176
162 167 174
163 167 174
162 166 173
164 169 175
166 171 178
162 167 173
163 168 174
161 166 172
161 165 172
160 165 171
159 164 170
161 165 171
159 163 169
162 166 172
163 167 174
161 166 172
159 163 169
159 163 169
157 161 167
160 164 170
160 164 169
154 158 164
160 164 169
153 157 162
153 157 162
160 164 170
157 160 166
154 157 163
157 160 166
153 156 162
154 157 162
157 160 165
149 152 157
150 153 158
150 153 158
148 151 156
155 158 163
144 147 151
154 157 162
148 151 155
147 150 155
146 149 154
151 154 158
145 148 153
147 150 154
140 143 147
148 151 155
145 148 152
140 142 146
136 139 142
138 141 145
138 141 145
145 148 152
140 142 146
138 141 145
149 152 156
136 139 143
136 139 142
147 149 153
138 140 144
140 143 146
139 141 145
137 140 144
134 136 140
136 139 142
135 138 141
135 137 141
142 144 148
134 136 140
135 137 141
132 135 138
131 134 137
137 140 143
136 138 142
134 137 141
135 138 141
136 138 142
142 145 148
142 144 148
131 134 137
144 147 151
147 150 154
142 144 148
146 149 153
139 142 146
143 146 150
145 148 152
147 150 154
143 146 150
151 154 159
143 146 150
153 156 161
149 152 157
147 150 154
152 155 160
146 149 154
153 157 161
151 155 160
150 153 158
155 159 164
156 159 165
154 157 162
156 160 165
151 155 160
155 158 164
162 166 172
159 163 168
153 157 163
154 158 164
155 158 164
159 163 169
161 165 171
160 164 170
157 161 167
159 164 170
162 167 173
162 166 173
161 165 171
159 163 169
158 163 169
163 167 174
163 167 174
163 167 174
159 163 170
162 166 173
164 169 175
165 170 177
163 168 175
162 167 174
163 168 175
163 168 175
162 166 173
165 170 178
166 171 178
165 170 178
164 169 177
164 169 176
166 171 178
163 168 176
164 169 177
166 172 179
165 170 178
164 169 177
163 169 176
165 170 178
166 171 179
164 170 178
163 168 176
165 171 179
164 170 178
165 171 179
163 169 177
164 170 178
164 170 178
166 172 180
165 170 179
165 171 179
164 170 178
164 170 178
165 171 179
164 169 178
165 171 179
162 168 177
165 171 180
165 171 180
165 171 180
163 169 178
164 170 178
166 172 180
165 170 179
166 172 180
164 170 178
164 170 178
164 170 178
164 170 178
165 171 179
165 171 179
164 169 177
165 171 179
165 170 178
165 171 179
163 168 176
165 170 178
162 167 175
166 172 180
164 169 177
164 169 177
166 171 179
165 170 178
166 171 179
166 172 179
164 169 177
166 171 178
166 171 178
163 168 175
167 172 180
162 167 174
163 168 175
166 171 178
163 167 174
164 169 176
164 169 175
164 168 175
161 166 173
163 168 174
163 168 175
164 169 175
165 169 176
165 170 176
161 166 172
160 164 171
166 170 176
163 167 173
165 169 175
161 165 172
160 164 170
160 164 170
157 161 167
158 162 168
156 160 166
158 162 168
162 166 172
156 159 165
162 166 171
154 158 163
156 160 165
154 158 163
158 162 167
156 159 165
152 155 160
155 159 164
153 156 161
154 157 162
155 159 164
151 154 158
156 159 164
147 150 154
149 152 156
153 156 161
152 155 159
152 155 160
146 149 154
150 153 157
143 146 150
150 153 158
143 146 150
141 144 148
138 141 145
146 149 153
143 146 150
138 141 144
141 144 148
150 153 157
135 138 141
139 141 145
138 141 144
142 144 148
147 149 153
138 140 144
140 142 146
138 141 144
142 145 148
128 130 133
136 138 142
137 139 143
136 138 142
138 140 144
138 141 144
145 147 151
134 137 140
138 141 144
141 144 147
138 141 144
138 140 144
144 146 150
140 143 146
149 152 156
144 147 151
141 144 147
137 140 144
139 142 146
137 140 144
148 151 155
145 148 152
143 146 150
145 148 152
146 149 153
155 158 163
147 150 154
152 155 160
148 151 156
150 153 157
152 155 160
153 156 161
143 146 151
148 151 155
151 154 159
149 152 157
153 156 161
153 157 162
153 157 162
158 162 167
155 159 164
154 158 163
158 162 167
154 158 163
151 154 160
159 162 168
158 162 168
159 163 168
160 164 169
160 164 169
157 161 166
164 168 174
162 166 172
160 164 170
160 164 171
157 162 167
162 166 172
161 165 171
158 162 168
158 163 169
164 169 175
161 166 172
165 169 176
164 168 175
160 165 172
162 167 173
159 164 171
163 168 175
164 168 175
163 168 175
164 169 176
166 171 178
161 166 173
163 168 175
163 168 175
162 167 174
164 170 177
164 169 176
167 172 180
163 168 176
164 169 177
167 172 180
165 171 178
165 171 179
162 167 175
164 169 177
163 169 176
164 169 177
164 169 177
164 170 178
164 170 178
164 170 178
164 170 178
165 171 179
165 171 179
164 170 178
165 171 179
164 170 178
165 171 179
165 171 180
164 170 179
165 171 180
164 170 178
165 171 180
164 170 178
165 171 179
163 169 177
164 170 178
166 171 180
166 172 180
166 172 180
164 170 178
165 171 179
165 171 179
164 169 177
165 170 178
165 170 178
164 170 178
166 171 179
163 168 176
163 168 176
165 171 178
163 169 176
164 170 177
165 170 178
165 170 177
164 170 177
163 168 176
165 170 177
165 170 178
164 169 177
166 171 178
166 171 178
165 170 178
163 168 175
163 168 175
163 168 175
161 166 173
166 170 177
159 163 170
166 170 177
164 169 175
164 168 175
163 167 174
163 167 174
166 170 177
162 166 173
161 166 172
161 166 172
161 165 171
161 165 171
163 168 174
160 164 170
158 162 168
157 161 167
164 168 174
157 161 166
159 163 169
161 164 170
157 161 167
163 167 172
156 160 165
160 164 170
159 162 167
158 162 167
155 159 164
161 165 170
153 157 162
153 156 161
159 163 168
154 157 162
152 155 160
151 154 158
147 150 154
150 154 158
155 158 163
150 153 157
149 152 156
146 149 153
151 154 159
152 155 159
147 150 154
150 153 157
142 145 149
142 145 149
148 150 154
147 150 154
144 147 150
146 148 152
143 146 150
146 148 152
140 142 146
147 150 154
148 151 155
137 139 143
144 146 150
138 140 144
143 145 149
139 142 145
142 144 148
138 140 143
142 144 148
140 143 146
142 144 148
141 144 147
144 147 150
134 137 140
138 141 144
139 141 145
141 144 147
144 146 150
141 144 147
147 149 153
141 144 147
140 143 147
146 149 152
147 149 153
140 142 146
142 145 149
144 147 151
147 149 153
148 151 155
147 149 153
145 148 152
148 151 155
146 148 152
151 154 158
152 155 159
151 154 158
152 155 159
152 155 159
151 154 158
151 155 159
153 156 160
159 163 168
152 155 160
151 155 159
151 154 159
156 159 164
154 158 163
156 159 164
157 160 165
153 157 162
153 157 162
157 160 165
158 162 167
158 162 167
156 159 165
160 164 169
160 163 169
156 160 166
158 162 167
162 166 171
158 162 168
157 161 167
164 169 175
160 165 171
163 167 173
160 164 171
162 166 173
163 167 174
165 169 175
161 166 172
163 167 174
161 165 172
163 168 175
164 169 175
162 166 173
161 165 172
165 170 177
163 167 174
165 170 177
162 167 174
165 170 177
166 171 178
163 168 175
164 169 176
167 172 179
163 168 176
166 171 178
166 171 178
162 167 175
166 171 179
166 171 179
166 172 179
166 172 180
166 171 179
163 168 176
164 170 177
165 170 178
166 171 179
165 170 178
163 169 177
164 169 177
166 172 180
166 171 179
166 172 180
165 170 179
165 170 179
164 170 178
166 172 181
164 170 178
164 170 179
166 172 181
165 170 179
165 171 179
165 171 179
165 171 179
165 170 178
164 170 178
165 170 178
164 169 177
164 170 178
163 169 177
165 171 179
166 171 179
166 171 179
165 171 178
166 172 180
164 170 177
165 170 178
163 169 176
166 171 179
162 168 175
166 171 179
164 169 177
166 171 178
164 169 176
166 171 178
164 169 177
164 169 176
164 169 176
161 166 173
161 166 173
158 163 169
163 168 174
163 168 175
163 167 174
164 169 175
165 169 176
162 166 173
166 171 177
164 169 175
160 165 171
164 169 175
160 165 171
161 165 171
163 168 174
160 164 170
163 167 173
158 162 168
160 164 170
161 165 171
161 165 171
159 163 169
158 162 168
159 163 168
158 161 167
163 167 172
162 166 171
158 161 167
160 164 169
160 164 169
155 158 163
156 159 164
155 158 163
155 158 163
154 157 162
159 163 168
159 163 168
153 156 160
153 157 161
156 159 164
153 156 160
149 152 156
155 158 162
145 148 152
150 153 157
150 153 158
154 157 161
153 156 160
151 154 158
147 150 154
146 148 152
139 142 146
148 151 155
153 156 160
148 151 155
145 148 152
143 146 149
141 143 147
142 145 149
142 144 148
136 139 142
140 142 146
146 149 153
140 143 146
142 144 148
143 145 149
141 143 147
137 140 143
145 148 151
140 142 145
142 145 148
150 152 156
137 139 143
147 150 153
141 143 147
139 141 145
147 149 153
140 142 146
140 142 146
135 138 141
146 148 152
142 145 148
144 147 151
146 149 153
145 148 152
147 149 153
147 149 153
150 153 157
144 146 150
144 146 150
147 149 153
152 155 159
147 150 154
148 151 155
149 151 156
147 150 154
152 155 159
153 156 161
154 157 162
154 157 161
146 149 153
151 154 158
153 156 161
153 156 161
155 158 163
152 156 160
159 163 168
156 159 164
157 161 166
155 158 163
153 157 161
158 162 167
157 161 166
160 164 169
159 162 168
156 159 165
160 163 169
159 163 168
158 162 168
163 167 173
153 157 162
164 168 174
164 168 174
161 165 171
163 168 174
165 169 175
165 169 175
166 170 176
162 167 173
162 166 172
165 170 176
164 169 175
164 169 175
160 165 171
164 168 175
162 166 173
162 166 173
164 169 176
167 172 179
162 167 174
161 166 173
163 168 175
164 169 176
163 168 175
166 171 178
162 167 174
162 167 174
164 169 177
166 171 178
162 167 175
162 167 174
164 169 176
166 171 179
165 170 178
167 172 180
165 170 178
167 173 181
165 170 178
165 171 179
163 168 176
163 169 176
162 168 176
165 171 179
163 168 176
165 171 179
164 169 178
164 170 178
165 170 178
165 171 179
165 171 180
164 170 178
165 170 179
165 170 178
164 170 178
167 172 181
166 172 180
165 171 179
161 166 174
165 171 179
164 170 178
162 168 175
165 171 178
167 172 180
164 170 177
165 171 179
165 171 178
164 169 176
163 168 175
166 171 178
165 171 178
165 170 177
165 170 178
163 168 176
162 167 175
163 168 175
163 168 175
164 168 175
164 169 176
162 167 173
162 167 174
163 168 175
164 168 175
161 165 172
165 169 176
161 165 172
165 170 176
166 171 177
161 166 172
162 166 173
163 167 174
163 167 174
162 167 173
163 167 173
161 165 171
160 164 170
159 164 169
160 164 170
163 167 173
163 167 173
161 165 170
161 165 171
162 166 172
161 165 170
159 163 168
161 164 170
160 163 169
161 165 170
161 165 170
161 165 170
161 165 170
158 162 167
158 162 167
156 160 165
151 154 159
154 157 162
158 161 166
159 162 167
155 159 163
152 155 159
157 160 165
150 153 157
151 154 158
143 146 150
149 152 156
151 154 158
142 145 149
150 153 157
157 160 164
149 152 156
150 152 156
153 155 159
152 154 158
153 155 159
147 150 153
143 145 149
152 155 159
151 154 158
149 151 155
148 150 154
146 149 152
146 148 152
150 152 156
142 144 148
144 146 150
142 145 148
146 149 152
148 150 154
139 142 145
145 147 151
142 145 148
150 153 156
140 142 146
141 143 146
144 147 150
143 145 149
142 145 148
151 153 157
152 154 158
143 146 149
148 150 154
144 146 149
150 152 156
155 157 161
147 150 154
149 152 155
143 146 150
140 142 146
145 148 152
148 150 154
146 149 152
149 151 155
148 150 154
156 159 163
145 148 152
145 147 151
152 155 159
152 155 159
154 157 161
148 151 155
149 152 156
152 155 159
153 156 160
154 157 162
155 158 163
152 155 160
159 163 167
159 162 167
154 157 162
160 164 169
155 158 163
158 162 167
158 162 167
152 156 160
162 166 171
157 160 166
158 162 167
158 161 167
162 166 171
158 162 167
160 164 170
161 165 171
159 162 168
158 161 167
164 168 174
163 167 173
162 166 172
161 165 171
159 163 169
167 171 177
161 165 171
161 165 172
160 165 171
162 166 172
164 168 175
165 169 176
160 164 171
165 170 176
163 168 174
164 168 175
164 169 175
165 169 176
164 168 175
165 170 177
161 166 172
164 169 176
162 167 174
165 170 178
166 171 178
163 168 176
166 171 178
165 170 177
164 169 177
167 172 179
164 169 177
163 168 175
164 170 177
166 171 179
163 168 176
166 171 179
165 171 179
165 170 178
164 169 177
165 170 178
166 171 179
167 172 181
165 171 179
166 171 179
166 171 179
166 172 180
163 169 177
164 170 178
165 171 179
164 169 178
164 170 178
165 170 178
166 172 180
166 171 179
167 173 181
166 172 180
165 171 178
167 172 180
165 170 178
165 171 178
164 170 177
161 167 174
165 170 178
164 169 176
164 169 176
166 171 178
166 171 178
165 170 177
166 171 178
166 171 178
164 169 176
164 169 176
165 169 176
163 167 174
163 168 175
165 170 177
161 166 172
166 170 177
166 171 178
163 167 174
163 167 174
167 171 178
162 167 173
166 171 177
163 168 174
165 170 176
161 165 171
163 167 173
162 167 173
163 167 173
160 165 171
162 166 172
163 167 173
160 164 170
162 166 172
165 169 174
159 163 168
161 165 170
162 166 171
159 163 169
160 163 169
160 163 169
158 161 167
163 167 172
151 155 159
160 164 169
159 163 168
157 161 166
157 160 165
163 166 171
155 158 162
157 160 165
152 155 160
154 158 162
152 155 160
155 158 162
154 157 161
153 156 160
158 161 165
148 151 155
153 156 160
155 158 163
149 152 156
155 158 162
149 152 156
154 156 160
154 157 161
154 157 161
141 143 147
153 156 160
149 152 155
151 153 157
151 154 158
143 145 149
147 149 153
140 142 146
150 152 156
151 153 157
149 151 155
143 145 149
146 149 152
148 150 154
142 144 148
146 148 151
146 148 151
150 153 156
145 147 151
146 148 151
146 148 152
154 156 160
144 147 150
149 151 154
150 152 156
150 152 156
141 143 146
140 142 145
145 147 150
149 151 155
148 151 154
142 145 148
144 147 150
144 147 150
147 149 153
147 149 153
148 151 154
139 142 145
145 147 151
150 153 157
143 145 149
149 152 156
150 152 156
159 162 166
156 159 163
152 155 159
151 154 158
148 151 155
158 161 166
152 155 160
156 159 164
155 158 163
155 158 163
157 160 164
154 157 162
151 154 159
161 164 169
158 161 166
156 159 164
158 161 166
161 164 169
159 162 167
154 158 163
158 162 167
157 160 165
164 168 173
161 165 170
156 160 165
159 163 168
158 161 167
162 166 171
161 165 170
159 163 169
161 165 170
164 168 174
160 164 170
160 164 170
164 169 175
166 170 176
165 169 176
166 171 177
164 168 174
162 166 172
163 167 174
167 172 178
164 168 175
165 170 176
163 168 174
165 169 176
164 169 175
167 171 178
163 167 174
165 170 177
164 169 175
164 169 176
166 171 178
162 167 174
162 167 174
165 170 177
164 169 176
164 169 177
165 170 177
167 172 180
164 169 177
164 169 176
164 169 177
166 172 179
164 169 177
163 169 176
165 170 178
165 170 178
165 170 178
164 170 178
165 171 178
166 171 179
165 170 178
164 169 177
164 169 177
164 169 177
163 169 177
