P3
200 100
255
218 234 255
218 234 255
218 234 255
218 233 255
218 233 255
218 233 255
218 233 255
217 233 255
217 233 255
217 233 255
217 233 255
217 233 255
217 233 255
217 233 255
217 233 255
217 233 255
217 233 255
217 233 255
217 233 255
217 233 255
217 233 255
217 233 255
217 233 255
217 233 255
217 233 255
217 233 255
217 233 255
217 233 255
217 233 255
217 233 255
217 233 255
217 233 255
217 233 255
217 233 255
217 233 255
217 233 255
217 233 255
217 233 255
217 233 255
217 233 255
217 233 255
216 233 255
216 233 255
216 233 255
216 233 255
216 233 255
216 233 255
216 233 255
216 233 255
216 233 255
216 233 255
216 233 255
216 233 255
216 233 255
216 233 255
216 233 255
216 233 255
216 233 255
216 233 255
216 233 255
216 233 255
216 232 255
216 232 255
216 232 255
216 232 255
216 232 255
216 232 255
216 232 255
216 232 255
216 232 255
216 232 255
215 232 255
215 232 255
215 232 255
215 232 255
215 232 255
215 232 255
215 232 255
215 232 255
215 232 255
215 232 255
215 232 255
215 232 255
215 232 255
215 232 255
215 232 255
215 232 255
215 232 255
215 232 255
215 232 255
215 232 255
215 232 255
215 232 255
215 232 255
215 232 255
215 232 255
215 232 255
215 232 255
215 232 255
215 232 255
215 232 255
215 232 255
215 232 255
215 232 255
215 232 255
215 232 255
215 232 255
215 232 255
215 232 255
215 232 255
215 232 255
215 232 255
215 232 255
215 232 255
215 232 255
215 232 255
215 232 255
215 232 255
215 232 255
215 232 255
215 232 255
215 232 255
215 232 255
215 232 255
215 232 255
215 232 255
215 232 255
215 232 255
216 232 255
216 232 255
216 232 255
216 232 255
216 232 255
216 232 255
216 232 255
216 232 255
216 232 255
216 232 255
216 232 255
216 233 255
216 233 255
216 233 255
216 233 255
216 233 255
216 233 255
216 233 255
216 233 255
216 233 255
216 233 255
216 233 255
216 233 255
216 233 255
216 233 255
216 233 255
216 233 255
216 233 255
216 233 255
216 233 255
216 233 255
217 233 255
217 233 255
217 233 255
217 233 255
217 233 255
217 233 255
217 233 255
217 233 255
217 233 255
217 233 255
217 233 255
217 233 255
217 233 255
217 233 255
217 233 255
217 233 255
217 233 255
217 233 255
217 233 255
217 233 255
217 233 255
217 233 255
217 233 255
217 233 255
217 233 255
217 233 255
217 233 255
217 233 255
217 233 255
217 233 255
217 233 255
217 233 255
217 233 255
217 233 255
218 233 255
218 233 255
218 233 255
218 233 255
218 234 255
218 234 255
218 234 255
218 234 255
218 234 255
218 234 255
218 234 255
218 234 255
218 234 255
218 234 255
218 234 255
218 234 255
218 234 255
218 234 255
218 234 255
218 234 255
218 233 255
218 233 255
218 233 255
218 233 255
217 233 255
217 233 255
217 233 255
217 233 255
217 233 255
217 233 255
217 233 255
217 233 255
217 233 255
217 233 255
217 233 255
217 233 255
217 233 255
217 233 255
217 233 255
217 233 255
217 233 255
217 233 255
217 233 255
217 233 255
217 233 255
217 233 255
217 233 255
217 233 255
217 233 255
217 233 255
217 233 255
217 233 255
217 233 255
217 233 255
217 233 255
217 233 255
217 233 255
217 233 255
216 233 255
216 233 255
216 233 255
216 233 255
216 233 255
216 233 255
216 233 255
216 233 255
216 233 255
216 233 255
216 233 255
216 233 255
216 233 255
216 233 255
216 233 255
216 233 255
216 233 255
216 233 255
216 233 255
216 233 255
216 233 255
216 233 255
216 232 255
216 232 255
216 232 255
216 232 255
216 232 255
216 232 255
216 232 255
216 232 255
216 232 255
216 232 255
216 232 255
216 232 255
216 232 255
216 232 255
216 232 255
216 232 255
216 232 255
215 232 255
215 232 255
215 232 255
215 232 255
215 232 255
215 232 255
215 232 255
215 232 255
215 232 255
215 232 255
215 232 255
215 232 255
215 232 255
215 232 255
215 232 255
215 232 255
215 232 255
215 232 255
215 232 255
215 232 255
215 232 255
215 232 255
216 232 255
216 232 255
216 232 255
216 232 255
216 232 255
216 232 255
216 232 255
216 232 255
216 232 255
216 232 255
216 232 255
216 232 255
216 232 255
216 232 255
216 233 255
216 233 255
216 233 255
216 233 255
216 233 255
216 233 255
216 233 255
216 233 255
216 233 255
216 233 255
216 233 255
216 233 255
216 233 255
216 233 255
216 233 255
216 233 255
216 233 255
216 233 255
216 233 255
216 233 255
216 233 255
216 233 255
216 233 255
216 233 255
217 233 255
217 233 255
217 233 255
217 233 255
217 233 255
217 233 255
217 233 255
217 233 255
217 233 255
217 233 255
217 233 255
217 233 255
217 233 255
217 233 255
217 233 255
217 233 255
217 233 255
217 233 255
217 233 255
217 233 255
217 233 255
217 233 255
217 233 255
217 233 255
217 233 255
217 233 255
217 233 255
217 233 255
217 233 255
217 233 255
217 233 255
217 233 255
218 233 255
218 233 255
218 233 255
218 233 255
218 233 255
218 234 255
218 234 255
218 234 255
218 234 255
218 234 255
218 234 255
218 234 255
218 234 255
218 234 255
218 234 255
218 234 255
218 234 255
218 234 255
218 234 255
218 234 255
218 234 255
218 234 255
218 234 255
218 234 255
218 234 255
218 234 255
218 234 255
218 234 255
218 234 255
218 234 255
218 234 255
218 234 255
218 234 255
218 234 255
218 234 255
218 234 255
218 234 255
218 234 255
218 234 255
218 234 255
218 234 255
218 234 255
218 233 255
218 233 255
218 233 255
217 233 255
217 233 255
217 233 255
217 233 255
217 233 255
217 233 255
217 233 255
217 233 255
217 233 255
217 233 255
217 233 255
217 233 255
217 233 255
217 233 255
217 233 255
217 233 255
217 233 255
217 233 255
217 233 255
217 233 255
217 233 255
217 233 255
217 233 255
217 233 255
217 233 255
217 233 255
217 233 255
217 233 255
217 233 255
217 233 255
217 233 255
217 233 255
217 233 255
217 233 255
217 233 255
216 233 255
216 233 255
216 233 255
216 233 255
216 233 255
216 233 255
216 233 255
216 233 255
216 233 255
216 233 255
216 233 255
216 233 255
216 233 255
216 233 255
216 233 255
216 233 255
216 233 255
216 233 255
216 233 255
216 233 255
216 233 255
216 233 255
216 233 255
216 233 255
216 233 255
216 233 255
216 233 255
216 233 255
216 233 255
216 233 255
216 233 255
216 233 255
216 233 255
216 233 255
216 232 255
216 232 255
216 232 255
216 232 255
216 232 255
216 232 255
216 232 255
216 233 255
216 232 255
216 232 255
216 233 255
216 233 255
216 233 255
216 233 255
216 233 255
216 233 255
216 233 255
216 233 255
216 233 255
216 233 255
216 233 255
216 233 255
216 233 255
216 233 255
216 233 255
216 233 255
216 233 255
216 233 255
216 233 255
216 233 255
216 233 255
216 233 255
216 233 255
216 233 255
216 233 255
216 233 255
216 233 255
216 233 255
216 233 255
216 233 255
216 233 255
216 233 255
216 233 255
217 233 255
217 233 255
217 233 255
217 233 255
217 233 255
217 233 255
217 233 255
217 233 255
217 233 255
217 233 255
217 233 255
217 233 255
217 233 255
217 233 255
217 233 255
217 233 255
217 233 255
217 233 255
217 233 255
217 233 255
217 233 255
217 233 255
217 233 255
217 233 255
217 233 255
217 233 255
217 233 255
217 233 255
217 233 255
217 233 255
217 233 255
217 233 255
217 233 255
218 233 255
218 233 255
218 233 255
218 233 255
218 234 255
218 234 255
218 234 255
218 234 255
218 234 255
218 234 255
218 234 255
218 234 255
218 234 255
218 234 255
218 234 255
218 234 255
218 234 255
218 234 255
218 234 255
218 234 255
218 234 255
218 234 255
218 234 255
218 234 255
218 234 255
218 234 255
218 234 255
218 234 255
218 234 255
218 234 255
218 234 255
218 234 255
218 234 255
218 234 255
218 234 255
218 234 255
218 234 255
218 234 255
218 234 255
218 234 255
218 234 255
218 234 255
218 234 255
218 234 255
218 234 255
218 234 255
218 234 255
218 234 255
218 234 255
218 234 255
218 234 255
218 234 255
218 234 255
218 234 255
218 234 255
218 234 255
218 234 255
218 234 255
218 234 255
218 234 255
218 234 255
218 234 255
218 233 255
218 233 255
218 233 255
218 233 255
217 233 255
217 233 255
217 233 255
217 233 255
217 233 255
217 233 255
217 233 255
217 233 255
217 233 255
217 233 255
217 233 255
217 233 255
217 233 255
217 233 255
217 233 255
217 233 255
217 233 255
217 233 255
217 233 255
217 233 255
217 233 255
217 233 255
217 233 255
217 233 255
217 233 255
217 233 255
217 233 255
217 233 255
217 233 255
217 233 255
217 233 255
217 233 255
217 233 255
217 233 255
217 233 255
217 233 255
217 233 255
217 233 255
217 233 255
216 233 255
216 233 255
216 233 255
216 233 255
216 233 255
216 233 255
216 233 255
216 233 255
216 233 255
216 233 255
216 233 255
216 233 255
216 233 255
216 233 255
216 233 255
216 233 255
216 233 255
216 233 255
216 233 255
216 233 255
216 233 255
216 233 255
216 233 255
216 233 255
216 233 255
216 233 255
216 233 255
216 233 255
216 233 255
216 233 255
216 233 255
216 233 255
216 233 255
216 233 255
216 233 255
216 233 255
216 233 255
216 233 255
216 233 255
216 233 255
216 233 255
216 233 255
216 233 255
216 233 255
216 233 255
216 233 255
216 233 255
217 233 255
217 233 255
217 233 255
217 233 255
217 233 255
217 233 255
217 233 255
217 233 255
217 233 255
217 233 255
217 233 255
217 233 255
217 233 255
217 233 255
217 233 255
217 233 255
217 233 255
217 233 255
217 233 255
217 233 255
217 233 255
217 233 255
217 233 255
217 233 255
217 233 255
217 233 255
217 233 255
217 233 255
217 233 255
217 233 255
217 233 255
217 233 255
217 233 255
217 233 255
217 233 255
217 233 255
217 233 255
218 233 255
218 233 255
218 233 255
218 233 255
218 233 255
218 234 255
218 234 255
218 234 255
218 234 255
218 234 255
218 234 255
218 234 255
218 234 255
218 234 255
218 234 255
218 234 255
218 234 255
218 234 255
218 234 255
218 234 255
218 234 255
218 234 255
218 234 255
218 234 255
218 234 255
218 234 255
218 234 255
218 234 255
218 234 255
218 234 255
218 234 255
218 234 255
218 234 255
218 234 255
218 234 255
218 234 255
218 234 255
218 234 255
218 234 255
219 234 255
219 234 255
219 234 255
219 234 255
219 234 255
219 234 255
219 234 255
219 234 255
218 234 255
218 234 255
218 234 255
218 234 255
218 234 255
218 234 255
218 234 255
218 234 255
218 234 255
218 234 255
218 234 255
218 234 255
218 234 255
218 234 255
218 234 255
218 234 255
218 234 255
218 234 255
218 234 255
218 234 255
218 234 255
218 234 255
218 234 255
218 234 255
218 234 255
218 234 255
218 234 255
218 234 255
218 234 255
218 234 255
218 234 255
218 234 255
218 234 255
218 234 255
218 234 255
218 234 255
218 234 255
218 234 255
218 234 255
218 233 255
218 233 255
218 233 255
218 233 255
217 233 255
217 233 255
217 233 255
217 233 255
217 233 255
217 233 255
217 233 255
217 233 255
217 233 255
217 233 255
217 233 255
217 233 255
217 233 255
217 233 255
217 233 255
217 233 255
217 233 255
217 233 255
217 233 255
217 233 255
217 233 255
217 233 255
217 233 255
217 233 255
217 233 255
217 233 255
217 233 255
217 233 255
217 233 255
217 233 255
217 233 255
217 233 255
217 233 255
217 233 255
217 233 255
217 233 255
217 233 255
217 233 255
217 233 255
217 233 255
217 233 255
217 233 255
217 233 255
217 233 255
217 233 255
217 233 255
217 233 255
217 233 255
217 233 255
217 233 255
217 233 255
217 233 255
217 233 255
217 233 255
217 233 255
217 233 255
217 233 255
217 233 255
217 233 255
217 233 255
217 233 255
217 233 255
217 233 255
217 233 255
217 233 255
217 233 255
217 233 255
217 233 255
217 233 255
217 233 255
217 233 255
217 233 255
217 233 255
217 233 255
217 233 255
217 233 255
217 233 255
217 233 255
217 233 255
217 233 255
217 233 255
217 233 255
217 233 255
217 233 255
217 233 255
217 233 255
217 233 255
217 233 255
217 233 255
217 233 255
217 233 255
217 233 255
217 233 255
217 233 255
217 233 255
217 233 255
217 233 255
217 233 255
218 233 255
218 233 255
218 233 255
218 233 255
218 234 255
218 234 255
218 234 255
218 234 255
218 234 255
218 234 255
218 234 255
218 234 255
218 234 255
218 234 255
218 234 255
218 234 255
218 234 255
218 234 255
218 234 255
218 234 255
218 234 255
218 234 255
218 234 255
218 234 255
218 234 255
218 234 255
218 234 255
218 234 255
218 234 255
218 234 255
218 234 255
218 234 255
218 234 255
218 234 255
218 234 255
218 234 255
218 234 255
218 234 255
218 234 255
218 234 255
218 234 255
218 234 255
218 234 255
219 234 255
219 234 255
219 234 255
219 234 255
219 234 255
219 234 255
219 234 255
219 234 255
219 234 255
219 234 255
219 234 255
219 234 255
219 234 255
219 234 255
219 234 255
219 234 255
219 234 255
219 234 255
219 234 255
219 234 255
219 234 255
219 234 255
219 234 255
219 234 255
219 234 255
219 234 255
219 234 255
219 234 255
219 234 255
219 234 255
218 234 255
218 234 255
218 234 255
218 234 255
218 234 255
218 234 255
218 234 255
218 234 255
218 234 255
218 234 255
218 234 255
218 234 255
218 234 255
218 234 255
218 234 255
218 234 255
218 234 255
218 234 255
218 234 255
218 234 255
218 234 255
218 234 255
218 234 255
218 234 255
218 234 255
218 234 255
218 234 255
218 234 255
218 234 255
218 234 255
218 234 255
218 234 255
218 234 255
218 234 255
218 234 255
218 234 255
218 234 255
218 234 255
218 234 255
218 233 255
218 233 255
218 233 255
218 233 255
218 233 255
217 233 255
217 233 255
217 233 255
217 233 255
217 233 255
217 233 255
217 233 255
217 233 255
217 233 255
217 233 255
217 233 255
217 233 255
217 233 255
217 233 255
217 233 255
217 233 255
217 233 255
217 233 255
217 233 255
217 233 255
217 233 255
217 233 255
217 233 255
217 233 255
217 233 255
217 233 255
217 233 255
217 233 255
217 233 255
217 233 255
217 233 255
217 233 255
217 233 255
217 233 255
217 233 255
217 233 255
217 233 255
217 233 255
217 233 255
217 233 255
217 233 255
217 233 255
217 233 255
217 233 255
217 233 255
217 233 255
217 233 255
217 233 255
217 233 255
217 233 255
217 233 255
217 233 255
217 233 255
217 233 255
217 233 255
217 233 255
217 233 255
217 233 255
217 233 255
217 233 255
217 233 255
217 233 255
217 233 255
217 233 255
217 233 255
217 233 255
217 233 255
217 233 255
218 233 255
218 233 255
218 233 255
218 233 255
218 233 255
218 234 255
218 234 255
218 234 255
218 234 255
218 234 255
218 234 255
218 234 255
218 234 255
218 234 255
218 234 255
218 234 255
218 234 255
218 234 255
218 234 255
218 234 255
218 234 255
218 234 255
218 234 255
218 234 255
218 234 255
218 234 255
218 234 255
218 234 255
218 234 255
218 234 255
218 234 255
218 234 255
218 234 255
218 234 255
218 234 255
218 234 255
218 234 255
218 234 255
218 234 255
218 234 255
218 234 255
218 234 255
218 234 255
218 234 255
218 234 255
219 234 255
219 234 255
219 234 255
219 234 255
219 234 255
219 234 255
219 234 255
219 234 255
219 234 255
219 234 255
219 234 255
219 234 255
219 234 255
219 234 255
219 234 255
219 234 255
219 234 255
219 234 255
219 234 255
219 234 255
219 234 255
219 234 255
219 234 255
219 234 255
219 234 255
219 234 255
219 234 255
219 234 255
219 234 255
219 234 255
219 234 255
219 234 255
219 234 255
219 234 255
219 234 255
219 234 255
219 234 255
219 234 255
219 234 255
219 234 255
219 234 255
219 234 255
219 234 255
219 234 255
219 234 255
219 234 255
219 234 255
219 234 255
219 234 255
219 234 255
219 234 255
219 234 255
219 234 255
219 234 255
219 234 255
219 234 255
219 234 255
218 234 255
218 234 255
218 234 255
218 234 255
218 234 255
218 234 255
218 234 255
218 234 255
218 234 255
218 234 255
218 234 255
218 234 255
218 234 255
218 234 255
218 234 255
218 234 255
218 234 255
218 234 255
218 234 255
218 234 255
218 234 255
218 234 255
218 234 255
218 234 255
218 234 255
218 234 255
218 234 255
218 234 255
218 234 255
218 234 255
218 234 255
218 234 255
218 234 255
218 234 255
218 234 255
218 234 255
218 234 255
218 234 255
218 234 255
218 234 255
218 234 255
218 234 255
218 234 255
218 234 255
218 234 255
218 233 255
218 233 255
218 233 255
218 233 255
218 233 255
218 233 255
218 233 255
218 233 255
218 233 255
217 233 255
217 233 255
217 233 255
217 233 255
217 233 255
217 233 255
217 233 255
217 233 255
217 233 255
217 233 255
217 233 255
217 233 255
217 233 255
217 233 255
217 233 255
217 233 255
217 233 255
217 233 255
217 233 255
217 233 255
218 233 255
218 233 255
218 233 255
218 233 255
218 233 255
218 233 255
218 233 255
218 233 255
218 233 255
218 233 255
218 233 255
218 234 255
218 234 255
218 234 255
218 234 255
218 234 255
218 234 255
218 234 255
218 234 255
218 234 255
218 234 255
218 234 255
218 234 255
218 234 255
218 234 255
218 234 255
218 234 255
218 234 255
218 234 255
218 234 255
218 234 255
218 234 255
218 234 255
218 234 255
218 234 255
218 234 255
218 234 255
218 234 255
218 234 255
218 234 255
218 234 255
218 234 255
218 234 255
218 234 255
218 234 255
218 234 255
218 234 255
218 234 255
218 234 255
218 234 255
218 234 255
218 234 255
218 234 255
218 234 255
219 234 255
219 234 255
219 234 255
219 234 255
219 234 255
219 234 255
219 234 255
219 234 255
219 234 255
219 234 255
219 234 255
219 234 255
219 234 255
219 234 255
219 234 255
219 234 255
219 234 255
219 234 255
219 234 255
219 234 255
219 234 255
219 234 255
219 234 255
219 234 255
219 234 255
219 234 255
219 234 255
219 234 255
219 234 255
219 234 255
219 234 255
219 234 255
219 234 255
219 234 255
219 234 255
219 234 255
219 234 255
219 234 255
219 234 255
219 234 255
219 234 255
219 234 255
219 234 255
219 234 255
219 234 255
219 234 255
219 234 255
219 234 255
219 234 255
219 234 255
219 234 255
219 234 255
219 234 255
219 234 255
219 234 255
219 234 255
219 234 255
219 234 255
219 234 255
219 234 255
219 234 255
219 234 255
219 234 255
219 234 255
219 234 255
219 234 255
219 234 255
219 234 255
219 234 255
219 234 255
219 234 255
219 234 255
219 234 255
219 234 255
219 234 255
219 234 255
219 234 255
219 234 255
219 234 255
219 234 255
219 234 255
219 234 255
219 234 255
219 234 255
219 234 255
219 234 255
219 234 255
219 234 255
219 234 255
218 234 255
218 234 255
218 234 255
218 234 255
218 234 255
218 234 255
218 234 255
218 234 255
218 234 255
218 234 255
218 234 255
218 234 255
218 234 255
218 234 255
218 234 255
218 234 255
218 234 255
218 234 255
218 234 255
218 234 255
218 234 255
218 234 255
218 234 255
218 234 255
218 234 255
218 234 255
218 234 255
218 234 255
218 234 255
218 234 255
218 234 255
218 234 255
218 234 255
218 234 255
218 234 255
218 234 255
218 234 255
218 234 255
218 234 255
218 234 255
218 234 255
218 234 255
218 234 255
218 234 255
218 234 255
218 234 255
218 234 255
218 234 255
218 234 255
218 234 255
218 234 255
218 234 255
218 234 255
218 234 255
218 234 255
218 234 255
218 234 255
218 234 255
218 234 255
218 234 255
218 234 255
218 234 255
218 234 255
218 234 255
218 234 255
218 234 255
218 234 255
218 234 255
218 234 255
218 234 255
218 234 255
218 234 255
218 234 255
218 234 255
218 234 255
218 234 255
218 234 255
218 234 255
218 234 255
218 234 255
218 234 255
218 234 255
218 234 255
218 234 255
218 234 255
218 234 255
218 234 255
218 234 255
218 234 255
218 234 255
218 234 255
218 234 255
218 234 255
219 234 255
219 234 255
219 234 255
219 234 255
219 234 255
219 234 255
219 234 255
219 234 255
219 234 255
219 234 255
219 234 255
219 234 255
219 234 255
219 234 255
219 234 255
219 234 255
219 234 255
219 234 255
219 234 255
219 234 255
219 234 255
219 234 255
219 234 255
219 234 255
219 234 255
219 234 255
219 234 255
219 234 255
219 234 255
219 234 255
219 234 255
219 234 255
219 234 255
219 234 255
219 234 255
219 234 255
219 234 255
219 234 255
219 234 255
219 234 255
219 234 255
219 234 255
219 234 255
219 234 255
219 234 255
219 234 255
219 234 255
219 234 255
219 234 255
219 234 255
219 234 255
219 234 255
219 234 255
219 234 255
220 235 255
220 235 255
220 235 255
220 235 255
220 235 255
220 235 255
220 235 255
220 235 255
220 235 255
220 235 255
220 235 255
219 235 255
219 235 255
219 235 255
219 235 255
219 235 255
219 235 255
219 235 255
219 235 255
219 235 255
219 234 255
219 234 255
219 234 255
219 234 255
219 234 255
219 234 255
219 234 255
219 234 255
219 234 255
219 234 255
219 234 255
219 234 255
219 234 255
219 234 255
219 234 255
219 234 255
219 234 255
219 234 255
219 234 255
219 234 255
219 234 255
219 234 255
219 234 255
219 234 255
219 234 255
219 234 255
219 234 255
219 234 255
219 234 255
219 234 255
219 234 255
219 234 255
219 234 255
219 234 255
219 234 255
219 234 255
219 234 255
219 234 255
219 234 255
219 234 255
219 234 255
219 234 255
219 234 255
219 234 255
219 234 255
219 234 255
219 234 255
219 234 255
219 234 255
219 234 255
219 234 255
219 234 255
219 234 255
219 234 255
219 234 255
219 234 255
218 234 255
218 234 255
218 234 255
218 234 255
218 234 255
218 234 255
218 234 255
218 234 255
218 234 255
218 234 255
218 234 255
218 234 255
218 234 255
218 234 255
218 234 255
218 234 255
218 234 255
218 234 255
218 234 255
218 234 255
218 234 255
218 234 255
218 234 255
218 234 255
218 234 255
218 234 255
218 234 255
218 234 255
218 234 255
218 234 255
218 234 255
218 234 255
218 234 255
218 234 255
218 234 255
218 234 255
218 234 255
218 234 255
218 234 255
218 234 255
218 234 255
218 234 255
218 234 255
218 234 255
218 234 255
218 234 255
219 234 255
219 234 255
219 234 255
219 234 255
219 234 255
219 234 255
219 234 255
219 234 255
219 234 255
219 234 255
219 234 255
219 234 255
219 234 255
219 234 255
219 234 255
219 234 255
219 234 255
219 234 255
219 234 255
219 234 255
219 234 255
219 234 255
219 234 255
219 234 255
219 234 255
219 234 255
219 234 255
219 234 255
219 234 255
219 234 255
219 234 255
219 234 255
219 234 255
219 234 255
219 234 255
219 234 255
219 234 255
219 234 255
219 234 255
219 234 255
219 234 255
219 234 255
219 234 255
219 234 255
219 234 255
219 234 255
219 234 255
219 234 255
219 234 255
219 234 255
219 234 255
219 234 255
219 234 255
219 234 255
219 234 255
219 234 255
219 234 255
219 234 255
219 234 255
219 235 255
219 235 255
219 235 255
219 235 255
219 235 255
219 235 255
219 235 255
220 235 255
220 235 255
220 235 255
220 235 255
220 235 255
220 235 255
220 235 255
220 235 255
220 235 255
220 235 255
220 235 255
220 235 255
220 235 255
220 235 255
220 235 255
220 235 255
220 235 255
220 235 255
220 235 255
220 235 255
220 235 255
220 235 255
220 235 255
220 235 255
220 235 255
220 235 255
220 235 255
220 235 255
220 235 255
220 235 255
220 235 255
220 235 255
220 235 255
220 235 255
220 235 255
220 235 255
220 235 255
220 235 255
220 235 255
220 235 255
220 235 255
220 235 255
220 235 255
220 235 255
220 235 255
220 235 255
220 235 255
219 235 255
219 235 255
219 235 255
219 235 255
219 235 255
219 235 255
219 234 255
219 234 255
219 234 255
219 234 255
219 234 255
219 234 255
219 234 255
219 234 255
219 234 255
219 234 255
219 234 255
219 234 255
219 234 255
219 234 255
219 234 255
219 234 255
219 234 255
219 234 255
219 234 255
219 234 255
219 234 255
219 234 255
219 234 255
219 234 255
219 234 255
219 234 255
219 234 255
219 234 255
219 234 255
219 234 255
219 234 255
219 234 255
219 234 255
219 234 255
219 234 255
219 234 255
219 234 255
219 234 255
219 234 255
219 234 255
219 234 255
219 234 255
219 234 255
219 234 255
219 234 255
219 234 255
219 234 255
219 234 255
219 234 255
219 234 255
219 234 255
219 234 255
219 234 255
219 234 255
219 234 255
219 234 255
219 234 255
219 234 255
219 234 255
219 234 255
219 234 255
219 234 255
219 234 255
219 234 255
219 234 255
219 234 255
219 234 255
219 234 255
219 234 255
219 234 255
219 234 255
219 234 255
219 234 255
219 234 255
219 234 255
219 234 255
219 234 255
219 234 255
219 234 255
219 234 255
219 234 255
219 234 255
219 234 255
219 234 255
219 234 255
219 234 255
219 234 255
219 234 255
219 234 255
219 234 255
219 234 255
219 234 255
219 234 255
219 234 255
219 234 255
219 234 255
219 234 255
219 234 255
219 234 255
219 234 255
219 234 255
219 234 255
219 234 255
219 234 255
219 234 255
219 234 255
219 234 255
219 234 255
219 234 255
219 234 255
219 234 255
219 234 255
219 234 255
219 234 255
219 234 255
219 234 255
219 234 255
219 235 255
219 235 255
219 235 255
219 235 255
219 235 255
219 235 255
219 235 255
219 235 255
220 235 255
220 235 255
220 235 255
220 235 255
220 235 255
220 235 255
220 235 255
220 235 255
220 235 255
220 235 255
220 235 255
220 235 255
220 235 255
220 235 255
220 235 255
220 235 255
220 235 255
220 235 255
220 235 255
220 235 255
220 235 255
220 235 255
220 235 255
220 235 255
220 235 255
220 235 255
220 235 255
220 235 255
220 235 255
220 235 255
220 235 255
220 235 255
220 235 255
220 235 255
220 235 255
220 235 255
220 235 255
220 235 255
220 235 255
220 235 255
220 235 255
220 235 255
220 235 255
220 235 255
220 235 255
220 235 255
220 235 255
220 235 255
220 235 255
220 235 255
220 235 255
220 235 255
220 235 255
220 235 255
220 235 255
220 235 255
220 235 255
220 235 255
220 235 255
220 235 255
220 235 255
220 235 255
220 235 255
220 235 255
220 235 255
220 235 255
220 235 255
220 235 255
220 235 255
220 235 255
220 235 255
220 235 255
220 235 255
220 235 255
220 235 255
220 235 255
220 235 255
220 235 255
220 235 255
220 235 255
220 235 255
220 235 255
220 235 255
220 235 255
220 235 255
220 235 255
220 235 255
220 235 255
220 235 255
220 235 255
220 235 255
220 235 255
220 235 255
220 235 255
220 235 255
220 235 255
219 235 255
219 235 255
219 235 255
219 235 255
219 235 255
219 235 255
219 235 255
219 235 255
219 235 255
219 234 255
219 234 255
219 234 255
219 234 255
219 234 255
219 234 255
219 234 255
219 234 255
219 234 255
219 234 255
219 234 255
219 234 255
219 234 255
219 234 255
219 234 255
219 234 255
219 234 255
219 234 255
219 234 255
219 234 255
219 234 255
219 234 255
219 234 255
219 234 255
219 234 255
219 234 255
219 234 255
219 234 255
219 234 255
219 234 255
219 234 255
219 234 255
219 234 255
219 234 255
219 234 255
219 234 255
219 234 255
219 234 255
219 234 255
219 234 255
219 234 255
219 234 255
219 234 255
219 234 255
219 234 255
219 234 255
219 234 255
219 234 255
219 234 255
219 234 255
219 234 255
219 234 255
219 234 255
219 234 255
219 234 255
219 234 255
219 235 255
219 235 255
219 235 255
219 235 255
219 235 255
219 235 255
219 235 255
219 235 255
219 235 255
219 235 255
220 235 255
220 235 255
219 235 255
220 235 255
220 235 255
220 235 255
220 235 255
220 235 255
220 235 255
220 235 255
220 235 255
220 235 255
220 235 255
220 235 255
220 235 255
220 235 255
220 235 255
220 235 255
220 235 255
220 235 255
220 235 255
220 235 255
220 235 255
220 235 255
220 235 255
220 235 255
220 235 255
220 235 255
220 235 255
220 235 255
220 235 255
220 235 255
220 235 255
220 235 255
220 235 255
220 235 255
220 235 255
220 235 255
220 235 255
220 235 255
220 235 255
220 235 255
220 235 255
220 235 255
220 235 255
220 235 255
220 235 255
220 235 255
220 235 255
220 235 255
220 235 255
220 235 255
220 235 255
220 235 255
220 235 255
220 235 255
220 235 255
220 235 255
220 235 255
220 235 255
220 235 255
220 235 255
220 235 255
220 235 255
220 235 255
220 235 255
220 235 255
220 235 255
220 235 255
220 235 255
220 235 255
220 235 255
220 235 255
220 235 255
220 235 255
220 235 255
220 235 255
220 235 255
220 235 255
220 235 255
220 235 255
220 235 255
220 235 255
220 235 255
220 235 255
220 235 255
220 235 255
220 235 255
220 235 255
220 235 255
220 235 255
220 235 255
220 235 255
220 235 255
220 235 255
220 235 255
220 235 255
220 235 255
220 235 255
220 235 255
220 235 255
220 235 255
220 235 255
220 235 255
220 235 255
220 235 255
220 235 255
220 235 255
220 235 255
220 235 255
220 235 255
220 235 255
220 235 255
220 235 255
220 235 255
220 235 255
220 235 255
220 235 255
220 235 255
220 235 255
220 235 255
220 235 255
220 235 255
220 235 255
220 235 255
220 235 255
220 235 255
220 235 255
220 235 255
220 235 255
220 235 255
220 235 255
220 235 255
220 235 255
220 235 255
220 235 255
220 235 255
220 235 255
220 235 255
220 235 255
220 235 255
220 235 255
220 235 255
220 235 255
220 235 255
220 235 255
220 235 255
220 235 255
220 235 255
220 235 255
220 235 255
220 235 255
220 235 255
220 235 255
220 235 255
220 235 255
220 235 255
220 235 255
220 235 255
220 235 255
220 235 255
220 235 255
220 235 255
220 235 255
220 235 255
220 235 255
220 235 255
220 235 255
220 235 255
220 235 255
220 235 255
220 235 255
220 235 255
220 235 255
220 235 255
220 235 255
220 235 255
220 235 255
220 235 255
220 235 255
220 235 255
220 235 255
220 235 255
220 235 255
220 235 255
220 235 255
220 235 255
220 235 255
220 235 255
220 235 255
220 235 255
220 235 255
220 235 255
220 235 255
220 235 255
220 235 255
220 235 255
220 235 255
220 235 255
220 235 255
220 235 255
220 235 255
220 235 255
220 235 255
220 235 255
220 235 255
220 235 255
220 235 255
220 235 255
220 235 255
220 235 255
220 235 255
220 235 255
220 235 255
220 235 255
220 235 255
220 235 255
220 235 255
220 235 255
220 235 255
220 235 255
220 235 255
220 235 255
220 235 255
220 235 255
220 235 255
220 235 255
220 235 255
220 235 255
220 235 255
220 235 255
220 235 255
220 235 255
220 235 255
220 235 255
220 235 255
220 235 255
220 235 255
220 235 255
220 235 255
220 235 255
220 235 255
220 235 255
220 235 255
220 235 255
220 235 255
220 235 255
220 235 255
220 235 255
220 235 255
220 235 255
220 235 255
220 235 255
220 235 255
220 235 255
220 235 255
220 235 255
220 235 255
220 235 255
220 235 255
220 235 255
220 235 255
220 235 255
221 235 255
221 235 255
221 235 255
221 235 255
221 235 255
221 235 255
221 235 255
221 235 255
221 235 255
221 235 255
221 235 255
221 235 255
221 235 255
221 235 255
221 235 255
221 235 255
221 235 255
221 235 255
221 235 255
221 235 255
221 235 255
221 235 255
221 235 255
221 235 255
221 235 255
221 235 255
221 235 255
221 235 255
221 235 255
221 235 255
220 235 255
220 235 255
220 235 255
220 235 255
220 235 255
220 235 255
220 235 255
220 235 255
220 235 255
220 235 255
220 235 255
220 235 255
220 235 255
220 235 255
220 235 255
220 235 255
220 235 255
220 235 255
220 235 255
220 235 255
220 235 255
220 235 255
220 235 255
220 235 255
220 235 255
220 235 255
220 235 255
220 235 255
220 235 255
220 235 255
220 235 255
220 235 255
220 235 255
220 235 255
220 235 255
220 235 255
220 235 255
220 235 255
220 235 255
220 235 255
220 235 255
220 235 255
220 235 255
220 235 255
220 235 255
220 235 255
220 235 255
220 235 255
220 235 255
220 235 255
220 235 255
220 235 255
220 235 255
220 235 255
220 235 255
220 235 255
220 235 255
220 235 255
220 235 255
220 235 255
220 235 255
220 235 255
220 235 255
220 235 255
220 235 255
220 235 255
220 235 255
220 235 255
220 235 255
220 235 255
220 235 255
220 235 255
220 235 255
220 235 255
220 235 255
220 235 255
220 235 255
220 235 255
220 235 255
220 235 255
220 235 255
220 235 255
220 235 255
220 235 255
220 235 255
220 235 255
220 235 255
220 235 255
220 235 255
220 235 255
220 235 255
220 235 255
220 235 255
220 235 255
220 235 255
220 235 255
220 235 255
220 235 255
220 235 255
220 235 255
220 235 255
220 235 255
220 235 255
220 235 255
220 235 255
220 235 255
220 235 255
220 235 255
220 235 255
220 235 255
220 235 255
220 235 255
220 235 255
220 235 255
220 235 255
220 235 255
220 235 255
220 235 255
220 235 255
220 235 255
220 235 255
220 235 255
220 235 255
220 235 255
220 235 255
220 235 255
220 235 255
220 235 255
220 235 255
220 235 255
220 235 255
220 235 255
220 235 255
220 235 255
220 235 255
220 235 255
220 235 255
220 235 255
221 235 255
220 235 255
221 235 255
221 235 255
221 235 255
221 235 255
221 235 255
221 235 255
221 235 255
221 235 255
221 235 255
221 235 255
221 235 255
221 235 255
221 235 255
221 235 255
221 235 255
221 235 255
221 235 255
221 235 255
221 235 255
221 235 255
221 235 255
221 235 255
221 235 255
221 235 255
221 235 255
221 235 255
221 235 255
221 235 255
221 235 255
221 235 255
221 235 255
221 235 255
221 235 255
221 235 255
221 235 255
221 235 255
221 235 255
221 235 255
221 235 255
221 235 255
221 235 255
221 235 255
221 235 255
221 235 255
221 235 255
221 235 255
221 235 255
221 235 255
221 235 255
221 235 255
221 235 255
221 235 255
221 235 255
221 235 255
221 235 255
221 235 255
221 235 255
221 235 255
221 235 255
221 235 255
221 235 255
221 235 255
221 235 255
221 235 255
221 235 255
221 235 255
221 235 255
221 235 255
221 235 255
221 235 255
221 235 255
221 235 255
221 235 255
221 235 255
221 235 255
221 235 255
221 235 255
221 235 255
221 235 255
221 235 255
221 235 255
221 235 255
221 235 255
221 235 255
221 235 255
221 235 255
221 235 255
221 235 255
221 235 255
221 235 255
221 235 255
221 235 255
221 235 255
221 235 255
221 235 255
221 235 255
221 235 255
221 235 255
221 235 255
221 235 255
221 235 255
221 235 255
221 235 255
221 235 255
221 235 255
221 235 255
221 235 255
221 235 255
221 235 255
221 235 255
221 235 255
221 235 255
221 235 255
221 235 255
221 235 255
221 235 255
221 235 255
221 235 255
221 235 255
221 235 255
221 235 255
221 235 255
221 235 255
221 235 255
221 235 255
221 235 255
221 235 255
221 235 255
221 235 255
221 235 255
221 235 255
221 235 255
221 235 255
221 235 255
221 235 255
221 235 255
221 235 255
221 235 255
221 235 255
221 235 255
221 235 255
221 235 255
221 235 255
221 235 255
221 235 255
221 235 255
221 235 255
221 235 255
221 235 255
221 235 255
221 235 255
221 235 255
221 235 255
221 235 255
221 235 255
221 235 255
221 235 255
221 235 255
221 235 255
221 235 255
221 235 255
221 235 255
221 235 255
221 235 255
221 235 255
221 235 255
221 235 255
221 235 255
221 235 255
221 235 255
221 235 255
221 235 255
221 235 255
221 235 255
221 235 255
221 235 255
221 235 255
221 235 255
221 235 255
221 235 255
221 235 255
221 235 255
221 235 255
221 235 255
221 235 255
221 235 255
221 235 255
221 235 255
221 235 255
221 235 255
221 235 255
221 235 255
221 235 255
221 235 255
221 235 255
221 235 255
221 235 255
221 235 255
221 235 255
221 235 255
221 235 255
221 235 255
221 235 255
221 235 255
221 235 255
221 235 255
221 235 255
221 235 255
221 235 255
221 235 255
221 235 255
221 235 255
221 235 255
221 235 255
221 235 255
221 235 255
221 235 255
221 235 255
221 235 255
221 235 255
221 235 255
221 235 255
221 235 255
221 235 255
221 235 255
221 235 255
221 235 255
221 235 255
221 235 255
221 235 255
221 235 255
221 235 255
221 235 255
221 235 255
221 235 255
221 235 255
221 235 255
221 235 255
221 235 255
221 235 255
221 235 255
221 235 255
221 235 255
221 235 255
221 235 255
221 235 255
221 235 255
221 235 255
221 235 255
221 235 255
221 235 255
221 235 255
221 235 255
221 235 255
221 235 255
221 235 255
221 235 255
221 235 255
221 235 255
221 235 255
221 235 255
221 235 255
221 235 255
221 235 255
221 235 255
221 235 255
221 235 255
221 235 255
221 235 255
221 235 255
221 235 255
221 235 255
221 235 255
221 235 255
221 235 255
221 235 255
221 235 255
221 235 255
221 235 255
221 235 255
221 235 255
221 235 255
221 235 255
221 235 255
221 235 255
221 235 255
221 235 255
221 235 255
221 235 255
221 235 255
221 235 255
221 235 255
221 235 255
221 235 255
221 235 255
221 235 255
221 235 255
221 235 255
221 235 255
221 235 255
221 235 255
221 235 255
221 235 255
221 235 255
221 235 255
221 235 255
221 235 255
221 235 255
221 235 255
221 235 255
221 235 255
221 235 255
221 235 255
221 235 255
221 235 255
221 235 255
221 235 255
221 235 255
221 235 255
221 235 255
221 235 255
221 235 255
221 235 255
221 235 255
221 235 255
221 235 255
221 235 255
221 235 255
221 235 255
221 235 255
221 235 255
221 235 255
221 235 255
221 235 255
221 235 255
221 235 255
221 235 255
221 235 255
221 235 255
221 235 255
221 235 255
221 235 255
221 235 255
221 235 255
221 235 255
221 235 255
221 235 255
221 235 255
221 235 255
221 235 255
221 235 255
221 235 255
221 235 255
221 235 255
221 235 255
221 235 255
221 235 255
221 235 255
221 235 255
221 235 255
221 235 255
221 235 255
221 235 255
221 235 255
221 235 255
221 235 255
221 235 255
221 235 255
221 235 255
221 235 255
221 235 255
221 235 255
221 235 255
221 235 255
221 235 255
221 235 255
221 235 255
221 235 255
221 235 255
221 235 255
221 235 255
221 235 255
221 235 255
221 235 255
221 235 255
221 235 255
221 235 255
221 235 255
221 235 255
221 235 255
221 235 255
221 235 255
221 235 255
221 235 255
221 235 255
221 235 255
221 235 255
221 235 255
221 235 255
221 235 255
221 235 255
221 235 255
221 235 255
221 235 255
221 235 255
221 235 255
221 235 255
221 235 255
221 235 255
221 235 255
221 235 255
221 235 255
221 235 255
221 235 255
221 235 255
221 235 255
221 235 255
221 235 255
221 235 255
221 235 255
221 235 255
221 235 255
221 235 255
221 235 255
221 235 255
221 235 255
221 235 255
221 235 255
221 235 255
221 235 255
221 236 255
221 236 255
221 236 255
221 236 255
221 236 255
221 236 255
221 236 255
221 236 255
221 236 255
221 236 255
221 236 255
221 236 255
221 236 255
221 236 255
221 236 255
221 236 255
221 236 255
221 236 255
221 236 255
221 236 255
221 236 255
221 236 255
221 236 255
221 236 255
221 236 255
221 236 255
221 236 255
221 236 255
221 236 255
221 236 255
221 236 255
221 236 255
221 236 255
221 236 255
222 236 255
221 236 255
221 236 255
222 236 255
222 236 255
221 236 255
221 236 255
222 236 255
222 236 255
221 236 255
221 236 255
221 236 255
222 236 255
222 236 255
222 236 255
222 236 255
222 236 255
222 236 255
222 236 255
222 236 255
222 236 255
222 236 255
222 236 255
222 236 255
222 236 255
222 236 255
222 236 255
222 236 255
222 236 255
222 236 255
222 236 255
222 236 255
222 236 255
222 236 255
222 236 255
222 236 255
222 236 255
222 236 255
222 236 255
222 236 255
222 236 255
222 236 255
222 236 255
222 236 255
222 236 255
222 236 255
222 236 255
222 236 255
222 236 255
222 236 255
222 236 255
222 236 255
222 236 255
222 236 255
222 236 255
222 236 255
222 236 255
222 236 255
222 236 255
222 236 255
222 236 255
222 236 255
222 236 255
222 236 255
222 236 255
222 236 255
222 236 255
222 236 255
222 236 255
222 236 255
222 236 255
222 236 255
222 236 255
222 236 255
222 236 255
222 236 255
222 236 255
222 236 255
222 236 255
222 236 255
222 236 255
222 236 255
222 236 255
222 236 255
222 236 255
222 236 255
222 236 255
222 236 255
222 236 255
222 236 255
222 236 255
222 236 255
222 236 255
222 236 255
222 236 255
222 236 255
222 236 255
222 236 255
222 236 255
222 236 255
222 236 255
222 236 255
222 236 255
222 236 255
222 236 255
222 236 255
222 236 255
222 236 255
222 236 255
222 236 255
222 236 255
222 236 255
222 236 255
222 236 255
222 236 255
222 236 255
222 236 255
222 236 255
222 236 255
221 236 255
222 236 255
222 236 255
222 236 255
222 236 255
221 236 255
221 236 255
221 236 255
221 236 255
222 236 255
221 236 255
221 236 255
221 236 255
221 236 255
221 236 255
221 236 255
221 236 255
221 236 255
221 236 255
221 236 255
221 236 255
221 236 255
221 236 255
221 236 255
221 236 255
221 236 255
221 236 255
221 236 255
221 236 255
221 236 255
221 236 255
221 236 255
221 236 255
221 236 255
221 236 255
221 236 255
221 236 255
221 236 255
221 236 255
221 236 255
221 236 255
221 236 255
221 236 255
221 236 255
221 236 255
221 236 255
221 236 255
222 236 255
222 236 255
222 236 255
222 236 255
222 236 255
222 236 255
222 236 255
222 236 255
222 236 255
222 236 255
222 236 255
222 236 255
222 236 255
222 236 255
222 236 255
222 236 255
222 236 255
222 236 255
222 236 255
222 236 255
222 236 255
222 236 255
222 236 255
222 236 255
222 236 255
222 236 255
222 236 255
222 236 255
222 236 255
222 236 255
222 236 255
222 236 255
222 236 255
222 236 255
222 236 255
222 236 255
222 236 255
222 236 255
222 236 255
222 236 255
222 236 255
222 236 255
222 236 255
222 236 255
222 236 255
222 236 255
222 236 255
222 236 255
222 236 255
222 236 255
222 236 255
222 236 255
222 236 255
222 236 255
222 236 255
222 236 255
222 236 255
222 236 255
222 236 255
222 236 255
222 236 255
222 236 255
222 236 255
222 236 255
222 236 255
222 236 255
222 236 255
222 236 255
222 236 255
222 236 255
222 236 255
222 236 255
222 236 255
222 236 255
222 236 255
222 236 255
222 236 255
222 236 255
222 236 255
222 236 255
222 236 255
222 236 255
222 236 255
222 236 255
222 236 255
222 236 255
222 236 255
222 236 255
222 236 255
222 236 255
222 236 255
222 236 255
222 236 255
222 236 255
222 236 255
222 236 255
222 236 255
222 236 255
222 236 255
222 236 255
222 236 255
222 236 255
222 236 255
222 236 255
222 236 255
222 236 255
222 236 255
222 236 255
222 236 255
222 236 255
222 236 255
222 236 255
222 236 255
222 236 255
222 236 255
222 236 255
222 236 255
222 236 255
222 236 255
222 236 255
222 236 255
222 236 255
222 236 255
222 236 255
222 236 255
222 236 255
222 236 255
222 236 255
222 236 255
222 236 255
222 236 255
222 236 255
222 236 255
222 236 255
222 236 255
222 236 255
222 236 255
222 236 255
222 236 255
222 236 255
222 236 255
222 236 255
222 236 255
222 236 255
222 236 255
222 236 255
222 236 255
222 236 255
222 236 255
222 236 255
222 236 255
222 236 255
222 236 255
222 236 255
222 236 255
222 236 255
222 236 255
222 236 255
222 236 255
222 236 255
222 236 255
222 236 255
222 236 255
222 236 255
222 236 255
222 236 255
222 236 255
222 236 255
222 236 255
222 236 255
222 236 255
222 236 255
222 236 255
222 236 255
222 236 255
222 236 255
222 236 255
222 236 255
222 236 255
222 236 255
222 236 255
222 236 255
222 236 255
222 236 255
222 236 255
222 236 255
222 236 255
222 236 255
222 236 255
222 236 255
222 236 255
222 236 255
222 236 255
222 236 255
222 236 255
222 236 255
222 236 255
222 236 255
222 236 255
222 236 255
222 236 255
222 236 255
222 236 255
222 236 255
222 236 255
222 236 255
222 236 255
222 236 255
222 236 255
222 236 255
222 236 255
222 236 255
222 236 255
222 236 255
222 236 255
222 236 255
222 236 255
222 236 255
222 236 255
222 236 255
222 236 255
222 236 255
222 236 255
222 236 255
222 236 255
222 236 255
222 236 255
222 236 255
222 236 255
222 236 255
222 236 255
222 236 255
222 236 255
222 236 255
222 236 255
222 236 255
222 236 255
222 236 255
222 236 255
222 236 255
222 236 255
222 236 255
222 236 255
222 236 255
222 236 255
222 236 255
222 236 255
222 236 255
222 236 255
222 236 255
222 236 255
222 236 255
222 236 255
222 236 255
222 236 255
222 236 255
222 236 255
222 236 255
222 236 255
222 236 255
222 236 255
222 236 255
222 236 255
222 236 255
222 236 255
222 236 255
222 236 255
222 236 255
222 236 255
222 236 255
222 236 255
223 236 255
223 236 255
223 236 255
223 236 255
223 236 255
223 236 255
223 236 255
222 236 255
223 236 255
223 236 255
223 236 255
223 236 255
223 236 255
223 236 255
223 236 255
223 236 255
223 236 255
223 236 255
223 236 255
223 236 255
223 236 255
223 236 255
223 236 255
223 236 255
223 236 255
223 236 255
223 236 255
223 236 255
223 236 255
223 236 255
223 236 255
223 236 255
223 236 255
223 236 255
223 236 255
223 236 255
223 236 255
223 236 255
223 236 255
223 236 255
223 236 255
223 236 255
223 236 255
223 236 255
223 236 255
223 236 255
223 236 255
223 236 255
223 236 255
223 236 255
223 236 255
223 236 255
223 236 255
223 236 255
223 236 255
223 236 255
223 236 255
222 236 255
222 236 255
222 236 255
222 236 255
222 236 255
222 236 255
222 236 255
222 236 255
222 236 255
222 236 255
222 236 255
222 236 255
222 236 255
222 236 255
222 236 255
222 236 255
222 236 255
222 236 255
222 236 255
222 236 255
222 236 255
222 236 255
222 236 255
222 236 255
222 236 255
222 236 255
222 236 255
222 236 255
222 236 255
222 236 255
222 236 255
222 236 255
222 236 255
222 236 255
222 236 255
222 236 255
222 236 255
222 236 255
222 236 255
222 236 255
222 236 255
222 236 255
222 236 255
222 236 255
222 236 255
222 236 255
222 236 255
222 236 255
222 236 255
222 236 255
222 236 255
222 236 255
222 236 255
222 236 255
222 236 255
222 236 255
222 236 255
222 236 255
222 236 255
222 236 255
222 236 255
222 236 255
222 236 255
222 236 255
222 236 255
222 236 255
222 236 255
222 236 255
222 236 255
222 236 255
222 236 255
222 236 255
222 236 255
222 236 255
222 236 255
222 236 255
222 236 255
222 236 255
222 236 255
222 236 255
222 236 255
222 236 255
222 236 255
222 236 255
222 236 255
222 236 255
222 236 255
222 236 255
222 236 255
222 236 255
222 236 255
222 236 255
222 236 255
222 236 255
222 236 255
222 236 255
222 236 255
222 236 255
222 236 255
222 236 255
222 236 255
222 236 255
222 236 255
222 236 255
222 236 255
222 236 255
223 236 255
223 236 255
223 236 255
223 236 255
223 236 255
223 236 255
223 236 255
223 236 255
223 236 255
223 236 255
223 236 255
223 236 255
223 236 255
223 236 255
223 236 255
223 236 255
223 236 255
223 236 255
223 236 255
223 236 255
223 236 255
223 236 255
223 236 255
223 236 255
223 236 255
223 236 255
223 236 255
223 236 255
223 236 255
223 236 255
223 236 255
223 236 255
223 236 255
223 236 255
223 236 255
223 236 255
223 237 255
223 237 255
223 237 255
223 237 255
223 237 255
223 237 255
223 237 255
223 237 255
223 237 255
223 237 255
223 237 255
223 237 255
223 237 255
223 237 255
223 237 255
223 237 255
223 237 255
223 237 255
223 237 255
223 237 255
223 237 255
223 237 255
223 237 255
223 237 255
223 237 255
223 237 255
223 237 255
223 237 255
223 237 255
223 237 255
223 237 255
223 237 255
223 237 255
223 237 255
223 237 255
223 237 255
223 237 255
223 237 255
223 237 255
223 237 255
223 237 255
223 237 255
223 237 255
223 237 255
223 237 255
223 237 255
223 237 255
223 237 255
223 237 255
223 237 255
223 237 255
223 237 255
223 237 255
223 237 255
223 237 255
223 237 255
223 237 255
223 237 255
223 237 255
223 236 255
223 236 255
223 236 255
223 236 255
223 236 255
223 236 255
223 236 255
223 236 255
223 236 255
223 236 255
223 236 255
223 236 255
223 236 255
223 236 255
223 236 255
223 236 255
223 236 255
223 236 255
223 236 255
223 236 255
223 236 255
223 236 255
223 236 255
223 236 255
223 236 255
223 236 255
223 236 255
223 236 255
223 236 255
223 236 255
223 236 255
223 236 255
223 236 255
223 236 255
223 236 255
223 236 255
223 236 255
222 236 255
222 236 255
222 236 255
222 236 255
222 236 255
222 236 255
222 236 255
222 236 255
222 236 255
222 236 255
222 236 255
222 236 255
222 236 255
222 236 255
222 236 255
222 236 255
222 236 255
222 236 255
222 236 255
222 236 255
222 236 255
222 236 255
222 236 255
222 236 255
222 236 255
222 236 255
222 236 255
222 236 255
222 236 255
222 236 255
222 236 255
222 236 255
222 236 255
222 236 255
222 236 255
222 236 255
222 236 255
222 236 255
222 236 255
222 236 255
223 236 255
223 236 255
223 236 255
223 236 255
223 236 255
223 236 255
223 236 255
223 236 255
223 236 255
223 236 255
223 236 255
223 236 255
223 236 255
223 236 255
223 236 255
223 236 255
223 236 255
223 236 255
223 236 255
223 236 255
223 236 255
223 236 255
223 236 255
223 236 255
223 236 255
223 236 255
223 236 255
223 236 255
223 236 255
223 236 255
223 236 255
223 236 255
223 236 255
223 236 255
223 236 255
223 237 255
223 237 255
223 237 255
223 237 255
223 237 255
223 237 255
223 237 255
223 237 255
223 237 255
223 237 255
223 237 255
223 237 255
223 237 255
223 237 255
223 237 255
223 237 255
223 237 255
223 237 255
223 237 255
223 237 255
223 237 255
223 237 255
223 237 255
223 237 255
223 237 255
223 237 255
223 237 255
223 237 255
223 237 255
223 237 255
223 237 255
223 237 255
223 237 255
223 237 255
224 237 255
224 237 255
224 237 255
224 237 255
224 237 255
224 237 255
224 237 255
224 237 255
224 237 255
224 237 255
224 237 255
224 237 255
224 237 255
224 237 255
224 237 255
224 237 255
224 237 255
224 237 255
224 237 255
224 237 255
224 237 255
224 237 255
224 237 255
224 237 255
224 237 255
224 237 255
224 237 255
224 237 255
224 237 255
224 237 255
224 237 255
224 237 255
224 237 255
224 237 255
224 237 255
224 237 255
224 237 255
224 237 255
224 237 255
224 237 255
224 237 255
224 237 255
224 237 255
224 237 255
224 237 255
224 237 255
224 237 255
224 237 255
224 237 255
224 237 255
223 237 255
223 237 255
223 237 255
223 237 255
223 237 255
223 237 255
223 237 255
223 237 255
223 237 255
223 237 255
223 237 255
223 237 255
223 237 255
223 237 255
223 237 255
223 237 255
223 237 255
223 237 255
223 237 255
223 237 255
223 237 255
223 237 255
223 237 255
223 237 255
223 237 255
223 237 255
223 237 255
223 237 255
223 237 255
223 237 255
223 237 255
223 237 255
223 237 255
223 237 255
223 236 255
223 236 255
223 236 255
223 236 255
223 236 255
223 236 255
223 236 255
223 236 255
223 236 255
223 236 255
223 236 255
223 236 255
223 236 255
223 236 255
223 236 255
223 236 255
223 236 255
223 236 255
223 236 255
223 236 255
223 236 255
223 236 255
223 236 255
223 236 255
223 236 255
223 236 255
223 236 255
223 236 255
223 236 255
223 236 255
223 236 255
223 236 255
223 236 255
223 236 255
223 236 255
223 236 255
222 236 255
222 236 255
222 236 255
222 236 255
222 236 255
223 236 255
223 236 255
223 236 255
223 236 255
223 236 255
223 236 255
223 236 255
223 236 255
223 236 255
223 236 255
223 236 255
223 236 255
223 236 255
223 236 255
223 236 255
223 236 255
223 236 255
223 237 255
223 237 255
223 237 255
223 237 255
223 237 255
223 237 255
223 237 255
223 237 255
223 237 255
223 237 255
223 237 255
223 237 255
223 237 255
223 237 255
223 237 255
223 237 255
223 237 255
223 237 255
223 237 255
223 237 255
223 237 255
223 237 255
223 237 255
223 237 255
223 237 255
223 237 255
223 237 255
223 237 255
223 237 255
223 237 255
223 237 255
223 237 255
223 237 255
224 237 255
224 237 255
224 237 255
224 237 255
224 237 255
224 237 255
224 237 255
224 237 255
224 237 255
224 237 255
224 237 255
224 237 255
224 237 255
224 237 255
224 237 255
224 237 255
224 237 255
224 237 255
224 237 255
224 237 255
224 237 255
224 237 255
224 237 255
224 237 255
224 237 255
224 237 255
224 237 255
224 237 255
224 237 255
224 237 255
224 237 255
224 237 255
224 237 255
224 237 255
224 237 255
224 237 255
224 237 255
224 237 255
224 237 255
224 237 255
224 237 255
224 237 255
224 237 255
224 237 255
224 237 255
224 237 255
224 237 255
224 237 255
224 237 255
224 237 255
224 237 255
224 237 255
224 237 255
224 237 255
224 237 255
224 237 255
224 237 255
224 237 255
224 237 255
224 237 255
224 237 255
224 237 255
224 237 255
224 237 255
224 237 255
224 237 255
224 237 255
224 237 255
224 237 255
224 237 255
224 237 255
224 237 255
224 237 255
224 237 255
224 237 255
224 237 255
224 237 255
224 237 255
224 237 255
224 237 255
224 237 255
224 237 255
224 237 255
224 237 255
224 237 255
224 237 255
224 237 255
224 237 255
224 237 255
224 237 255
224 237 255
224 237 255
224 237 255
224 237 255
224 237 255
224 237 255
224 237 255
224 237 255
224 237 255
223 237 255
223 237 255
223 237 255
223 237 255
223 237 255
223 237 255
223 237 255
223 237 255
223 237 255
223 237 255
223 237 255
223 237 255
223 237 255
223 237 255
223 237 255
223 237 255
223 237 255
223 237 255
223 237 255
223 237 255
223 237 255
223 237 255
223 237 255
223 237 255
223 237 255
223 237 255
223 237 255
223 237 255
223 237 255
223 237 255
223 237 255
223 237 255
223 237 255
223 236 255
223 236 255
223 236 255
223 236 255
223 236 255
223 236 255
223 236 255
223 236 255
223 236 255
223 236 255
223 236 255
223 236 255
223 236 255
223 236 255
223 236 255
223 236 255
223 236 255
223 236 255
223 237 255
223 237 255
223 237 255
223 237 255
223 237 255
223 237 255
223 237 255
223 237 255
223 237 255
223 237 255
223 237 255
223 237 255
223 237 255
223 237 255
223 237 255
223 237 255
223 237 255
223 237 255
223 237 255
223 237 255
223 237 255
223 237 255
223 237 255
223 237 255
223 237 255
223 237 255
223 237 255
223 237 255
223 237 255
223 237 255
223 237 255
223 237 255
224 237 255
224 237 255
224 237 255
224 237 255
224 237 255
224 237 255
224 237 255
224 237 255
224 237 255
224 237 255
224 237 255
224 237 255
224 237 255
224 237 255
224 237 255
224 237 255
224 237 255
224 237 255
224 237 255
224 237 255
224 237 255
224 237 255
224 237 255
224 237 255
224 237 255
224 237 255
224 237 255
224 237 255
224 237 255
224 237 255
224 237 255
224 237 255
224 237 255
224 237 255
224 237 255
224 237 255
224 237 255
224 237 255
224 237 255
224 237 255
224 237 255
224 237 255
224 237 255
224 237 255
224 237 255
225 237 255
225 237 255
225 237 255
225 237 255
225 237 255
225 237 255
225 237 255
225 237 255
225 237 255
225 237 255
225 237 255
225 237 255
225 237 255
225 238 255
225 238 255
225 238 255
225 238 255
225 238 255
225 238 255
225 238 255
225 238 255
225 238 255
225 238 255
225 238 255
225 238 255
225 238 255
225 238 255
225 238 255
225 238 255
225 238 255
225 238 255
225 238 255
225 238 255
225 237 255
225 237 255
225 237 255
225 237 255
225 237 255
225 237 255
225 237 255
225 237 255
225 237 255
225 237 255
225 237 255
225 237 255
225 237 255
225 237 255
224 237 255
224 237 255
224 237 255
224 237 255
224 237 255
224 237 255
224 237 255
224 237 255
224 237 255
224 237 255
224 237 255
224 237 255
224 237 255
224 237 255
224 237 255
224 237 255
224 237 255
224 237 255
224 237 255
224 237 255
224 237 255
224 237 255
224 237 255
224 237 255
224 237 255
224 237 255
224 237 255
224 237 255
224 237 255
224 237 255
224 237 255
224 237 255
224 237 255
224 237 255
224 237 255
224 237 255
224 237 255
224 237 255
224 237 255
224 237 255
224 237 255
224 237 255
224 237 255
224 237 255
223 237 255
223 237 255
223 237 255
223 237 255
223 237 255
223 237 255
223 237 255
223 237 255
223 237 255
223 237 255
223 237 255
223 237 255
223 237 255
223 237 255
223 237 255
223 237 255
223 237 255
223 237 255
223 237 255
223 237 255
223 237 255
223 237 255
223 237 255
223 237 255
223 237 255
223 237 255
223 237 255
223 237 255
223 237 255
223 237 255
223 237 255
223 237 255
223 237 255
223 237 255
223 237 255
223 237 255
223 237 255
223 237 255
223 237 255
223 237 255
223 237 255
223 237 255
223 237 255
223 237 255
223 237 255
223 237 255
223 237 255
223 237 255
224 237 255
224 237 255
224 237 255
224 237 255
224 237 255
224 237 255
224 237 255
224 237 255
224 237 255
224 237 255
224 237 255
224 237 255
224 237 255
224 237 255
224 237 255
224 237 255
224 237 255
224 237 255
224 237 255
224 237 255
224 237 255
224 237 255
224 237 255
224 237 255
224 237 255
224 237 255
224 237 255
224 237 255
224 237 255
224 237 255
224 237 255
224 237 255
224 237 255
224 237 255
224 237 255
224 237 255
224 237 255
224 237 255
224 237 255
224 237 255
224 237 255
224 237 255
225 237 255
225 237 255
225 237 255
225 237 255
225 237 255
225 237 255
225 237 255
225 238 255
225 238 255
225 238 255
225 238 255
225 238 255
225 238 255
225 238 255
225 238 255
225 238 255
225 238 255
225 238 255
225 238 255
225 238 255
225 238 255
225 238 255
225 238 255
225 238 255
225 238 255
225 238 255
225 238 255
225 238 255
225 238 255
225 238 255
225 238 255
225 238 255
225 238 255
225 238 255
225 238 255
225 238 255
225 238 255
225 238 255
225 238 255
225 238 255
225 238 255
225 238 255
225 238 255
225 238 255
225 238 255
225 238 255
225 238 255
225 238 255
225 238 255
225 238 255
225 238 255
225 238 255
225 238 255
225 238 255
225 238 255
225 238 255
225 238 255
225 238 255
225 238 255
225 238 255
225 238 255
225 238 255
225 238 255
225 238 255
225 238 255
225 238 255
225 238 255
225 238 255
225 238 255
225 238 255
225 238 255
225 238 255
225 238 255
225 238 255
225 238 255
225 238 255
225 238 255
225 237 255
225 237 255
225 237 255
225 237 255
225 237 255
225 237 255
225 237 255
224 237 255
224 237 255
224 237 255
224 237 255
224 237 255
224 237 255
224 237 255
224 237 255
224 237 255
224 237 255
224 237 255
224 237 255
224 237 255
224 237 255
224 237 255
224 237 255
224 237 255
224 237 255
224 237 255
224 237 255
224 237 255
224 237 255
224 237 255
224 237 255
224 237 255
224 237 255
224 237 255
224 237 255
224 237 255
224 237 255
224 237 255
224 237 255
224 237 255
224 237 255
224 237 255
224 237 255
224 237 255
224 237 255
224 237 255
224 237 255
224 237 255
224 237 255
224 237 255
223 237 255
223 237 255
223 237 255
223 237 255
223 237 255
223 237 255
223 237 255
223 237 255
223 237 255
223 237 255
223 237 255
223 237 255
223 237 255
223 237 255
223 237 255
224 237 255
224 237 255
224 237 255
224 237 255
224 237 255
224 237 255
224 237 255
224 237 255
224 237 255
224 237 255
224 237 255
224 237 255
224 237 255
224 237 255
224 237 255
224 237 255
224 237 255
224 237 255
224 237 255
224 237 255
224 237 255
224 237 255
224 237 255
224 237 255
224 237 255
224 237 255
224 237 255
224 237 255
224 237 255
224 237 255
224 237 255
224 237 255
224 237 255
224 237 255
224 237 255
224 237 255
224 237 255
224 237 255
224 237 255
224 237 255
224 237 255
224 237 255
224 237 255
225 237 255
225 237 255
225 237 255
225 237 255
225 237 255
225 237 255
225 237 255
225 238 255
225 238 255
225 238 255
225 238 255
225 238 255
225 238 255
225 238 255
225 238 255
225 238 255
225 238 255
225 238 255
225 238 255
225 238 255
225 238 255
225 238 255
225 238 255
225 238 255
225 238 255
225 238 255
225 238 255
225 238 255
225 238 255
225 238 255
225 238 255
225 238 255
225 238 255
226 238 255
226 238 255
226 238 255
226 238 255
226 238 255
226 238 255
226 238 255
226 238 255
226 238 255
226 238 255
226 238 255
226 238 255
226 238 255
226 238 255
226 238 255
226 238 255
226 238 255
226 238 255
226 238 255
226 238 255
226 238 255
226 238 255
226 238 255
226 238 255
226 238 255
226 238 255
226 238 255
226 238 255
226 238 255
226 238 255
226 238 255
226 238 255
226 238 255
226 238 255
226 238 255
226 238 255
226 238 255
226 238 255
226 238 255
226 238 255
226 238 255
226 238 255
226 238 255
226 238 255
226 238 255
226 238 255
226 238 255
226 238 255
225 238 255
225 238 255
225 238 255
225 238 255
225 238 255
225 238 255
225 238 255
225 238 255
225 238 255
225 238 255
225 238 255
225 238 255
225 238 255
225 238 255
225 238 255
225 238 255
225 238 255
225 238 255
225 238 255
225 238 255
225 238 255
225 238 255
225 238 255
225 238 255
225 238 255
225 237 255
225 237 255
225 237 255
225 237 255
225 237 255
225 237 255
225 237 255
224 237 255
224 237 255
224 237 255
224 237 255
224 237 255
224 237 255
224 237 255
224 237 255
224 237 255
224 237 255
224 237 255
224 237 255
224 237 255
224 237 255
224 237 255
224 237 255
224 237 255
224 237 255
224 237 255
224 237 255
224 237 255
224 237 255
224 237 255
224 237 255
224 237 255
224 237 255
224 237 255
224 237 255
224 237 255
224 237 255
224 237 255
224 237 255
224 237 255
224 237 255
224 237 255
224 237 255
224 237 255
224 237 255
224 237 255
224 237 255
224 237 255
224 237 255
224 237 255
224 237 255
224 237 255
224 237 255
224 237 255
224 237 255
224 237 255
224 237 255
224 237 255
224 237 255
224 237 255
224 237 255
224 237 255
224 237 255
224 237 255
224 237 255
224 237 255
224 237 255
224 237 255
224 237 255
224 237 255
224 237 255
224 237 255
224 237 255
224 237 255
224 237 255
224 237 255
224 237 255
224 237 255
224 237 255
224 237 255
224 237 255
225 237 255
225 237 255
225 237 255
225 237 255
225 237 255
225 237 255
225 237 255
225 237 255
225 238 255
225 238 255
225 238 255
225 238 255
225 238 255
225 238 255
225 238 255
225 238 255
225 238 255
225 238 255
225 238 255
225 238 255
225 238 255
225 238 255
225 238 255
225 238 255
225 238 255
225 238 255
225 238 255
225 238 255
225 238 255
225 238 255
225 238 255
225 238 255
226 238 255
226 238 255
226 238 255
226 238 255
226 238 255
226 238 255
226 238 255
226 238 255
226 238 255
226 238 255
226 238 255
226 238 255
226 238 255
226 238 255
226 238 255
226 238 255
226 238 255
226 238 255
226 238 255
226 238 255
226 238 255
226 238 255
226 238 255
226 238 255
226 238 255
226 238 255
226 238 255
226 238 255
226 238 255
226 238 255
226 238 255
226 238 255
226 238 255
226 238 255
226 238 255
226 238 255
226 238 255
226 238 255
226 238 255
226 238 255
226 238 255
226 238 255
226 238 255
226 238 255
226 238 255
226 238 255
226 238 255
226 238 255
226 238 255
226 238 255
226 238 255
226 238 255
226 238 255
226 238 255
226 238 255
226 238 255
226 238 255
226 238 255
226 238 255
226 238 255
226 238 255
226 238 255
226 238 255
226 238 255
226 238 255
226 238 255
226 238 255
226 238 255
226 238 255
226 238 255
226 238 255
226 238 255
226 238 255
226 238 255
226 238 255
226 238 255
226 238 255
225 238 255
225 238 255
225 238 255
225 238 255
225 238 255
225 238 255
225 238 255
225 238 255
225 238 255
225 238 255
225 238 255
225 238 255
225 238 255
225 238 255
225 238 255
225 238 255
225 238 255
225 238 255
225 238 255
225 238 255
225 238 255
225 238 255
225 238 255
225 238 255
225 237 255
225 237 255
225 237 255
225 237 255
225 237 255
225 237 255
224 237 255
224 237 255
224 237 255
224 237 255
224 237 255
224 237 255
224 237 255
224 237 255
224 237 255
224 237 255
224 237 255
224 237 255
224 237 255
224 237 255
224 237 255
224 237 255
224 237 255
224 237 255
224 237 255
224 237 255
224 237 255
224 237 255
224 237 255
224 237 255
224 237 255
224 237 255
224 237 255
224 237 255
224 237 255
224 237 255
224 237 255
224 237 255
224 237 255
224 237 255
224 237 255
224 237 255
224 237 255
224 237 255
224 237 255
224 237 255
224 237 255
224 237 255
224 237 255
224 237 255
224 237 255
224 237 255
224 237 255
224 237 255
224 237 255
224 237 255
225 237 255
225 237 255
225 237 255
225 237 255
225 237 255
225 237 255
225 237 255
225 238 255
225 238 255
225 238 255
225 238 255
225 238 255
225 238 255
225 238 255
225 238 255
225 238 255
225 238 255
225 238 255
225 238 255
225 238 255
225 238 255
225 238 255
225 238 255
225 238 255
225 238 255
225 238 255
225 238 255
225 238 255
225 238 255
225 238 255
226 238 255
226 238 255
226 238 255
226 238 255
226 238 255
226 238 255
226 238 255
226 238 255
226 238 255
226 238 255
226 238 255
226 238 255
226 238 255
226 238 255
226 238 255
226 238 255
226 238 255
226 238 255
226 238 255
226 238 255
226 238 255
226 238 255
226 238 255
226 238 255
226 238 255
227 239 255
226 239 255
227 239 255
227 239 255
227 239 255
227 239 255
227 239 255
227 239 255
227 239 255
227 239 255
227 239 255
227 239 255
227 239 255
227 239 255
227 239 255
227 239 255
227 239 255
227 239 255
227 239 255
227 239 255
227 239 255
227 239 255
227 239 255
227 239 255
227 239 255
227 239 255
227 239 255
227 239 255
227 239 255
227 239 255
227 239 255
227 239 255
227 239 255
227 239 255
227 239 255
227 239 255
227 239 255
227 239 255
227 239 255
227 239 255
227 239 255
227 239 255
227 239 255
227 239 255
227 239 255
227 239 255
227 239 255
227 239 255
227 239 255
227 239 255
227 239 255
226 239 255
226 238 255
226 238 255
226 238 255
226 238 255
226 238 255
226 238 255
226 238 255
226 238 255
226 238 255
226 238 255
226 238 255
226 238 255
226 238 255
226 238 255
226 238 255
226 238 255
226 238 255
226 238 255
226 238 255
226 238 255
226 238 255
226 238 255
226 238 255
226 238 255
226 238 255
225 238 255
225 238 255
225 238 255
225 238 255
225 238 255
225 238 255
225 238 255
225 238 255
225 238 255
225 238 255
225 238 255
225 238 255
225 238 255
225 238 255
225 238 255
225 238 255
225 238 255
225 238 255
225 238 255
225 238 255
225 238 255
225 238 255
225 238 255
225 237 255
225 237 255
225 237 255
225 237 255
225 237 255
225 237 255
225 237 255
224 237 255
224 237 255
224 237 255
224 237 255
224 237 255
224 237 255
224 237 255
224 237 255
224 237 255
224 237 255
224 237 255
224 237 255
224 237 255
224 237 255
224 237 255
224 237 255
224 237 255
224 237 255
224 237 255
224 237 255
224 237 255
224 237 255
224 237 255
224 237 255
224 237 255
224 237 255
224 237 255
225 237 255
225 237 255
225 237 255
225 237 255
225 237 255
225 237 255
225 237 255
225 237 255
225 238 255
225 238 255
225 238 255
225 238 255
225 238 255
225 238 255
225 238 255
225 238 255
225 238 255
225 238 255
225 238 255
225 238 255
225 238 255
225 238 255
225 238 255
225 238 255
225 238 255
225 238 255
225 238 255
225 238 255
225 238 255
225 238 255
225 238 255
226 238 255
226 238 255
226 238 255
226 238 255
226 238 255
226 238 255
226 238 255
226 238 255
226 238 255
226 238 255
226 238 255
226 238 255
226 238 255
226 238 255
226 238 255
226 238 255
226 238 255
226 238 255
226 238 255
226 238 255
226 238 255
226 238 255
226 238 255
226 239 255
227 239 255
227 239 255
227 239 255
227 239 255
227 239 255
227 239 255
227 239 255
227 239 255
227 239 255
227 239 255
227 239 255
227 239 255
227 239 255
227 239 255
227 239 255
227 239 255
227 239 255
227 239 255
227 239 255
227 239 255
227 239 255
227 239 255
227 239 255
227 239 255
227 239 255
227 239 255
227 239 255
227 239 255
227 239 255
228 239 255
228 239 255
228 239 255
228 239 255
228 239 255
228 239 255
228 239 255
228 239 255
228 239 255
228 239 255
228 239 255
228 239 255
228 239 255
228 239 255
228 239 255
228 239 255
228 239 255
227 239 255
227 239 255
227 239 255
227 239 255
227 239 255
227 239 255
227 239 255
227 239 255
227 239 255
227 239 255
227 239 255
227 239 255
227 239 255
227 239 255
227 239 255
227 239 255
227 239 255
227 239 255
227 239 255
227 239 255
227 239 255
227 239 255
227 239 255
227 239 255
227 239 255
227 239 255
227 239 255
227 239 255
226 239 255
226 238 255
226 238 255
226 238 255
226 238 255
226 238 255
226 238 255
226 238 255
226 238 255
226 238 255
226 238 255
226 238 255
226 238 255
226 238 255
226 238 255
226 238 255
226 238 255
226 238 255
226 238 255
226 238 255
226 238 255
226 238 255
226 238 255
226 238 255
225 238 255
225 238 255
225 238 255
225 238 255
225 238 255
225 238 255
225 238 255
225 238 255
225 238 255
225 238 255
225 238 255
225 238 255
225 238 255
225 238 255
225 238 255
225 238 255
225 238 255
225 238 255
225 238 255
225 238 255
225 238 255
225 238 255
225 238 255
225 237 255
225 237 255
225 237 255
225 237 255
225 237 255
225 237 255
225 237 255
225 237 255
224 237 255
224 237 255
224 237 255
224 237 255
224 237 255
224 237 255
224 237 255
224 237 255
225 237 255
225 237 255
225 237 255
225 237 255
225 237 255
225 238 255
225 238 255
225 238 255
225 238 255
225 238 255
225 238 255
225 238 255
225 238 255
225 238 255
225 238 255
225 238 255
225 238 255
225 238 255
225 238 255
225 238 255
225 238 255
225 238 255
225 238 255
225 238 255
225 238 255
225 238 255
225 238 255
225 238 255
225 238 255
225 238 255
226 238 255
226 238 255
226 238 255
226 238 255
226 238 255
226 238 255
226 238 255
226 238 255
226 238 255
226 238 255
226 238 255
226 238 255
226 238 255
226 238 255
226 238 255
226 238 255
226 238 255
226 238 255
226 238 255
226 238 255
226 238 255
226 238 255
226 238 255
227 239 255
227 239 255
227 239 255
227 239 255
227 239 255
227 239 255
227 239 255
227 239 255
227 239 255
227 239 255
227 239 255
227 239 255
227 239 255
227 239 255
227 239 255
227 239 255
227 239 255
227 239 255
227 239 255
227 239 255
227 239 255
228 239 255
228 239 255
228 239 255
228 239 255
228 239 255
228 239 255
228 239 255
228 239 255
228 239 255
228 239 255
228 239 255
228 239 255
228 239 255
227 239 254
227 239 254
225 237 246
221 234 237
218 232 231
219 233 234
216 230 224
214 228 217
215 229 221
211 226 212
212 227 214
212 227 214
215 229 221
208 224 203
209 225 206
212 227 214
211 226 207
210 225 206
216 230 223
217 231 227
218 232 231
219 232 233
224 236 245
224 236 245
226 238 250
228 239 255
228 239 255
228 239 255
228 239 255
228 239 255
228 239 255
228 239 255
228 239 255
228 239 255
228 239 255
228 239 255
228 239 255
228 239 255
228 239 255
227 239 255
227 239 255
227 239 255
227 239 255
227 239 255
227 239 255
227 239 255
227 239 255
227 239 255
227 239 255
227 239 255
227 239 255
227 239 255
227 239 255
227 239 255
227 239 255
227 239 255
227 239 255
227 239 255
227 239 255
226 239 255
226 239 255
226 238 255
226 238 255
226 238 255
226 238 255
226 238 255
226 238 255
226 238 255
226 238 255
226 238 255
226 238 255
226 238 255
226 238 255
226 238 255
226 238 255
226 238 255
226 238 255
226 238 255
226 238 255
226 238 255
226 238 255
226 238 255
226 238 255
225 238 255
225 238 255
225 238 255
225 238 255
225 238 255
225 238 255
225 238 255
225 238 255
225 238 255
225 238 255
225 238 255
225 238 255
225 238 255
225 238 255
225 238 255
225 238 255
225 238 255
225 238 255
225 238 255
225 238 255
225 238 255
225 238 255
225 238 255
225 238 255
225 238 255
225 237 255
225 237 255
225 237 255
225 237 255
225 237 255
225 238 255
225 238 255
225 238 255
225 238 255
225 238 255
225 238 255
225 238 255
225 238 255
225 238 255
225 238 255
225 238 255
225 238 255
225 238 255
225 238 255
225 238 255
225 238 255
225 238 255
225 238 255
225 238 255
225 238 255
225 238 255
226 238 255
226 238 255
226 238 255
226 238 255
226 238 255
226 238 255
226 238 255
226 238 255
226 238 255
226 238 255
226 238 255
226 238 255
226 238 255
226 238 255
226 238 255
226 238 255
226 238 255
226 238 255
226 238 255
226 238 255
226 238 255
226 238 255
226 238 255
226 239 255
227 239 255
227 239 255
227 239 255
227 239 255
227 239 255
227 239 255
227 239 255
227 239 255
227 239 255
227 239 255
227 239 255
227 239 255
227 239 255
227 239 255
227 239 255
227 239 255
227 239 255
227 239 255
227 239 255
228 239 255
228 239 255
228 239 255
228 239 255
228 239 255
228 239 255
228 239 255
228 239 255
228 239 255
228 239 255
228 239 255
227 239 253
223 235 242
217 231 226
211 226 209
208 224 203
206 222 194
195 214 159
190 210 144
183 205 111
188 209 135
181 203 105
176 200 76
170 195 0
169 195 0
170 196 0
169 195 0
170 195 0
170 195 0
169 195 0
171 196 0
171 196 0
169 195 0
170 195 0
170 195 0
170 195 0
169 195 0
169 195 0
169 195 0
169 195 0
169 195 0
169 195 0
171 196 0
169 195 0
169 195 0
170 196 0
169 195 0
170 196 0
169 195 25
174 198 62
180 203 99
183 205 114
185 207 125
190 210 142
196 215 165
196 215 167
205 221 189
215 229 220
213 228 217
220 233 236
228 239 255
228 239 255
228 239 255
228 239 255
228 239 255
228 239 255
228 239 255
228 239 255
228 239 255
228 239 255
228 239 255
228 239 255
227 239 255
227 239 255
227 239 255
227 239 255
227 239 255
227 239 255
227 239 255
227 239 255
227 239 255
227 239 255
227 239 255
227 239 255
227 239 255
227 239 255
227 239 255
227 239 255
227 239 255
227 239 255
227 239 255
227 239 255
226 238 255
226 238 255
226 238 255
226 238 255
226 238 255
226 238 255
226 238 255
226 238 255
226 238 255
226 238 255
226 238 255
226 238 255
226 238 255
226 238 255
226 238 255
226 238 255
226 238 255
226 238 255
226 238 255
226 238 255
226 238 255
226 238 255
226 238 255
226 238 255
225 238 255
225 238 255
225 238 255
225 238 255
225 238 255
225 238 255
225 238 255
225 238 255
225 238 255
225 238 255
225 238 255
225 238 255
225 238 255
225 238 255
225 238 255
225 238 255
225 238 255
225 238 255
225 238 255
225 238 255
225 238 255
225 238 255
225 238 255
225 238 255
225 238 255
225 238 255
225 238 255
225 238 255
225 238 255
225 238 255
225 238 255
225 238 255
225 238 255
226 238 255
226 238 255
226 238 255
226 238 255
226 238 255
226 238 255
226 238 255
226 238 255
226 238 255
226 238 255
226 238 255
226 238 255
226 238 255
226 238 255
226 238 255
226 238 255
226 238 255
226 238 255
226 238 255
226 238 255
226 238 255
226 238 255
226 238 255
227 239 255
227 239 255
227 239 255
227 239 255
227 239 255
227 239 255
227 239 255
227 239 255
227 239 255
227 239 255
227 239 255
227 239 255
227 239 255
227 239 255
227 239 255
227 239 255
227 239 255
227 239 255
227 239 255
227 239 255
228 239 255
228 239 255
228 239 255
228 239 255
228 239 255
228 239 255
228 239 255
228 239 255
228 239 255
228 239 255
228 239 254
221 234 237
214 228 218
216 230 223
204 221 189
197 216 169
188 208 133
187 208 130
175 200 80
171 196 25
168 195 0
171 196 0
170 196 0
170 196 0
169 195 0
170 196 0
169 195 0
168 194 0
169 195 0
170 196 0
169 195 0
169 195 0
170 195 0
170 195 0
170 196 0
169 195 0
169 195 0
170 195 0
168 195 0
169 195 0
169 195 0
169 195 0
169 195 0
169 195 0
169 195 0
170 196 0
170 195 0
170 196 0
170 195 0
169 195 0
170 195 0
170 195 0
169 195 0
170 195 0
169 195 0
170 195 0
170 195 0
170 196 0
170 196 0
168 195 0
170 195 0
170 196 0
169 195 0
169 195 0
170 195 0
170 196 0
169 195 0
170 196 0
171 196 36
175 199 72
183 205 111
195 214 161
195 213 157
201 218 181
210 226 209
219 232 230
223 236 244
228 239 255
228 239 255
228 239 255
228 239 255
228 239 255
228 239 255
228 239 255
228 239 255
228 239 255
228 239 255
228 239 255
228 239 255
227 239 255
227 239 255
227 239 255
227 239 255
227 239 255
227 239 255
227 239 255
227 239 255
227 239 255
227 239 255
227 239 255
227 239 255
227 239 255
227 239 255
227 239 255
227 239 255
227 239 255
227 239 255
227 239 255
226 238 255
226 238 255
226 238 255
226 238 255
226 238 255
226 238 255
226 238 255
226 238 255
226 238 255
226 238 255
226 238 255
226 238 255
226 238 255
226 238 255
226 238 255
226 238 255
226 238 255
226 238 255
226 238 255
226 238 255
226 238 255
226 238 255
226 238 255
226 238 255
225 238 255
225 238 255
225 238 255
225 238 255
225 238 255
225 238 255
225 238 255
225 238 255
225 238 255
225 238 255
225 238 255
225 238 255
225 238 255
225 238 255
225 238 255
225 238 255
226 238 255
226 238 255
226 238 255
226 238 255
226 238 255
226 238 255
226 238 255
226 238 255
226 238 255
226 238 255
226 238 255
226 238 255
226 238 255
226 238 255
226 238 255
226 238 255
226 238 255
226 238 255
226 238 255
226 238 255
226 238 255
226 238 255
226 238 255
226 238 255
226 239 255
227 239 255
227 239 255
227 239 255
227 239 255
227 239 255
227 239 255
227 239 255
227 239 255
227 239 255
227 239 255
227 239 255
227 239 255
227 239 255
227 239 255
227 239 255
227 239 255
227 239 255
227 239 255
227 239 255
228 239 255
228 239 255
228 239 255
228 239 255
228 239 255
228 239 255
228 239 255
228 239 255
228 239 255
228 239 255
228 239 255
228 239 255
224 236 245
216 230 224
209 224 204
199 217 171
193 212 153
186 207 125
175 199 62
170 196 0
169 195 0
168 195 0
170 195 0
170 195 0
169 195 0
169 195 0
169 195 0
169 195 0
169 195 0
168 195 0
170 196 0
169 195 0
170 195 0
171 196 0
168 195 0
170 196 0
168 195 0
170 196 0
169 195 0
170 196 0
169 195 0
169 195 0
169 195 0
170 195 0
169 195 0
170 195 0
168 195 0
169 195 0
170 195 0
170 196 0
169 195 0
170 195 0
169 195 0
169 195 0
170 195 0
169 195 0
170 195 0
170 195 0
170 195 0
169 195 0
169 195 0
170 195 0
169 195 0
170 195 0
169 195 0
170 195 0
170 196 0
170 195 0
170 195 0
170 195 0
169 195 0
170 195 0
170 195 0
170 195 0
170 195 0
170 196 0
168 195 0
170 195 0
169 195 0
169 195 0
169 195 0
168 195 0
169 195 0
170 195 0
169 195 0
174 198 57
184 206 120
193 212 151
199 217 175
211 226 211
219 232 230
226 237 249
228 239 255
228 239 255
228 239 255
228 239 255
228 239 255
228 239 255
228 239 255
228 239 255
228 239 255
228 239 255
228 239 255
228 239 255
227 239 255
227 239 255
227 239 255
227 239 255
227 239 255
227 239 255
227 239 255
227 239 255
227 239 255
227 239 255
227 239 255
227 239 255
227 239 255
227 239 255
227 239 255
227 239 255
227 239 255
227 239 255
227 239 255
226 239 255
226 238 255
226 238 255
226 238 255
226 238 255
226 238 255
226 238 255
226 238 255
226 238 255
226 238 255
226 238 255
226 238 255
226 238 255
226 238 255
226 238 255
226 238 255
226 238 255
226 238 255
226 238 255
226 238 255
226 238 255
226 238 255
226 238 255
226 238 255
226 238 255
225 238 255
225 238 255
225 238 255
225 238 255
226 238 255
226 238 255
226 238 255
226 238 255
226 238 255
226 238 255
226 238 255
226 238 255
226 238 255
226 238 255
226 238 255
226 238 255
226 238 255
226 238 255
226 238 255
226 238 255
226 238 255
226 238 255
226 238 255
226 238 255
226 238 255
226 239 255
227 239 255
227 239 255
227 239 255
227 239 255
227 239 255
227 239 255
227 239 255
227 239 255
227 239 255
227 239 255
227 239 255
227 239 255
227 239 255
227 239 255
227 239 255
227 239 255
227 239 255
227 239 255
227 239 255
228 239 255
228 239 255
228 239 255
228 239 255
228 239 255
228 239 255
228 239 255
228 239 255
228 239 255
228 239 255
228 239 255
228 239 255
228 240 255
224 236 244
211 226 211
208 224 201
192 212 151
183 205 120
176 200 76
169 195 0
169 195 0
169 195 0
171 196 0
170 195 0
169 195 0
171 196 0
169 195 0
169 195 0
170 195 0
170 195 0
169 195 0
169 195 0
169 195 0
168 194 0
169 195 0
169 195 0
170 195 0
169 195 0
170 195 0
168 195 0
169 195 0
169 195 0
169 195 0
170 196 0
169 195 0
169 195 0
170 196 0
171 196 0
169 195 0
170 195 0
170 196 0
169 195 0
170 195 0
169 195 0
170 195 0
171 196 0
169 195 0
168 195 0
170 195 0
170 195 0
168 194 0
171 196 0
169 195 0
169 195 0
169 195 0
169 195 0
170 195 0
170 195 0
168 195 0
169 195 0
170 195 0
170 195 0
169 195 0
169 195 0
169 195 0
170 196 0
171 196 0
169 195 0
167 194 0
171 196 0
170 195 0
169 195 0
169 195 0
169 195 0
169 195 0
169 195 0
169 195 0
169 195 0
169 195 0
169 195 0
168 194 0
169 195 0
170 195 0
170 196 0
169 195 0
170 196 0
170 196 0
169 195 0
171 196 0
176 200 76
182 205 114
194 213 159
209 224 203
210 225 207
222 234 238
228 239 254
228 239 255
228 239 255
228 239 255
228 239 255
228 239 255
228 239 255
228 239 255
228 239 255
228 239 255
228 239 255
228 239 255
228 239 255
227 239 255
227 239 255
227 239 255
227 239 255
227 239 255
227 239 255
227 239 255
227 239 255
227 239 255
227 239 255
227 239 255
227 239 255
227 239 255
227 239 255
227 239 255
227 239 255
227 239 255
227 239 255
227 239 255
226 239 255
226 238 255
226 238 255
226 238 255
226 238 255
226 238 255
226 238 255
226 238 255
226 238 255
226 238 255
226 238 255
226 238 255
226 238 255
226 238 255
226 238 255
226 238 255
226 238 255
226 238 255
226 238 255
226 238 255
226 238 255
226 238 255
226 238 255
226 238 255
226 238 255
226 238 255
226 238 255
226 238 255
226 238 255
226 238 255
226 238 255
226 238 255
226 238 255
226 238 255
226 238 255
226 238 255
226 239 255
227 239 255
227 239 255
227 239 255
227 239 255
227 239 255
227 239 255
227 239 255
227 239 255
227 239 255
227 239 255
227 239 255
227 239 255
227 239 255
227 239 255
227 239 255
227 239 255
227 239 255
227 239 255
227 239 255
227 239 255
228 239 255
228 239 255
228 239 255
228 239 255
228 239 255
228 239 255
228 239 255
228 239 255
228 239 255
228 239 255
228 239 255
228 240 255
228 240 255
227 238 252
213 227 215
207 223 198
191 211 144
189 209 135
175 199 67
170 195 0
169 195 0
171 196 0
170 195 0
169 195 0
170 196 0
171 196 0
171 196 0
169 195 0
169 195 0
170 196 0
170 195 0
169 195 0
170 196 0
170 195 0
169 195 0
170 196 0
169 195 0
170 196 0
169 195 0
169 195 0
170 196 0
169 195 0
170 196 0
169 195 0
170 195 0
170 195 0
169 195 0
170 196 0
169 195 0
170 196 0
169 195 0
169 195 0
170 195 0
169 195 0
168 195 0
169 195 0
169 195 0
170 196 0
170 195 0
169 195 0
170 196 0
169 195 0
170 195 0
168 195 0
169 195 0
168 195 0
170 195 0
169 195 0
169 195 0
170 195 0
169 195 0
169 195 0
169 195 0
168 195 0
168 194 0
170 195 0
169 195 0
169 195 0
169 195 0
170 195 0
169 195 0
169 195 0
169 195 0
169 195 0
169 195 0
170 196 0
169 195 0
170 195 0
171 196 0
169 195 0
170 196 0
169 195 0
169 195 0
168 195 0
169 195 0
169 195 0
169 195 0
170 195 0
170 195 0
168 195 0
170 196 0
169 195 0
170 195 0
170 196 0
170 196 0
169 195 0
169 195 0
171 196 0
170 195 0
170 195 0
169 195 0
172 197 51
182 204 108
193 213 155
205 221 193
211 226 211
224 236 244
228 240 255
228 240 255
228 239 255
228 239 255
228 239 255
228 239 255
228 239 255
228 239 255
228 239 255
228 239 255
228 239 255
228 239 255
228 239 255
227 239 255
227 239 255
227 239 255
227 239 255
227 239 255
227 239 255
227 239 255
227 239 255
227 239 255
227 239 255
227 239 255
227 239 255
227 239 255
227 239 255
227 239 255
227 239 255
227 239 255
227 239 255
227 239 255
227 239 255
226 239 255
226 238 255
226 238 255
226 238 255
226 238 255
226 238 255
226 238 255
226 238 255
226 238 255
226 238 255
226 238 255
226 238 255
226 238 255
226 238 255
226 238 255
226 238 255
226 238 255
226 238 255
226 238 255
226 238 255
226 238 255
226 238 255
226 239 255
227 239 255
227 239 255
227 239 255
227 239 255
227 239 255
227 239 255
227 239 255
227 239 255
227 239 255
227 239 255
227 239 255
227 239 255
227 239 255
227 239 255
227 239 255
227 239 255
227 239 255
227 239 255
227 239 255
227 239 255
228 239 255
228 239 255
228 239 255
228 239 255
228 239 255
228 239 255
228 239 255
228 239 255
228 239 255
228 239 255
228 239 255
228 239 255
228 240 255
228 240 255
228 240 255
219 232 231
211 226 207
197 216 167
190 210 142
176 200 76
169 195 0
170 195 0
170 195 0
169 195 0
169 195 0
170 195 0
169 195 0
170 195 0
170 195 0
170 195 0
170 196 0
170 195 0
169 195 0
169 195 0
170 195 0
170 195 0
169 195 0
170 195 0
170 195 0
170 195 0
169 195 0
170 195 0
169 195 0
170 195 0
170 196 0
168 195 0
169 195 0
170 195 0
170 195 0
169 195 0
169 195 0
171 196 0
171 196 0
170 196 0
169 195 0
169 195 0
169 195 0
169 195 0
169 195 0
168 195 0
169 195 0
169 195 0
170 195 0
170 195 0
170 195 0
169 195 0
169 195 0
169 195 0
169 195 0
169 195 0
169 195 0
169 195 0
169 195 0
169 195 0
170 196 0
169 195 0
168 195 0
170 195 0
169 195 0
169 195 0
168 194 0
169 195 0
169 195 0
170 195 0
169 195 0
170 196 0
170 195 0
169 195 0
169 195 0
169 195 0
170 195 0
169 195 0
169 195 0
170 195 0
170 196 0
169 195 0
169 195 0
169 195 0
169 195 0
169 195 0
169 195 0
170 195 0
170 195 0
169 195 0
170 195 0
170 196 0
170 195 0
170 195 0
169 195 0
169 195 0
170 196 0
170 195 0
171 196 0
169 195 0
170 195 0
170 195 0
170 195 0
171 196 0
170 195 0
169 195 0
170 195 0
170 195 0
170 196 0
170 196 0
177 201 84
184 206 120
204 220 186
207 223 198
222 234 238
228 240 255
228 240 255
228 240 255
228 239 255
228 239 255
228 239 255
228 239 255
228 239 255
228 239 255
228 239 255
228 239 255
228 239 255
228 239 255
228 239 255
228 239 255
227 239 255
227 239 255
227 239 255
227 239 255
227 239 255
227 239 255
227 239 255
227 239 255
227 239 255
227 239 255
227 239 255
227 239 255
227 239 255
227 239 255
227 239 255
227 239 255
227 239 255
227 239 255
227 239 255
227 239 255
226 239 255
226 238 255
226 238 255
226 238 255
226 238 255
226 238 255
226 238 255
226 238 255
226 238 255
226 239 255
227 239 255
227 239 255
227 239 255
227 239 255
227 239 255
227 239 255
227 239 255
227 239 255
227 239 255
227 239 255
227 239 255
227 239 255
227 239 255
227 239 255
227 239 255
227 239 255
227 239 255
227 239 255
227 239 255
227 239 255
228 239 255
228 239 255
228 239 255
228 239 255
228 239 255
228 239 255
228 239 255
228 239 255
228 239 255
228 239 255
228 239 255
228 239 255
228 240 255
228 240 255
228 240 255
228 239 254
222 235 240
207 223 198
197 216 167
189 209 135
174 199 72
169 195 0
169 195 0
168 195 0
170 195 0
170 195 0
169 195 0
171 196 0
170 196 0
169 195 0
170 196 0
168 195 0
169 195 0
169 195 0
170 195 0
170 196 0
171 196 0
169 195 0
171 196 0
169 195 0
170 195 0
169 195 0
170 196 0
170 195 0
169 195 0
168 195 0
170 196 0
170 195 0
169 195 0
168 195 0
168 195 0
169 195 0
169 195 0
168 195 0
170 196 0
169 195 0
169 195 0
170 195 0
169 195 0
169 195 0
169 195 0
169 195 0
168 195 0
170 195 0
170 195 0
170 196 0
169 195 0
168 195 0
170 196 0
168 195 0
169 195 0
169 195 0
170 195 0
170 195 0
168 195 0
170 195 0
169 195 0
170 195 0
169 195 0
168 195 0
169 195 0
169 195 0
169 195 0
170 196 0
169 195 0
169 195 0
169 195 0
169 195 0
170 195 0
169 195 0
170 196 0
170 196 0
168 195 0
168 195 0
170 195 0
170 195 0
169 195 0
168 195 0
169 195 0
169 195 0
170 195 0
170 195 0
169 195 0
169 195 0
169 195 0
170 196 0
168 195 0
169 195 0
169 195 0
169 195 0
169 195 0
169 195 0
169 195 0
168 195 0
170 195 0
170 196 0
169 195 0
169 195 0
170 196 0
170 196 0
169 195 0
170 195 0
169 195 0
170 195 0
168 195 0
168 195 0
169 195 0
169 195 0
170 196 0
169 195 0
170 195 0
169 195 0
170 196 0
170 195 0
170 195 0
173 197 44
190 210 142
197 216 167
214 228 214
222 235 240
228 240 255
228 240 255
228 240 255
228 240 255
228 239 255
228 239 255
228 239 255
228 239 255
228 239 255
228 239 255
228 239 255
228 239 255
228 239 255
228 239 255
228 239 255
228 239 255
227 239 255
227 239 255
227 239 255
227 239 255
227 239 255
227 239 255
227 239 255
227 239 255
227 239 255
227 239 255
227 239 255
227 239 255
227 239 255
227 239 255
227 239 255
227 239 255
227 239 255
227 239 255
227 239 255
227 239 255
227 239 255
226 239 255
227 239 255
227 239 255
227 239 255
227 239 255
227 239 255
227 239 255
227 239 255
227 239 255
227 239 255
227 239 255
227 239 255
227 239 255
227 239 255
227 239 255
227 239 255
227 239 255
228 239 255
228 239 255
228 239 255
228 239 255
228 239 255
228 239 255
228 239 255
228 239 255
228 239 255
228 239 255
228 239 255
228 239 255
228 239 255
228 240 255
228 240 255
228 240 255
228 240 255
217 231 227
212 227 214
204 221 189
186 207 130
172 197 44
169 195 0
169 195 0
170 195 0
169 195 0
169 195 0
170 195 0
169 195 0
170 195 0
170 196 0
169 195 0
168 195 0
168 195 0
169 195 0
169 195 0
170 195 0
169 195 0
169 195 0
170 195 0
169 195 0
171 196 0
170 195 0
169 195 0
169 195 0
168 195 0
170 196 0
169 195 0
169 195 0
169 195 0
170 195 0
170 195 0
170 196 0
168 195 0
169 195 0
168 195 0
170 196 0
168 195 0
169 195 0
169 195 0
170 195 0
170 195 0
169 195 0
170 195 0
169 195 0
169 195 0
169 195 0
169 195 0
170 195 0
170 195 0
170 195 0
169 195 0
169 195 0
168 195 0
170 195 0
170 195 0
170 195 0
169 195 0
171 196 0
170 196 0
169 195 0
169 195 0
170 195 0
168 195 0
168 195 0
169 195 0
170 195 0
169 195 0
170 195 0
169 195 0
170 196 0
169 195 0
171 196 0
169 195 0
169 195 0
169 195 0
169 195 0
169 195 0
169 195 0
170 195 0
168 195 0
168 195 0
170 195 0
169 195 0
170 195 0
168 195 0
170 195 0
170 195 0
169 195 0
170 195 0
171 196 0
170 195 0
169 195 0
170 195 0
169 195 0
169 195 0
169 195 0
169 195 0
170 196 0
170 195 0
169 195 0
170 195 0
170 196 0
169 195 0
169 195 0
169 195 0
169 195 0
169 195 0
170 196 0
169 195 0
170 196 0
170 195 0
171 196 0
170 196 0
169 195 0
170 196 0
168 194 0
170 196 0
169 195 0
169 195 0
169 195 0
170 195 0
169 195 0
171 196 0
170 195 0
170 196 0
172 197 51
184 206 117
197 216 169
211 226 211
220 233 231
228 240 255
228 240 255
228 240 255
228 240 255
228 239 255
228 239 255
228 239 255
228 239 255
228 239 255
228 239 255
228 239 255
228 239 255
228 239 255
228 239 255
228 239 255
228 239 255
228 239 255
227 239 255
227 239 255
227 239 255
227 239 255
227 239 255
227 239 255
227 239 255
227 239 255
227 239 255
227 239 255
227 239 255
227 239 255
227 239 255
227 239 255
227 239 255
227 239 255
227 239 255
227 239 255
227 239 255
227 239 255
227 239 255
227 239 255
227 239 255
227 239 255
227 239 255
227 239 255
228 239 255
228 239 255
228 239 255
228 239 255
228 239 255
228 239 255
228 239 255
228 239 255
228 239 255
228 239 255
228 239 255
228 239 255
228 239 255
228 239 255
228 240 255
228 240 255
228 240 255
228 240 255
221 234 236
215 229 220
198 216 169
191 211 147
175 199 67
170 195 0
170 196 0
170 195 0
171 196 0
170 195 0
171 196 0
170 195 0
170 195 0
169 195 0
169 195 0
170 196 0
169 195 0
170 195 0
169 195 0
171 196 0
168 195 0
169 195 0
170 196 0
168 195 0
169 195 0
168 195 0
169 195 0
170 195 0
169 195 0
170 195 0
170 195 0
169 195 0
170 196 0
169 195 0
170 196 0
168 194 0
170 195 0
168 195 0
169 195 0
170 196 0
169 195 0
170 195 0
169 195 0
169 195 0
169 195 0
169 195 0
169 195 0
170 195 0
169 195 0
169 195 0
169 195 0
169 195 0
169 195 0
170 196 0
169 195 0
169 195 0
169 195 0
170 196 0
169 195 0
169 195 0
169 195 0
169 195 0
170 195 0
169 195 0
169 195 0
170 195 0
168 194 0
170 195 0
169 195 0
169 195 0
170 195 0
169 195 0
169 195 0
169 195 0
169 195 0
170 195 0
169 195 0
170 195 0
170 196 0
169 195 0
169 195 0
169 195 0
171 196 0
169 195 0
170 196 0
169 195 0
170 195 0
170 195 0
170 195 0
169 195 0
170 195 0
170 195 0
169 195 0
170 196 0
169 195 0
170 196 0
170 195 0
170 195 0
169 195 0
170 195 0
169 195 0
170 196 0
169 195 0
169 195 0
170 195 0
169 195 0
169 195 0
169 195 0
171 196 0
171 196 0
170 196 0
169 195 0
169 195 0
170 195 0
168 195 0
169 195 0
169 195 0
169 195 0
169 195 0
169 195 0
169 195 0
169 195 0
169 195 0
170 195 0
170 195 0
169 195 0
169 195 0
170 196 0
170 196 0
169 195 0
169 195 0
170 195 0
169 195 0
169 195 0
170 195 0
171 196 0
169 195 0
170 195 0
170 195 0
173 198 51
189 209 135
197 215 165
217 230 224
223 236 242
228 240 255
228 240 255
228 240 255
228 240 255
228 240 255
228 239 255
228 239 255
228 239 255
228 239 255
228 239 255
228 239 255
228 239 255
228 239 255
228 239 255
228 239 255
228 239 255
228 239 255
227 239 255
227 239 255
227 239 255
227 239 255
227 239 255
227 239 255
227 239 255
227 239 255
227 239 255
227 239 255
227 239 255
227 239 255
227 239 255
227 239 255
227 239 255
227 239 255
228 239 255
228 239 255
228 239 255
228 239 255
228 239 255
228 239 255
228 239 255
228 239 255
228 239 255
228 239 255
228 239 255
228 239 255
228 239 255
228 240 255
228 240 255
228 240 255
228 240 255
228 240 255
228 239 254
217 231 227
207 223 198
189 209 137
177 200 80
169 195 0
170 196 0
170 196 0
170 196 0
170 195 0
169 195 0
171 196 0
169 195 0
170 195 0
170 195 0
171 196 0
169 195 0
169 195 0
170 196 0
169 195 0
169 195 0
169 195 0
168 195 0
170 196 0
169 195 0
169 195 0
171 196 0
170 195 0
170 195 0
169 195 0
170 195 0
169 195 0
169 195 0
169 195 0
170 195 0
169 195 0
169 195 0
169 195 0
169 195 0
171 196 0
170 196 0
169 195 0
170 196 0
170 195 0
169 195 0
169 195 0
169 195 0
170 195 0
170 195 0
169 195 0
169 195 0
169 195 0
170 195 0
170 195 0
170 195 0
170 196 0
169 195 0
170 196 0
169 195 0
169 195 0
169 195 0
170 196 0
170 195 0
170 195 0
171 196 0
170 195 0
170 196 0
170 195 0
168 195 0
170 195 0
170 195 0
170 196 0
169 195 0
169 195 0
170 195 0
169 195 0
169 195 0
169 195 0
169 195 0
169 195 0
169 195 0
168 195 0
169 195 0
170 195 0
170 195 0
168 195 0
168 194 0
169 195 0
170 196 0
170 195 0
169 195 0
170 196 0
169 195 0
169 195 0
169 195 0
170 195 0
169 195 0
170 196 0
169 195 0
169 195 0
170 196 0
170 195 0
170 195 0
169 195 0
170 195 0
171 196 0
170 196 0
168 194 0
170 195 0
169 195 0
169 195 0
169 195 0
170 195 0
170 195 0
169 195 0
169 195 0
169 195 0
169 195 0
169 195 0
170 196 0
171 196 0
170 196 0
169 195 0
169 195 0
171 196 0
169 195 0
170 195 0
169 195 0
171 196 0
170 195 0
169 195 0
169 195 0
169 195 0
170 196 0
169 195 0
169 195 0
169 195 0
169 195 0
169 195 0
171 196 0
169 195 0
170 195 0
169 195 0
170 195 0
169 195 0
170 196 0
170 196 0
171 196 0
170 195 0
179 202 95
193 212 153
204 221 189
219 232 231
227 239 252
228 240 255
228 240 255
228 240 255
228 240 255
228 240 255
228 239 255
228 239 255
228 239 255
228 239 255
228 239 255
228 239 255
228 239 255
228 239 255
228 239 255
228 239 255
228 239 255
228 239 255
228 239 255
227 239 255
227 239 255
227 239 255
227 239 255
227 239 255
228 239 255
228 239 255
228 239 255
228 239 255
228 239 255
228 239 255
228 239 255
228 239 255
228 239 255
228 239 255
228 239 255
228 239 255
228 239 255
228 240 255
228 240 255
228 240 255
228 240 255
228 240 255
229 240 255
224 236 245
211 226 209
197 215 165
185 206 117
170 196 25
170 196 0
171 196 0
170 195 0
171 196 0
170 195 0
171 196 0
169 195 0
169 195 0
169 195 0
170 196 0
169 195 0
170 195 0
168 194 0
170 195 0
169 195 0
169 195 0
170 196 0
170 195 0
170 195 0
170 195 0
169 195 0
170 196 0
169 195 0
169 195 0
169 195 0
169 195 0
169 195 0
170 196 0
171 196 0
170 196 0
170 196 0
169 195 0
168 195 0
168 195 0
170 195 0
169 195 0
169 195 0
169 195 0
170 195 0
171 196 0
170 195 0
170 195 0
170 196 0
170 195 0
169 195 0
170 195 0
169 195 0
170 196 0
169 195 0
170 195 0
169 195 0
169 195 0
168 194 0
168 195 0
170 195 0
171 196 0
169 195 0
169 195 0
170 195 0
169 195 0
169 195 0
170 195 0
169 195 0
169 195 0
170 196 0
169 195 0
170 196 0
169 195 0
171 196 0
168 195 0
170 195 0
169 195 0
169 195 0
169 195 0
170 196 0
169 195 0
168 195 0
170 196 0
169 195 0
169 195 0
169 195 0
170 196 0
169 194 0
167 188 34
156 169 53
161 174 61
166 186 34
170 195 0
170 195 0
168 195 0
171 196 0
170 196 0
168 195 0
169 195 0
170 195 0
169 195 0
170 196 0
169 195 0
169 195 0
170 195 0
170 195 0
171 196 0
170 195 0
170 195 0
170 195 0
170 196 0
169 195 0
168 195 0
169 195 0
170 195 0
170 196 0
170 195 0
169 195 0
169 195 0
169 195 0
169 195 0
169 195 0
169 195 0
170 196 0
170 196 0
169 195 0
170 196 0
168 195 0
169 195 0
169 195 0
169 195 0
169 195 0
168 194 0
169 195 0
169 195 0
169 195 0
169 195 0
169 195 0
169 195 0
170 195 0
168 195 0
169 195 0
169 195 0
169 195 0
171 196 0
170 195 0
170 196 0
168 195 0
169 195 0
169 195 0
169 195 0
169 195 0
171 196 0
170 195 0
170 195 0
169 195 0
170 195 0
172 197 44
187 208 130
199 217 173
215 229 221
224 236 244
229 240 255
228 240 255
228 240 255
228 240 255
228 240 255
228 240 255
228 239 255
228 239 255
228 239 255
228 239 255
228 239 255
228 239 255
228 239 255
228 239 255
228 239 255
228 239 255
228 239 255
228 239 255
228 239 255
228 239 255
228 239 255
228 239 255
228 239 255
228 239 255
228 239 255
228 239 255
228 239 255
228 240 255
228 240 255
228 240 255
228 240 255
228 240 255
229 240 255
229 240 255
221 234 237
204 221 191
193 212 153
179 202 95
170 195 0
170 196 0
169 195 0
170 195 0
168 194 0
169 195 0
170 195 0
168 195 0
169 195 0
170 195 0
168 195 0
170 196 0
170 196 0
170 195 0
169 195 0
170 195 0
169 195 0
168 194 0
169 195 0
169 195 0
168 195 0
170 196 0
169 195 0
170 196 0
170 195 0
169 195 0
170 196 0
169 195 0
169 195 0
170 195 0
169 195 0
168 195 0
170 195 0
168 194 0
169 195 0
168 195 0
170 195 0
169 195 0
170 195 0
169 195 0
170 195 0
169 195 0
170 195 0
170 195 0
170 196 0
169 195 0
168 194 0
171 196 0
170 195 0
168 195 0
170 196 0
169 195 0
169 195 0
169 195 0
169 195 0
170 195 0
170 195 0
169 195 0
170 195 0
170 195 0
170 195 0
168 194 0
170 195 0
169 195 0
169 195 0
169 195 0
169 195 0
169 195 0
169 195 0
170 196 0
170 195 0
170 195 0
169 195 0
170 195 0
169 195 0
168 195 0
169 195 0
168 194 0
169 195 0
168 194 0
170 195 0
170 195 0
169 195 0
169 195 0
169 195 0
169 195 0
164 181 49
160 158 90
151 144 93
165 160 106
164 160 106
161 156 102
158 158 87
163 179 45
168 195 0
169 195 0
169 195 0
169 195 0
169 195 0
171 196 0
169 195 0
170 195 0
170 195 0
169 195 0
169 195 0
170 195 0
169 195 0
170 196 0
170 195 0
169 195 0
170 195 0
171 196 0
169 195 0
169 195 0
169 195 0
168 195 0
169 195 0
170 195 0
169 195 0
169 195 0
169 195 0
170 195 0
169 195 0
170 196 0
169 195 0
170 196 0
169 195 0
169 195 0
168 194 0
169 195 0
169 195 0
170 195 0
170 195 0
169 195 0
169 195 0
170 195 0
168 195 0
171 196 0
170 195 0
169 195 0
169 195 0
170 196 0
169 195 0
170 195 0
169 195 0
169 195 0
169 195 0
170 196 0
171 196 0
170 195 0
170 196 0
169 195 0
170 196 0
169 195 0
169 195 0
170 195 0
169 195 0
169 195 0
170 196 0
170 195 0
171 196 0
169 195 0
179 202 99
194 213 153
204 221 189
222 234 238
228 239 253
229 240 255
228 240 255
228 240 255
228 240 255
228 240 255
228 240 255
228 239 255
228 239 255
228 239 255
228 239 255
228 239 255
228 239 255
228 239 255
228 239 255
228 239 255
228 239 255
228 239 255
228 240 255
228 240 255
228 240 255
228 240 255
228 240 255
229 240 255
229 240 255
225 237 246
213 227 214
199 217 173
187 208 130
177 201 84
170 195 0
170 196 0
169 195 0
171 196 0
170 195 0
171 196 0
170 195 0
168 195 0
170 195 0
170 195 0
170 196 0
170 195 0
171 196 0
170 196 0
169 195 0
170 195 0
170 196 0
170 195 0
170 195 0
170 195 0
170 195 0
171 196 0
169 195 0
170 195 0
169 195 0
170 195 0
169 195 0
169 195 0
169 195 0
169 195 0
169 195 0
170 196 0
170 195 0
170 195 0
168 195 0
169 195 0
169 195 0
170 195 0
170 195 0
170 196 0
168 195 0
170 196 0
169 195 0
170 195 0
168 195 0
170 195 0
169 195 0
170 195 0
169 195 0
169 195 0
169 195 0
169 195 0
170 195 0
170 196 0
169 195 0
169 195 0
169 195 0
170 195 0
170 196 0
168 195 0
170 195 0
170 196 0
170 196 0
170 195 0
170 196 0
170 195 0
170 196 0
169 195 0
169 195 0
170 196 0
170 196 0
168 194 0
168 195 0
170 196 0
169 195 0
169 195 0
169 195 0
169 195 0
170 195 0
170 195 0
170 195 0
170 195 0
170 195 0
169 195 0
169 195 0
170 196 0
169 195 0
169 195 0
168 195 0
163 171 60
169 161 102
165 161 106
167 165 110
168 167 112
166 164 110
167 165 110
166 161 106
169 162 104
152 163 53
168 195 0
170 195 0
169 195 0
169 195 0
169 195 0
169 195 0
169 195 0
169 195 0
168 194 0
168 195 0
170 195 0
170 196 0
169 195 0
171 196 0
170 196 0
169 195 0
170 195 0
170 195 0
170 195 0
170 196 0
169 195 0
170 196 0
169 195 0
169 195 0
169 195 0
169 195 0
169 195 0
169 195 0
169 195 0
169 195 0
169 195 0
169 195 0
170 196 0
169 195 0
169 195 0
169 195 0
169 195 0
168 195 0
169 195 0
169 195 0
169 195 0
171 196 0
169 195 0
170 195 0
169 195 0
168 194 0
169 195 0
170 196 0
169 195 0
170 195 0
169 195 0
169 195 0
169 195 0
170 196 0
169 195 0
170 195 0
170 195 0
169 195 0
169 195 0
169 195 0
170 195 0
169 195 0
169 195 0
171 196 0
170 195 0
169 195 0
169 195 0
169 195 0
169 195 0
169 195 0
170 196 0
173 198 51
185 207 125
204 220 186
215 229 218
225 237 246
229 240 255
229 240 255
228 240 255
228 240 255
228 240 255
228 240 255
228 240 255
228 239 255
228 239 255
228 239 255
228 240 255
228 240 255
228 240 255
229 240 255
229 240 255
229 240 255
225 237 245
213 228 215
199 217 173
186 207 125
170 196 25
170 195 0
170 195 0
169 195 0
171 196 0
169 195 0
169 195 0
169 195 0
169 195 0
169 195 0
171 196 0
170 196 0
171 196 0
169 195 0
170 196 0
170 196 0
170 195 0
169 195 0
170 195 0
170 196 0
170 195 0
169 195 0
170 195 0
170 196 0
170 196 0
170 196 0
170 196 0
169 195 0
170 196 0
169 195 0
169 195 0
169 195 0
169 195 0
169 195 0
170 195 0
169 195 0
170 195 0
170 196 0
170 195 0
169 195 0
170 196 0
170 195 0
170 196 0
169 195 0
171 196 0
168 195 0
169 195 0
170 195 0
169 195 0
170 195 0
170 196 0
169 195 0
169 195 0
169 195 0
170 195 0
169 195 0
170 196 0
170 195 0
169 195 0
169 195 0
170 196 0
169 195 0
169 194 0
170 195 0
169 195 0
168 195 0
169 195 0
169 195 0
169 195 0
169 195 0
169 195 0
168 194 0
169 195 0
169 195 0
169 195 0
170 196 0
170 195 0
170 195 0
170 195 0
169 195 0
170 195 0
170 195 0
169 195 0
170 195 0
168 194 0
169 195 0
168 195 0
169 195 0
169 195 0
170 195 0
169 195 0
169 194 0
169 195 0
165 179 53
159 152 93
169 163 101
170 166 110
165 163 109
169 168 113
167 167 113
170 168 113
174 170 112
167 163 107
159 152 90
160 178 39
168 195 0
170 195 0
169 195 0
168 194 0
169 195 0
168 194 0
169 195 0
169 195 0
169 195 0
170 195 0
170 196 0
170 195 0
170 195 0
169 195 0
169 195 0
169 195 0
170 196 0
169 195 0
169 195 0
170 195 0
169 195 0
169 195 0
170 195 0
168 194 0
170 195 0
170 195 0
168 195 0
170 195 0
170 195 0
169 195 0
170 195 0
169 195 0
169 195 0
169 195 0
170 195 0
169 195 0
171 196 0
169 195 0
170 195 0
169 195 0
170 196 0
170 195 0
169 195 0
169 195 0
169 195 0
169 195 0
168 195 0
170 196 0
168 195 0
169 195 0
170 195 0
170 195 0
169 195 0
169 195 0
169 195 0
170 196 0
170 196 0
170 195 0
169 195 0
170 195 0
171 196 0
169 195 0
169 195 0
169 195 0
169 195 0
169 195 0
169 195 0
170 196 0
170 196 0
171 196 0
169 195 0
170 195 0
169 195 0
170 196 0
171 196 25
180 203 105
199 217 171
212 227 211
225 237 245
229 240 255
229 240 255
228 240 255
228 240 255
228 240 255
228 240 255
229 240 255
229 240 255
224 236 242
208 224 201
197 215 165
179 202 92
171 196 0
169 195 0
170 196 0
169 195 0
169 195 0
169 195 0
170 195 0
169 195 0
170 196 0
170 196 0
170 195 0
170 195 0
170 195 0
169 195 0
171 196 0
169 195 0
169 195 0
170 195 0
168 195 0
170 196 0
169 195 0
170 196 0
170 195 0
170 196 0
169 195 0
169 195 0
170 195 0
169 195 0
170 196 0
170 195 0
169 195 0
170 196 0
170 195 0
168 195 0
169 195 0
168 195 0
170 195 0
169 195 0
170 195 0
170 195 0
169 195 0
168 195 0
169 195 0
169 195 0
170 195 0
169 195 0
170 196 0
170 195 0
169 195 0
169 195 0
169 195 0
170 195 0
170 195 0
170 196 0
168 195 0
169 195 0
170 196 0
169 195 0
169 195 0
169 195 0
169 195 0
168 195 0
169 195 0
170 196 0
171 196 0
168 195 0
169 195 0
169 195 0
169 195 0
169 195 0
169 195 0
169 195 0
170 195 0
168 195 0
169 195 0
169 195 0
169 195 0
170 196 0
169 195 0
168 194 0
169 195 0
170 195 0
169 195 0
170 196 0
170 196 0
169 195 0
168 194 0
169 195 0
169 195 0
169 195 0
169 195 0
169 195 0
157 184 70
149 176 90
152 178 84
153 179 82
166 191 0
149 145 71
174 167 101
166 161 103
170 167 111
169 168 113
169 168 113
170 169 113
172 169 113
174 170 113
173 167 108
172 165 101
163 165 77
169 195 0
170 196 0
170 196 0
171 195 0
170 196 0
169 195 0
169 195 0
169 195 0
169 195 0
170 195 0
170 195 0
169 195 0
169 195 0
171 196 0
169 195 0
168 195 0
169 195 0
169 195 0
170 195 0
169 195 0
170 196 0
170 196 0
169 195 0
169 195 0
170 196 0
170 195 0
170 195 0
170 195 0
170 195 0
170 195 0
168 194 0
170 195 0
169 195 0
169 195 0
168 195 0
169 195 0
169 195 0
171 196 0
169 195 0
171 196 0
170 196 0
171 196 0
171 196 0
171 196 0
170 196 0
170 195 0
168 195 0
170 195 0
170 195 0
169 195 0
170 196 0
170 196 0
169 195 0
170 196 0
169 195 0
169 195 0
170 196 0
170 195 0
169 195 0
169 195 0
169 195 0
169 195 0
170 195 0
170 195 0
169 195 0
169 195 0
170 195 0
170 196 0
169 195 0
170 195 0
170 195 0
170 195 0
170 195 0
170 196 0
170 195 0
169 195 0
169 195 0
170 195 0
171 196 25
179 202 95
200 218 177
208 224 199
222 234 238
229 240 255
229 240 255
192 211 147
177 200 76
169 195 0
169 195 0
170 196 0
169 195 0
169 195 0
169 195 0
170 195 0
169 195 0
169 195 0
170 196 0
169 195 0
169 195 0
169 195 0
170 195 0
170 196 0
169 195 0
169 195 0
169 195 0
170 196 0
169 195 0
171 196 0
169 195 0
169 195 0
170 195 0
169 195 0
169 195 0
170 196 0
169 195 0
170 195 0
170 195 0
170 196 0
169 195 0
169 195 0
169 195 0
169 195 0
169 195 0
170 196 0
170 195 0
169 195 0
170 196 0
169 195 0
169 195 0
170 196 0
169 195 0
170 195 0
170 195 0
170 195 0
171 196 0
170 195 0
169 195 0
169 195 0
169 195 0
168 195 0
170 195 0
169 195 0
169 195 0
170 196 0
169 195 0
169 195 0
169 195 0
170 195 0
169 195 0
171 196 0
170 195 0
169 195 0
168 195 0
169 195 0
170 196 0
169 195 0
169 195 0
169 195 0
169 195 0
169 195 0
169 195 0
170 196 0
168 194 0
169 195 0
169 195 0
168 195 0
170 195 0
169 195 0
169 195 0
170 195 0
170 196 0
169 195 0
169 195 0
169 195 0
169 195 0
167 193 0
167 193 0
167 193 0
169 195 0
168 193 0
168 194 0
138 165 110
84 116 168
60 98 181
60 97 181
60 97 181
60 97 181
74 107 171
124 130 135
165 159 98
151 149 101
162 160 107
169 166 111
172 169 113
172 170 113
173 170 111
176 172 112
175 168 106
170 163 102
155 148 79
164 188 19
169 195 0
170 195 0
170 195 0
170 195 0
169 195 0
169 195 0
168 194 0
169 195 0
170 195 0
170 196 0
170 196 0
168 195 0
169 195 0
169 195 0
169 195 0
170 196 0
169 195 0
170 195 0
170 195 0
169 195 0
169 195 0
170 196 0
170 195 0
170 195 0
170 195 0
170 196 0
170 196 0
169 195 0
170 195 0
169 195 0
169 195 0
169 195 0
169 195 0
170 195 0
169 195 0
169 195 0
169 195 0
170 195 0
171 196 0
170 196 0
169 195 0
170 196 0
168 195 0
169 195 0
170 195 0
169 195 0
169 195 0
169 195 0
170 196 0
170 196 0
169 195 0
170 195 0
169 195 0
170 196 0
170 196 0
170 196 0
169 195 0
171 196 0
170 196 0
170 195 0
169 195 0
169 195 0
169 195 0
169 195 0
170 195 0
170 195 0
169 195 0
169 195 0
170 195 0
170 195 0
168 194 0
169 195 0
170 196 0
170 195 0
170 195 0
169 195 0
170 195 0
171 196 0
169 195 0
171 196 0
170 195 0
169 195 0
178 201 88
194 213 151
169 195 0
170 195 0
169 195 0
170 195 0
170 196 0
171 196 0
169 195 0
170 196 0
171 196 0
170 196 0
170 195 0
169 195 0
170 195 0
170 196 0
170 196 0
170 195 0
170 196 0
169 195 0
169 195 0
170 195 0
169 195 0
170 195 0
170 195 0
169 195 0
170 196 0
169 195 0
168 195 0
169 195 0
170 196 0
170 195 0
170 195 0
169 195 0
170 195 0
169 195 0
169 195 0
170 195 0
169 195 0
169 195 0
169 195 0
169 195 0
170 196 0
169 195 0
170 196 0
169 195 0
169 195 0
171 196 0
169 195 0
170 195 0
169 195 0
170 195 0
170 196 0
169 195 0
169 195 0
169 195 0
169 195 0
170 196 0
169 195 0
170 196 0
169 195 0
169 195 0
170 196 0
169 195 0
170 195 0
170 195 0
170 196 0
169 195 0
170 195 0
169 195 0
170 195 0
169 195 0
170 196 0
170 195 0
169 195 0
169 195 0
169 195 0
169 195 0
169 195 0
169 195 0
168 195 0
169 195 0
169 195 0
168 194 0
168 195 0
169 195 0
169 195 0
169 195 0
169 195 0
169 195 0
169 195 0
169 195 0
169 195 0
169 195 0
169 195 0
169 195 0
162 189 51
105 134 151
61 99 181
60 98 181
60 98 181
60 98 181
60 98 181
60 98 181
60 98 181
61 98 181
81 105 161
119 121 95
130 131 94
150 149 102
164 161 107
176 170 111
177 171 109
176 170 108
173 166 102
172 165 95
157 152 78
164 185 16
169 194 0
169 195 0
170 195 0
169 195 0
169 195 0
169 195 0
169 195 0
169 195 0
169 195 0
169 195 0
169 195 0
169 195 0
169 195 0
169 195 0
168 195 0
169 195 0
169 195 0
169 195 0
169 195 0
170 195 0
169 195 0
170 195 0
169 195 0
169 195 0
170 195 0
170 196 0
170 195 0
170 195 0
170 195 0
169 195 0
170 195 0
169 195 0
169 195 0
171 196 0
169 195 0
169 195 0
169 195 0
169 195 0
169 195 0
170 195 0
170 196 0
170 196 0
170 195 0
169 195 0
171 196 0
169 195 0
170 195 0
169 195 0
170 196 0
169 195 0
169 195 0
169 195 0
170 196 0
171 196 0
171 196 0
170 195 0
169 195 0
170 195 0
169 195 0
169 195 0
170 195 0
170 196 0
171 196 0
170 195 0
168 195 0
169 195 0
169 195 0
169 195 0
170 195 0
169 195 0
169 195 0
171 196 0
169 195 0
171 196 0
169 195 0
170 195 0
169 195 0
170 195 0
170 195 0
170 195 0
169 195 0
170 196 0
169 195 0
170 196 0
170 195 0
170 196 0
169 195 0
170 195 0
170 195 0
170 195 0
169 195 0
169 195 0
168 195 0
170 195 0
169 195 0
171 196 0
169 195 0
169 195 0
169 195 0
170 195 0
169 195 0
169 195 0
171 196 0
170 196 0
169 195 0
170 195 0
170 195 0
170 195 0
169 195 0
170 195 0
171 196 0
170 195 0
169 195 0
170 195 0
170 195 0
169 195 0
170 195 0
169 195 0
170 195 0
170 195 0
169 195 0
169 195 0
170 195 0
169 195 0
170 196 0
169 195 0
168 195 0
170 195 0
170 195 0
170 196 0
170 195 0
170 195 0
169 195 0
169 195 0
170 195 0
170 195 0
169 195 0
169 195 0
169 195 0
169 195 0
170 195 0
169 195 0
168 194 0
169 195 0
169 195 0
169 195 0
169 195 0
170 195 0
168 195 0
170 195 0
170 195 0
168 195 0
169 195 0
169 195 0
170 195 0
169 195 0
169 195 0
170 196 0
169 195 0
170 196 0
169 195 0
170 196 0
168 194 0
169 195 0
171 196 0
169 195 0
170 196 0
169 195 0
169 195 0
168 194 0
170 195 0
168 194 0
169 195 0
169 195 0
169 195 0
169 194 0
167 193 0
164 191 31
101 130 154
61 99 181
61 98 181
60 98 180
61 98 180
61 98 181
60 98 181
61 98 181
61 98 180
61 98 181
62 99 181
75 100 153
90 97 76
131 132 88
154 150 97
175 168 102
177 170 97
175 168 97
178 170 99
166 159 84
153 149 69
161 182 22
168 193 0
168 194 0
170 195 0
169 194 0
169 194 0
169 194 0
169 195 0
169 195 0
169 195 0
169 194 0
169 195 0
169 195 0
169 195 0
168 195 0
170 195 0
169 195 0
170 195 0
170 195 0
168 195 0
172 196 0
169 195 0
170 196 0
170 195 0
169 195 0
169 195 0
168 195 0
170 195 0
171 196 0
170 195 0
170 195 0
169 195 0
170 195 0
169 195 0
170 196 0
170 196 0
171 196 0
169 195 0
170 195 0
169 195 0
170 195 0
170 196 0
168 194 0
169 195 0
170 195 0
170 195 0
169 195 0
169 195 0
169 195 0
169 195 0
170 195 0
170 195 0
171 196 0
169 195 0
170 195 0
170 195 0
170 195 0
169 195 0
170 196 0
169 195 0
170 195 0
170 196 0
169 195 0
169 195 0
168 194 0
169 195 0
170 196 0
169 195 0
170 196 0
169 195 0
170 195 0
170 196 0
169 195 0
169 195 0
169 195 0
170 196 0
170 195 0
169 195 0
171 196 0
170 195 0
169 195 0
171 196 0
168 194 0
168 195 0
170 195 0
169 195 0
169 195 0
170 195 0
170 195 0
169 195 0
169 195 0
169 195 0
170 196 0
169 195 0
170 195 0
169 195 0
171 196 0
170 195 0
171 196 0
169 195 0
169 195 0
169 195 0
170 195 0
170 196 0
169 195 0
169 195 0
169 195 0
169 195 0
170 195 0
170 195 0
170 195 0
169 195 0
170 196 0
168 195 0
168 194 0
170 195 0
168 195 0
170 196 0
170 195 0
170 195 0
169 195 0
169 195 0
169 195 0
169 195 0
169 195 0
169 195 0
170 196 0
170 195 0
169 195 0
169 195 0
170 195 0
170 195 0
170 195 0
168 195 0
169 195 0
170 196 0
169 195 0
169 195 0
171 196 0
169 195 0
169 195 0
169 195 0
170 195 0
168 195 0
169 195 0
169 195 0
169 195 0
168 195 0
169 195 0
169 195 0
169 195 0
169 195 0
170 195 0
169 195 0
171 196 0
169 195 0
169 195 0
168 195 0
168 194 0
170 195 0
170 195 0
169 195 0
169 195 0
169 195 0
169 194 0
170 195 0
168 194 0
170 196 0
169 195 0
169 195 0
170 196 0
169 194 0
169 194 0
168 194 0
170 195 0
170 196 0
169 194 0
169 194 0
145 170 94
62 99 177
62 99 177
61 99 181
61 99 181
61 98 181
61 98 181
61 99 181
61 98 181
61 99 181
62 99 180
62 99 180
61 98 173
67 84 106
108 110 71
144 142 82
166 160 90
173 166 89
170 164 85
168 161 77
159 153 66
144 141 47
167 191 0
168 192 0
169 195 0
168 195 0
168 194 0
170 195 0
168 195 0
169 195 0
169 195 0
169 195 0
169 195 0
168 195 0
170 195 0
169 195 0
169 195 0
168 194 0
169 195 0
169 195 0
170 195 0
169 195 0
169 195 0
170 195 0
169 195 0
169 195 0
169 195 0
169 195 0
170 195 0
169 195 0
169 195 0
170 195 0
170 196 0
170 196 0
169 195 0
170 196 0
169 195 0
170 196 0
171 196 0
169 195 0
168 195 0
171 196 0
169 195 0
170 196 0
169 195 0
169 195 0
169 195 0
170 196 0
170 195 0
170 196 0
170 195 0
169 195 0
169 195 0
169 195 0
169 195 0
170 196 0
169 195 0
168 194 0
170 195 0
169 195 0
169 195 0
169 195 0
171 196 0
169 195 0
169 195 0
169 195 0
169 195 0
170 195 0
170 195 0
170 196 0
170 195 0
168 195 0
170 196 0
169 195 0
171 196 0
169 195 0
169 195 0
169 195 0
170 195 0
169 195 0
169 195 0
169 195 0
170 195 0
169 195 0
169 195 0
169 195 0
170 195 0
169 195 0
170 196 0
169 195 0
170 195 0
170 195 0
170 195 0
169 195 0
171 196 0
169 195 0
169 195 0
168 195 0
170 195 0
169 195 0
170 195 0
169 195 0
169 195 0
170 196 0
169 195 0
170 195 0
169 195 0
169 195 0
168 195 0
170 195 0
170 195 0
169 195 0
169 195 0
168 195 0
169 195 0
169 195 0
169 195 0
169 195 0
169 195 0
169 195 0
169 195 0
169 195 0
168 195 0
170 195 0
170 196 0
171 196 0
170 195 0
170 195 0
169 195 0
170 195 0
168 195 0
170 195 0
170 195 0
170 196 0
169 195 0
170 196 0
169 195 0
170 195 0
170 195 0
168 195 0
169 195 0
169 195 0
169 195 0
170 196 0
169 195 0
170 195 0
169 195 0
169 195 0
170 195 0
170 195 0
169 195 0
169 195 0
168 195 0
170 195 0
169 195 0
170 196 0
169 194 0
169 195 0
170 196 0
167 194 0
169 195 0
169 195 0
170 195 0
169 194 0
169 194 0
169 194 0
170 196 0
169 195 0
168 194 0
169 195 0
169 195 0
169 195 0
170 196 0
168 195 0
169 195 0
168 194 0
169 195 0
167 192 0
169 194 0
168 194 0
92 123 154
62 99 170
62 99 177
61 99 181
62 99 180
62 99 181
61 99 181
61 99 178
62 99 180
61 98 180
62 99 181
62 99 178
62 99 178
67 98 164
105 105 52
138 136 74
162 156 72
169 163 78
156 152 57
160 155 60
154 148 58
146 154 34
166 189 0
169 193 0
168 194 0
168 193 0
169 194 0
169 195 0
170 195 0
170 195 0
169 195 0
169 195 0
169 195 0
169 195 0
169 195 0
170 195 0
170 196 0
169 195 0
169 195 0
169 195 0
169 195 0
168 194 0
169 195 0
170 195 0
169 195 0
169 195 0
168 195 0
169 195 0
170 195 0
170 195 0
170 195 0
169 195 0
170 195 0
169 195 0
169 195 0
169 195 0
168 194 0
169 195 0
169 195 0
169 195 0
170 195 0
169 195 0
170 196 0
170 196 0
169 195 0
169 195 0
169 195 0
170 195 0
169 195 0
169 195 0
170 196 0
169 195 0
169 195 0
170 195 0
170 195 0
169 195 0
170 196 0
170 196 0
169 195 0
169 195 0
171 196 0
169 195 0
170 195 0
169 195 0
168 195 0
170 195 0
169 195 0
170 195 0
170 195 0
170 195 0
169 195 0
169 195 0
170 195 0
169 195 0
169 195 0
170 196 0
168 195 0
170 196 0
171 196 0
170 195 0
169 195 0
170 195 0
170 196 0
169 195 0
171 196 0
170 196 0
170 195 0
169 195 0
170 195 0
169 195 0
169 195 0
170 195 0
170 195 0
169 195 0
169 195 0
171 196 0
170 196 0
169 195 0
168 194 0
170 196 0
170 195 0
168 195 0
170 195 0
170 196 0
169 195 0
169 195 0
169 195 0
170 195 0
169 195 0
170 195 0
170 195 0
168 195 0
169 195 0
170 196 0
169 195 0
169 195 0
170 195 0
169 195 0
168 195 0
169 195 0
168 195 0
169 195 0
170 195 0
169 195 0
169 195 0
169 195 0
169 195 0
171 196 0
170 195 0
168 195 0
169 195 0
169 195 0
170 196 0
169 195 0
170 195 0
169 195 0
169 195 0
169 195 0
170 195 0
169 195 0
168 195 0
169 195 0
168 194 0
169 195 0
168 194 0
170 195 0
169 195 0
169 195 0
170 196 0
170 195 0
169 195 0
169 195 0
169 195 0
169 195 0
170 195 0
169 195 0
169 195 0
169 195 0
168 195 0
171 196 0
169 195 0
170 195 0
170 196 0
170 195 0
169 195 0
169 194 0
169 195 0
170 195 0
169 195 0
169 195 0
169 195 0
169 194 0
168 194 0
177 200 80
181 204 114
182 204 117
169 193 44
167 192 0
168 194 0
157 182 67
62 99 169
62 99 174
63 99 175
63 99 178
62 99 180
62 99 178
62 99 179
62 99 178
62 99 178
62 99 174
63 100 179
63 100 180
63 99 172
64 100 170
96 102 58
134 132 53
148 145 49
151 147 45
146 143 37
149 146 39
130 130 25
164 183 19
168 191 0
169 192 0
167 192 0
167 193 0
169 193 0
168 193 0
169 194 0
168 194 0
168 193 0
168 194 0
169 195 0
168 194 0
168 194 0
168 194 0
168 194 0
170 195 0
170 195 0
169 195 0
170 195 0
169 195 0
170 195 0
170 195 0
169 195 0
170 195 0
169 195 0
170 195 0
169 195 0
170 195 0
168 195 0
170 195 0
169 195 0
168 195 0
170 195 0
169 195 0
170 196 0
168 195 0
170 196 0
169 195 0
169 195 0
170 195 0
169 195 0
169 195 0
170 195 0
169 195 0
169 195 0
170 196 0
169 195 0
169 195 0
171 196 0
170 196 0
169 195 0
169 195 0
169 195 0
169 195 0
170 195 0
171 196 0
170 195 0
169 195 0
170 195 0
170 195 0
169 195 0
169 195 0
169 195 0
168 194 0
169 195 0
169 195 0
170 195 0
170 196 0
169 195 0
171 196 0
170 196 0
170 195 0
170 196 0
170 195 0
170 195 0
169 195 0
170 196 0
169 195 0
169 195 0
170 195 0
169 195 0
169 195 0
170 196 0
170 195 0
169 195 0
169 195 0
169 195 0
170 195 0
168 195 0
170 195 0
169 195 0
170 195 0
169 195 0
169 195 0
169 195 0
170 195 0
170 195 0
169 195 0
170 195 0
169 195 0
168 195 0
169 195 0
170 195 0
170 195 0
170 195 0
169 195 0
170 195 0
169 195 0
170 195 0
170 196 0
171 196 0
169 195 0
170 195 0
169 195 0
169 195 0
169 195 0
169 195 0
169 195 0
170 195 0
169 195 0
168 195 0
170 195 0
169 195 0
170 195 0
171 196 0
170 195 0
169 195 0
169 195 0
169 195 0
168 195 0
170 195 0
170 195 0
170 195 0
169 195 0
169 195 0
169 195 0
170 196 0
170 195 0
169 195 0
170 195 0
170 195 0
169 195 0
169 195 0
169 195 0
169 195 0
169 195 0
170 195 0
169 195 0
168 195 0
169 195 0
170 195 0
169 195 0
169 195 0
169 195 0
170 195 0
171 196 0
169 195 0
169 195 0
169 195 0
169 195 0
170 195 0
170 196 0
170 195 0
169 195 0
169 195 0
169 195 0
168 194 0
167 193 0
183 205 122
203 221 201
201 220 199
190 211 167
188 210 155
190 211 165
196 215 182
195 215 173
173 196 107
133 160 108
62 98 164
62 99 175
63 99 175
62 99 171
62 99 171
62 99 173
62 99 178
62 99 177
63 100 176
63 99 172
62 99 173
63 100 176
63 99 167
64 100 168
96 106 94
120 119 24
126 125 18
135 133 26
137 134 30
131 129 25
151 163 0
162 181 0
164 185 0
167 190 0
166 190 0
168 193 0
169 194 0
168 194 0
169 195 0
168 194 0
169 195 0
169 195 0
171 196 0
168 195 0
169 195 0
170 195 0
169 195 0
170 195 0
169 195 0
170 195 0
169 195 0
169 195 0
168 195 0
169 195 0
168 194 0
169 195 0
170 195 0
169 195 0
170 196 0
169 195 0
169 195 0
169 195 0
169 195 0
170 196 0
169 195 0
169 195 0
170 195 0
169 195 0
169 195 0
170 195 0
169 195 0
170 195 0
170 196 0
170 195 0
170 196 0
169 195 0
169 195 0
169 195 0
169 195 0
170 195 0
171 196 0
170 195 0
170 196 0
171 196 0
169 195 0
170 195 0
169 195 0
171 196 0
170 196 0
170 195 0
170 195 0
170 195 0
169 195 0
169 195 0
170 196 0
169 195 0
169 195 0
170 195 0
168 195 0
170 195 0
169 195 0
169 195 0
170 195 0
169 195 0
170 195 0
170 195 0
170 195 0
169 195 0
169 195 0
169 195 0
170 195 0
170 196 0
170 195 0
170 196 0
170 196 0
168 194 0
169 195 0
170 196 0
169 195 0
169 195 0
169 195 0
170 195 0
170 195 0
170 195 0
168 195 0
170 195 0
170 196 0
170 196 0
170 195 0
168 194 0
170 195 0
169 195 0
169 195 0
169 195 0
169 195 0
169 195 0
169 195 0
171 196 0
169 195 0
170 195 0
169 195 0
169 195 0
170 195 0
169 195 0
169 195 0
170 195 0
169 195 0
169 195 0
169 195 0
169 195 0
169 195 0
169 195 0
170 196 0
169 195 0
170 195 0
168 194 0
169 195 0
170 196 0
169 195 0
170 195 0
170 195 0
170 195 0
169 195 0
170 195 0
171 196 0
169 195 0
169 195 0
169 195 0
169 195 0
169 195 0
169 195 0
169 195 0
170 195 0
170 195 0
169 195 0
169 195 0
169 195 0
169 195 0
169 195 0
169 195 0
169 195 0
170 195 0
169 195 0
169 195 0
169 195 0
170 195 0
169 195 0
168 195 0
168 195 0
169 195 0
170 196 0
168 194 0
169 195 0
169 194 0
169 195 0
170 195 0
170 195 0
167 193 0
169 195 25
195 215 173
194 214 181
175 199 99
171 197 67
169 195 51
169 194 67
169 195 67
172 197 67
173 198 72
167 189 160
72 107 174
62 98 167
62 98 168
63 99 170
63 99 167
62 99 171
63 99 168
63 99 175
62 99 168
63 99 171
63 99 169
62 99 165
63 99 168
64 100 170
63 99 160
98 99 70
112 104 0
121 115 0
110 104 0
123 122 0
149 153 0
161 175 0
159 176 0
166 185 0
165 187 0
166 188 0
167 190 0
168 192 0
167 193 0
170 195 0
168 193 0
169 194 0
169 194 0
168 194 0
170 196 0
168 194 0
169 195 0
169 195 0
170 195 0
170 196 0
169 195 0
169 195 0
170 195 0
168 194 0
168 195 0
168 195 0
170 195 0
168 195 0
169 195 0
169 195 0
169 195 0
170 196 0
169 195 0
169 195 0
169 195 0
170 195 0
169 195 0
169 195 0
169 195 0
169 195 0
169 195 0
169 195 0
169 195 0
169 195 0
170 196 0
168 195 0
171 196 0
169 195 0
169 195 0
169 195 0
170 195 0
170 195 0
170 195 0
169 195 0
169 195 0
170 196 0
169 195 0
169 195 0
169 195 0
170 195 0
169 195 0
171 196 0
169 195 0
170 195 0
169 195 0
169 195 0
169 195 0
169 195 0
169 195 0
169 195 0
169 195 0
170 195 0
169 195 0
170 195 0
169 195 0
170 196 0
170 195 0
170 195 0
170 196 0
170 196 0
170 195 0
169 195 0
171 196 0
170 195 0
171 196 0
170 195 0
169 195 0
169 195 0
169 195 0
169 195 0
170 195 0
169 195 0
170 195 0
170 196 0
170 195 0
169 195 0
171 196 0
169 195 0
169 195 0
169 195 0
170 195 0
168 195 0
170 195 0
170 196 0
171 196 0
169 195 0
170 195 0
170 196 0
169 195 0
169 195 0
168 195 0
171 196 0
169 195 0
169 195 0
170 195 0
170 196 0
169 195 0
170 195 0
169 195 0
170 195 0
170 195 0
170 195 0
170 196 0
170 195 0
170 195 0
170 195 0
170 195 0
170 195 0
169 195 0
170 195 0
169 195 0
170 195 0
169 195 0
169 195 0
170 195 0
169 195 0
169 195 0
169 195 0
169 195 0
169 195 0
169 195 0
168 194 0
170 195 0
169 195 0
169 195 0
170 195 0
170 195 0
170 195 0
169 195 0
170 196 0
169 195 0
170 195 0
168 194 0
170 195 0
169 195 0
169 195 0
168 195 0
168 195 0
169 195 0
169 195 0
169 195 0
169 195 0
170 196 0
169 195 0
169 195 0
169 195 0
170 195 0
170 195 0
170 195 25
191 211 155
180 204 117
174 199 76
170 196 84
171 197 95
171 196 84
170 196 72
170 196 88
169 195 76
170 195 44
168 193 102
98 126 143
67 102 163
61 97 161
62 98 167
63 100 171
63 99 168
64 100 174
62 99 167
63 99 171
63 99 166
63 100 171
62 98 159
63 99 164
62 97 154
62 97 148
90 90 54
109 104 0
109 102 0
134 135 0
140 144 0
151 158 0
157 169 0
162 183 0
163 182 0
164 186 0
163 185 0
165 189 0
166 191 0
168 194 0
167 191 0
168 192 0
169 195 0
170 195 0
169 194 0
170 195 0
167 193 0
170 195 0
169 195 0
169 195 0
166 193 0
170 195 0
170 196 0
169 195 0
168 195 0
169 195 0
170 196 0
170 195 0
169 195 0
170 195 0
169 195 0
169 195 0
169 195 0
168 194 0
169 195 0
170 196 0
169 195 0
170 195 0
169 195 0
169 195 0
170 196 0
170 196 0
168 195 0
170 195 0
169 195 0
169 195 0
169 195 0
170 195 0
170 195 0
170 196 0
170 195 0
170 195 0
169 195 0
169 195 0
170 196 0
170 196 0
169 195 0
169 195 0
169 195 0
170 196 0
170 195 0
169 195 0
169 195 0
170 195 0
169 195 0
170 195 0
170 195 0
170 195 0
169 195 0
170 195 0
169 195 0
170 196 0
171 196 0
170 196 0
170 195 0
169 195 0
169 195 0
169 195 0
170 195 0
169 195 0
169 195 0
170 196 0
168 195 0
170 195 0
169 195 0
170 195 0
170 195 0
170 195 0
168 195 0
169 195 0
169 195 0
169 195 0
169 195 0
170 195 0
169 195 0
170 196 0
170 196 0
171 196 0
169 195 0
169 195 0
168 195 0
168 195 0
169 195 0
170 195 0
170 196 0
170 196 0
169 195 0
169 195 0
169 195 0
170 196 0
170 196 0
169 195 0
169 195 0
169 195 0
171 196 0
170 195 0
170 195 0
169 195 0
168 195 0
169 195 0
169 195 0
170 195 0
169 195 0
169 195 0
170 195 0
169 195 0
169 195 0
169 195 0
169 195 0
170 195 0
170 196 0
170 195 0
170 196 0
170 195 0
169 195 0
171 196 0
169 195 0
169 195 0
170 195 0
169 195 0
170 196 0
169 195 0
169 195 0
169 195 0
169 195 0
169 195 0
170 195 0
169 195 0
169 195 0
170 195 0
169 195 0
170 195 0
169 195 0
169 195 0
170 196 0
169 195 0
168 195 0
170 195 0
168 195 0
170 196 0
168 195 0
169 195 0
169 195 0
168 195 0
168 194 0
169 195 0
169 195 0
169 195 0
168 194 0
185 207 135
182 205 127
170 196 88
170 196 76
168 194 76
171 197 84
168 195 72
170 195 67
164 190 67
167 192 80
166 192 84
165 190 67
104 130 125
78 109 150
65 100 159
62 97 159
62 98 167
62 97 153
62 98 164
62 99 164
63 99 166
62 98 162
64 100 164
62 98 156
62 98 152
63 98 155
70 99 124
118 126 0
124 129 0
135 141 0
143 150 0
144 152 0
152 166 0
162 179 0
159 175 0
161 179 0
166 188 0
166 188 0
163 187 0
165 189 0
167 192 0
168 193 0
168 194 0
169 195 0
170 195 0
169 195 0
168 195 0
169 194 0
170 195 0
168 195 0
170 195 0
169 195 0
169 195 0
169 195 0
169 195 0
169 195 0
169 195 0
168 195 0
170 195 0
169 195 0
169 195 0
170 196 0
169 195 0
168 195 0
169 195 0
169 195 0
169 195 0
169 195 0
168 194 0
169 195 0
168 195 0
169 195 0
170 195 0
169 195 0
170 195 0
170 196 0
169 195 0
169 195 0
170 195 0
170 196 0
169 195 0
169 195 0
169 195 0
169 195 0
169 195 0
169 195 0
169 195 0
170 196 0
170 195 0
169 195 0
170 195 0
169 195 0
170 195 0
168 195 0
168 195 0
169 195 0
170 195 0
169 195 0
169 195 0
170 196 0
170 196 0
169 195 0
168 195 0
168 195 0
169 195 0
169 195 0
169 195 0
170 195 0
169 195 0
169 195 0
170 196 0
170 195 0
169 195 0
170 195 0
170 195 0
169 195 0
169 195 0
170 196 0
170 195 0
169 195 0
170 195 0
170 196 0
170 195 0
170 195 0
169 195 0
170 195 0
170 196 0
170 196 0
169 195 0
170 195 0
169 195 0
169 195 0
169 195 0
170 196 0
169 195 0
169 195 0
169 195 0
170 195 0
169 195 0
171 196 0
169 195 0
169 195 0
170 195 0
169 195 0
169 195 0
169 195 0
169 195 0
168 195 0
169 195 0
169 195 0
170 195 0
169 195 0
169 195 0
170 195 0
169 195 0
168 195 0
169 195 0
170 195 0
169 195 0
170 195 0
170 195 0
170 195 0
169 195 0
170 195 0
170 195 0
170 195 0
170 195 0
170 196 0
169 195 0
170 195 0
169 195 0
170 195 0
170 195 0
170 196 0
170 196 0
169 195 0
169 195 0
170 195 0
170 195 0
170 195 0
169 195 0
169 195 0
168 194 0
169 195 0
169 195 0
169 195 0
168 195 0
169 195 0
170 195 0
170 195 0
168 195 0
169 195 0
169 195 0
168 194 0
168 194 0
167 193 0
168 194 0
169 195 0
169 195 0
170 195 25
181 204 120
171 196 80
172 197 80
171 197 67
169 196 92
167 194 62
167 194 67
165 192 57
168 194 72
159 186 62
164 190 72
160 185 88
134 159 95
87 114 127
80 112 143
61 96 145
62 97 158
61 97 147
63 98 156
62 98 156
62 98 150
61 97 149
63 99 158
63 99 157
61 96 144
62 98 149
94 112 67
128 142 0
138 156 0
138 152 0
146 161 0
150 165 0
155 171 0
160 179 0
166 187 0
163 185 0
167 189 0
162 183 0
166 191 0
167 193 0
165 190 0
168 194 0
168 193 0
168 193 0
169 195 0
168 193 0
169 194 0
168 194 0
168 195 0
169 195 0
169 195 0
170 195 0
168 194 0
170 195 0
169 195 0
169 195 0
170 195 0
170 195 0
170 196 0
169 195 0
171 196 0
169 195 0
169 195 0
170 195 0
169 195 0
171 196 0
169 195 0
169 195 0
171 196 0
169 195 0
170 195 0
168 194 0
169 195 0
169 195 0
169 195 0
169 195 0
169 195 0
170 195 0
169 195 0
171 196 0
169 195 0
169 195 0
169 195 0
169 195 0
169 195 0
170 195 0
169 195 0
169 195 0
169 195 0
168 195 0
169 195 0
170 196 0
168 194 0
169 195 0
169 195 0
169 195 0
170 196 0
168 195 0
169 195 0
169 195 0
169 195 0
169 195 0
170 195 0
168 194 0
170 195 0
170 196 0
169 195 0
170 195 0
170 196 0
170 195 0
170 195 0
170 195 0
169 195 0
169 195 0
170 195 0
169 195 0
170 195 0
170 195 0
170 195 0
169 195 0
169 195 0
171 196 0
170 196 0
170 195 0
169 195 0
170 195 0
169 195 0
170 196 0
168 195 0
170 195 0
170 196 0
169 195 0
169 195 0
169 195 0
169 195 0
169 195 0
170 195 0
170 195 0
169 195 0
169 195 0
170 195 0
169 195 0
169 195 0
169 195 0
170 195 0
170 195 0
170 196 0
169 195 0
168 195 0
169 195 0
169 195 0
170 196 0
169 195 0
169 195 0
169 195 0
169 195 0
169 195 0
169 195 0
169 195 0
170 195 0
170 195 0
169 195 0
169 195 0
169 195 0
169 195 0
170 195 0
169 195 0
169 195 0
169 195 0
169 195 0
169 195 0
170 196 0
170 196 0
169 195 0
170 195 0
169 195 0
169 195 0
170 196 0
169 195 0
169 195 0
169 195 0
169 195 0
169 195 0
169 195 0
170 195 0
168 194 0
169 195 0
169 195 0
171 196 0
170 195 0
170 195 0
170 196 0
169 195 0
169 195 0
169 195 0
169 195 0
168 194 0
169 195 0
168 194 0
175 199 76
173 197 84
170 196 76
169 195 72
172 197 57
170 196 88
170 196 84
167 192 72
167 193 84
166 191 84
169 194 88
161 186 51
157 182 92
153 177 84
117 139 118
97 124 133
65 99 141
59 94 131
59 94 131
61 96 143
63 98 151
62 98 151
61 97 143
61 96 133
63 98 147
60 94 124
75 103 102
108 124 18
135 155 0
142 161 0
148 167 0
144 162 0
155 175 0
160 182 0
164 185 0
159 180 0
164 188 0
166 189 0
163 187 0
164 188 0
165 190 0
166 191 0
167 191 0
169 194 0
168 194 0
169 195 0
169 195 0
170 195 0
170 196 0
170 195 0
169 195 0
169 195 0
168 194 0
169 195 0
170 195 0
168 194 0
168 194 0
170 195 0
169 195 0
168 194 0
169 195 0
168 195 0
170 195 0
170 195 0
169 195 0
170 196 0
170 196 0
170 195 0
170 195 0
169 195 0
169 195 0
170 195 0
170 196 0
169 195 0
168 194 0
169 195 0
169 195 0
170 195 0
169 195 0
169 195 0
170 196 0
170 195 0
169 195 0
170 195 0
170 195 0
170 196 0
170 196 0
168 194 0
170 195 0
170 195 0
169 195 0
169 195 0
169 195 0
169 195 0
169 195 0
170 196 0
169 195 0
170 195 0
170 195 0
168 195 0
170 195 0
169 195 0
170 196 0
169 195 0
169 195 0
169 195 0
169 195 0
170 195 0
169 195 0
169 195 0
169 195 0
169 195 0
170 195 0
170 196 0
169 195 0
170 195 0
170 195 0
169 195 0
169 195 0
170 196 0
168 195 0
169 195 0
170 195 0
170 195 0
170 196 0
169 195 0
169 195 0
169 195 0
170 195 0
169 195 0
170 196 0
170 195 0
171 196 0
170 195 0
169 195 0
169 195 0
169 195 0
170 196 0
169 195 0
169 195 0
169 195 0
170 195 0
169 195 0
169 195 0
169 195 0
169 195 0
170 195 0
170 195 0
170 195 0
168 195 0
169 195 0
169 195 0
169 195 0
169 195 0
169 195 0
170 195 0
170 196 0
169 195 0
169 195 0
169 195 0
169 195 0
169 195 0
169 195 0
169 195 0
169 195 0
170 196 0
169 195 0
170 195 0
169 195 0
169 195 0
170 195 0
169 195 0
169 195 0
169 195 0
169 195 0
170 196 0
169 195 0
167 193 0
170 195 0
170 195 0
169 195 0
169 195 0
169 195 0
169 195 0
169 195 0
170 196 0
170 196 0
170 195 0
169 195 0
170 195 0
170 195 0
169 195 0
169 195 0
167 194 0
169 195 0
168 194 0
168 194 0
169 195 0
170 195 0
169 195 0
171 196 36
171 197 72
172 197 72
168 193 57
170 195 92
172 197 92
171 196 88
170 196 92
168 193 88
164 190 78
160 186 76
158 183 78
157 181 84
147 169 92
122 144 66
100 126 97
77 106 114
57 91 114
58 93 113
59 93 113
61 96 136
60 94 129
60 95 127
58 93 110
59 93 117
67 96 78
118 136 18
120 138 0
142 162 0
148 168 0
155 176 0
155 176 0
161 184 0
164 188 0
161 183 0
158 179 0
164 186 0
164 189 0
167 192 0
169 193 0
169 194 0
166 192 0
167 193 0
169 195 0
166 192 0
169 193 0
169 195 0
168 193 0
169 195 0
168 194 0
169 195 0
170 195 0
169 195 0
169 194 0
170 195 0
169 195 0
169 195 0
169 195 0
169 195 0
169 195 0
170 195 0
169 195 0
169 195 0
169 195 0
168 195 0
169 195 0
169 195 0
168 195 0
170 196 0
169 195 0
169 195 0
168 194 0
171 196 0
169 195 0
171 196 0
168 195 0
169 195 0
169 195 0
169 195 0
170 195 0
168 195 0
170 195 0
169 195 0
169 195 0
170 195 0
170 196 0
169 195 0
170 196 0
169 195 0
169 194 0
169 195 0
169 195 0
170 195 0
170 195 0
170 195 0
169 195 0
169 195 0
169 195 0
170 195 0
170 195 0
170 195 0
169 195 0
169 195 0
170 196 0
169 195 0
168 195 0
170 195 0
168 195 0
171 196 0
169 195 0
168 195 0
168 195 0
169 195 0
169 195 0
169 195 0
170 195 0
171 196 0
169 195 0
170 195 0
169 195 0
170 195 0
170 196 0
171 196 0
169 195 0
169 195 0
169 195 0
169 195 0
170 196 0
170 196 0
170 195 0
170 195 0
170 196 0
170 195 0
170 195 0
168 194 0
168 195 0
169 195 0
169 195 0
169 195 0
169 195 0
170 196 0
170 195 0
170 195 0
170 196 0
169 195 0
169 195 0
169 195 0
168 195 0
170 195 0
169 195 0
170 196 0
170 195 0
170 195 0
169 195 0
170 195 0
169 195 0
168 195 0
170 195 0
169 195 0
170 195 0
167 194 0
170 195 0
170 195 0
169 195 0
169 195 0
170 195 0
169 195 0
171 196 0
169 195 0
170 196 0
169 195 0
170 195 0
170 196 0
169 195 0
169 195 0
169 195 0
168 194 0
168 194 0
170 195 0
170 195 0
169 195 0
170 196 0
169 195 0
170 195 0
169 195 0
168 194 0
169 195 0
169 195 0
168 195 0
170 196 0
167 193 0
167 194 0
169 195 0
169 195 0
168 195 0
170 195 0
169 195 0
169 195 0
169 195 0
168 195 0
169 194 44
174 199 67
168 193 72
170 195 84
170 195 80
170 196 84
168 193 76
170 196 80
167 192 84
163 189 72
164 190 76
160 185 84
163 187 111
151 173 105
115 136 57
106 127 62
93 118 86
75 100 78
62 92 95
55 88 94
55 89 90
56 90 95
55 89 94
64 94 78
72 92 47
102 121 0
117 138 0
133 155 0
140 164 0
145 168 0
151 175 0
157 181 0
160 182 0
158 182 0
159 184 0
160 184 0
164 188 0
167 191 0
167 192 0
167 192 0
167 192 0
167 193 0
169 194 0
169 194 0
167 193 0
170 196 0
168 194 0
168 195 0
169 194 0
167 193 0
168 194 0
169 195 0
171 196 0
170 195 0
170 195 0
168 194 0
169 194 0
169 195 0
169 195 0
168 195 0
169 195 0
170 195 0
170 195 0
170 195 0
170 195 0
169 195 0
169 195 0
169 195 0
168 194 0
169 195 0
168 195 0
169 195 0
169 195 0
170 196 0
168 195 0
170 196 0
168 195 0
169 195 0
170 196 0
168 194 0
169 195 0
169 195 0
169 195 0
169 195 0
169 195 0
169 195 0
170 195 0
170 196 0
169 195 0
169 195 0
170 195 0
169 194 0
170 195 0
169 195 0
169 195 0
170 196 0
170 195 0
169 195 0
170 195 0
169 195 0
170 195 0
169 195 0
169 195 0
168 194 0
169 195 0
171 196 0
169 195 0
170 195 0
169 195 0
170 196 0
168 195 0
169 195 0
171 196 0
170 196 0
169 195 0
169 195 0
170 195 0
169 195 0
170 195 0
169 195 0
170 195 0
168 195 0
171 196 0
170 195 0
169 195 0
171 196 0
170 195 0
170 195 0
169 195 0
170 195 0
169 195 0
169 195 0
170 195 0
170 195 0
169 195 0
169 195 0
169 195 0
169 195 0
169 195 0
170 195 0
169 195 0
169 195 0
170 195 0
170 195 0
168 194 0
170 196 0
169 195 0
171 196 0
169 195 0
170 195 0
169 195 0
169 195 0
169 195 0
169 195 0
169 195 0
170 195 0
170 196 0
168 195 0
169 195 0
170 195 0
168 195 0
170 195 0
170 195 0
170 195 0
169 195 0
169 195 0
168 194 0
170 196 0
169 195 0
171 196 0
169 195 0
170 196 0
169 195 0
169 195 0
169 195 0
169 195 0
169 195 0
169 195 0
170 196 0
168 195 0
170 195 0
169 195 0
170 195 0
169 195 0
170 195 0
170 196 0
170 195 0
169 195 0
170 196 0
168 195 0
170 195 0
168 195 0
168 195 0
169 195 0
169 195 0
169 195 0
168 194 0
170 196 0
168 194 0
169 195 0
167 193 25
173 198 62
167 192 65
167 192 80
170 195 65
173 198 108
169 194 80
166 192 36
166 191 72
165 191 80
163 188 105
162 186 99
155 179 72
151 173 95
139 161 72
116 137 25
109 128 0
77 95 25
81 97 0
76 91 25
71 89 36
71 88 25
61 78 25
79 96 0
82 100 0
104 124 0
123 145 0
135 158 0
141 163 0
146 170 0
151 176 0
156 181 0
161 184 0
160 184 0
164 189 0
162 186 0
167 193 0
166 191 0
165 191 0
168 193 0
168 194 0
165 191 0
168 193 0
170 195 0
169 194 0
167 193 0
168 195 0
169 195 0
168 194 0
169 194 0
168 194 0
169 195 0
169 195 0
169 195 0
170 196 0
169 195 0
170 195 0
170 195 0
169 195 0
170 196 0
168 195 0
170 195 0
169 195 0
170 195 0
169 195 0
170 195 0
170 195 0
170 196 0
169 195 0
170 196 0
169 195 0
169 195 0
169 195 0
169 194 0
169 195 0
169 195 0
170 195 0
169 195 0
169 195 0
170 195 0
168 194 0
169 195 0
170 196 0
170 195 0
169 195 0
170 195 0
170 196 0
169 195 0
169 195 0
168 195 0
170 196 0
169 195 0
169 195 0
170 195 0
169 195 0
169 195 0
171 196 0
170 196 0
169 195 0
171 196 0
168 195 0
169 195 0
170 196 0
169 195 0
170 195 0
168 195 0
169 195 0
169 195 0
169 195 0
170 195 0
169 195 0
169 195 0
169 195 0
171 196 0
171 196 0
170 195 0
169 195 0
169 195 0
170 195 0
169 195 0
169 195 0
170 196 0
169 195 0
170 195 0
169 195 0
169 195 0
169 195 0
169 195 0
170 196 0
170 195 0
169 195 0
170 195 0
170 195 0
170 196 0
169 195 0
169 195 0
169 195 0
169 195 0
168 195 0
169 195 0
169 195 0
169 195 0
169 195 0
169 195 0
170 196 0
169 195 0
168 195 0
169 195 0
168 194 0
169 195 0
170 195 0
170 196 0
170 195 0
169 195 0
169 195 0
170 195 0
168 195 0
169 195 0
169 195 0
169 195 0
169 195 0
169 195 0
169 195 0
170 195 0
171 196 0
170 195 0
170 196 0
169 195 0
170 195 0
170 195 0
169 195 0
169 195 0
169 195 0
169 195 0
169 195 0
170 195 0
169 195 0
169 195 0
170 195 0
170 195 0
169 195 0
168 195 0
168 194 0
170 195 0
170 196 0
169 195 0
169 195 0
169 195 0
169 195 0
170 195 0
168 195 0
168 194 0
170 195 0
168 195 0
169 195 0
168 194 0
169 195 0
169 195 0
169 194 0
169 195 0
166 192 25
171 196 62
163 188 70
167 191 70
164 190 57
169 194 88
169 195 72
167 192 80
168 194 80
166 191 80
166 190 72
164 189 80
149 171 88
150 172 88
142 164 62
139 162 44
123 145 0
110 131 0
101 121 0
95 114 0
100 118 0
96 115 0
105 124 0
106 127 0
114 136 0
132 155 0
132 154 0
143 165 0
147 170 0
140 165 0
153 178 0
158 183 0
160 185 0
163 188 0
167 192 0
164 189 0
164 188 0
163 188 0
168 193 0
169 195 0
166 191 0
168 193 0
170 195 0
168 195 0
168 194 0
168 193 0
169 195 0
169 195 0
169 194 0
169 194 0
168 193 0
169 195 0
169 195 0
169 195 0
169 195 0
170 195 0
169 195 0
170 195 0
169 195 0
170 196 0
170 195 0
169 195 0
169 195 0
170 196 0
169 195 0
170 195 0
168 195 0
169 195 0
168 195 0
169 195 0
169 195 0
170 195 0
170 196 0
169 195 0
168 194 0
170 196 0
169 195 0
169 195 0
169 195 0
169 195 0
170 196 0
168 195 0
170 195 0
170 196 0
170 195 0
170 196 0
169 195 0
170 195 0
169 195 0
170 195 0
170 195 0
169 195 0
170 195 0
170 195 0
170 195 0
170 196 0
168 195 0
170 195 0
170 195 0
170 195 0
170 196 0
170 195 0
170 196 0
170 196 0
169 195 0
170 195 0
169 195 0
171 196 0
169 195 0
170 195 0
169 195 0
170 196 0
169 195 0
168 194 0
170 195 0
169 195 0
169 195 0
169 195 0
169 195 0
170 195 0
169 195 0
170 195 0
169 195 0
169 195 0
170 195 0
170 196 0
168 195 0
169 195 0
169 195 0
169 195 0
169 195 0
170 195 0
170 195 0
169 195 0
169 195 0
168 194 0
171 196 0
170 195 0
169 195 0
170 195 0
169 195 0
169 195 0
169 195 0
170 196 0
169 195 0
169 195 0
169 195 0
168 195 0
169 195 0
169 195 0
169 195 0
170 196 0
169 195 0
170 196 0
169 195 0
169 195 0
169 195 0
168 194 0
169 195 0
169 195 0
169 195 0
169 195 0
170 195 0
169 195 0
169 195 0
169 195 0
171 196 0
169 195 0
170 196 0
170 195 0
169 195 0
168 195 0
170 195 0
169 195 0
169 195 0
169 195 0
169 195 0
170 195 0
169 195 0
169 195 0
171 196 0
170 195 0
169 195 0
171 196 0
169 195 0
170 195 0
170 195 0
169 195 0
169 195 0
169 195 0
170 195 0
169 195 0
170 195 0
170 196 0
169 195 0
169 195 0
168 194 0
168 194 0
169 194 0
169 194 0
167 194 0
168 194 0
163 188 36
165 189 76
166 191 47
170 194 95
171 195 92
173 198 92
168 193 84
169 194 80
165 189 72
161 184 80
155 178 84
153 176 67
146 169 51
144 168 36
134 159 0
130 154 0
120 142 0
128 152 0
114 135 0
122 144 0
124 146 0
124 147 0
130 154 0
138 162 0
138 161 0
146 170 0
149 174 0
152 177 0
161 185 0
161 187 0
160 185 0
163 189 0
166 192 0
167 193 0
161 186 0
168 193 0
166 191 0
168 193 0
167 192 0
168 193 0
168 194 0
169 194 0
166 191 0
168 194 0
168 194 0
168 194 0
167 192 0
169 195 0
170 195 0
170 195 0
169 195 0
169 195 0
168 194 0
170 195 0
168 194 0
169 195 0
169 195 0
169 195 0
169 195 0
170 195 0
170 196 0
169 195 0
169 195 0
168 195 0
169 195 0
171 196 0
169 195 0
168 195 0
170 195 0
169 195 0
169 195 0
169 195 0
170 196 0
169 195 0
169 195 0
169 195 0
169 195 0
171 196 0
170 196 0
169 195 0
169 195 0
169 195 0
169 195 0
167 194 0
169 195 0
170 195 0
169 195 0
170 195 0
169 195 0
169 195 0
169 195 0
169 195 0
170 196 0
169 195 0
168 194 0
170 196 0
170 195 0
169 195 0
169 195 0
169 195 0
170 195 0
171 196 0
170 195 0
169 195 0
169 195 0
171 196 0
169 195 0
170 195 0
170 195 0
168 195 0
170 195 0
169 195 0
169 195 0
169 195 0
170 196 0
169 195 0
170 195 0
170 195 0
169 195 0
169 195 0
169 195 0
169 195 0
170 195 0
169 195 0
168 195 0
170 196 0
169 195 0
170 195 0
169 195 0
170 195 0
168 195 0
169 195 0
169 195 0
170 195 0
170 195 0
169 195 0
168 195 0
169 195 0
170 195 0
169 195 0
170 195 0
169 195 0
170 196 0
170 196 0
171 196 0
169 195 0
169 195 0
169 195 0
170 195 0
169 195 0
169 195 0
170 195 0
170 195 0
169 195 0
169 195 0
168 195 0
169 195 0
169 195 0
169 195 0
169 195 0
170 195 0
170 195 0
170 195 0
170 195 0
170 195 0
169 195 0
169 195 0
170 195 0
170 195 0
169 195 0
170 195 0
169 195 0
171 196 0
169 195 0
170 195 0
169 195 0
168 195 0
169 195 0
169 195 0
169 195 0
169 195 0
170 195 0
168 195 0
170 196 0
170 195 0
169 195 0
170 195 0
169 195 0
169 195 0
170 196 0
168 194 0
168 194 0
170 195 0
168 194 0
168 194 0
168 194 0
168 194 0
169 195 0
170 195 0
166 192 0
167 193 18
165 190 67
167 191 72
173 197 88
179 202 114
176 199 102
172 195 72
175 199 105
166 190 84
160 184 67
158 182 67
163 186 84
146 170 44
157 182 57
144 168 0
141 164 0
129 152 0
129 153 0
137 161 0
130 154 0
131 154 0
130 154 0
145 169 0
146 172 0
149 173 0
155 180 0
158 183 0
155 179 0
156 181 0
161 186 0
159 184 0
164 189 0
167 193 0
160 185 0
167 193 0
165 190 0
168 193 0
169 195 0
167 193 0
168 193 0
169 194 0
168 194 0
168 194 0
169 195 0
168 194 0
170 195 0
168 194 0
169 195 0
170 196 0
169 195 0
169 195 0
168 194 0
170 195 0
169 194 0
169 195 0
170 195 0
169 195 0
167 194 0
169 195 0
169 195 0
170 196 0
169 195 0
169 195 0
169 195 0
170 196 0
169 195 0
169 195 0
169 195 0
168 194 0
168 195 0
170 195 0
169 195 0
170 195 0
170 195 0
168 195 0
169 195 0
169 195 0
169 195 0
168 195 0
170 196 0
169 195 0
170 195 0
170 195 0
169 195 0
170 195 0
170 195 0
169 195 0
169 195 0
170 195 0
170 196 0
169 195 0
171 196 0
170 195 0
170 195 0
169 195 0
169 195 0
170 195 0
169 195 0
170 196 0
169 195 0
169 195 0
169 195 0
170 195 0
169 195 0
170 195 0
168 195 0
169 195 0
169 195 0
169 195 0
169 195 0
170 196 0
169 195 0
170 195 0
170 195 0
169 195 0
170 195 0
168 194 0
169 195 0
170 196 0
170 196 0
169 195 0
170 195 0
168 194 0
169 195 0
169 195 0
169 195 0
169 195 0
168 195 0
170 195 0
169 195 0
169 195 0
169 195 0
168 194 0
170 195 0
169 195 0
169 195 0
170 195 0
169 195 0
169 195 0
170 195 0
171 196 0
169 195 0
171 196 0
170 196 0
170 195 0
169 195 0
169 195 0
170 195 0
169 195 0
169 195 0
170 195 0
169 195 0
169 195 0
171 196 0
169 195 0
170 196 0
170 196 0
169 195 0
169 195 0
169 195 0
169 195 0
169 195 0
169 195 0
169 195 0
169 195 0
169 195 0
169 195 0
169 195 0
169 195 0
170 195 0
170 195 0
169 195 0
170 195 0
169 195 0
169 195 0
169 195 0
170 195 0
169 195 0
170 196 0
169 195 0
170 195 0
169 195 0
169 194 0
169 195 0
169 195 0
169 195 0
170 195 0
169 195 0
169 195 0
168 194 0
167 194 0
169 194 0
169 195 0
168 194 0
168 194 0
169 194 0
168 194 0
170 195 0
170 195 0
169 195 0
168 194 25
167 193 18
162 187 36
169 194 47
172 196 78
171 195 80
168 192 62
165 191 62
167 191 62
165 189 62
163 187 44
161 184 76
158 182 25
157 182 0
146 170 0
147 172 0
144 168 0
147 172 0
153 178 0
144 169 0
146 170 0
152 177 0
157 182 0
155 181 0
154 179 0
160 186 0
158 183 0
166 192 0
164 189 0
161 187 0
165 191 0
165 191 0
164 190 0
166 192 0
166 192 0
167 193 0
166 191 0
167 193 0
167 193 0
170 194 0
167 192 0
169 195 0
167 192 0
170 195 0
169 195 0
168 194 0
169 195 0
169 195 0
169 195 0
168 194 0
170 195 0
168 194 0
169 195 0
169 195 0
169 195 0
170 195 0
168 195 0
170 195 0
168 195 0
170 195 0
168 195 0
169 195 0
169 195 0
168 195 0
170 195 0
169 195 0
170 196 0
169 195 0
170 196 0
170 195 0
169 195 0
169 195 0
168 195 0
169 195 0
169 195 0
169 195 0
170 195 0
169 195 0
169 195 0
169 195 0
171 196 0
169 195 0
170 196 0
170 195 0
170 195 0
169 195 0
169 195 0
168 195 0
169 195 0
170 195 0
170 196 0
170 195 0
168 195 0
169 195 0
170 195 0
169 195 0
171 196 0
171 196 0
169 194 0
169 195 0
169 195 0
169 195 0
169 195 0
170 195 0
170 195 0
171 196 0
170 196 0
170 195 0
170 195 0
169 195 0
168 195 0
169 195 0
170 196 0
170 195 0
169 195 0
169 195 0
168 195 0
169 195 0
170 196 0
170 195 0
169 195 0
170 196 0
170 196 0
169 195 0
170 195 0
169 195 0
169 195 0
170 195 0
169 195 0
169 195 0
170 195 0
170 195 0
169 195 0
169 195 0
169 195 0
169 195 0
170 196 0
169 195 0
169 195 0
170 196 0
169 195 0
170 195 0
169 195 0
169 195 0
170 195 0
170 195 0
169 195 0
169 195 0
170 195 0
170 195 0
170 195 0
169 195 0
169 195 0
170 195 0
169 195 0
170 195 0
169 195 0
169 195 0
171 196 0
169 195 0
170 195 0
169 195 0
169 195 0
169 195 0
168 195 0
168 195 0
169 195 0
168 194 0
170 195 0
169 195 0
169 195 0
168 195 0
169 195 0
170 195 0
169 195 0
170 195 0
169 195 0
168 194 0
170 195 0
169 195 0
169 195 0
168 195 0
169 195 0
168 194 0
169 195 0
170 195 0
168 195 0
169 195 0
169 195 0
170 196 0
169 195 0
168 195 0
168 194 0
171 196 0
169 195 0
167 193 0
168 194 0
168 194 0
166 192 0
168 194 0
171 196 25
165 190 0
174 198 74
167 192 62
170 194 57
167 191 67
162 187 51
171 196 80
165 190 76
167 191 80
165 190 57
163 187 57
165 190 25
162 188 0
160 185 0
157 181 0
149 173 0
154 180 0
161 186 0
156 180 0
152 178 0
152 176 0
155 180 0
159 184 0
162 188 0
156 180 0
154 179 0
164 190 0
158 183 0
161 186 0
163 188 0
163 188 0
165 191 0
165 191 0
165 192 0
167 193 0
168 193 0
167 193 0
169 194 0
166 192 0
167 193 0
169 194 0
169 195 0
166 192 0
167 193 0
169 195 0
168 194 0
170 195 0
169 195 0
169 195 0
169 195 0
168 194 0
168 194 0
170 195 0
170 196 0
170 194 0
170 195 0
170 195 0
171 196 0
169 195 0
169 195 0
169 195 0
169 195 0
169 195 0
169 195 0
169 195 0
169 194 0
169 195 0
170 196 0
169 195 0
170 195 0
170 195 0
171 196 0
169 195 0
169 195 0
169 195 0
170 195 0
170 196 0
169 195 0
170 196 0
169 195 0
169 195 0
169 195 0
169 195 0
169 195 0
170 196 0
169 195 0
170 195 0
169 195 0
171 196 0
169 195 0
169 195 0
170 195 0
170 195 0
170 195 0
168 195 0
169 195 0
170 195 0
169 195 0
169 195 0
169 195 0
171 196 0
168 195 0
170 196 0
169 195 0
169 195 0
170 196 0
169 195 0
169 195 0
169 195 0
169 195 0
169 195 0
170 195 0
170 196 0
170 196 0
169 195 0
170 196 0
169 195 0
170 196 0
169 195 0
169 195 0
169 195 0
170 195 0
169 195 0
169 195 0
170 196 0
169 195 0
169 195 0
170 195 0
169 195 0
168 195 0
169 195 0
169 195 0
170 195 0
170 195 0
169 195 0
169 195 0
169 195 0
169 195 0
170 195 0
169 195 0
169 195 0
169 195 0
168 195 0
169 195 0
169 195 0
168 195 0
169 195 0
169 195 0
169 195 0
170 195 0
169 195 0
170 195 0
170 195 0
169 195 0
169 195 0
169 195 0
170 195 0
170 195 0
169 195 0
169 195 0
168 195 0
170 195 0
170 196 0
169 195 0
170 195 0
170 195 0
169 195 0
168 194 0
169 195 0
169 195 0
171 196 0
170 195 0
171 196 0
170 195 0
170 196 0
170 196 0
168 194 0
170 195 0
169 195 0
170 195 0
170 195 0
170 195 0
170 195 0
169 195 0
169 195 0
169 195 0
168 195 0
169 195 0
168 195 0
169 195 0
169 195 0
169 195 0
169 195 0
170 195 0
167 193 0
170 195 0
169 195 0
169 195 0
165 191 0
170 195 0
168 194 0
171 195 25
172 196 47
175 199 80
172 195 99
172 196 62
164 189 57
172 195 80
168 192 57
166 190 36
165 190 25
161 186 0
167 191 0
158 182 0
161 186 0
162 187 0
151 177 0
158 184 0
157 182 0
158 183 0
156 182 0
157 183 0
157 181 0
160 186 0
163 189 0
162 187 0
162 188 0
163 189 0
163 189 0
163 189 0
169 194 0
167 193 0
167 193 0
165 191 0
165 191 0
167 192 0
169 195 0
169 195 0
167 193 0
169 195 0
169 194 0
169 195 0
169 194 0
169 195 0
169 194 0
170 196 0
169 195 0
169 195 0
169 195 0
169 195 0
169 195 0
170 195 0
169 195 0
169 195 0
169 195 0
169 195 0
170 195 0
169 195 0
170 196 0
169 195 0
170 195 0
170 195 0
168 195 0
168 195 0
170 195 0
169 195 0
169 195 0
168 194 0
170 195 0
169 195 0
169 194 0
169 195 0
168 194 0
169 195 0
169 195 0
170 195 0
170 196 0
170 195 0
170 195 0
170 195 0
171 196 0
169 195 0
169 195 0
169 195 0
168 194 0
169 195 0
168 195 0
169 195 0
170 195 0
168 195 0
169 195 0
169 195 0
171 196 0
170 195 0
169 195 0
170 196 0
168 195 0
169 195 0
170 195 0
169 195 0
170 195 0
169 195 0
170 195 0
171 196 0
169 195 0
170 196 0
169 195 0
168 195 0
168 195 0
168 195 0
169 195 0
169 195 0
170 196 0
170 195 0
170 195 0
170 195 0
169 195 0
171 196 0
170 195 0
170 195 0
169 195 0
169 195 0
169 195 0
169 195 0
170 195 0
171 196 0
169 195 0
171 196 0
170 196 0
168 194 0
170 195 0
169 195 0
168 195 0
168 194 0
169 195 0
169 195 0
169 195 0
169 195 0
170 195 0
170 195 0
169 195 0
168 195 0
169 195 0
170 195 0
169 195 0
169 195 0
169 195 0
170 195 0
169 195 0
169 195 0
169 195 0
169 195 0
170 195 0
170 195 0
170 195 0
169 195 0
170 196 0
169 195 0
172 196 0
169 195 0
169 195 0
169 195 0
168 194 0
169 195 0
169 195 0
168 195 0
169 195 0
169 195 0
168 194 0
169 195 0
168 195 0
170 195 0
169 195 0
169 195 0
170 195 0
169 195 0
169 195 0
169 195 0
169 195 0
168 195 0
170 195 0
170 195 0
170 195 0
168 195 0
169 195 0
168 195 0
169 195 0
168 195 0
169 195 0
170 195 0
168 194 0
169 195 0
169 194 0
169 195 0
171 196 0
167 194 0
169 195 0
172 196 0
166 191 0
168 193 0
170 195 0
170 195 36
169 194 36
170 194 44
168 193 25
169 194 44
167 191 36
168 192 57
169 194 25
162 187 0
166 191 0
165 190 0
167 192 0
163 188 0
160 185 0
162 188 0
158 183 0
156 182 0
162 187 0
157 183 0
166 191 0
158 184 0
158 184 0
165 191 0
160 186 0
163 189 0
164 190 0
166 192 0
165 191 0
166 191 0
165 191 0
165 191 0
167 193 0
168 193 0
165 191 0
168 194 0
169 195 0
167 193 0
168 195 0
168 194 0
168 194 0
167 193 0
169 195 0
166 191 0
169 195 0
168 193 0
170 195 0
170 196 0
169 195 0
168 194 0
169 195 0
169 195 0
169 195 0
169 195 0
169 195 0
169 195 0
170 195 0
170 196 0
170 196 0
169 195 0
170 195 0
170 195 0
168 195 0
169 195 0
170 196 0
169 195 0
170 195 0
170 195 0
169 195 0
169 195 0
169 195 0
170 196 0
171 196 0
169 195 0
169 195 0
168 194 0
170 195 0
169 195 0
169 195 0
169 195 0
169 195 0
168 195 0
170 195 0
169 195 0
170 195 0
169 195 0
170 196 0
169 195 0
170 196 0
168 195 0
170 196 0
169 195 0
170 195 0
169 195 0
168 195 0
170 196 0
168 195 0
170 196 0
170 195 0
169 195 0
170 196 0
169 195 0
169 195 0
170 195 0
169 195 0
169 195 0
170 195 0
171 196 0
170 195 0
169 195 0
168 194 0
168 194 0
170 196 0
170 195 0
169 195 0
170 195 0
169 195 0
169 195 0
169 195 0
170 195 0
168 195 0
169 195 0
170 195 0
168 194 0
169 195 0
169 195 0
170 196 0
170 195 0
170 195 0
169 195 0
169 195 0
169 195 0
170 195 0
170 195 0
170 196 0
170 195 0
168 195 0
169 195 0
169 195 0
169 195 0
170 195 0
170 195 0
169 195 0
169 195 0
170 195 0
170 196 0
170 196 0
169 195 0
169 195 0
169 195 0
170 195 0
168 194 0
169 195 0
170 195 0
169 195 0
169 195 0
170 195 0
169 195 0
170 196 0
170 196 0
170 196 0
170 195 0
169 195 0
169 195 0
169 195 0
169 195 0
170 196 0
169 195 0
170 195 0
170 196 0
169 195 0
171 196 0
170 196 0
169 195 0
169 195 0
169 195 0
169 195 0
170 196 0
170 195 0
170 196 0
170 195 0
169 195 0
169 195 0
169 195 0
170 196 0
169 195 0
168 194 0
170 195 0
169 194 0
169 195 0
169 194 0
169 195 0
169 195 0
169 195 0
169 195 0
167 192 0
169 194 0
170 195 0
169 195 0
170 195 0
167 192 0
169 194 0
169 194 0
169 194 0
169 193 0
171 195 0
170 195 0
164 188 0
164 189 0
169 193 0
166 191 0
164 189 0
162 187 0
167 192 0
160 185 0
161 187 0
165 191 0
161 186 0
160 186 0
163 189 0
163 188 0
161 187 0
165 190 0
165 191 0
163 189 0
165 191 0
163 189 0
166 192 0
167 193 0
167 193 0
167 194 0
166 191 0
169 194 0
169 194 0
168 194 0
167 193 0
168 193 0
169 194 0
168 193 0
168 194 0
169 194 0
169 195 0
168 194 0
169 195 0
168 194 0
171 196 0
168 195 0
170 195 0
169 195 0
168 195 0
169 195 0
169 195 0
168 194 0
170 195 0
168 195 0
170 195 0
169 195 0
170 195 0
170 195 0
169 195 0
168 195 0
170 196 0
170 196 0
169 195 0
169 195 0
169 195 0
169 195 0
170 195 0
169 195 0
170 195 0
170 195 0
170 195 0
169 195 0
170 195 0
169 195 0
170 196 0
171 196 0
170 195 0
170 195 0
169 195 0
170 195 0
169 195 0
170 195 0
169 195 0
170 195 0
169 195 0
170 195 0
169 195 0
169 195 0
169 195 0
171 196 0
170 195 0
169 195 0
169 195 0
169 195 0
169 195 0
170 195 0
168 195 0
167 194 0
169 195 0
170 196 0
170 195 0
170 195 0
169 195 0
169 195 0
169 195 0
169 195 0
170 195 0
169 195 0
170 196 0
170 195 0
170 195 0
170 195 0
169 195 0
170 195 0
169 195 0
170 195 0
170 195 0
168 195 0
170 195 0
168 195 0
170 195 0
169 195 0
169 195 0
170 195 0
169 195 0
169 195 0
169 195 0
170 196 0
170 196 0
169 195 0
169 195 0
170 195 0
169 195 0
170 195 0
170 195 0
168 194 0
170 195 0
170 195 0
170 196 0
170 195 0
169 195 0
170 196 0
170 195 0
170 195 0
170 195 0
170 196 0
170 195 0
171 196 0
170 196 0
170 195 0
170 195 0
170 195 0
169 195 0
169 195 0
169 195 0
169 195 0
169 195 0
169 195 0
169 195 0
169 195 0
169 195 0
170 196 0
169 195 0
168 195 0
169 195 0
169 195 0
170 195 0
169 195 0
168 195 0
170 196 0
169 195 0
170 195 0
170 196 0
170 196 0
170 195 0
169 195 0
170 195 0
169 195 0
169 195 0
170 196 0
169 195 0
168 195 0
169 195 0
169 195 0
168 195 0
168 194 0
169 195 0
170 195 0
171 196 0
168 195 0
167 193 0
169 195 0
170 195 0
168 194 0
169 194 0
169 195 0
168 194 0
170 195 0
170 195 0
169 195 0
170 195 0
172 196 0
171 195 0
172 196 0
168 193 0
168 193 0
169 193 0
168 191 0
166 191 0
165 190 0
163 188 0
166 191 0
167 192 0
166 192 0
163 188 0
164 190 0
161 186 0
165 190 0
166 191 0
167 193 0
164 190 0
164 191 0
163 189 0
168 194 0
166 192 0
167 193 0
167 194 0
167 193 0
167 193 0
167 193 0
164 190 0
168 193 0
169 195 0
168 194 0
169 194 0
169 195 0
168 194 0
169 195 0
168 194 0
169 195 0
168 194 0
169 195 0
169 195 0
167 193 0
169 195 0
169 195 0
170 195 0
171 196 0
169 194 0
167 194 0
168 194 0
168 194 0
169 195 0
169 195 0
168 195 0
169 195 0
170 195 0
170 195 0
169 195 0
170 195 0
168 194 0
169 195 0
169 195 0
169 195 0
170 195 0
168 194 0
170 195 0
170 195 0
170 195 0
170 196 0
170 195 0
170 196 0
169 195 0
169 195 0
171 196 0
170 195 0
169 195 0
170 195 0
170 195 0
169 195 0
169 195 0
168 195 0
169 195 0
170 195 0
169 195 0
170 195 0
169 195 0
169 195 0
170 196 0
169 195 0
169 195 0
170 196 0
168 195 0
169 195 0
170 196 0
170 196 0
169 195 0
170 195 0
169 195 0
169 195 0
169 195 0
169 195 0
169 195 0
169 195 0
170 195 0
169 195 0
169 195 0
168 194 0
169 195 0
168 194 0
170 196 0
170 196 0
169 195 0
169 195 0
170 195 0
170 195 0
170 196 0
169 195 0
170 195 0
169 195 0
169 195 0
168 195 0
169 195 0
170 196 0
169 195 0
170 195 0
168 195 0
169 195 0
171 196 0
169 195 0
169 195 0
170 195 0
170 195 0
170 195 0
170 196 0
169 195 0
169 195 0
170 195 0
170 196 0
168 195 0
169 195 0
169 195 0
169 195 0
169 195 0
169 195 0
170 195 0
168 195 0
169 195 0
170 195 0
169 195 0
171 196 0
169 195 0
170 196 0
170 195 0
169 195 0
170 195 0
169 195 0
169 195 0
170 196 0
170 195 0
169 195 0
170 195 0
170 195 0
170 195 0
170 196 0
169 195 0
169 195 0
169 195 0
169 195 0
170 195 0
169 195 0
170 195 0
170 195 0
169 195 0
169 195 0
169 195 0
170 195 0
170 195 0
169 195 0
170 195 0
169 195 0
170 196 0
169 195 0
170 196 0
169 195 0
168 194 0
169 195 0
169 195 0
169 195 0
170 195 0
169 195 0
170 196 0
170 195 0
169 195 0
169 195 0
169 195 0
167 193 0
170 195 0
169 194 0
170 195 0
171 195 0
171 196 0
170 194 0
169 193 0
170 194 0
170 194 0
169 193 0
170 193 0
166 191 0
167 193 0
167 191 0
166 192 0
162 187 0
166 191 0
166 192 0
164 190 0
163 188 0
163 189 0
163 189 0
164 191 0
166 192 0
163 189 0
166 192 0
167 193 0
168 195 0
167 192 0
166 192 0
163 189 0
170 196 0
168 194 0
168 194 0
168 194 0
169 195 0
168 194 0
168 194 0
169 194 0
169 194 0
170 195 0
168 194 0
168 194 0
169 195 0
167 193 0
170 195 0
168 193 0
170 195 0
169 195 0
169 195 0
170 196 0
169 195 0
169 195 0
168 193 0
169 195 0
168 194 0
169 195 0
170 195 0
170 195 0
169 195 0
169 195 0
169 195 0
169 195 0
170 195 0
169 194 0
170 195 0
168 194 0
168 194 0
170 196 0
168 194 0
169 195 0
169 195 0
169 195 0
169 195 0
170 195 0
170 195 0
170 196 0
170 195 0
169 195 0
169 195 0
169 195 0
169 195 0
168 195 0
169 195 0
171 196 0
169 194 0
169 195 0
169 195 0
171 196 0
169 195 0
170 195 0
169 195 0
170 195 0
169 195 0
169 195 0
169 195 0
170 195 0
168 194 0
167 194 0
169 195 0
170 196 0
170 196 0
169 195 0
169 195 0
170 196 0
170 196 0
169 195 0
169 195 0
169 195 0
170 195 0
169 195 0
170 196 0
169 195 0
170 195 0
170 196 0
168 195 0
169 195 0
169 195 0
169 195 0
169 195 0
169 195 0
169 195 0
170 195 0
169 195 0
170 195 0
170 195 0
169 195 0
169 195 0
168 195 0
169 195 0
170 195 0
170 195 0
169 195 0
169 195 0
169 195 0
170 195 0
169 195 0
169 195 0
170 195 0
171 196 0
170 195 0
170 195 0
168 195 0
169 195 0
170 195 0
169 195 0
170 195 0
169 195 0
170 196 0
169 195 0
169 195 0
170 196 0
170 195 0
170 195 0
170 195 0
169 195 0
170 196 0
169 195 0
169 195 0
170 195 0
170 196 0
170 195 0
169 195 0
170 195 0
169 195 0
170 195 0
171 196 0
170 196 0
169 195 0
169 195 0
169 195 0
170 195 0
169 195 0
169 195 0
169 195 0
169 195 0
170 196 0
169 195 0
170 196 0
169 195 0
169 195 0
168 195 0
170 195 0
169 195 0
169 195 0
170 195 0
169 195 0
169 195 0
170 195 0
168 194 0
168 195 0
169 195 0
169 195 0
169 195 0
169 195 0
169 195 0
168 194 0
170 195 0
168 194 0
170 196 0
169 195 0
168 194 0
168 194 0
169 194 0
168 194 0
170 195 0
169 194 0
169 194 0
172 196 0
167 192 0
167 193 0
169 194 0
168 194 0
167 192 0
165 191 0
166 192 0
167 192 0
165 191 0
168 193 0
170 195 0
164 190 0
168 193 0
166 192 0
167 193 0
164 189 0
164 190 0
167 193 0
167 192 0
168 194 0
167 193 0
164 191 0
167 192 0
168 194 0
169 194 0
168 194 0
169 194 0
167 192 0
168 194 0
168 194 0
169 195 0
169 194 0
170 195 0
168 194 0
168 195 0
168 194 0
168 194 0
167 194 0
169 195 0
169 195 0
169 195 0
168 194 0
169 194 0
169 195 0
169 195 0
170 195 0
169 195 0
170 195 0
169 195 0
170 195 0
169 195 0
169 195 0
168 195 0
169 195 0
169 195 0
168 194 0
169 195 0
169 195 0
168 195 0
169 195 0
169 195 0
169 195 0
168 194 0
169 195 0
170 196 0
169 195 0
169 195 0
169 195 0
168 195 0
169 195 0
169 195 0
170 195 0
169 195 0
170 195 0
170 195 0
169 195 0
168 195 0
170 196 0
170 195 0
170 195 0
170 196 0
170 195 0
170 195 0
169 195 0
169 195 0
170 196 0
169 195 0
170 195 0
170 195 0
168 194 0
170 195 0
169 195 0
169 195 0
169 195 0
169 195 0
169 195 0
170 196 0
168 194 0
169 195 0
169 195 0
170 195 0
169 195 0
169 195 0
169 195 0
170 195 0
169 195 0
170 195 0
170 195 0
169 195 0
169 195 0
170 196 0
170 195 0
170 195 0
170 195 0
169 195 0
170 196 0
170 195 0
168 194 0
170 195 0
169 195 0
170 195 0
169 195 0
168 195 0
170 195 0
170 195 0
169 195 0
169 195 0
169 195 0
170 195 0
170 195 0
169 195 0
169 195 0
170 196 0
168 195 0
169 195 0
169 195 0
168 195 0
168 195 0
170 195 0
169 195 0
170 195 0
169 195 0
169 195 0
169 195 0
169 195 0
169 195 0
169 195 0
169 195 0
170 195 0
168 195 0
170 195 0
169 195 0
171 196 0
170 195 0
170 196 0
169 195 0
169 195 0
171 196 0
169 195 0
169 195 0
170 195 0
170 195 0
170 195 0
169 195 0
170 196 0
170 195 0
168 194 0
168 194 0
169 195 0
169 195 0
168 195 0
170 195 0
168 194 0
169 195 0
169 195 0
169 195 0
169 195 0
169 195 0
169 194 0
168 194 0
170 195 0
169 195 0
168 194 0
169 195 0
168 194 0
168 195 0
167 194 0
168 194 0
169 195 0
169 194 0
167 193 0
169 195 0
169 194 0
168 193 0
168 194 0
169 194 0
172 196 0
170 195 0
170 195 0
170 195 0
167 192 0
170 195 0
170 195 0
169 194 0
166 191 0
168 193 0
167 193 0
166 192 0
166 192 0
168 194 0
166 191 0
166 192 0
165 191 0
168 194 0
166 192 0
166 192 0
166 192 0
168 194 0
168 193 0
167 193 0
168 194 0
166 192 0
169 194 0
166 192 0
169 195 0
167 193 0
168 194 0
167 193 0
168 194 0
169 195 0
170 195 0
169 195 0
168 194 0
170 196 0
169 195 0
169 195 0
169 195 0
169 194 0
170 195 0
169 194 0
170 195 0
169 195 0
169 195 0
169 195 0
169 195 0
169 195 0
170 195 0
168 194 0
169 195 0
168 194 0
168 194 0
169 195 0
169 195 0
169 195 0
170 195 0
170 196 0
169 195 0
169 195 0
168 195 0
171 196 0
169 195 0
170 195 0
169 195 0
169 195 0
169 195 0
169 195 0
169 195 0
169 195 0
169 195 0
170 195 0
169 195 0
169 195 0
168 194 0
169 195 0
169 195 0
168 195 0
170 196 0
169 195 0
169 195 0
169 195 0
170 195 0
169 195 0
169 195 0
169 195 0
169 195 0
169 195 0
169 195 0
170 195 0
169 195 0
169 195 0
170 195 0
170 195 0
169 195 0
168 195 0
170 196 0
169 195 0
169 195 0
170 196 0
169 195 0
169 195 0
169 195 0
170 196 0
171 196 0
169 195 0
169 195 0
170 196 0
169 195 0
169 195 0
169 195 0
170 196 0
170 196 0
170 195 0
170 195 0
169 195 0
170 196 0
169 195 0
169 195 0
169 195 0
170 195 0
170 195 0
169 195 0
169 195 0
170 196 0
169 195 0
169 195 0
170 196 0
169 195 0
170 196 0
169 195 0
169 195 0
170 195 0
170 195 0
170 195 0
169 195 0
169 195 0
169 195 0
169 195 0
169 195 0
170 195 0
170 196 0
169 195 0
170 195 0
169 195 0
170 195 0
169 195 0
171 196 0
170 195 0
170 195 0
170 196 0
169 195 0
169 195 0
169 195 0
169 195 0
170 195 0
169 195 0
169 195 0
169 195 0
169 195 0
169 195 0
169 195 0
168 195 0
170 195 0
170 196 0
170 196 0
169 195 0
169 195 0
170 195 0
169 195 0
168 195 0
170 195 0
169 195 0
169 195 0
169 195 0
169 195 0
168 195 0
170 195 0
169 195 0
167 194 0
170 195 0
170 196 0
170 196 0
169 195 0
170 195 0
168 194 0
169 195 0
170 196 0
168 194 0
169 195 0
169 195 0
168 194 0
168 194 0
169 194 0
169 194 0
168 193 0
169 195 0
170 195 0
168 194 0
169 195 0
168 193 0
168 194 0
170 195 0
168 194 0
169 195 0
167 193 0
168 194 0
168 194 0
167 194 0
166 192 0
169 194 0
169 195 0
168 194 0
166 192 0
167 193 0
169 194 0
167 193 0
168 194 0
166 191 0
167 193 0
166 191 0
168 194 0
168 193 0
167 193 0
168 194 0
169 195 0
166 192 0
169 195 0
169 194 0
168 194 0
167 193 0
168 194 0
170 195 0
168 194 0
168 194 0
170 195 0
169 195 0
168 194 0
168 195 0
167 194 0
169 195 0
168 195 0
169 195 0
168 194 0
169 195 0
168 195 0
169 195 0
170 196 0
170 195 0
169 195 0
169 195 0
169 195 0
169 195 0
169 195 0
170 195 0
170 195 0
170 195 0
170 196 0
169 195 0
169 195 0
168 195 0
170 195 0
169 195 0
169 195 0
170 195 0
170 195 0
170 195 0
171 196 0
170 196 0
171 196 0
169 195 0
169 195 0
169 195 0
170 195 0
170 196 0
169 195 0
169 194 0
170 196 0
169 195 0
170 195 0
170 196 0
169 195 0
169 195 0
169 195 0
168 194 0
169 195 0
169 195 0
168 194 0
169 195 0
169 195 0
169 195 0
168 195 0
169 195 0
170 196 0
170 195 0
169 195 0
169 195 0
170 196 0
170 195 0
170 195 0
170 196 0
169 195 0
169 195 0
169 195 0
169 195 0
171 196 0
171 196 0
171 196 0
169 195 0
168 195 0
170 195 0
170 195 0
170 195 0
168 194 0
168 195 0
169 195 0
170 195 0
170 195 0
168 195 0
169 195 0
169 195 0
169 195 0
170 195 0
169 195 0
169 195 0
169 195 0
169 195 0
169 195 0
170 195 0
171 196 0
169 195 0
169 195 0
170 195 0
168 195 0
171 196 0
168 195 0
169 195 0
171 196 0
168 195 0
169 195 0
169 195 0
170 196 0
170 195 0
169 195 0
170 195 0
169 195 0
169 195 0
170 195 0
169 195 0
169 195 0
169 195 0
170 195 0
169 194 0
170 196 0
169 195 0
170 195 0
169 195 0
169 195 0
168 194 0
169 195 0
169 195 0
169 195 0
170 195 0
169 195 0
170 195 0
170 195 0
168 195 0
169 195 0
169 195 0
170 195 0
169 195 0
170 195 0
169 195 0
169 195 0
169 195 0
169 195 0
169 195 0
169 195 0
169 195 0
170 195 0
169 195 0
169 195 0
168 194 0
167 194 0
167 192 0
169 195 0
169 195 0
169 195 0
168 194 0
168 194 0
170 195 0
168 193 0
169 195 0
169 195 0
167 193 0
170 195 0
170 195 0
169 194 0
168 195 0
169 195 0
170 195 0
168 192 0
169 194 0
170 195 0
170 196 0
168 193 0
169 195 0
167 193 0
168 193 0
167 193 0
169 195 0
167 193 0
164 190 0
168 194 0
169 194 0
169 195 0
168 194 0
168 194 0
169 195 0
167 194 0
168 194 0
168 194 0
168 194 0
169 195 0
169 195 0
169 194 0
168 194 0
168 193 0
169 195 0
170 195 0
168 194 0
169 195 0
168 195 0
168 194 0
169 195 0
169 195 0
168 194 0
168 194 0
170 195 0
169 195 0
169 195 0
167 193 0
170 195 0
169 195 0
170 195 0
169 195 0
169 195 0
169 195 0
169 195 0
169 195 0
169 195 0
169 195 0
169 195 0
169 195 0
169 195 0
169 195 0
170 195 0
169 195 0
168 195 0
170 195 0
170 195 0
169 195 0
169 194 0
169 195 0
169 195 0
169 195 0
169 195 0
169 195 0
170 195 0
170 196 0
168 195 0
168 195 0
169 195 0
169 195 0
170 195 0
170 195 0
169 195 0
169 195 0
170 195 0
169 195 0
170 195 0
168 195 0
170 195 0
169 195 0
171 196 0
169 195 0
170 195 0
170 196 0
170 195 0
170 195 0
170 196 0
169 195 0
169 195 0
169 195 0
169 195 0
169 195 0
169 195 0
170 195 0
169 195 0
169 195 0
169 195 0
170 195 0
168 195 0
171 196 0
169 195 0
169 195 0
169 195 0
171 196 0
169 195 0
169 195 0
169 195 0
170 195 0
168 194 0
168 195 0
169 195 0
169 195 0
169 195 0
169 195 0
169 195 0
168 194 0
170 196 0
169 195 0
168 194 0
168 195 0
170 196 0
170 196 0
170 195 0
170 195 0
169 195 0
170 195 0
168 195 0
170 195 0
170 196 0
169 195 0
169 195 0
169 195 0
170 195 0
169 195 0
170 195 0
169 195 0
169 195 0
169 195 0
169 195 0
169 195 0
168 194 0
170 196 0
170 195 0
169 195 0
168 195 0
169 195 0
169 195 0
170 195 0
169 195 0
169 195 0
169 195 0
169 195 0
170 196 0
171 196 0
169 195 0
169 195 0
169 195 0
169 195 0
170 195 0
170 195 0
170 195 0
170 196 0
169 195 0
169 195 0
169 195 0
169 195 0
169 195 0
170 195 0
169 195 0
168 195 0
169 195 0
170 195 0
170 195 0
169 195 0
168 194 0
169 195 0
169 195 0
169 195 0
169 195 0
169 195 0
169 195 0
170 195 0
168 195 0
170 195 0
169 195 0
169 195 0
170 196 0
170 195 0
168 194 0
169 195 0
169 195 0
168 195 0
169 195 0
170 195 0
170 195 0
169 194 0
168 194 0
169 195 0
170 195 0
169 195 0
166 192 0
167 193 0
167 193 0
169 195 0
165 192 0
167 194 0
168 194 0
168 194 0
169 195 0
167 193 0
168 193 0
167 193 0
168 194 0
168 194 0
169 194 0
168 194 0
168 194 0
167 193 0
169 195 0
169 194 0
169 195 0
169 195 0
169 195 0
167 193 0
168 193 0
167 193 0
169 195 0
168 194 0
170 195 0
171 196 0
169 194 0
169 195 0
170 195 0
167 193 0
170 196 0
170 195 0
170 195 0
169 194 0
168 195 0
168 194 0
169 195 0
168 194 0
170 195 0
170 195 0
169 195 0
170 195 0
169 195 0
169 195 0
171 196 0
168 194 0
171 196 0
169 195 0
169 195 0
169 195 0
170 196 0
170 195 0
170 195 0
169 195 0
169 195 0
170 195 0
169 195 0
169 195 0
169 195 0
169 195 0
170 195 0
168 194 0
169 195 0
169 195 0
169 195 0
169 195 0
169 195 0
170 195 0
170 196 0
170 195 0
170 196 0
169 195 0
169 195 0
169 195 0
169 195 0
169 195 0
168 195 0
169 195 0
170 195 0
169 195 0
170 195 0
169 195 0
169 195 0
169 195 0
170 196 0
170 195 0
170 195 0
169 195 0
170 196 0
168 194 0
170 195 0
169 195 0
169 195 0
170 195 0
170 196 0
169 195 0
169 195 0
169 195 0
169 195 0
170 195 0
169 195 0
170 195 0
170 195 0
170 195 0
170 195 0
169 195 0
170 195 0
170 195 0
170 195 0
169 195 0
168 194 0
169 195 0
169 195 0
170 196 0
169 195 0
170 195 0
170 195 0
170 196 0
169 195 0
169 195 0
169 195 0
170 195 0
168 195 0
169 195 0
169 195 0
169 195 0
170 196 0
169 194 0
170 195 0
170 195 0
169 195 0
170 196 0
170 196 0
169 195 0
169 195 0
169 195 0
170 195 0
169 195 0
170 195 0
169 195 0
169 195 0
170 195 0
169 195 0
169 195 0
169 195 0
169 195 0
168 194 0
169 195 0
169 195 0
170 196 0
170 196 0
171 196 0
169 195 0
170 196 0
169 195 0
169 195 0
169 195 0
171 196 0
170 195 0
169 195 0
169 195 0
169 195 0
170 195 0
169 195 0
170 195 0
170 195 0
170 195 0
169 195 0
168 195 0
170 195 0
168 194 0
169 195 0
170 195 0
168 195 0
170 196 0
171 196 0
169 194 0
170 196 0
169 194 0
169 195 0
168 195 0
168 194 0
168 194 0
169 194 0
168 195 0
168 194 0
168 194 0
168 193 0
170 195 0
170 195 0
168 194 0
169 195 0
169 195 0
169 194 0
169 195 0
169 195 0
169 194 0
170 195 0
168 194 0
167 193 0
169 195 0
168 194 0
167 193 0
168 194 0
167 193 0
167 193 0
168 194 0
168 194 0
168 193 0
168 194 0
168 194 0
168 195 0
167 192 0
168 194 0
168 194 0
168 195 0
169 195 0
168 194 0
168 194 0
169 195 0
170 195 0
169 195 0
171 196 0
169 194 0
169 194 0
167 193 0
169 195 0
168 195 0
169 195 0
170 196 0
169 194 0
169 195 0
169 194 0
169 195 0
168 195 0
168 194 0
170 195 0
168 194 0
169 195 0
169 195 0
169 195 0
170 195 0
169 195 0
169 195 0
170 196 0
170 195 0
170 196 0
169 195 0
169 195 0
170 196 0
170 195 0
168 195 0
170 195 0
170 195 0
168 195 0
168 194 0
170 195 0
170 195 0
169 195 0
168 195 0
169 195 0
170 195 0
170 195 0
170 195 0
169 195 0
170 195 0
169 195 0
170 196 0
169 195 0
170 195 0
170 195 0
170 195 0
170 195 0
169 195 0
170 195 0
169 195 0
169 195 0
169 195 0
169 195 0
170 196 0
170 196 0
169 195 0
169 195 0
169 195 0
168 194 0
169 195 0
171 196 0
169 195 0
169 195 0
169 195 0
170 195 0
169 195 0
170 195 0
168 195 0
170 196 0
170 195 0
169 195 0
169 195 0
169 195 0
169 195 0
170 196 0
168 195 0
169 195 0
169 195 0
170 196 0
169 195 0
169 195 0
169 195 0
170 195 0
170 196 0
169 195 0
171 196 0
169 195 0
169 195 0
169 195 0
170 195 0
170 196 0
169 195 0
168 195 0
168 194 0
170 195 0
170 195 0
169 195 0
169 195 0
170 196 0
169 195 0
169 195 0
169 195 0
169 195 0
169 195 0
169 195 0
169 195 0
170 195 0
168 195 0
170 195 0
168 195 0
170 195 0
169 195 0
169 195 0
169 195 0
169 195 0
170 195 0
169 195 0
170 195 0
168 194 0
169 195 0
167 194 0
169 195 0
169 195 0
169 195 0
168 194 0
169 195 0
170 195 0
170 196 0
169 195 0
170 195 0
169 195 0
169 195 0
168 195 0
169 195 0
170 195 0
169 195 0
168 194 0
170 196 0
170 195 0
169 195 0
170 196 0
169 195 0
169 195 0
169 195 0
169 195 0
171 196 0
169 195 0
169 195 0
169 194 0
169 195 0
168 194 0
166 193 0
169 194 0
168 195 0
169 194 0
168 194 0
170 195 0
170 195 0
169 194 0
168 194 0
169 195 0
168 194 0
167 193 0
170 195 0
169 195 0
169 195 0
169 194 0
168 194 0
167 193 0
168 194 0
168 194 0
168 194 0
169 194 0
168 194 0
168 194 0
169 195 0
169 194 0
169 195 0
169 195 0
169 195 0
167 193 0
169 195 0
169 194 0
168 194 0
167 193 0
170 195 0
167 193 0
167 193 0
167 193 0
167 193 0
169 195 0
169 195 0
169 194 0
168 194 0
170 195 0
169 195 0
168 194 0
167 194 0
170 195 0
168 194 0
167 193 0
168 195 0
168 195 0
168 194 0
168 194 0
169 195 0
170 195 0
169 195 0
169 194 0
169 195 0
168 195 0
168 194 0
170 196 0
170 195 0
170 195 0
170 195 0
169 195 0
169 195 0
169 195 0
170 195 0
171 196 0
170 195 0
170 196 0
169 195 0
170 195 0
169 195 0
169 195 0
169 195 0
169 195 0
169 195 0
170 196 0
170 196 0
170 196 0
170 195 0
168 195 0
169 195 0
167 194 0
169 195 0
170 195 0
170 195 0
169 195 0
170 195 0
169 195 0
169 195 0
169 195 0
169 195 0
168 194 0
170 196 0
170 196 0
168 195 0
169 195 0
169 195 0
169 195 0
169 195 0
170 195 0
170 195 0
169 195 0
169 195 0
169 195 0
169 195 0
169 195 0
169 195 0
170 196 0
170 196 0
169 195 0
170 195 0
169 195 0
170 196 0
168 194 0
169 195 0
171 196 0
170 195 0
170 195 0
170 195 0
169 195 0
169 195 0
168 195 0
169 195 0
169 195 0
169 195 0
170 195 0
169 195 0
169 195 0
169 195 0
169 195 0
170 195 0
170 195 0
169 195 0
169 195 0
170 195 0
170 195 0
169 195 0
170 196 0
169 195 0
169 195 0
170 195 0
169 195 0
170 196 0
170 195 0
170 196 0
169 195 0
169 195 0
169 195 0
169 195 0
170 196 0
170 195 0
170 195 0
169 195 0
169 195 0
170 195 0
170 195 0
169 195 0
170 195 0
170 196 0
170 195 0
170 195 0
169 195 0
169 195 0
170 195 0
170 195 0
169 195 0
169 195 0
170 195 0
170 195 0
169 195 0
168 195 0
168 195 0
170 195 0
169 195 0
169 194 0
170 195 0
168 195 0
169 195 0
170 195 0
169 195 0
169 195 0
169 195 0
170 195 0
169 195 0
170 195 0
169 195 0
170 195 0
169 195 0
169 195 0
169 195 0
169 195 0
168 194 0
169 195 0
170 195 0
169 195 0
170 195 0
170 196 0
169 195 0
168 194 0
169 195 0
169 195 0
169 195 0
170 195 0
168 194 0
167 193 0
169 195 0
169 195 0
170 195 0
170 195 0
168 194 0
169 195 0
168 194 0
169 195 0
169 195 0
167 193 0
168 194 0
167 194 0
168 194 0
168 194 0
169 195 0
169 195 0
169 194 0
168 195 0
165 191 0
167 193 0
167 194 0
168 194 0
168 194 0
169 195 0
168 194 0
170 195 0
169 195 0
169 195 0
169 195 0
170 195 0
169 195 0
168 194 0
167 193 0
168 194 0
169 195 0
168 193 0
169 195 0
168 194 0
169 195 0
170 196 0
169 195 0
170 195 0
169 195 0
169 195 0
171 196 0
169 195 0
169 195 0
169 194 0
169 195 0
169 195 0
168 195 0
169 195 0
169 195 0
169 195 0
169 195 0
170 195 0
170 195 0
168 195 0
169 195 0
170 195 0
169 195 0
168 194 0
168 194 0
168 195 0
169 195 0
169 195 0
169 195 0
170 196 0
170 195 0
170 195 0
169 195 0
170 195 0
169 195 0
170 195 0
169 195 0
169 195 0
170 195 0
169 195 0
170 196 0
169 195 0
170 195 0
170 195 0
170 196 0
169 195 0
169 195 0
169 195 0
169 195 0
169 195 0
169 195 0
169 195 0
169 195 0
170 195 0
170 195 0
170 195 0
169 195 0
169 195 0
170 195 0
171 196 0
168 194 0
169 195 0
169 195 0
170 196 0
170 195 0
170 195 0
169 195 0
169 195 0
169 195 0
170 195 0
169 195 0
169 195 0
170 195 0
169 195 0
169 195 0
170 195 0
169 195 0
170 195 0
169 195 0
169 195 0
169 195 0
169 195 0
169 195 0
168 194 0
169 195 0
168 195 0
169 195 0
169 195 0
170 196 0
168 195 0
169 195 0
168 195 0
169 195 0
169 195 0
169 195 0
169 195 0
169 195 0
170 195 0
169 195 0
169 195 0
169 195 0
168 194 0
169 195 0
170 196 0
169 195 0
169 195 0
170 196 0
169 195 0
169 195 0
168 194 0
169 195 0
169 195 0
169 195 0
169 195 0
170 195 0
170 195 0
170 196 0
169 195 0
170 195 0
169 195 0
169 195 0
170 195 0
169 195 0
170 195 0
169 195 0
169 195 0
169 195 0
170 195 0
168 195 0
170 196 0
168 195 0
169 195 0
170 195 0
169 195 0
170 196 0
170 196 0
169 195 0
169 195 0
170 195 0
168 194 0
170 195 0
168 194 0
169 195 0
169 195 0
169 195 0
169 195 0
170 195 0
169 194 0
170 195 0
169 195 0
169 195 0
170 196 0
168 194 0
169 195 0
169 194 0
169 195 0
169 195 0
169 195 0
169 195 0
169 195 0
169 195 0
168 194 0
169 195 0
169 195 0
169 195 0
169 195 0
167 193 0
170 195 0
169 195 0
169 195 0
169 195 0
168 194 0
168 194 0
168 194 0
169 195 0
169 195 0
169 195 0
168 194 0
167 193 0
169 195 0
169 195 0
167 193 0
168 194 0
169 195 0
169 195 0
169 195 0
167 193 0
168 194 0
171 196 0
167 193 0
168 194 0
166 193 0
169 194 0
170 195 0
168 194 0
169 195 0
170 195 0
168 195 0
168 195 0
170 195 0
170 195 0
168 194 0
169 195 0
170 195 0
168 194 0
170 195 0
168 195 0
169 195 0
169 195 0
169 195 0
168 195 0
169 195 0
169 195 0
169 195 0
170 195 0
169 195 0
169 195 0
168 194 0
169 195 0
168 194 0
169 195 0
170 195 0
169 195 0
169 195 0
170 195 0
168 194 0
168 194 0
168 194 0
169 195 0
170 195 0
169 195 0
170 195 0
169 195 0
170 195 0
169 195 0
169 195 0
169 195 0
168 195 0
168 194 0
169 195 0
168 195 0
171 196 0
169 195 0
169 195 0
168 195 0
170 196 0
170 195 0
170 196 0
168 194 0
170 195 0
170 195 0
169 195 0
170 196 0
169 195 0
169 195 0
168 194 0
170 196 0
168 195 0
170 195 0
168 195 0
170 195 0
169 195 0
171 196 0
169 195 0
170 196 0
169 195 0
170 195 0
170 195 0
169 195 0
169 195 0
169 195 0
170 196 0
169 195 0
169 195 0
169 195 0
168 194 0
169 195 0
171 196 0
170 195 0
170 195 0
169 195 0
171 196 0
170 195 0
169 195 0
170 195 0
168 194 0
169 195 0
169 195 0
169 195 0
170 196 0
169 195 0
168 194 0
170 196 0
169 195 0
169 195 0
171 196 0
169 195 0
172 196 0
170 195 0
169 195 0
170 195 0
169 195 0
170 195 0
169 195 0
170 195 0
170 195 0
170 196 0
170 196 0
170 195 0
169 195 0
170 196 0
169 195 0
168 195 0
170 195 0
168 195 0
169 195 0
170 195 0
169 195 0
170 195 0
170 195 0
168 195 0
169 195 0
169 195 0
170 196 0
169 195 0
170 195 0
169 195 0
168 194 0
168 195 0
169 195 0
170 195 0
169 195 0
169 195 0
169 195 0
169 195 0
169 195 0
169 195 0
169 195 0
170 195 0
168 194 0
170 195 0
168 195 0
170 195 0
170 195 0
170 195 0
167 194 0
170 196 0
168 195 0
168 195 0
170 195 0
170 195 0
169 195 0
169 195 0
170 195 0
169 195 0
169 195 0
168 194 0
168 194 0
170 195 0
168 195 0
169 195 0
168 194 0
169 195 0
169 195 0
167 193 0
168 194 0
168 194 0
170 195 0
169 195 0
169 195 0
169 195 0
168 194 0
168 194 0
169 194 0
169 195 0
170 195 0
170 196 0
168 194 0
169 194 0
167 193 0
169 195 0
168 194 0
168 194 0
169 195 0
168 194 0
169 195 0
169 195 0
168 194 0
167 193 0
167 193 0
168 194 0
170 195 0
169 195 0
170 195 0
170 195 0
169 194 0
169 194 0
168 194 0
168 194 0
170 195 0
169 195 0
169 195 0
168 194 0
169 195 0
168 194 0
168 194 0
169 195 0
170 195 0
169 195 0
169 195 0
169 195 0
169 195 0
169 195 0
169 195 0
169 194 0
170 195 0
170 195 0
169 195 0
169 195 0
169 195 0
169 195 0
167 194 0
168 194 0
170 195 0
170 195 0
168 195 0
169 195 0
169 195 0
170 195 0
169 195 0
169 195 0
169 195 0
168 195 0
169 195 0
169 195 0
169 195 0
169 195 0
169 195 0
170 196 0
170 196 0
169 195 0
167 194 0
170 195 0
169 195 0
170 196 0
170 196 0
167 194 0
170 195 0
168 194 0
169 195 0
169 195 0
168 195 0
168 195 0
169 195 0
169 195 0
169 195 0
170 195 0
169 195 0
169 195 0
170 195 0
170 195 0
169 195 0
169 195 0
168 195 0
168 195 0
169 195 0
169 195 0
169 195 0
169 195 0
168 195 0
170 196 0
169 195 0
169 195 0
169 195 0
170 196 0
169 195 0
170 195 0
171 196 0
169 195 0
170 195 0
169 195 0
170 195 0
169 195 0
171 196 0
169 195 0
168 195 0
169 195 0
169 195 0
168 195 0
170 195 0
170 195 0
169 195 0
170 195 0
169 195 0
170 196 0
169 195 0
169 195 0
169 195 0
169 195 0
169 195 0
169 195 0
169 195 0
169 195 0
169 195 0
169 195 0
170 195 0
168 194 0
169 195 0
170 196 0
170 195 0
169 195 0
169 195 0
170 195 0
170 195 0
169 195 0
168 195 0
169 195 0
170 195 0
170 195 0
170 195 0
170 195 0
169 195 0
170 195 0
168 195 0
169 195 0
169 195 0
170 195 0
170 195 0
170 195 0
171 196 0
169 195 0
170 195 0
169 195 0
169 195 0
170 196 0
168 195 0
169 195 0
170 196 0
169 195 0
169 195 0
169 195 0
169 195 0
168 194 0
169 195 0
169 195 0
170 195 0
170 195 0
169 195 0
169 195 0
169 195 0
169 194 0
168 195 0
169 195 0
168 194 0
169 195 0
169 195 0
169 195 0
168 194 0
168 194 0
168 194 0
169 195 0
170 195 0
169 195 0
170 195 0
170 195 0
169 195 0
170 195 0
170 195 0
169 195 0
169 195 0
170 195 0
168 194 0
169 195 0
168 194 0
169 195 0
168 194 0
168 194 0
168 194 0
168 194 0
169 195 0
168 194 0
168 194 0
168 194 0
168 194 0
168 194 0
169 195 0
169 195 0
170 195 0
168 194 0
171 196 0
168 194 0
168 193 0
169 194 0
168 194 0
168 194 0
168 195 0
169 195 0
169 195 0
170 195 0
170 195 0
169 195 0
169 195 0
170 195 0
169 195 0
168 195 0
169 195 0
169 195 0
169 195 0
168 194 0
169 195 0
170 195 0
170 195 0
169 195 0
169 194 0
168 195 0
169 194 0
169 195 0
170 195 0
169 195 0
169 195 0
169 195 0
170 195 0
170 195 0
170 196 0
170 196 0
170 196 0
170 195 0
170 195 0
170 196 0
169 195 0
169 195 0
170 196 0
170 196 0
169 195 0
171 196 0
170 195 0
169 195 0
170 195 0
168 195 0
170 195 0
169 195 0
169 195 0
169 195 0
171 196 0
170 196 0
169 195 0
169 195 0
168 194 0
170 195 0
169 195 0
169 195 0
169 195 0
169 195 0
170 195 0
169 195 0
169 195 0
169 195 0
170 195 0
169 195 0
169 195 0
170 195 0
170 196 0
169 195 0
169 195 0
169 195 0
170 196 0
169 195 0
170 196 0
168 195 0
169 195 0
169 195 0
169 195 0
170 196 0
169 195 0
169 195 0
170 195 0
169 195 0
169 195 0
169 195 0
170 196 0
170 195 0
169 195 0
169 195 0
170 195 0
170 196 0
170 196 0
170 196 0
170 195 0
170 195 0
169 195 0
170 195 0
168 195 0
170 196 0
170 195 0
169 195 0
170 196 0
171 196 0
169 195 0
169 195 0
169 195 0
170 195 0
169 195 0
168 195 0
169 195 0
168 195 0
168 194 0
170 196 0
169 195 0
169 195 0
170 196 0
169 195 0
170 195 0
169 195 0
169 195 0
168 195 0
170 196 0
169 195 0
170 195 0
169 195 0
168 195 0
169 195 0
169 195 0
170 195 0
170 196 0
169 195 0
170 195 0
170 195 0
169 195 0
170 196 0
170 196 0
169 195 0
168 194 0
170 195 0
168 195 0
170 196 0
169 195 0
170 195 0
171 196 0
169 195 0
170 196 0
169 195 0
168 194 0
169 195 0
169 195 0
169 195 0
169 195 0
170 195 0
170 195 0
170 195 0
169 195 0
169 195 0
170 196 0
169 194 0
170 195 0
169 195 0
168 195 0
170 195 0
170 196 0
169 195 0
170 195 0
167 193 0
169 195 0
169 195 0
167 193 0
169 195 0
169 195 0
169 195 0
169 195 0
168 195 0
169 195 0
168 194 0
169 195 0
169 194 0
168 195 0
168 194 0
170 195 0
169 195 0
168 194 0
168 194 0
169 195 0
167 193 0
169 195 0
170 196 0
168 194 0
168 194 0
168 194 0
168 194 0
167 194 0
170 196 0
169 195 0
169 195 0
168 194 0
168 194 0
170 195 0
169 195 0
169 195 0
169 194 0
168 195 0
170 195 0
170 195 0
170 195 0
170 195 0
168 194 0
169 195 0
168 195 0
169 195 0
170 195 0
169 194 0
169 195 0
169 195 0
169 195 0
168 195 0
170 195 0
169 194 0
169 195 0
167 194 0
170 196 0
170 195 0
169 195 0
169 195 0
171 196 0
169 195 0
169 195 0
167 194 0
168 195 0
170 195 0
169 195 0
169 195 0
170 196 0
170 196 0
170 195 0
170 196 0
169 195 0
169 195 0
170 195 0
169 195 0
171 196 0
170 196 0
169 195 0
171 196 0
170 195 0
168 195 0
169 195 0
169 195 0
169 195 0
169 195 0
169 195 0
169 195 0
170 196 0
169 195 0
170 196 0
170 195 0
170 196 0
169 195 0
169 195 0
170 196 0
169 195 0
169 195 0
168 195 0
170 195 0
169 195 0
168 195 0
169 195 0
169 195 0
169 195 0
170 196 0
169 195 0
169 195 0
169 195 0
169 195 0
170 196 0
170 196 0
169 195 0
170 196 0
169 195 0
169 195 0
170 195 0
168 194 0
170 195 0
169 195 0
169 194 0
169 195 0
169 195 0
170 195 0
170 196 0
169 195 0
168 195 0
170 195 0
170 195 0
170 195 0
169 195 0
169 195 0
169 195 0
170 196 0
170 196 0
169 195 0
168 195 0
170 195 0
169 195 0
170 195 0
171 196 0
170 196 0
169 195 0
169 195 0
169 195 0
170 196 0
171 196 0
170 195 0
170 195 0
169 195 0
168 195 0
169 195 0
168 195 0
170 195 0
169 195 0
169 195 0
170 196 0
170 196 0
170 196 0
170 195 0
169 195 0
169 195 0
169 195 0
169 195 0
170 195 0
170 195 0
170 195 0
170 195 0
170 195 0
170 195 0
169 195 0
168 194 0
169 195 0
169 195 0
169 195 0
170 195 0
168 194 0
169 194 0
169 195 0
169 195 0
170 196 0
170 195 0
169 195 0
169 195 0
170 195 0
169 195 0
170 196 0
170 195 0
168 194 0
170 195 0
168 194 0
170 195 0
168 195 0
169 195 0
170 195 0
169 195 0
169 195 0
169 195 0
170 195 0
168 195 0
169 195 0
168 195 0
168 194 0
168 194 0
169 195 0
170 196 0
170 196 0
170 195 0
170 195 0
169 195 0
169 195 0
170 196 0
168 194 0
169 194 0
168 194 0
169 195 0
168 195 0
169 195 0
168 195 0
168 194 0
169 195 0
169 195 0
169 195 0
170 196 0
168 194 0
168 194 0
169 194 0
170 195 0
170 195 0
168 194 0
169 195 0
169 195 0
168 195 0
170 195 0
168 194 0
169 195 0
168 194 0
168 194 0
170 195 0
168 194 0
169 195 0
170 195 0
169 195 0
169 195 0
168 194 0
168 195 0
168 195 0
169 195 0
169 195 0
169 195 0
170 195 0
169 195 0
170 195 0
170 196 0
169 195 0
169 195 0
170 195 0
169 195 0
169 195 0
170 195 0
170 195 0
169 195 0
169 195 0
170 195 0
169 195 0
170 195 0
169 195 0
170 195 0
168 194 0
169 195 0
169 195 0
170 195 0
170 196 0
168 195 0
169 195 0
169 195 0
169 195 0
169 195 0
170 195 0
170 195 0
168 194 0
170 195 0
171 196 0
170 195 0
168 195 0
168 194 0
169 195 0
169 195 0
169 195 0
169 195 0
169 195 0
168 195 0
170 195 0
170 195 0
170 195 0
169 195 0
169 195 0
171 195 0
169 195 0
169 195 0
170 195 0
170 196 0
168 195 0
169 195 0
169 195 0
169 195 0
168 194 0
170 195 0
170 196 0
169 195 0
170 196 0
168 195 0
169 195 0
170 195 0
168 195 0
171 196 0
169 195 0
170 195 0
170 196 0
169 195 0
169 195 0
169 195 0
170 195 0
168 194 0
169 195 0
169 195 0
169 195 0
169 195 0
168 195 0
169 195 0
170 195 0
168 195 0
170 195 0
170 195 0
169 195 0
169 195 0
169 195 0
170 195 0
169 195 0
169 195 0
170 195 0
170 195 0
170 195 0
170 195 0
170 196 0
171 196 0
168 195 0
169 195 0
169 195 0
170 196 0
169 195 0
169 195 0
169 195 0
169 195 0
170 195 0
169 195 0
170 195 0
168 194 0
169 195 0
170 195 0
169 195 0
170 196 0
169 195 0
170 195 0
170 195 0
169 195 0
169 195 0
169 195 0
169 195 0
171 196 0
169 195 0
169 195 0
170 195 0
169 195 0
169 195 0
170 195 0
170 195 0
170 195 0
169 195 0
169 195 0
169 195 0
169 195 0
168 195 0
168 194 0
170 195 0
168 195 0
171 196 0
170 195 0
168 195 0
169 195 0
167 194 0
169 195 0
170 195 0
169 195 0
171 196 0
169 194 0
169 195 0
170 195 0
168 194 0
169 195 0
168 194 0
169 195 0
169 195 0
170 196 0
170 195 0
168 194 0
168 194 0
169 195 0
169 195 0
169 195 0
169 195 0
169 195 0
169 195 0
168 194 0
168 193 0
169 195 0
168 194 0
168 194 0
168 194 0
169 195 0
169 194 0
169 194 0
169 194 0
169 195 0
168 194 0
169 194 0
168 195 0
169 195 0
169 195 0
169 195 0
169 195 0
169 195 0
169 194 0
169 195 0
170 195 0
169 195 0
168 194 0
170 195 0
169 195 0
169 195 0
170 196 0
169 194 0
167 193 0
170 196 0
169 195 0
169 195 0
168 194 0
171 196 0
170 196 0
169 195 0
170 195 0
170 195 0
169 195 0
169 195 0
168 195 0
169 195 0
169 195 0
170 195 0
169 195 0
169 195 0
169 195 0
169 195 0
169 195 0
171 195 0
169 195 0
169 195 0
168 195 0
170 195 0
170 195 0
169 195 0
169 195 0
168 195 0
170 195 0
170 195 0
169 195 0
170 195 0
169 195 0
169 195 0
169 195 0
169 195 0
169 195 0
169 195 0
168 195 0
168 194 0
169 195 0
169 195 0
169 195 0
169 195 0
169 195 0
170 196 0
168 194 0
170 195 0
169 195 0
170 195 0
170 196 0
169 195 0
169 195 0
170 195 0
169 195 0
168 195 0
169 195 0
171 196 0
169 195 0
169 195 0
170 195 0
168 194 0
169 195 0
169 195 0
168 195 0
170 196 0
169 195 0
168 195 0
169 195 0
168 194 0
169 195 0
169 195 0
170 195 0
168 195 0
170 195 0
170 195 0
169 195 0
169 195 0
170 195 0
169 195 0
169 195 0
169 195 0
169 195 0
170 195 0
170 195 0
169 195 0
170 196 0
169 195 0
169 195 0
170 195 0
169 195 0
170 195 0
168 195 0
169 195 0
170 195 0
170 195 0
169 195 0
170 195 0
171 196 0
169 195 0
169 195 0
170 196 0
168 194 0
169 195 0
170 196 0
170 195 0
169 195 0
170 195 0
169 195 0
170 195 0
169 195 0
169 195 0
170 195 0
169 195 0
169 195 0
169 195 0
169 195 0
168 194 0
169 195 0
168 195 0
170 195 0
170 195 0
170 195 0
169 195 0
169 195 0
168 194 0
169 195 0
169 195 0
169 195 0
169 195 0
169 195 0
170 195 0
169 195 0
169 195 0
169 195 0
169 195 0
170 195 0
170 196 0
169 195 0
169 195 0
168 194 0
169 195 0
168 195 0
169 195 0
169 195 0
169 195 0
169 195 0
170 195 0
169 195 0
171 196 0
169 195 0
168 195 0
169 195 0
169 194 0
169 195 0
169 194 0
168 194 0
169 195 0
169 195 0
169 195 0
168 195 0
170 195 0
169 195 0
168 194 0
169 195 0
170 195 0
169 195 0
169 194 0
170 196 0
169 195 0
169 195 0
170 195 0
167 194 0
168 195 0
169 194 0
169 195 0
169 195 0
168 194 0
170 195 0
170 195 0
168 194 0
169 195 0
170 196 0
169 195 0
169 194 0
170 195 0
170 195 0
170 195 0
167 194 0
169 195 0
169 195 0
170 195 0
168 194 0
169 195 0
170 195 0
168 194 0
170 195 0
168 194 0
171 196 0
170 195 0
168 194 0
169 195 0
171 196 0
169 194 0
169 195 0
169 195 0
168 194 0
170 195 0
170 196 0
169 195 0
170 195 0
169 195 0
168 195 0
169 195 0
169 195 0
169 195 0
168 195 0
170 195 0
169 195 0
169 194 0
169 195 0
169 195 0
170 195 0
169 195 0
171 196 0
169 195 0
170 196 0
170 195 0
169 195 0
169 195 0
169 195 0
169 195 0
169 195 0
170 195 0
169 195 0
170 195 0
169 195 0
170 195 0
169 195 0
170 195 0
170 196 0
169 195 0
170 195 0
170 195 0
170 195 0
169 195 0
169 195 0
170 195 0
170 195 0
168 195 0
169 195 0
168 195 0
171 196 0
168 195 0
169 195 0
169 195 0
169 195 0
168 194 0
170 196 0
168 195 0
170 195 0
169 195 0
169 195 0
170 196 0
169 195 0
169 195 0
169 195 0
169 195 0
170 195 0
169 195 0
169 195 0
170 195 0
169 195 0
169 195 0
168 195 0
169 195 0
170 195 0
170 195 0
169 195 0
168 195 0
169 195 0
170 195 0
171 196 0
171 196 0
170 195 0
168 194 0
169 195 0
169 195 0
169 195 0
169 195 0
169 195 0
169 195 0
169 195 0
169 195 0
169 195 0
169 195 0
169 195 0
169 195 0
169 195 0
168 195 0
170 196 0
170 196 0
169 195 0
169 195 0
170 195 0
169 195 0
169 195 0
170 196 0
169 195 0
169 195 0
169 195 0
168 194 0
170 195 0
169 195 0
170 196 0
170 195 0
170 195 0
169 195 0
170 195 0
170 196 0
168 195 0
170 195 0
168 195 0
169 195 0
169 195 0
169 195 0
170 195 0
169 195 0
170 195 0
169 195 0
169 195 0
170 195 0
170 196 0
170 195 0
170 195 0
168 195 0
170 195 0
170 196 0
169 195 0
169 195 0
169 195 0
169 195 0
170 195 0
169 195 0
170 195 0
169 195 0
169 195 0
170 195 0
168 195 0
169 195 0
169 194 0
168 194 0
169 195 0
169 195 0
169 195 0
169 195 0
170 195 0
170 196 0
169 195 0
168 195 0
169 195 0
169 194 0
168 194 0
169 195 0
169 195 0
169 195 0
168 195 0
168 195 0
169 195 0
169 195 0
169 195 0
168 194 0
167 193 0
170 195 0
170 195 0
167 193 0
171 196 0
168 195 0
169 195 0
169 195 0
170 195 0
169 194 0
169 195 0
168 194 0
170 195 0
170 195 0
168 193 0
170 195 0
169 194 0
170 195 0
168 195 0
170 195 0
171 196 0
170 196 0
168 195 0
169 194 0
168 194 0
168 194 0
169 195 0
168 194 0
170 195 0
170 195 0
171 196 0
169 195 0
169 195 0
169 195 0
169 195 0
169 195 0
169 195 0
169 195 0
169 195 0
170 195 0
170 195 0
170 196 0
170 195 0
168 195 0
169 195 0
169 194 0
169 195 0
169 195 0
169 195 0
168 195 0
169 195 0
170 195 0
170 195 0
169 195 0
169 194 0
169 195 0
168 195 0
169 195 0
169 195 0
170 195 0
171 196 0
169 195 0
171 196 0
170 196 0
169 195 0
169 195 0
168 194 0
171 196 0
170 195 0
169 195 0
170 195 0
170 195 0
170 196 0
169 195 0
170 195 0
170 195 0
170 196 0
169 195 0
168 195 0
170 195 0
169 195 0
168 195 0
168 195 0
170 196 0
170 196 0
169 195 0
170 196 0
170 195 0
169 195 0
169 195 0
169 195 0
169 195 0
169 195 0
169 195 0
170 196 0
169 195 0
170 195 0
168 194 0
169 195 0
170 195 0
169 195 0
169 195 0
169 195 0
169 195 0
171 196 0
169 195 0
171 196 0
170 195 0
169 195 0
170 195 0
169 195 0
169 195 0
170 195 0
170 196 0
169 195 0
168 194 0
170 196 0
171 196 0
169 195 0
170 196 0
168 195 0
170 195 0
168 195 0
169 195 0
170 195 0
170 195 0
169 195 0
169 195 0
170 195 0
170 195 0
169 195 0
170 196 0
169 195 0
169 195 0
169 195 0
169 195 0
169 195 0
169 195 0
170 196 0
170 195 0
170 195 0
169 195 0
169 195 0
168 195 0
170 196 0
169 195 0
169 194 0
170 196 0
169 195 0
169 195 0
169 195 0
170 196 0
168 195 0
169 195 0
170 195 0
168 194 0
168 195 0
169 195 0
170 195 0
169 195 0
170 195 0
170 196 0
170 195 0
170 196 0
170 195 0
169 195 0
169 195 0
169 195 0
168 194 0
169 195 0
169 195 0
169 195 0
168 194 0
170 195 0
169 195 0
171 196 0
169 195 0
169 195 0
170 195 0
170 195 0
170 195 0
170 195 0
169 195 0
169 195 0
170 195 0
168 195 0
169 195 0
169 195 0
167 194 0
168 194 0
169 195 0
169 195 0
170 196 0
169 195 0
170 195 0
167 194 0
169 195 0
169 195 0
169 195 0
169 195 0
168 194 0
169 195 0
169 194 0
168 194 0
171 196 0
168 194 0
168 194 0
169 195 0
169 195 0
169 195 0
168 193 0
169 195 0
169 195 0
170 195 0
169 194 0
168 194 0
168 195 0
168 194 0
170 195 0
170 195 0
169 194 0
169 195 0
169 195 0
170 195 0
169 195 0
169 195 0
168 194 0
170 195 0
169 195 0
168 195 0
168 194 0
169 194 0
169 195 0
169 195 0
169 195 0
169 194 0
170 195 0
168 195 0
168 194 0
169 195 0
169 195 0
170 196 0
169 195 0
170 195 0
169 195 0
169 194 0
169 195 0
169 195 0
170 195 0
170 195 0
170 195 0
169 195 0
170 195 0
169 195 0
170 195 0
169 195 0
169 195 0
169 195 0
169 195 0
169 195 0
169 195 0
169 195 0
168 195 0
170 195 0
170 196 0
170 195 0
169 195 0
170 195 0
169 195 0
168 194 0
169 195 0
169 195 0
168 194 0
169 195 0
168 195 0
169 195 0
169 195 0
170 195 0
170 195 0
170 195 0
169 195 0
170 195 0
169 195 0
169 195 0
170 195 0
169 195 0
169 195 0
169 195 0
169 195 0
169 195 0
169 195 0
170 195 0
169 195 0
170 196 0
170 196 0
169 195 0
169 195 0
168 195 0
170 195 0
170 195 0
169 195 0
169 195 0
169 195 0
169 195 0
170 195 0
170 196 0
169 195 0
170 196 0
169 195 0
170 195 0
169 195 0
169 195 0
169 195 0
169 195 0
169 195 0
169 195 0
170 195 0
169 195 0
170 196 0
169 195 0
169 195 0
169 195 0
169 195 0
170 195 0
169 195 0
170 195 0
169 195 0
170 195 0
171 196 0
169 195 0
169 195 0
170 195 0
168 195 0
170 196 0
170 195 0
169 195 0
169 195 0
170 195 0
170 195 0
169 195 0
170 195 0
168 195 0
169 195 0
170 195 0
170 196 0
170 195 0
169 195 0
171 196 0
170 195 0
170 196 0
170 196 0
169 195 0
169 195 0
169 195 0
171 196 0
170 195 0
169 195 0
169 195 0
170 195 0
170 195 0
169 195 0
169 195 0
170 195 0
169 195 0
169 195 0
170 195 0
169 195 0
168 195 0
169 195 0
170 196 0
170 196 0
169 195 0
169 195 0
169 195 0
170 195 0
169 195 0
169 195 0
168 194 0
170 196 0
168 194 0
169 195 0
169 195 0
170 196 0
169 194 0
171 196 0
170 195 0
171 196 0
169 195 0
170 196 0
170 196 0
170 195 0
169 195 0
169 195 0
169 195 0
169 195 0
168 194 0
169 195 0
168 194 0
169 195 0
169 195 0
170 195 0
169 195 0
168 195 0
170 195 0
168 195 0
170 195 0
169 195 0
169 195 0
169 195 0
167 194 0
170 195 0
170 195 0
169 194 0
168 194 0
169 195 0
170 196 0
169 195 0
169 195 0
170 195 0
169 195 0
170 195 0
169 195 0
169 195 0
169 195 0
169 195 0
169 195 0
169 195 0
169 195 0
169 195 0
169 195 0
170 195 0
169 194 0
170 195 0
170 195 0
168 195 0
169 195 0
170 195 0
170 196 0
169 195 0
169 195 0
169 195 0
169 195 0
169 195 0
169 195 0
168 195 0
170 196 0
169 195 0
170 195 0
168 195 0
168 195 0
169 195 0
170 195 0
169 195 0
171 196 0
169 195 0
169 195 0
170 195 0
169 195 0
170 195 0
169 195 0
169 195 0
168 194 0
170 196 0
169 195 0
169 195 0
170 196 0
170 195 0
169 195 0
169 195 0
169 195 0
169 195 0
170 196 0
170 195 0
169 195 0
169 195 0
169 195 0
169 195 0
170 195 0
168 194 0
170 195 0
170 196 0
168 195 0
169 195 0
170 195 0
170 195 0
170 195 0
169 195 0
169 195 0
169 195 0
169 195 0
169 195 0
169 195 0
168 195 0
169 195 0
169 195 0
169 195 0
169 195 0
168 195 0
169 195 0
169 195 0
170 195 0
169 195 0
169 195 0
170 195 0
170 195 0
171 196 0
169 195 0
169 195 0
169 195 0
170 196 0
169 195 0
168 195 0
169 195 0
169 195 0
169 195 0
169 195 0
169 195 0
170 196 0
170 195 0
170 195 0
169 195 0
169 195 0
168 195 0
168 195 0
169 195 0
169 195 0
170 195 0
170 195 0
169 195 0
169 195 0
168 195 0
169 195 0
170 195 0
170 195 0
169 195 0
170 195 0
169 195 0
170 196 0
170 196 0
168 195 0
169 195 0
170 196 0
168 195 0
168 194 0
169 195 0
169 195 0
169 195 0
169 195 0
170 195 0
169 195 0
169 195 0
170 196 0
169 195 0
169 195 0
170 195 0
170 196 0
169 195 0
170 195 0
170 195 0
170 195 0
169 195 0
169 195 0
169 195 0
168 195 0
169 195 0
169 195 0
170 195 0
170 196 0
170 195 0
169 195 0
168 195 0
169 195 0
170 195 0
168 194 0
169 195 0
170 195 0
169 195 0
168 194 0
168 195 0
170 195 0
169 195 0
169 195 0
168 195 0
169 195 0
169 195 0
170 196 0
170 196 0
169 195 0
169 195 0
169 195 0
170 195 0
168 195 0
169 195 0
169 195 0
169 195 0
169 195 0
169 195 0
169 195 0
170 195 0
169 195 0
169 195 0
169 195 0
169 195 0
169 195 0
169 195 0
170 195 0
169 195 0
169 195 0
168 195 0
169 195 0
169 195 0
168 194 0
169 195 0
169 195 0
169 195 0
170 195 0
168 194 0
170 196 0
168 194 0
168 193 0
169 194 0
169 195 0
170 195 0
170 195 0
169 194 0
169 195 0
170 196 0
169 195 0
170 195 0
169 195 0
170 195 0
169 195 0
169 195 0
170 195 0
170 195 0
169 194 0
169 195 0
169 195 0
169 195 0
170 195 0
168 195 0
169 195 0
170 195 0
170 195 0
169 195 0
168 195 0
170 196 0
170 196 0
169 195 0
169 194 0
170 195 0
169 195 0
170 195 0
169 195 0
170 195 0
169 195 0
167 194 0
169 195 0
168 194 0
169 195 0
169 195 0
169 195 0
171 196 0
169 195 0
169 195 0
170 195 0
169 195 0
170 195 0
171 196 0
170 196 0
170 196 0
170 195 0
168 195 0
170 196 0
170 196 0
169 195 0
169 195 0
169 195 0
170 195 0
169 195 0
169 195 0
169 195 0
170 196 0
169 195 0
169 195 0
169 195 0
170 195 0
168 194 0
170 195 0
168 195 0
169 195 0
169 195 0
168 195 0
171 196 0
169 195 0
168 195 0
170 196 0
169 195 0
169 195 0
169 195 0
169 195 0
169 195 0
168 195 0
169 195 0
169 195 0
169 195 0
169 195 0
170 195 0
169 195 0
170 195 0
168 195 0
170 196 0
169 195 0
168 195 0
169 195 0
170 195 0
169 195 0
169 195 0
169 195 0
169 195 0
169 195 0
169 195 0
168 195 0
169 195 0
170 196 0
169 195 0
169 195 0
169 195 0
169 195 0
170 195 0
168 195 0
170 195 0
169 195 0
169 195 0
170 195 0
168 195 0
170 195 0
169 195 0
170 195 0
168 194 0
170 196 0
170 195 0
170 195 0
169 195 0
169 195 0
169 195 0
170 196 0
170 195 0
169 195 0
169 195 0
169 195 0
170 196 0
168 195 0
169 195 0
169 195 0
170 195 0
169 195 0
170 195 0
170 196 0
168 195 0
169 195 0
169 195 0
169 195 0
169 195 0
169 195 0
170 196 0
170 196 0
169 195 0
169 195 0
169 194 0
170 195 0
169 195 0
169 195 0
168 195 0
169 195 0
169 195 0
169 195 0
168 194 0
169 195 0
168 194 0
170 196 0
169 195 0
170 195 0
169 195 0
169 195 0
168 194 0
170 195 0
170 195 0
169 195 0
169 195 0
171 196 0
170 195 0
169 194 0
170 196 0
168 194 0
168 194 0
168 194 0
169 195 0
169 195 0
169 195 0
169 195 0
169 195 0
169 195 0
169 195 0
169 195 0
168 194 0
170 195 0
169 195 0
170 195 0
169 195 0
168 194 0
170 195 0
169 195 0
169 195 0
169 195 0
170 195 0
169 195 0
169 195 0
169 195 0
169 195 0
169 195 0
169 195 0
169 195 0
169 195 0
170 195 0
169 195 0
169 195 0
169 195 0
169 195 0
168 195 0
169 195 0
171 196 0
169 195 0
168 195 0
168 195 0
170 195 0
170 195 0
168 194 0
169 195 0
169 195 0
169 195 0
169 195 0
170 195 0
170 196 0
168 195 0
170 195 0
169 195 0
170 195 0
169 195 0
171 196 0
170 195 0
169 195 0
169 195 0
168 195 0
169 195 0
169 195 0
169 195 0
169 195 0
169 195 0
169 194 0
168 195 0
169 195 0
170 195 0
169 195 0
168 195 0
170 195 0
169 195 0
168 194 0
170 196 0
170 196 0
170 195 0
170 195 0
169 195 0
169 195 0
170 195 0
169 195 0
170 195 0
169 195 0
169 195 0
169 195 0
169 195 0
170 195 0
169 195 0
169 195 0
169 195 0
169 195 0
170 196 0
169 195 0
169 195 0
169 195 0
170 195 0
168 195 0
169 195 0
169 195 0
170 196 0
170 195 0
169 195 0
170 195 0
170 196 0
169 195 0
169 195 0
170 195 0
170 195 0
170 195 0
170 196 0
168 195 0
170 195 0
168 195 0
168 194 0
169 195 0
169 195 0
169 195 0
169 195 0
170 196 0
170 195 0
170 195 0
170 195 0
170 196 0
169 195 0
169 195 0
169 195 0
170 196 0
169 195 0
170 195 0
169 195 0
168 195 0
168 195 0
170 195 0
169 195 0
169 195 0
169 195 0
169 195 0
169 195 0
170 195 0
169 195 0
170 195 0
170 196 0
170 195 0
169 195 0
169 195 0
169 195 0
170 195 0
170 195 0
170 195 0
168 195 0
170 196 0
169 195 0
169 195 0
170 196 0
168 195 0
170 195 0
169 195 0
168 195 0
169 195 0
169 195 0
170 195 0
168 194 0
170 195 0
169 195 0
170 195 0
169 195 0
170 195 0
169 195 0
169 195 0
170 195 0
170 196 0
169 195 0
168 195 0
169 195 0
171 196 0
169 195 0
169 195 0
169 195 0
169 195 0
170 195 0
167 194 0
169 195 0
169 195 0
169 195 0
170 195 0
169 195 0
170 195 0
170 195 0
169 195 0
169 195 0
169 195 0
169 195 0
169 195 0
170 196 0
170 196 0
169 195 0
169 195 0
170 195 0
168 194 0
168 195 0
167 193 0
170 196 0
169 195 0
170 195 0
169 195 0
169 195 0
170 195 0
169 194 0
169 195 0
169 195 0
170 196 0
168 195 0
168 194 0
169 195 0
169 195 0
169 195 0
170 195 0
170 195 0
169 195 0
169 195 0
169 195 0
169 195 0
169 195 0
171 196 0
169 195 0
167 194 0
169 195 0
170 195 0
169 195 0
169 195 0
169 195 0
170 195 0
170 195 0
170 196 0
168 194 0
170 195 0
168 195 0
169 195 0
169 195 0
168 195 0
169 195 0
169 195 0
169 195 0
168 195 0
170 195 0
170 195 0
168 195 0
169 195 0
169 195 0
170 196 0
169 195 0
169 195 0
170 196 0
170 195 0
169 195 0
169 195 0
169 195 0
168 194 0
170 196 0
169 195 0
170 195 0
169 195 0
170 195 0
169 195 0
169 195 0
168 195 0
169 195 0
170 195 0
169 195 0
169 195 0
169 195 0
170 195 0
169 195 0
169 195 0
170 196 0
169 195 0
169 195 0
168 195 0
169 195 0
169 195 0
169 195 0
169 195 0
170 195 0
170 195 0
170 195 0
169 195 0
170 195 0
171 196 0
169 195 0
170 196 0
170 195 0
169 195 0
169 195 0
168 194 0
169 195 0
169 195 0
169 195 0
169 195 0
169 194 0
170 195 0
168 195 0
170 195 0
170 195 0
169 195 0
170 195 0
170 196 0
170 195 0
169 195 0
170 195 0
169 195 0
170 195 0
170 195 0
169 195 0
168 195 0
170 195 0
170 195 0
169 195 0
170 195 0
169 195 0
170 196 0
169 195 0
168 195 0
170 196 0
170 195 0
170 195 0
170 196 0
169 195 0
169 195 0
168 195 0
170 195 0
170 195 0
169 195 0
168 195 0
170 196 0
169 195 0
170 196 0
170 196 0
169 195 0
170 195 0
169 195 0
169 195 0
170 196 0
169 195 0
169 195 0
169 195 0
170 196 0
169 195 0
169 195 0
169 195 0
168 195 0
170 196 0
170 195 0
168 195 0
169 195 0
168 195 0
169 195 0
170 195 0
169 195 0
169 195 0
170 195 0
169 195 0
170 196 0
171 196 0
170 195 0
169 195 0
170 196 0
169 195 0
170 196 0
170 195 0
171 196 0
169 195 0
170 195 0
169 195 0
169 195 0
169 195 0
170 195 0
169 195 0
170 195 0
169 195 0
169 195 0
170 195 0
169 195 0
169 195 0
168 194 0
169 195 0
169 195 0
169 195 0
171 196 0
169 195 0
169 195 0
169 195 0
168 194 0
171 196 0
171 196 0
169 195 0
169 195 0
169 195 0
168 194 0
170 195 0
167 194 0
170 196 0
169 195 0
169 195 0
168 194 0
170 195 0
169 195 0
169 195 0
168 195 0
168 195 0
169 195 0
169 195 0
169 195 0
168 195 0
169 195 0
170 195 0
168 194 0
169 195 0
170 196 0
169 195 0
169 194 0
168 194 0
170 195 0
170 195 0
168 195 0
170 195 0
168 194 0
169 195 0
169 195 0
170 195 0
168 194 0
169 195 0
169 195 0
170 195 0
168 195 0
171 196 0
170 195 0
169 195 0
170 195 0
169 195 0
169 195 0
169 195 0
169 195 0
170 195 0
171 196 0
169 195 0
170 195 0
169 195 0
169 195 0
169 195 0
170 195 0
169 195 0
169 195 0
169 195 0
170 195 0
170 195 0
169 195 0
170 195 0
170 196 0
170 195 0
170 195 0
170 195 0
169 195 0
168 195 0
170 196 0
168 195 0
169 195 0
169 195 0
169 195 0
170 196 0
170 195 0
169 195 0
169 195 0
168 195 0
170 196 0
169 195 0
170 195 0
169 195 0
169 195 0
168 195 0
168 195 0
170 195 0
169 195 0
170 195 0
169 195 0
169 195 0
169 195 0
169 195 0
169 195 0
170 195 0
169 195 0
170 195 0
169 195 0
170 195 0
170 195 0
169 195 0
169 195 0
169 195 0
168 195 0
169 195 0
170 195 0
170 195 0
170 195 0
169 195 0
169 195 0
169 195 0
171 196 0
169 195 0
169 195 0
169 195 0
168 194 0
169 195 0
169 195 0
169 195 0
169 195 0
171 196 0
169 195 0
170 195 0
169 195 0
171 196 0
170 196 0
169 195 0
169 195 0
168 195 0
170 195 0
169 195 0
170 196 0
169 195 0
170 196 0
169 195 0
169 195 0
170 195 0
168 194 0
170 195 0
169 195 0
169 195 0
169 195 0
169 195 0
169 195 0
170 195 0
170 195 0
170 195 0
170 195 0
170 195 0
169 195 0
169 195 0
169 195 0
169 195 0
169 195 0
169 195 0
170 195 0
169 195 0
169 195 0
169 195 0
169 195 0
169 195 0
170 195 0
169 195 0
168 195 0
171 196 0
169 195 0
170 196 0
169 195 0
168 195 0
170 195 0
169 194 0
170 195 0
170 196 0
169 195 0
168 195 0
169 195 0
170 195 0
169 195 0
169 195 0
169 195 0
170 196 0
169 195 0
169 195 0
170 195 0
170 195 0
168 194 0
169 195 0
170 196 0
169 195 0
168 194 0
170 195 0
169 195 0
169 195 0
168 194 0
169 195 0
170 196 0
169 195 0
170 196 0
170 195 0
169 195 0
170 196 0
168 195 0
169 195 0
170 195 0
170 195 0
169 195 0
169 195 0
169 195 0
169 195 0
169 195 0
170 195 0
168 195 0
169 195 0
169 195 0
168 195 0
169 195 0
170 196 0
167 193 0
169 195 0
169 195 0
168 194 0
169 195 0
168 195 0
169 195 0
170 195 0
169 195 0
170 196 0
170 195 0
170 195 0
170 195 0
170 195 0
169 195 0
169 195 0
169 195 0
170 196 0
170 195 0
169 195 0
169 195 0
170 195 0
169 195 0
169 195 0
168 194 0
169 195 0
170 196 0
170 195 0
168 194 0
169 195 0
168 194 0
169 195 0
170 195 0
170 196 0
170 195 0
170 195 0
171 196 0
169 195 0
170 196 0
168 195 0
170 195 0
168 195 0
170 195 0
170 196 0
168 195 0
169 195 0
170 195 0
168 194 0
169 195 0
168 195 0
169 195 0
169 195 0
169 195 0
170 195 0
170 195 0
169 195 0
169 195 0
170 196 0
170 195 0
169 195 0
169 195 0
170 196 0
170 196 0
169 195 0
170 196 0
169 195 0
169 195 0
168 195 0
169 195 0
170 195 0
169 195 0
169 195 0
169 195 0
169 195 0
170 195 0
170 196 0
170 195 0
170 196 0
170 196 0
169 195 0
170 195 0
169 195 0
169 195 0
168 195 0
170 196 0
170 195 0
169 195 0
170 196 0
169 195 0
169 195 0
169 195 0
169 195 0
168 195 0
169 195 0
169 195 0
169 195 0
169 195 0
169 195 0
169 195 0
169 195 0
170 195 0
170 195 0
169 195 0
169 195 0
171 196 0
169 195 0
168 194 0
169 195 0
168 195 0
170 196 0
170 195 0
169 195 0
169 195 0
169 195 0
170 195 0
169 195 0
169 195 0
170 196 0
169 195 0
170 195 0
170 196 0
169 195 0
169 195 0
169 195 0
169 195 0
168 194 0
169 195 0
169 195 0
169 195 0
170 195 0
170 196 0
170 195 0
170 196 0
170 196 0
169 195 0
169 195 0
168 195 0
170 195 0
169 195 0
170 195 0
169 195 0
170 195 0
169 195 0
170 195 0
168 194 0
169 195 0
169 195 0
169 195 0
169 195 0
170 195 0
169 195 0
170 195 0
170 195 0
170 196 0
169 195 0
170 195 0
170 195 0
170 195 0
170 195 0
169 195 0
170 195 0
169 195 0
169 195 0
169 195 0
169 195 0
169 195 0
168 195 0
170 195 0
169 195 0
169 195 0
169 195 0
170 195 0
170 195 0
169 195 0
170 195 0
169 195 0
169 195 0
171 196 0
169 195 0
169 195 0
169 195 0
169 195 0
169 195 0
170 195 0
168 194 0
171 196 0
169 195 0
170 195 0
169 195 0
168 195 0
169 195 0
170 195 0
170 196 0
170 195 0
169 195 0
169 195 0
169 195 0
170 196 0
169 195 0
169 195 0
170 195 0
168 194 0
167 193 0
170 195 0
171 196 0
169 195 0
169 195 0
169 195 0
168 194 0
170 195 0
169 195 0
169 195 0
169 194 0
170 195 0
169 195 0
169 195 0
169 195 0
169 195 0
168 195 0
168 194 0
171 196 0
170 195 0
169 195 0
169 195 0
170 196 0
169 195 0
169 195 0
170 195 0
169 195 0
170 196 0
168 194 0
169 195 0
170 195 0
169 195 0
169 195 0
169 195 0
169 195 0
170 195 0
168 194 0
169 195 0
170 195 0
169 194 0
169 195 0
169 195 0
169 195 0
170 196 0
170 195 0
168 195 0
169 195 0
169 195 0
169 195 0
168 195 0
170 196 0
169 195 0
170 196 0
170 195 0
170 195 0
168 195 0
169 194 0
169 195 0
169 195 0
169 195 0
170 195 0
170 195 0
170 196 0
170 195 0
169 195 0
170 195 0
169 195 0
169 195 0
169 195 0
169 194 0
170 196 0
169 195 0
169 195 0
170 195 0
170 195 0
168 194 0
170 195 0
169 195 0
169 195 0
170 196 0
169 195 0
171 196 0
170 196 0
170 195 0
169 195 0
169 195 0
168 194 0
170 195 0
169 195 0
170 196 0
169 195 0
170 195 0
169 195 0
169 195 0
171 196 0
169 195 0
169 195 0
170 196 0
169 195 0
169 195 0
170 195 0
170 195 0
169 195 0
170 195 0
170 195 0
169 195 0
169 195 0
168 195 0
169 195 0
169 195 0
169 195 0
170 196 0
169 195 0
169 195 0
170 195 0
170 195 0
170 195 0
169 195 0
169 195 0
170 195 0
169 195 0
170 196 0
169 195 0
168 194 0
169 195 0
170 196 0
170 195 0
169 195 0
170 195 0
170 195 0
170 195 0
170 195 0
169 195 0
168 195 0
170 196 0
170 195 0
168 195 0
168 194 0
168 195 0
170 196 0
169 195 0
168 194 0
169 195 0
170 195 0
170 196 0
169 195 0
169 195 0
169 195 0
169 195 0
169 195 0
170 196 0
170 195 0
169 195 0
169 195 0
168 195 0
170 195 0
170 195 0
169 195 0
169 195 0
170 195 0
170 195 0
170 196 0
170 196 0
170 196 0
170 195 0
171 196 0
168 195 0
170 195 0
169 195 0
169 195 0
170 196 0
169 195 0
168 194 0
170 195 0
170 195 0
168 195 0
170 195 0
169 195 0
170 195 0
169 195 0
168 193 0
170 195 0
169 195 0
170 195 0
168 195 0
169 195 0
168 194 0
168 194 0
169 195 0
170 195 0
168 195 0
170 195 0
169 195 0
169 195 0
169 195 0
168 194 0
169 195 0
169 195 0
169 195 0
169 195 0
170 195 0
169 195 0
168 194 0
170 195 0
169 195 0
170 195 0
170 195 0
170 195 0
170 196 0
169 195 0
170 195 0
170 195 0
170 196 0
169 195 0
170 196 0
169 195 0
170 195 0
170 196 0
169 194 0
169 195 0
170 195 0
169 195 0
170 195 0
169 195 0
169 195 0
169 195 0
169 194 0
168 195 0
169 195 0
169 195 0
169 195 0
169 195 0
168 194 0
170 196 0
169 195 0
169 195 0
170 195 0
170 195 0
169 195 0
169 195 0
170 195 0
168 194 0
170 195 0
168 195 0
168 195 0
169 195 0
168 194 0
170 195 0
169 195 0
169 195 0
169 195 0
170 195 0
169 195 0
170 196 0
170 195 0
170 196 0
169 195 0
169 195 0
170 195 0
169 195 0
169 195 0
168 194 0
169 195 0
168 194 0
171 196 0
169 195 0
170 196 0
169 195 0
170 195 0
169 195 0
168 195 0
170 195 0
170 195 0
169 195 0
169 195 0
169 195 0
169 195 0
169 195 0
170 195 0
169 195 0
170 195 0
170 195 0
168 195 0
169 195 0
170 195 0
169 195 0
170 195 0
169 195 0
169 195 0
168 194 0
169 195 0
170 195 0
169 195 0
169 195 0
168 195 0
170 195 0
169 195 0
169 195 0
169 195 0
170 195 0
170 195 0
170 195 0
169 195 0
169 195 0
169 195 0
169 195 0
169 195 0
168 195 0
169 195 0
170 195 0
169 195 0
168 195 0
169 195 0
169 195 0
169 195 0
169 195 0
170 195 0
169 195 0
168 194 0
169 195 0
169 195 0
169 195 0
170 196 0
169 195 0
169 195 0
170 195 0
170 196 0
170 195 0
169 195 0
170 195 0
169 195 0
169 195 0
170 196 0
169 195 0
169 195 0
169 195 0
170 195 0
169 195 0
169 195 0
169 195 0
169 195 0
169 195 0
171 196 0
169 195 0
167 194 0
169 195 0
168 195 0
169 195 0
168 195 0
169 195 0
169 195 0
169 195 0
171 196 0
169 195 0
169 195 0
169 195 0
168 194 0
169 195 0
168 194 0
169 195 0
169 195 0
169 195 0
169 195 0
170 195 0
169 195 0
171 196 0
169 195 0
170 196 0
168 194 0
170 195 0
170 196 0
168 195 0
170 196 0
170 195 0
169 195 0
169 195 0
170 195 0
170 195 0
169 195 0
169 195 0
170 196 0
169 195 0
169 195 0
169 195 0
168 195 0
169 195 0
169 195 0
169 195 0
170 196 0
168 194 0
168 194 0
169 195 0
169 195 0
169 195 0
169 195 0
170 195 0
169 195 0
170 196 0
169 195 0
169 195 0
168 195 0
170 196 0
170 195 0
170 195 0
169 195 0
169 195 0
168 194 0
168 194 0
169 194 0
169 195 0
169 195 0
169 194 0
169 195 0
168 195 0
169 195 0
169 195 0
170 196 0
170 195 0
169 195 0
169 195 0
169 195 0
170 195 0
170 195 0
169 195 0
169 195 0
169 195 0
169 195 0
169 195 0
169 195 0
169 195 0
169 195 0
170 195 0
170 195 0
170 195 0
169 195 0
169 195 0
169 195 0
168 194 0
168 194 0
169 195 0
169 195 0
170 195 0
170 195 0
170 195 0
168 194 0
169 195 0
170 195 0
169 195 0
169 195 0
170 195 0
170 195 0
168 194 0
170 196 0
170 195 0
170 196 0
169 195 0
170 195 0
170 196 0
170 195 0
169 195 0
169 195 0
169 195 0
168 195 0
169 195 0
170 195 0
170 195 0
169 195 0
169 195 0
169 195 0
169 195 0
170 195 0
169 195 0
169 195 0
169 195 0
171 196 0
171 196 0
170 195 0
169 195 0
169 195 0
169 195 0
169 195 0
169 195 0
169 195 0
169 195 0
170 195 0
168 195 0
169 195 0
170 196 0
170 195 0
169 195 0
170 196 0
169 195 0
169 195 0
169 195 0
169 195 0
169 195 0
170 195 0
169 195 0
169 195 0
170 195 0
169 195 0
169 195 0
169 195 0
169 195 0
169 195 0
168 194 0
170 195 0
170 195 0
171 196 0
169 195 0
169 195 0
169 195 0
170 195 0
169 195 0
170 195 0
169 195 0
171 196 0
169 195 0
170 195 0
169 195 0
169 195 0
169 195 0
169 195 0
169 195 0
169 195 0
169 195 0
170 195 0
168 195 0
170 196 0
168 195 0
170 195 0
169 195 0
170 195 0
170 196 0
169 195 0
170 195 0
169 195 0
170 195 0
169 195 0
168 195 0
168 195 0
169 195 0
170 195 0
170 195 0
169 195 0
169 195 0
170 195 0
169 195 0
170 195 0
170 195 0
169 195 0
169 195 0
168 195 0
170 195 0
170 196 0
169 195 0
169 195 0
169 195 0
169 195 0
170 195 0
170 195 0
170 195 0
168 195 0
169 195 0
170 196 0
171 196 0
169 195 0
170 195 0
169 195 0
169 195 0
168 194 0
170 195 0
169 195 0
169 195 0
170 195 0
169 195 0
169 195 0
170 195 0
169 195 0
168 195 0
169 194 0
170 196 0
169 195 0
169 195 0
168 194 0
169 195 0
170 195 0
169 195 0
170 196 0
170 195 0
169 195 0
172 196 0
169 195 0
169 195 0
170 195 0
169 195 0
170 195 0
170 195 0
169 195 0
169 195 0
168 195 0
169 195 0
171 196 0
169 195 0
169 195 0
167 194 0
169 195 0
170 195 0
169 194 0
170 195 0
170 195 0
169 195 0
170 196 0
169 195 0
169 195 0
169 195 0
169 195 0
170 195 0
170 196 0
169 194 0
170 195 0
168 195 0
169 195 0
168 194 0
169 195 0
169 195 0
169 195 0
169 195 0
170 195 0
170 196 0
169 195 0
169 195 0
170 195 0
170 196 0
168 195 0
170 196 0
169 195 0
168 195 0
170 196 0
169 195 0
169 195 0
169 195 0
169 195 0
170 196 0
170 195 0
168 195 0
169 195 0
170 196 0
169 195 0
169 195 0
170 196 0
169 195 0
170 195 0
170 195 0
169 195 0
170 196 0
169 195 0
168 195 0
169 195 0
170 195 0
171 196 0
170 196 0
169 195 0
169 195 0
169 195 0
169 195 0
169 195 0
169 195 0
170 195 0
169 195 0
170 195 0
169 195 0
168 194 0
170 195 0
170 196 0
170 196 0
169 195 0
170 195 0
170 195 0
169 195 0
170 196 0
170 195 0
169 195 0
170 195 0
170 195 0
170 195 0
169 195 0
168 195 0
169 195 0
170 195 0
168 195 0
169 195 0
171 196 0
169 195 0
169 195 0
170 195 0
170 195 0
170 196 0
170 195 0
169 195 0
168 194 0
170 195 0
170 195 0
171 196 0
169 195 0
169 195 0
170 196 0
169 195 0
170 196 0
169 195 0
170 196 0
169 195 0
170 196 0
170 195 0
169 195 0
169 195 0
170 195 0
169 195 0
168 195 0
169 195 0
170 195 0
169 195 0
168 195 0
169 195 0
169 195 0
170 195 0
169 195 0
170 195 0
170 195 0
169 195 0
169 195 0
170 195 0
169 195 0
170 195 0
170 195 0
168 195 0
170 195 0
169 195 0
169 195 0
168 194 0
170 195 0
169 195 0
169 195 0
170 196 0
169 195 0
170 195 0
169 195 0
170 196 0
169 195 0
169 195 0
169 195 0
168 195 0
170 195 0
171 196 0
169 195 0
170 195 0
169 195 0
169 195 0
171 196 0
170 195 0
169 195 0
169 195 0
170 196 0
168 194 0
170 195 0
169 195 0
170 195 0
170 195 0
169 195 0
169 195 0
169 194 0
170 196 0
169 195 0
170 196 0
169 195 0
170 195 0
168 194 0
170 196 0
170 195 0
170 196 0
168 194 0
168 194 0
168 194 0
169 195 0
170 195 0
169 195 0
169 195 0
169 195 0
169 195 0
169 195 0
168 195 0
170 195 0
169 195 0
169 195 0
169 195 0
169 195 0
168 195 0
170 195 0
168 195 0
169 195 0
169 195 0
169 195 0
170 195 0
169 195 0
169 194 0
169 195 0
169 195 0
168 194 0
169 195 0
169 195 0
169 195 0
168 194 0
170 195 0
170 195 0
169 195 0
169 195 0
170 195 0
170 195 0
169 195 0
169 195 0
169 195 0
169 195 0
169 195 0
170 195 0
170 196 0
168 195 0
168 195 0
168 195 0
169 195 0
168 194 0
169 195 0
170 195 0
169 195 0
169 195 0
169 195 0
169 195 0
168 194 0
169 195 0
169 195 0
169 195 0
171 196 0
169 195 0
168 195 0
170 195 0
168 194 0
169 195 0
169 195 0
168 195 0
170 195 0
169 195 0
168 195 0
170 195 0
170 195 0
170 195 0
169 195 0
169 195 0
169 195 0
169 195 0
169 195 0
169 195 0
169 195 0
169 195 0
168 195 0
170 196 0
169 195 0
168 194 0
170 195 0
170 195 0
169 195 0
169 195 0
170 196 0
169 195 0
170 196 0
169 195 0
169 195 0
170 196 0
169 195 0
170 195 0
170 195 0
170 195 0
170 195 0
168 195 0
169 195 0
170 195 0
170 196 0
170 195 0
169 195 0
170 196 0
170 195 0
170 195 0
170 195 0
170 195 0
169 195 0
169 195 0
169 195 0
169 195 0
169 195 0
170 196 0
168 195 0
169 195 0
169 195 0
169 195 0
169 195 0
169 195 0
169 195 0
169 195 0
169 195 0
169 195 0
169 195 0
170 195 0
169 195 0
169 195 0
169 195 0
169 195 0
169 195 0
170 196 0
168 195 0
170 195 0
169 195 0
170 196 0
169 195 0
169 195 0
169 195 0
169 195 0
171 196 0
170 195 0
169 195 0
169 195 0
169 195 0
169 195 0
171 196 0
170 195 0
169 195 0
169 195 0
170 195 0
169 195 0
168 194 0
168 195 0
167 194 0
169 195 0
169 195 0
169 195 0
170 196 0
169 195 0
170 195 0
170 195 0
169 195 0
170 195 0
169 195 0
169 195 0
170 196 0
170 195 0
169 195 0
168 194 0
169 195 0
170 195 0
169 195 0
169 195 0
170 195 0
168 194 0
169 195 0
170 195 0
169 195 0
170 196 0
170 196 0
169 195 0
169 195 0
169 195 0
169 195 0
170 195 0
169 195 0
169 195 0
168 194 0
168 195 0
170 195 0
168 194 0
169 195 0
170 195 0
168 195 0
169 195 0
170 196 0
167 194 0
170 195 0
169 195 0
170 195 0
170 196 0
169 195 0
170 196 0
170 196 0
169 195 0
168 194 0
170 196 0
169 195 0
170 196 0
170 196 0
169 195 0
170 195 0
169 195 0
169 195 0
168 194 0
169 195 0
169 195 0
169 195 0
169 195 0
169 195 0
167 193 0
167 193 0
169 194 0
169 195 0
170 195 0
168 194 0
168 195 0
170 196 0
168 194 0
170 195 0
171 196 0
169 195 0
170 196 0
169 195 0
168 194 0
169 195 0
169 195 0
169 195 0
170 195 0
170 196 0
171 196 0
169 195 0
169 195 0
170 196 0
170 196 0
169 195 0
169 195 0
170 195 0
170 195 0
169 195 0
169 194 0
170 195 0
170 196 0
169 195 0
168 195 0
171 196 0
169 195 0
169 195 0
170 195 0
168 194 0
170 195 0
169 195 0
168 195 0
170 195 0
169 195 0
169 195 0
170 195 0
168 194 0
169 195 0
169 195 0
170 195 0
169 195 0
170 195 0
169 195 0
170 195 0
169 195 0
169 195 0
169 195 0
169 195 0
169 195 0
169 195 0
169 195 0
168 195 0
169 195 0
170 195 0
169 195 0
168 195 0
169 195 0
169 195 0
170 195 0
169 195 0
169 195 0
169 195 0
169 195 0
169 195 0
169 195 0
169 195 0
169 195 0
169 195 0
171 196 0
169 195 0
170 196 0
169 195 0
169 195 0
169 195 0
170 196 0
170 196 0
170 195 0
169 195 0
170 195 0
169 195 0
169 195 0
169 195 0
170 196 0
169 195 0
169 195 0
169 195 0
170 195 0
169 195 0
169 195 0
169 195 0
168 194 0
169 195 0
169 195 0
169 195 0
169 195 0
170 195 0
170 195 0
170 195 0
170 195 0
170 195 0
170 196 0
169 195 0
169 195 0
169 195 0
170 196 0
169 195 0
169 195 0
169 195 0
169 195 0
170 195 0
169 195 0
171 196 0
169 195 0
170 195 0
169 195 0
169 195 0
169 195 0
169 195 0
169 195 0
169 195 0
170 195 0
170 195 0
170 196 0
169 195 0
170 195 0
170 195 0
170 195 0
171 196 0
170 196 0
170 196 0
169 195 0
169 195 0
168 195 0
169 195 0
168 195 0
170 195 0
169 195 0
170 195 0
170 195 0
169 195 0
170 195 0
169 195 0
170 196 0
169 195 0
170 195 0
171 196 0
169 195 0
169 194 0
170 196 0
168 194 0
169 195 0
169 195 0
169 195 0
169 195 0
170 195 0
170 195 0
170 195 0
168 194 0
169 195 0
170 195 0
169 195 0
168 195 0
169 195 0
169 195 0
169 195 0
169 195 0
169 195 0
170 196 0
168 195 0
169 195 0
170 195 0
169 195 0
170 196 0
169 195 0
170 195 0
169 195 0
168 194 0
169 195 0
170 195 0
170 195 0
169 195 0
170 195 0
170 195 0
169 195 0
169 195 0
169 195 0
170 196 0
169 195 0
171 196 0
169 195 0
170 195 0
169 195 0
170 196 0
168 195 0
170 196 0
169 195 0
169 195 0
170 195 0
170 195 0
170 196 0
170 195 0
170 196 0
168 195 0
169 195 0
169 195 0
169 194 0
169 195 0
168 194 0
170 196 0
169 195 0
169 195 0
170 195 0
170 195 0
169 195 0
168 195 0
169 195 0
169 195 0
169 195 0
170 195 0
169 195 0
170 195 0
169 195 0
170 195 0
168 194 0
171 196 0
170 195 0
170 195 0
169 195 0
169 195 0
169 195 0
170 196 0
170 195 0
169 195 0
170 196 0
168 194 0
169 195 0
169 195 0
169 195 0
169 195 0
169 195 0
170 195 0
170 195 0
170 195 0
169 195 0
169 195 0
169 195 0
170 195 0
169 195 0
168 194 0
169 195 0
170 195 0
170 195 0
171 196 0
170 195 0
169 195 0
168 195 0
169 195 0
169 195 0
169 195 0
169 195 0
170 195 0
170 195 0
169 195 0
169 195 0
169 195 0
169 195 0
168 195 0
170 195 0
169 195 0
169 195 0
168 195 0
171 196 0
169 195 0
169 195 0
169 195 0
171 196 0
170 195 0
169 195 0
168 195 0
170 195 0
170 196 0
169 195 0
170 196 0
170 196 0
169 195 0
170 195 0
169 195 0
169 195 0
170 195 0
169 195 0
170 195 0
169 195 0
170 195 0
170 195 0
169 195 0
169 195 0
170 195 0
169 195 0
169 195 0
169 195 0
170 195 0
170 195 0
168 195 0
170 195 0
170 195 0
171 196 0
170 195 0
170 195 0
169 195 0
170 196 0
170 196 0
169 195 0
170 195 0
169 195 0
169 195 0
169 195 0
170 195 0
169 195 0
169 195 0
170 195 0
169 195 0
169 195 0
169 195 0
169 195 0
169 195 0
169 195 0
169 195 0
169 195 0
169 195 0
170 195 0
170 195 0
169 195 0
169 195 0
169 195 0
170 196 0
170 195 0
169 195 0
169 195 0
169 195 0
169 195 0
168 195 0
170 195 0
170 196 0
170 195 0
170 195 0
169 195 0
170 195 0
170 195 0
169 195 0
169 195 0
169 195 0
168 195 0
170 195 0
169 195 0
169 195 0
169 195 0
170 195 0
170 195 0
168 195 0
169 195 0
169 195 0
170 196 0
170 195 0
171 196 0
169 195 0
168 194 0
170 195 0
168 194 0
170 195 0
170 195 0
168 195 0
169 195 0
169 195 0
170 196 0
169 195 0
169 195 0
169 195 0
169 195 0
170 195 0
170 195 0
169 195 0
170 195 0
170 196 0
168 194 0
169 195 0
170 195 0
170 195 0
169 195 0
168 194 0
169 195 0
169 195 0
170 195 0
170 195 0
170 196 0
169 195 0
168 194 0
170 195 0
169 195 0
170 196 0
170 195 0
169 195 0
170 195 0
169 195 0
169 195 0
167 194 0
170 195 0
170 195 0
168 195 0
168 194 0
169 195 0
169 195 0
168 194 0
169 195 0
168 195 0
169 195 0
169 195 0
169 195 0
170 195 0
169 195 0
169 195 0
169 195 0
169 195 0
170 195 0
170 195 0
169 195 0
170 195 0
170 196 0
169 195 0
168 195 0
170 195 0
168 195 0
169 195 0
170 195 0
167 194 0
169 195 0
168 194 0
169 195 0
170 195 0
169 195 0
170 195 0
170 195 0
171 196 0
170 195 0
169 194 0
169 195 0
169 195 0
169 195 0
169 195 0
170 195 0
170 195 0
169 195 0
169 195 0
168 195 0
169 195 0
170 195 0
169 195 0
168 195 0
168 195 0
171 196 0
169 195 0
169 195 0
170 195 0
170 196 0
170 195 0
170 196 0
169 195 0
168 195 0
169 195 0
169 195 0
169 195 0
169 195 0
171 196 0
169 195 0
170 196 0
170 196 0
169 195 0
170 196 0
170 195 0
169 195 0
169 195 0
170 195 0
170 196 0
169 195 0
170 195 0
169 195 0
170 196 0
169 195 0
169 195 0
169 195 0
169 195 0
169 195 0
169 195 0
170 195 0
169 195 0
169 195 0
169 195 0
170 195 0
169 195 0
170 195 0
168 195 0
169 195 0
169 195 0
169 195 0
170 195 0
170 195 0
169 195 0
170 195 0
170 195 0
169 195 0
170 195 0
169 195 0
169 195 0
169 195 0
169 195 0
169 195 0
168 195 0
170 195 0
169 195 0
169 195 0
169 195 0
169 195 0
170 196 0
168 195 0
170 195 0
169 195 0
169 195 0
170 195 0
169 195 0
170 195 0
169 195 0
170 195 0
169 195 0
170 195 0
170 196 0
170 195 0
170 195 0
169 195 0
169 195 0
170 195 0
169 195 0
168 195 0
170 195 0
169 195 0
169 195 0
169 195 0
169 195 0
170 195 0
169 195 0
169 195 0
171 196 0
170 195 0
170 195 0
169 195 0
169 195 0
168 195 0
169 195 0
169 195 0
169 195 0
169 195 0
170 196 0
168 195 0
170 195 0
168 195 0
170 196 0
170 195 0
171 196 0
169 195 0
168 195 0
170 195 0
169 195 0
169 195 0
169 195 0
169 195 0
169 195 0
169 195 0
169 195 0
171 196 0
168 194 0
169 195 0
170 195 0
167 194 0
169 195 0
169 195 0
168 194 0
170 195 0
169 195 0
168 194 0
169 195 0
169 195 0
169 195 0
169 195 0
170 195 0
169 195 0
169 195 0
170 195 0
169 195 0
169 195 0
169 195 0
169 195 0
169 195 0
170 196 0
170 195 0
169 194 0
170 195 0
169 195 0
169 195 0
169 195 0
169 195 0
169 195 0
169 195 0
170 195 0
170 195 0
169 195 0
168 194 0
168 194 0
170 195 0
168 194 0
169 195 0
170 195 0
168 195 0
170 195 0
170 196 0
168 195 0
169 195 0
169 195 0
168 194 0
169 195 0
170 195 0
169 195 0
170 195 0
171 196 0
168 195 0
170 195 0
169 195 0
170 196 0
170 195 0
169 195 0
170 195 0
169 195 0
169 195 0
170 195 0
169 195 0
169 195 0
170 196 0
169 195 0
169 195 0
169 195 0
169 195 0
170 195 0
169 195 0
169 195 0
169 195 0
169 195 0
171 196 0
169 195 0
169 195 0
170 195 0
169 195 0
170 195 0
169 195 0
170 195 0
170 195 0
169 195 0
170 195 0
169 195 0
172 196 0
168 195 0
168 194 0
169 195 0
169 195 0
169 195 0
169 195 0
169 195 0
170 196 0
170 196 0
168 195 0
170 195 0
170 195 0
170 195 0
170 195 0
168 194 0
