P3
200 100
255
206 227 255
206 227 255
205 227 255
205 227 255
205 227 255
205 227 255
205 227 255
205 226 255
205 226 255
205 226 255
204 226 255
204 226 255
204 226 255
204 226 255
204 226 255
204 226 255
204 226 255
204 226 255
204 226 255
203 226 255
203 226 255
203 226 255
203 225 255
203 225 255
203 225 255
203 225 255
202 225 255
202 225 255
202 225 255
202 225 255
202 225 255
202 225 255
202 225 255
201 225 255
201 225 255
201 224 255
201 224 255
201 224 255
201 224 255
201 224 255
200 224 255
200 224 255
200 224 255
200 224 255
200 224 255
200 224 255
199 224 255
199 223 255
199 223 255
199 223 255
199 223 255
199 223 255
198 223 255
198 223 255
198 223 255
198 223 255
198 223 255
198 223 255
198 223 255
197 222 255
197 222 255
197 222 255
197 222 255
197 222 255
197 222 255
196 222 255
196 222 255
196 222 255
196 222 255
196 222 255
196 222 255
196 222 255
195 221 255
195 221 255
195 221 255
195 221 255
195 221 255
195 221 255
195 221 255
195 221 255
195 221 255
194 221 255
194 221 255
194 221 255
194 221 255
194 221 255
194 221 255
194 221 255
194 221 255
194 221 255
194 221 255
194 220 255
194 220 255
194 220 255
194 220 255
194 220 255
193 220 255
193 220 255
193 220 255
193 220 255
193 220 255
193 220 255
193 220 255
194 220 255
194 220 255
194 220 255
194 220 255
194 220 255
194 220 255
194 221 255
194 221 255
194 221 255
194 221 255
194 221 255
194 221 255
194 221 255
194 221 255
194 221 255
194 221 255
195 221 255
195 221 255
195 221 255
195 221 255
195 221 255
195 221 255
195 221 255
195 221 255
195 221 255
196 222 255
196 222 255
196 222 255
196 222 255
196 222 255
196 222 255
196 222 255
197 222 255
197 222 255
197 222 255
197 222 255
197 222 255
197 222 255
198 223 255
198 223 255
198 223 255
198 223 255
198 223 255
198 223 255
198 223 255
199 223 255
199 223 255
199 223 255
199 223 255
199 223 255
199 224 255
200 224 255
200 224 255
200 224 255
200 224 255
200 224 255
200 224 255
201 224 255
201 224 255
201 224 255
201 224 255
201 224 255
201 225 255
201 225 255
202 225 255
202 225 255
202 225 255
202 225 255
202 225 255
202 225 255
202 225 255
203 225 255
203 225 255
203 225 255
203 225 255
203 226 255
203 226 255
203 226 255
204 226 255
204 226 255
204 226 255
204 226 255
204 226 255
204 226 255
204 226 255
204 226 255
204 226 255
205 226 255
205 226 255
205 226 255
205 227 255
205 227 255
205 227 255
205 227 255
205 227 255
206 227 255
206 227 255
206 227 255
206 227 255
206 227 255
206 227 255
205 227 255
205 227 255
205 227 255
205 227 255
205 227 255
205 226 255
205 226 255
205 226 255
205 226 255
204 226 255
204 226 255
204 226 255
204 226 255
204 226 255
204 226 255
204 226 255
204 226 255
203 226 255
203 226 255
203 226 255
203 225 255
203 225 255
203 225 255
203 225 255
202 225 255
202 225 255
202 225 255
202 225 255
202 225 255
202 225 255
202 225 255
201 225 255
201 225 255
201 224 255
201 224 255
201 224 255
201 224 255
201 224 255
200 224 255
200 224 255
200 224 255
200 224 255
200 224 255
200 224 255
199 224 255
199 223 255
199 223 255
199 223 255
199 223 255
199 223 255
198 223 255
198 223 255
198 223 255
198 223 255
198 223 255
198 223 255
198 223 255
197 222 255
197 222 255
197 222 255
197 222 255
197 222 255
197 222 255
197 222 255
196 222 255
196 222 255
196 222 255
196 222 255
196 222 255
196 222 255
196 221 255
195 221 255
195 221 255
195 221 255
195 221 255
195 221 255
195 221 255
195 221 255
195 221 255
195 221 255
194 221 255
194 221 255
194 221 255
194 221 255
194 221 255
194 221 255
194 221 255
194 221 255
194 221 255
194 221 255
194 221 255
194 221 255
194 221 255
194 221 255
194 221 255
194 221 255
194 221 255
194 221 255
194 221 255
194 221 255
194 221 255
194 221 255
194 221 255
194 221 255
194 221 255
194 221 255
194 221 255
194 221 255
194 221 255
194 221 255
194 221 255
194 221 255
195 221 255
195 221 255
195 221 255
195 221 255
195 221 255
195 221 255
195 221 255
195 221 255
195 221 255
196 221 255
196 222 255
196 222 255
196 222 255
196 222 255
196 222 255
196 222 255
197 222 255
197 222 255
197 222 255
197 222 255
197 222 255
197 222 255
197 222 255
198 223 255
198 223 255
198 223 255
198 223 255
198 223 255
198 223 255
199 223 255
199 223 255
199 223 255
199 223 255
199 223 255
199 223 255
199 224 255
200 224 255
200 224 255
200 224 255
200 224 255
200 224 255
200 224 255
201 224 255
201 224 255
201 224 255
201 224 255
201 224 255
201 225 255
201 225 255
202 225 255
202 225 255
202 225 255
202 225 255
202 225 255
202 225 255
202 225 255
203 225 255
203 225 255
203 225 255
203 225 255
203 226 255
203 226 255
203 226 255
204 226 255
204 226 255
204 226 255
204 226 255
204 226 255
204 226 255
204 226 255
204 226 255
205 226 255
205 226 255
205 226 255
205 227 255
205 227 255
205 227 255
205 227 255
205 227 255
205 227 255
206 227 255
206 227 255
206 227 255
206 227 255
206 227 255
206 227 255
206 227 255
206 227 255
206 227 255
206 227 255
206 227 255
205 227 255
205 227 255
205 227 255
205 227 255
205 227 255
205 226 255
205 226 255
205 226 255
204 226 255
204 226 255
204 226 255
204 226 255
204 226 255
204 226 255
204 226 255
204 226 255
203 226 255
203 226 255
203 226 255
203 225 255
203 225 255
203 225 255
203 225 255
202 225 255
202 225 255
202 225 255
202 225 255
202 225 255
202 225 255
202 225 255
201 225 255
201 225 255
201 224 255
201 224 255
201 224 255
201 224 255
201 224 255
200 224 255
200 224 255
200 224 255
200 224 255
200 224 255
200 224 255
199 224 255
199 223 255
199 223 255
199 223 255
199 223 255
199 223 255
199 223 255
198 223 255
198 223 255
198 223 255
198 223 255
198 223 255
198 223 255
197 222 255
197 222 255
197 222 255
197 222 255
197 222 255
197 222 255
197 222 255
196 222 255
196 222 255
196 222 255
196 222 255
196 222 255
196 222 255
196 222 255
196 221 255
195 221 255
195 221 255
195 221 255
195 221 255
195 221 255
195 221 255
195 221 255
195 221 255
195 221 255
195 221 255
194 221 255
194 221 255
194 221 255
194 221 255
194 221 255
194 221 255
194 221 255
194 221 255
194 221 255
194 221 255
194 221 255
194 221 255
194 221 255
194 221 255
194 221 255
194 221 255
194 221 255
194 221 255
194 221 255
194 221 255
194 221 255
194 221 255
194 221 255
194 221 255
195 221 255
195 221 255
195 221 255
195 221 255
195 221 255
195 221 255
195 221 255
195 221 255
195 221 255
195 221 255
196 221 255
196 222 255
196 222 255
196 222 255
196 222 255
196 222 255
196 222 255
196 222 255
197 222 255
197 222 255
197 222 255
197 222 255
197 222 255
197 222 255
197 222 255
198 223 255
198 223 255
198 223 255
198 223 255
198 223 255
198 223 255
198 223 255
199 223 255
199 223 255
199 223 255
199 223 255
199 223 255
199 224 255
200 224 255
200 224 255
200 224 255
200 224 255
200 224 255
200 224 255
201 224 255
201 224 255
201 224 255
201 224 255
201 224 255
201 225 255
201 225 255
202 225 255
202 225 255
202 225 255
202 225 255
202 225 255
202 225 255
202 225 255
203 225 255
203 225 255
203 225 255
203 225 255
203 226 255
203 226 255
203 226 255
204 226 255
204 226 255
204 226 255
204 226 255
204 226 255
204 226 255
204 226 255
204 226 255
205 226 255
205 226 255
205 226 255
205 227 255
205 227 255
205 227 255
205 227 255
205 227 255
206 227 255
206 227 255
206 227 255
206 227 255
206 227 255
206 227 255
206 227 255
206 227 255
206 227 255
206 227 255
206 227 255
206 227 255
206 227 255
206 227 255
206 227 255
206 227 255
205 227 255
205 227 255
205 227 255
205 227 255
205 227 255
205 226 255
205 226 255
205 226 255
205 226 255
204 226 255
204 226 255
204 226 255
204 226 255
204 226 255
204 226 255
204 226 255
203 226 255
203 226 255
203 226 255
203 226 255
203 225 255
203 225 255
203 225 255
203 225 255
202 225 255
202 225 255
202 225 255
202 225 255
202 225 255
202 225 255
201 225 255
201 225 255
201 224 255
201 224 255
201 224 255
201 224 255
201 224 255
200 224 255
200 224 255
200 224 255
200 224 255
200 224 255
200 224 255
199 224 255
199 223 255
199 223 255
199 223 255
199 223 255
199 223 255
199 223 255
198 223 255
198 223 255
198 223 255
198 223 255
198 223 255
198 223 255
197 222 255
197 222 255
197 222 255
197 222 255
197 222 255
197 222 255
197 222 255
196 222 255
196 222 255
196 222 255
196 222 255
196 222 255
196 222 255
196 222 255
196 222 255
196 221 255
195 221 255
195 221 255
195 221 255
195 221 255
195 221 255
195 221 255
195 221 255
195 221 255
195 221 255
195 221 255
195 221 255
195 221 255
195 221 255
195 221 255
194 221 255
194 221 255
194 221 255
194 221 255
194 221 255
194 221 255
194 221 255
194 221 255
194 221 255
194 221 255
194 221 255
195 221 255
195 221 255
195 221 255
195 221 255
195 221 255
195 221 255
195 221 255
195 221 255
195 221 255
195 221 255
195 221 255
195 221 255
195 221 255
196 221 255
196 222 255
196 222 255
196 222 255
196 222 255
196 222 255
196 222 255
196 222 255
196 222 255
197 222 255
197 222 255
197 222 255
197 222 255
197 222 255
197 222 255
197 222 255
198 223 255
198 223 255
198 223 255
198 223 255
198 223 255
198 223 255
199 223 255
199 223 255
199 223 255
199 223 255
199 223 255
199 223 255
199 224 255
200 224 255
200 224 255
200 224 255
200 224 255
200 224 255
200 224 255
201 224 255
201 224 255
201 224 255
201 224 255
201 224 255
201 225 255
201 225 255
202 225 255
202 225 255
202 225 255
202 225 255
202 225 255
202 225 255
203 225 255
203 225 255
203 225 255
203 225 255
203 226 255
203 226 255
203 226 255
203 226 255
204 226 255
204 226 255
204 226 255
204 226 255
204 226 255
204 226 255
204 226 255
205 226 255
205 226 255
205 226 255
205 226 255
205 227 255
205 227 255
205 227 255
205 227 255
205 227 255
206 227 255
206 227 255
206 227 255
206 227 255
206 227 255
206 227 255
206 227 255
206 227 255
206 227 255
207 227 255
207 227 255
207 227 255
206 227 255
206 227 255
206 227 255
206 227 255
206 227 255
206 227 255
206 227 255
206 227 255
206 227 255
205 227 255
205 227 255
205 227 255
205 227 255
205 227 255
205 226 255
205 226 255
205 226 255
204 226 255
204 226 255
204 226 255
204 226 255
204 226 255
204 226 255
204 226 255
204 226 255
203 226 255
203 226 255
203 226 255
203 225 255
203 225 255
203 225 255
203 225 255
202 225 255
202 225 255
202 225 255
202 225 255
202 225 255
202 225 255
202 225 255
201 225 255
201 224 255
201 224 255
201 224 255
201 224 255
201 224 255
200 224 255
200 224 255
200 224 255
200 224 255
200 224 255
200 224 255
200 224 255
199 223 255
199 223 255
199 223 255
199 223 255
199 223 255
199 223 255
198 223 255
198 223 255
198 223 255
198 223 255
198 223 255
198 223 255
198 223 255
197 222 255
197 222 255
197 222 255
197 222 255
197 222 255
197 222 255
197 222 255
196 222 255
196 222 255
196 222 255
196 222 255
196 222 255
196 222 255
196 222 255
196 222 255
196 221 255
195 221 255
195 221 255
195 221 255
195 221 255
195 221 255
195 221 255
195 221 255
195 221 255
195 221 255
195 221 255
195 221 255
195 221 255
195 221 255
195 221 255
195 221 255
195 221 255
195 221 255
195 221 255
195 221 255
195 221 255
195 221 255
195 221 255
195 221 255
195 221 255
195 221 255
195 221 255
195 221 255
195 221 255
195 221 255
195 221 255
195 221 255
195 221 255
196 221 255
196 222 255
196 222 255
196 222 255
196 222 255
196 222 255
196 222 255
196 222 255
196 222 255
197 222 255
197 222 255
197 222 255
197 222 255
197 222 255
197 222 255
197 222 255
198 223 255
198 223 255
198 223 255
198 223 255
198 223 255
198 223 255
198 223 255
199 223 255
199 223 255
199 223 255
199 223 255
199 223 255
199 223 255
200 224 255
200 224 255
200 224 255
200 224 255
200 224 255
200 224 255
200 224 255
201 224 255
201 224 255
201 224 255
201 224 255
201 225 255
201 225 255
202 225 255
202 225 255
202 225 255
202 225 255
202 225 255
202 225 255
202 225 255
203 225 255
203 225 255
203 225 255
203 225 255
203 226 255
203 226 255
203 226 255
204 226 255
204 226 255
204 226 255
204 226 255
204 226 255
204 226 255
204 226 255
204 226 255
205 226 255
205 226 255
205 226 255
205 227 255
205 227 255
205 227 255
205 227 255
205 227 255
206 227 255
206 227 255
206 227 255
206 227 255
206 227 255
206 227 255
206 227 255
206 227 255
206 227 255
207 227 255
207 227 255
207 227 255
207 228 255
207 228 255
207 228 255
207 227 255
207 227 255
207 227 255
206 227 255
206 227 255
206 227 255
206 227 255
206 227 255
206 227 255
206 227 255
206 227 255
205 227 255
205 227 255
205 227 255
205 227 255
205 227 255
205 226 255
205 226 255
205 226 255
205 226 255
204 226 255
204 226 255
204 226 255
204 226 255
204 226 255
204 226 255
204 226 255
203 226 255
203 226 255
203 226 255
203 225 255
203 225 255
203 225 255
203 225 255
202 225 255
202 225 255
202 225 255
202 225 255
202 225 255
202 225 255
202 225 255
201 225 255
201 225 255
201 224 255
201 224 255
201 224 255
201 224 255
200 224 255
200 224 255
200 224 255
200 224 255
200 224 255
200 224 255
200 224 255
199 224 255
199 223 255
199 223 255
199 223 255
199 223 255
199 223 255
198 223 255
198 223 255
198 223 255
198 223 255
198 223 255
198 223 255
198 223 255
197 222 255
197 222 255
197 222 255
197 222 255
197 222 255
197 222 255
197 222 255
197 222 255
196 222 255
196 222 255
196 222 255
196 222 255
196 222 255
196 222 255
196 222 255
196 222 255
196 222 255
196 221 255
195 221 255
195 221 255
195 221 255
195 221 255
195 221 255
195 221 255
195 221 255
195 221 255
195 221 255
195 221 255
195 221 255
195 221 255
195 221 255
195 221 255
195 221 255
195 221 255
195 221 255
195 221 255
195 221 255
195 221 255
195 221 255
195 221 255
195 221 255
195 221 255
196 221 255
196 222 255
196 222 255
196 222 255
196 222 255
196 222 255
196 222 255
196 222 255
196 222 255
196 222 255
197 222 255
197 222 255
197 222 255
197 222 255
197 222 255
197 222 255
197 222 255
197 222 255
198 223 255
198 223 255
198 223 255
198 223 255
198 223 255
198 223 255
198 223 255
199 223 255
199 223 255
199 223 255
199 223 255
199 223 255
199 224 255
200 224 255
200 224 255
200 224 255
200 224 255
200 224 255
200 224 255
200 224 255
201 224 255
201 224 255
201 224 255
201 224 255
201 225 255
201 225 255
202 225 255
202 225 255
202 225 255
202 225 255
202 225 255
202 225 255
202 225 255
203 225 255
203 225 255
203 225 255
203 225 255
203 226 255
203 226 255
203 226 255
204 226 255
204 226 255
204 226 255
204 226 255
204 226 255
204 226 255
204 226 255
204 226 255
205 226 255
205 226 255
205 226 255
205 227 255
205 227 255
205 227 255
205 227 255
205 227 255
206 227 255
206 227 255
206 227 255
206 227 255
206 227 255
206 227 255
206 227 255
206 227 255
207 227 255
207 227 255
207 227 255
207 228 255
207 228 255
207 228 255
207 228 255
207 228 255
207 228 255
207 228 255
207 228 255
207 228 255
207 227 255
207 227 255
206 227 255
206 227 255
206 227 255
206 227 255
206 227 255
206 227 255
206 227 255
206 227 255
206 227 255
205 227 255
205 227 255
205 227 255
205 227 255
205 227 255
205 226 255
205 226 255
205 226 255
204 226 255
204 226 255
204 226 255
204 226 255
204 226 255
204 226 255
204 226 255
203 226 255
203 226 255
203 226 255
203 226 255
203 225 255
203 225 255
203 225 255
202 225 255
202 225 255
202 225 255
202 225 255
202 225 255
202 225 255
202 225 255
201 225 255
201 225 255
201 224 255
201 224 255
201 224 255
201 224 255
201 224 255
200 224 255
200 224 255
200 224 255
200 224 255
200 224 255
200 224 255
199 224 255
199 223 255
199 223 255
199 223 255
199 223 255
199 223 255
199 223 255
198 223 255
198 223 255
198 223 255
198 223 255
198 223 255
198 223 255
198 223 255
197 222 255
197 222 255
197 222 255
197 222 255
197 222 255
197 222 255
197 222 255
197 222 255
196 222 255
196 222 255
196 222 255
196 222 255
196 222 255
196 222 255
196 222 255
196 222 255
196 222 255
196 222 255
196 222 255
196 222 255
196 221 255
196 221 255
196 221 255
195 221 255
195 221 255
195 221 255
195 221 255
195 221 255
195 221 255
195 221 255
195 221 255
196 221 255
196 221 255
196 221 255
196 222 255
196 222 255
196 222 255
196 222 255
196 222 255
196 222 255
196 222 255
196 222 255
196 222 255
196 222 255
196 222 255
196 222 255
197 222 255
197 222 255
197 222 255
197 222 255
197 222 255
197 222 255
197 222 255
197 222 255
198 223 255
198 223 255
198 223 255
198 223 255
198 223 255
198 223 255
198 223 255
199 223 255
199 223 255
199 223 255
199 223 255
199 223 255
199 223 255
199 224 255
200 224 255
200 224 255
200 224 255
200 224 255
200 224 255
200 224 255
201 224 255
201 224 255
201 224 255
201 224 255
201 224 255
201 225 255
201 225 255
202 225 255
202 225 255
202 225 255
202 225 255
202 225 255
202 225 255
202 225 255
203 225 255
203 225 255
203 225 255
203 226 255
203 226 255
203 226 255
203 226 255
204 226 255
204 226 255
204 226 255
204 226 255
204 226 255
204 226 255
204 226 255
205 226 255
205 226 255
205 226 255
205 227 255
205 227 255
205 227 255
205 227 255
205 227 255
206 227 255
206 227 255
206 227 255
206 227 255
206 227 255
206 227 255
206 227 255
206 227 255
206 227 255
207 227 255
207 227 255
207 228 255
207 228 255
207 228 255
207 228 255
207 228 255
207 228 255
208 228 255
208 228 255
207 228 255
207 228 255
207 228 255
207 228 255
207 228 255
207 228 255
207 228 255
207 227 255
207 227 255
206 227 255
206 227 255
206 227 255
206 227 255
206 227 255
206 227 255
206 227 255
206 227 255
206 227 255
205 227 255
205 227 255
205 227 255
205 227 255
205 226 255
205 226 255
205 226 255
205 226 255
204 226 255
204 226 255
204 226 255
204 226 255
204 226 255
204 226 255
204 226 255
203 226 255
203 226 255
203 226 255
203 225 255
203 225 255
203 225 255
203 225 255
202 225 255
202 225 255
202 225 255
202 225 255
202 225 255
202 225 255
201 225 255
201 225 255
201 224 255
201 224 255
201 224 255
201 224 255
201 224 255
200 224 255
200 224 255
200 224 255
200 224 255
200 224 255
200 224 255
199 224 255
199 223 255
199 223 255
199 223 255
199 223 255
199 223 255
199 223 255
198 223 255
198 223 255
198 223 255
198 223 255
198 223 255
198 223 255
198 223 255
198 223 255
197 222 255
197 222 255
197 222 255
197 222 255
197 222 255
197 222 255
197 222 255
197 222 255
197 222 255
196 222 255
196 222 255
196 222 255
196 222 255
196 222 255
196 222 255
196 222 255
196 222 255
196 222 255
196 222 255
196 222 255
196 222 255
196 222 255
196 222 255
196 222 255
196 222 255
196 222 255
196 222 255
196 222 255
196 222 255
196 222 255
196 222 255
196 222 255
196 222 255
196 222 255
196 222 255
196 222 255
196 222 255
196 222 255
196 222 255
197 222 255
197 222 255
197 222 255
197 222 255
197 222 255
197 222 255
197 222 255
197 222 255
197 222 255
197 223 255
198 223 255
198 223 255
198 223 255
198 223 255
198 223 255
198 223 255
198 223 255
199 223 255
199 223 255
199 223 255
199 223 255
199 223 255
199 224 255
199 224 255
200 224 255
200 224 255
200 224 255
200 224 255
200 224 255
200 224 255
201 224 255
201 224 255
201 224 255
201 224 255
201 224 255
201 225 255
201 225 255
202 225 255
202 225 255
202 225 255
202 225 255
202 225 255
202 225 255
203 225 255
203 225 255
203 225 255
203 225 255
203 226 255
203 226 255
203 226 255
204 226 255
204 226 255
204 226 255
204 226 255
204 226 255
204 226 255
204 226 255
204 226 255
205 226 255
205 226 255
205 226 255
205 227 255
205 227 255
205 227 255
205 227 255
206 227 255
206 227 255
206 227 255
206 227 255
206 227 255
206 227 255
206 227 255
206 227 255
206 227 255
207 227 255
207 227 255
207 228 255
207 228 255
207 228 255
207 228 255
207 228 255
207 228 255
207 228 255
208 228 255
208 228 255
208 228 255
208 228 255
208 228 255
208 228 255
207 228 255
207 228 255
207 228 255
207 228 255
207 228 255
207 228 255
207 228 255
207 227 255
207 227 255
207 227 255
206 227 255
206 227 255
206 227 255
206 227 255
206 227 255
206 227 255
206 227 255
206 227 255
205 227 255
205 227 255
205 227 255
205 227 255
205 227 255
205 226 255
205 226 255
205 226 255
204 226 255
204 226 255
204 226 255
204 226 255
204 226 255
204 226 255
204 226 255
203 226 255
203 226 255
203 226 255
203 225 255
203 225 255
203 225 255
203 225 255
202 225 255
202 225 255
202 225 255
202 225 255
202 225 255
202 225 255
202 225 255
201 225 255
201 225 255
201 224 255
201 224 255
201 224 255
201 224 255
200 224 255
200 224 255
200 224 255
200 224 255
200 224 255
200 224 255
200 224 255
199 224 255
199 223 255
199 223 255
199 223 255
199 223 255
199 223 255
199 223 255
198 223 255
198 223 255
198 223 255
198 223 255
198 223 255
198 223 255
198 223 255
198 223 255
197 222 255
197 222 255
197 222 255
197 222 255
197 222 255
197 222 255
197 222 255
197 222 255
197 222 255
197 222 255
197 222 255
196 222 255
196 222 255
196 222 255
196 222 255
196 222 255
196 222 255
196 222 255
196 222 255
196 222 255
196 222 255
196 222 255
196 222 255
196 222 255
196 222 255
196 222 255
196 222 255
196 222 255
196 222 255
196 222 255
196 222 255
197 222 255
197 222 255
197 222 255
197 222 255
197 222 255
197 222 255
197 222 255
197 222 255
197 222 255
197 222 255
197 222 255
198 223 255
198 223 255
198 223 255
198 223 255
198 223 255
198 223 255
198 223 255
198 223 255
199 223 255
199 223 255
199 223 255
199 223 255
199 223 255
199 223 255
199 224 255
200 224 255
200 224 255
200 224 255
200 224 255
200 224 255
200 224 255
200 224 255
201 224 255
201 224 255
201 224 255
201 224 255
201 225 255
201 225 255
202 225 255
202 225 255
202 225 255
202 225 255
202 225 255
202 225 255
202 225 255
203 225 255
203 225 255
203 225 255
203 225 255
203 226 255
203 226 255
203 226 255
204 226 255
204 226 255
204 226 255
204 226 255
204 226 255
204 226 255
204 226 255
205 226 255
205 226 255
205 226 255
205 227 255
205 227 255
205 227 255
205 227 255
205 227 255
206 227 255
206 227 255
206 227 255
206 227 255
206 227 255
206 227 255
206 227 255
206 227 255
207 227 255
207 227 255
207 228 255
207 228 255
207 228 255
207 228 255
207 228 255
207 228 255
207 228 255
208 228 255
208 228 255
208 228 255
208 228 255
208 228 255
208 228 255
208 228 255
208 228 255
208 228 255
208 228 255
208 228 255
208 228 255
207 228 255
207 228 255
207 228 255
207 228 255
207 228 255
207 228 255
207 228 255
207 227 255
207 227 255
207 227 255
206 227 255
206 227 255
206 227 255
206 227 255
206 227 255
206 227 255
206 227 255
206 227 255
205 227 255
205 227 255
205 227 255
205 227 255
205 226 255
205 226 255
205 226 255
205 226 255
204 226 255
204 226 255
204 226 255
204 226 255
204 226 255
204 226 255
204 226 255
203 226 255
203 226 255
203 226 255
203 225 255
203 225 255
203 225 255
202 225 255
202 225 255
202 225 255
202 225 255
202 225 255
202 225 255
202 225 255
201 225 255
201 225 255
201 224 255
201 224 255
201 224 255
201 224 255
201 224 255
200 224 255
200 224 255
200 224 255
200 224 255
200 224 255
200 224 255
200 224 255
199 224 255
199 223 255
199 223 255
199 223 255
199 223 255
199 223 255
199 223 255
198 223 255
198 223 255
198 223 255
198 223 255
198 223 255
198 223 255
198 223 255
198 223 255
197 223 255
197 222 255
197 222 255
197 222 255
197 222 255
197 222 255
197 222 255
197 222 255
197 222 255
197 222 255
197 222 255
197 222 255
197 222 255
197 222 255
197 222 255
197 222 255
197 222 255
197 222 255
197 222 255
197 222 255
197 222 255
197 222 255
197 222 255
197 222 255
197 222 255
197 222 255
197 222 255
197 222 255
197 222 255
197 222 255
197 222 255
197 222 255
197 222 255
197 222 255
197 222 255
197 223 255
198 223 255
198 223 255
198 223 255
198 223 255
198 223 255
198 223 255
198 223 255
198 223 255
199 223 255
199 223 255
199 223 255
199 223 255
199 223 255
199 223 255
199 223 255
200 224 255
200 224 255
200 224 255
200 224 255
200 224 255
200 224 255
200 224 255
201 224 255
201 224 255
201 224 255
201 224 255
201 224 255
201 225 255
201 225 255
202 225 255
202 225 255
202 225 255
202 225 255
202 225 255
202 225 255
203 225 255
203 225 255
203 225 255
203 225 255
203 226 255
203 226 255
203 226 255
204 226 255
204 226 255
204 226 255
204 226 255
204 226 255
204 226 255
204 226 255
205 226 255
205 226 255
205 226 255
205 227 255
205 227 255
205 227 255
205 227 255
205 227 255
206 227 255
206 227 255
206 227 255
206 227 255
206 227 255
206 227 255
206 227 255
206 227 255
206 227 255
207 227 255
207 227 255
207 228 255
207 228 255
207 228 255
207 228 255
207 228 255
207 228 255
207 228 255
208 228 255
208 228 255
208 228 255
208 228 255
208 228 255
208 228 255
208 228 255
208 228 255
208 228 255
208 228 255
208 228 255
208 228 255
208 228 255
208 228 255
208 228 255
208 228 255
208 228 255
207 228 255
207 228 255
207 228 255
207 228 255
207 228 255
207 228 255
207 228 255
207 227 255
207 227 255
206 227 255
206 227 255
206 227 255
206 227 255
206 227 255
206 227 255
206 227 255
206 227 255
206 227 255
205 227 255
205 227 255
205 227 255
205 227 255
205 226 255
205 226 255
205 226 255
204 226 255
204 226 255
204 226 255
204 226 255
204 226 255
204 226 255
204 226 255
203 226 255
203 226 255
203 226 255
203 225 255
203 225 255
203 225 255
203 225 255
202 225 255
202 225 255
202 225 255
202 225 255
202 225 255
202 225 255
202 225 255
201 225 255
201 225 255
201 224 255
201 224 255
201 224 255
201 224 255
200 224 255
200 224 255
200 224 255
200 224 255
200 224 255
200 224 255
200 224 255
199 224 255
199 223 255
199 223 255
199 223 255
199 223 255
199 223 255
199 223 255
199 223 255
198 223 255
198 223 255
198 223 255
198 223 255
198 223 255
198 223 255
198 223 255
198 223 255
198 223 255
198 223 255
197 222 255
197 222 255
197 222 255
197 222 255
197 222 255
197 222 255
197 222 255
197 222 255
197 222 255
197 222 255
197 222 255
197 222 255
197 222 255
197 222 255
197 222 255
197 222 255
197 222 255
197 222 255
197 222 255
197 222 255
197 222 255
197 222 255
197 222 255
197 222 255
197 222 255
197 222 255
198 223 255
198 223 255
198 223 255
198 223 255
198 223 255
198 223 255
198 223 255
198 223 255
198 223 255
198 223 255
199 223 255
199 223 255
199 223 255
199 223 255
199 223 255
199 223 255
199 223 255
199 224 255
200 224 255
200 224 255
200 224 255
200 224 255
200 224 255
200 224 255
200 224 255
201 224 255
201 224 255
201 224 255
201 224 255
201 225 255
201 225 255
202 225 255
202 225 255
202 225 255
202 225 255
202 225 255
202 225 255
202 225 255
203 225 255
203 225 255
203 225 255
203 225 255
203 226 255
203 226 255
203 226 255
204 226 255
204 226 255
204 226 255
204 226 255
204 226 255
204 226 255
204 226 255
205 226 255
205 226 255
205 226 255
205 227 255
205 227 255
205 227 255
205 227 255
206 227 255
206 227 255
206 227 255
206 227 255
206 227 255
206 227 255
206 227 255
206 227 255
206 227 255
207 227 255
207 227 255
207 228 255
207 228 255
207 228 255
207 228 255
207 228 255
207 228 255
207 228 255
208 228 255
208 228 255
208 228 255
208 228 255
208 228 255
208 228 255
208 228 255
208 228 255
208 228 255
208 228 255
209 229 255
209 229 255
209 229 255
208 228 255
208 228 255
208 228 255
208 228 255
208 228 255
208 228 255
208 228 255
208 228 255
208 228 255
208 228 255
207 228 255
207 228 255
207 228 255
207 228 255
207 228 255
207 228 255
207 228 255
207 227 255
207 227 255
206 227 255
206 227 255
206 227 255
206 227 255
206 227 255
206 227 255
206 227 255
206 227 255
205 227 255
205 227 255
205 227 255
205 227 255
205 227 255
205 226 255
205 226 255
205 226 255
204 226 255
204 226 255
204 226 255
204 226 255
204 226 255
204 226 255
204 226 255
203 226 255
203 226 255
203 226 255
203 225 255
203 225 255
203 225 255
203 225 255
202 225 255
202 225 255
202 225 255
202 225 255
202 225 255
202 225 255
201 225 255
201 225 255
201 224 255
201 224 255
201 224 255
201 224 255
201 224 255
200 224 255
200 224 255
200 224 255
200 224 255
200 224 255
200 224 255
200 224 255
199 224 255
199 223 255
199 223 255
199 223 255
199 223 255
199 223 255
199 223 255
199 223 255
198 223 255
198 223 255
198 223 255
198 223 255
198 223 255
198 223 255
198 223 255
198 223 255
198 223 255
198 223 255
198 223 255
198 223 255
198 223 255
198 223 255
197 222 255
197 222 255
197 222 255
197 222 255
197 222 255
197 222 255
197 222 255
197 222 255
197 222 255
197 222 255
197 222 255
197 222 255
198 223 255
198 223 255
198 223 255
198 223 255
198 223 255
198 223 255
198 223 255
198 223 255
198 223 255
198 223 255
198 223 255
198 223 255
198 223 255
198 223 255
199 223 255
199 223 255
199 223 255
199 223 255
199 223 255
199 223 255
199 223 255
199 224 255
200 224 255
200 224 255
200 224 255
200 224 255
200 224 255
200 224 255
200 224 255
201 224 255
201 224 255
201 224 255
201 224 255
201 224 255
201 225 255
201 225 255
202 225 255
202 225 255
202 225 255
202 225 255
202 225 255
202 225 255
203 225 255
203 225 255
203 225 255
203 225 255
203 226 255
203 226 255
203 226 255
204 226 255
204 226 255
204 226 255
204 226 255
204 226 255
204 226 255
204 226 255
205 226 255
205 226 255
205 226 255
205 227 255
205 227 255
205 227 255
205 227 255
205 227 255
206 227 255
206 227 255
206 227 255
206 227 255
206 227 255
206 227 255
206 227 255
206 227 255
207 227 255
207 227 255
207 228 255
207 228 255
207 228 255
207 228 255
207 228 255
207 228 255
207 228 255
208 228 255
208 228 255
208 228 255
208 228 255
208 228 255
208 228 255
208 228 255
208 228 255
208 228 255
208 228 255
209 229 255
209 229 255
209 229 255
209 229 255
209 229 255
209 229 255
209 229 255
209 229 255
209 229 255
208 228 255
208 228 255
208 228 255
208 228 255
208 228 255
208 228 255
208 228 255
208 228 255
208 228 255
208 228 255
207 228 255
207 228 255
207 228 255
207 228 255
207 228 255
207 228 255
207 228 255
207 227 255
207 227 255
206 227 255
206 227 255
206 227 255
206 227 255
206 227 255
206 227 255
206 227 255
206 227 255
205 227 255
205 227 255
205 227 255
205 227 255
205 226 255
205 226 255
205 226 255
205 226 255
204 226 255
204 226 255
204 226 255
204 226 255
204 226 255
204 226 255
204 226 255
203 226 255
203 226 255
203 226 255
203 225 255
203 225 255
203 225 255
202 225 255
202 225 255
202 225 255
202 225 255
202 225 255
202 225 255
202 225 255
201 225 255
201 225 255
201 224 255
201 224 255
201 224 255
201 224 255
201 224 255
200 224 255
200 224 255
200 224 255
200 224 255
200 224 255
200 224 255
200 224 255
199 224 255
199 224 255
199 223 255
199 223 255
199 223 255
199 223 255
199 223 255
199 223 255
199 223 255
199 223 255
198 223 255
198 223 255
198 223 255
198 223 255
198 223 255
198 223 255
198 223 255
198 223 255
198 223 255
198 223 255
198 223 255
198 223 255
198 223 255
198 223 255
198 223 255
198 223 255
198 223 255
198 223 255
198 223 255
198 223 255
198 223 255
198 223 255
198 223 255
198 223 255
198 223 255
198 223 255
198 223 255
198 223 255
198 223 255
198 223 255
198 223 255
199 223 255
199 223 255
199 223 255
199 223 255
199 223 255
199 223 255
199 223 255
199 224 255
200 224 255
200 224 255
200 224 255
200 224 255
200 224 255
200 224 255
200 224 255
200 224 255
201 224 255
201 224 255
201 224 255
201 224 255
201 224 255
201 225 255
201 225 255
202 225 255
202 225 255
202 225 255
202 225 255
202 225 255
202 225 255
203 225 255
203 225 255
203 225 255
203 225 255
203 225 255
203 226 255
203 226 255
204 226 255
204 226 255
204 226 255
204 226 255
204 226 255
204 226 255
204 226 255
205 226 255
205 226 255
205 226 255
205 226 255
205 227 255
205 227 255
205 227 255
205 227 255
206 227 255
206 227 255
206 227 255
206 227 255
206 227 255
206 227 255
206 227 255
206 227 255
207 227 255
207 227 255
207 228 255
207 228 255
207 228 255
207 228 255
207 228 255
207 228 255
207 228 255
208 228 255
208 228 255
208 228 255
208 228 255
208 228 255
208 228 255
208 228 255
208 228 255
208 228 255
209 228 255
209 229 255
209 229 255
209 229 255
209 229 255
209 229 255
209 229 255
209 229 255
209 229 255
209 229 255
209 229 255
209 229 255
209 229 255
209 229 255
209 229 255
209 229 255
209 228 255
208 228 255
208 228 255
208 228 255
208 228 255
208 228 255
208 228 255
208 228 255
208 228 255
208 228 255
207 228 255
207 228 255
207 228 255
207 228 255
207 228 255
207 228 255
207 228 255
207 227 255
207 227 255
206 227 255
206 227 255
206 227 255
206 227 255
206 227 255
206 227 255
206 227 255
206 227 255
205 227 255
205 227 255
205 227 255
205 227 255
205 226 255
205 226 255
205 226 255
204 226 255
204 226 255
204 226 255
204 226 255
204 226 255
204 226 255
204 226 255
203 226 255
203 226 255
203 226 255
203 225 255
203 225 255
203 225 255
203 225 255
202 225 255
202 225 255
202 225 255
202 225 255
202 225 255
202 225 255
202 225 255
201 225 255
201 225 255
201 224 255
201 224 255
201 224 255
201 224 255
201 224 255
200 224 255
200 224 255
200 224 255
200 224 255
200 224 255
200 224 255
200 224 255
200 224 255
199 224 255
199 223 255
199 223 255
199 223 255
199 223 255
199 223 255
199 223 255
199 223 255
199 223 255
199 223 255
199 223 255
198 223 255
198 223 255
198 223 255
198 223 255
198 223 255
198 223 255
198 223 255
198 223 255
198 223 255
198 223 255
198 223 255
198 223 255
198 223 255
198 223 255
198 223 255
198 223 255
198 223 255
198 223 255
198 223 255
199 223 255
199 223 255
199 223 255
199 223 255
199 223 255
199 223 255
199 223 255
199 223 255
199 223 255
199 223 255
199 224 255
199 224 255
200 224 255
200 224 255
200 224 255
200 224 255
200 224 255
200 224 255
200 224 255
200 224 255
201 224 255
201 224 255
201 224 255
201 224 255
201 224 255
201 225 255
201 225 255
202 225 255
202 225 255
202 225 255
202 225 255
202 225 255
202 225 255
202 225 255
203 225 255
203 225 255
203 225 255
203 225 255
203 226 255
203 226 255
203 226 255
204 226 255
204 226 255
204 226 255
204 226 255
204 226 255
204 226 255
204 226 255
205 226 255
205 226 255
205 226 255
205 227 255
205 227 255
205 227 255
205 227 255
206 227 255
206 227 255
206 227 255
206 227 255
206 227 255
206 227 255
206 227 255
206 227 255
207 227 255
207 227 255
207 228 255
207 228 255
207 228 255
207 228 255
207 228 255
207 228 255
207 228 255
208 228 255
208 228 255
208 228 255
208 228 255
208 228 255
208 228 255
208 228 255
208 228 255
208 228 255
209 228 255
209 229 255
209 229 255
209 229 255
209 229 255
209 229 255
209 229 255
209 229 255
209 229 255
209 229 255
210 229 255
210 229 255
209 229 255
209 229 255
209 229 255
209 229 255
209 229 255
209 229 255
209 229 255
209 229 255
209 229 255
209 229 255
209 228 255
208 228 255
208 228 255
208 228 255
208 228 255
208 228 255
208 228 255
208 228 255
208 228 255
208 228 255
208 228 255
207 228 255
207 228 255
207 228 255
207 228 255
207 228 255
207 228 255
207 227 255
207 227 255
206 227 255
206 227 255
206 227 255
206 227 255
206 227 255
206 227 255
206 227 255
206 227 255
205 227 255
205 227 255
205 227 255
205 227 255
205 226 255
205 226 255
205 226 255
204 226 255
204 226 255
204 226 255
204 226 255
204 226 255
204 226 255
204 226 255
203 226 255
203 226 255
203 226 255
203 225 255
203 225 255
203 225 255
203 225 255
202 225 255
202 225 255
202 225 255
202 225 255
202 225 255
202 225 255
202 225 255
201 225 255
201 225 255
201 224 255
201 224 255
201 224 255
201 224 255
201 224 255
200 224 255
200 224 255
200 224 255
200 224 255
200 224 255
200 224 255
200 224 255
200 224 255
200 224 255
199 224 255
199 224 255
199 223 255
199 223 255
199 223 255
199 223 255
199 223 255
199 223 255
199 223 255
199 223 255
199 223 255
199 223 255
199 223 255
199 223 255
199 223 255
199 223 255
199 223 255
199 223 255
199 223 255
199 223 255
199 223 255
199 223 255
199 223 255
199 223 255
199 223 255
199 223 255
199 223 255
199 223 255
199 223 255
199 223 255
199 223 255
199 223 255
199 224 255
199 224 255
200 224 255
200 224 255
200 224 255
200 224 255
200 224 255
200 224 255
200 224 255
200 224 255
200 224 255
201 224 255
201 224 255
201 224 255
201 224 255
201 224 255
201 225 255
201 225 255
202 225 255
202 225 255
202 225 255
202 225 255
202 225 255
202 225 255
202 225 255
203 225 255
203 225 255
203 225 255
203 225 255
203 226 255
203 226 255
203 226 255
204 226 255
204 226 255
204 226 255
204 226 255
204 226 255
204 226 255
204 226 255
205 226 255
205 226 255
205 226 255
205 227 255
205 227 255
205 227 255
205 227 255
206 227 255
206 227 255
206 227 255
206 227 255
206 227 255
206 227 255
206 227 255
206 227 255
207 227 255
207 227 255
207 228 255
207 228 255
207 228 255
207 228 255
207 228 255
207 228 255
207 228 255
208 228 255
208 228 255
208 228 255
208 228 255
208 228 255
208 228 255
208 228 255
208 228 255
208 228 255
209 228 255
209 229 255
209 229 255
209 229 255
209 229 255
209 229 255
209 229 255
209 229 255
209 229 255
209 229 255
209 229 255
210 229 255
210 229 255
210 229 255
210 229 255
210 229 255
210 229 255
210 229 255
210 229 255
209 229 255
209 229 255
209 229 255
209 229 255
209 229 255
209 229 255
209 229 255
209 229 255
209 229 255
209 229 255
208 228 255
208 228 255
208 228 255
208 228 255
208 228 255
208 228 255
208 228 255
208 228 255
208 228 255
208 228 255
207 228 255
207 228 255
207 228 255
207 228 255
207 228 255
207 228 255
207 227 255
207 227 255
206 227 255
206 227 255
206 227 255
206 227 255
206 227 255
206 227 255
206 227 255
206 227 255
205 227 255
205 227 255
205 227 255
205 227 255
205 226 255
205 226 255
205 226 255
204 226 255
204 226 255
204 226 255
204 226 255
204 226 255
204 226 255
204 226 255
203 226 255
203 226 255
203 226 255
203 225 255
203 225 255
203 225 255
203 225 255
202 225 255
202 225 255
202 225 255
202 225 255
202 225 255
202 225 255
202 225 255
201 225 255
201 225 255
201 224 255
201 224 255
201 224 255
201 224 255
201 224 255
201 224 255
200 224 255
200 224 255
200 224 255
200 224 255
200 224 255
200 224 255
200 224 255
200 224 255
200 224 255
200 224 255
200 224 255
199 224 255
199 224 255
199 223 255
199 223 255
199 223 255
199 223 255
199 223 255
199 223 255
199 223 255
199 223 255
199 223 255
199 223 255
199 223 255
199 223 255
199 223 255
199 223 255
199 223 255
199 223 255
199 223 255
199 223 255
199 224 255
199 224 255
200 224 255
200 224 255
200 224 255
200 224 255
200 224 255
200 224 255
200 224 255
200 224 255
200 224 255
200 224 255
200 224 255
201 224 255
201 224 255
201 224 255
201 224 255
201 224 255
201 224 255
201 225 255
201 225 255
202 225 255
202 225 255
202 225 255
202 225 255
202 225 255
202 225 255
202 225 255
203 225 255
203 225 255
203 225 255
203 225 255
203 226 255
203 226 255
203 226 255
204 226 255
204 226 255
204 226 255
204 226 255
204 226 255
204 226 255
204 226 255
205 226 255
205 226 255
205 226 255
205 227 255
205 227 255
205 227 255
205 227 255
206 227 255
206 227 255
206 227 255
206 227 255
206 227 255
206 227 255
206 227 255
206 227 255
207 227 255
207 227 255
207 228 255
207 228 255
207 228 255
207 228 255
207 228 255
207 228 255
208 228 255
208 228 255
208 228 255
208 228 255
208 228 255
208 228 255
208 228 255
208 228 255
208 228 255
208 228 255
209 229 255
209 229 255
209 229 255
209 229 255
209 229 255
209 229 255
209 229 255
209 229 255
209 229 255
209 229 255
210 229 255
210 229 255
210 229 255
210 229 255
210 229 255
210 229 255
210 229 255
210 229 255
210 229 255
210 229 255
210 229 255
210 229 255
210 229 255
210 229 255
210 229 255
210 229 255
209 229 255
209 229 255
209 229 255
209 229 255
209 229 255
209 229 255
209 229 255
209 229 255
209 229 255
209 228 255
208 228 255
208 228 255
208 228 255
208 228 255
208 228 255
208 228 255
208 228 255
208 228 255
208 228 255
207 228 255
207 228 255
207 228 255
207 228 255
207 228 255
207 228 255
207 227 255
207 227 255
206 227 255
206 227 255
206 227 255
206 227 255
206 227 255
206 227 255
206 227 255
206 227 255
205 227 255
205 227 255
205 227 255
205 227 255
205 226 255
205 226 255
205 226 255
204 226 255
204 226 255
204 226 255
204 226 255
204 226 255
204 226 255
204 226 255
203 226 255
203 226 255
203 226 255
203 225 255
203 225 255
203 225 255
203 225 255
202 225 255
202 225 255
202 225 255
202 225 255
202 225 255
202 225 255
202 225 255
201 225 255
201 225 255
201 225 255
201 224 255
201 224 255
201 224 255
201 224 255
201 224 255
201 224 255
200 224 255
200 224 255
200 224 255
200 224 255
200 224 255
200 224 255
200 224 255
200 224 255
200 224 255
200 224 255
200 224 255
200 224 255
200 224 255
200 224 255
200 224 255
200 224 255
200 224 255
200 224 255
200 224 255
200 224 255
200 224 255
200 224 255
200 224 255
200 224 255
200 224 255
200 224 255
200 224 255
200 224 255
200 224 255
200 224 255
200 224 255
200 224 255
200 224 255
200 224 255
200 224 255
200 224 255
201 224 255
201 224 255
201 224 255
201 224 255
201 224 255
201 224 255
201 225 255
201 225 255
201 225 255
202 225 255
202 225 255
202 225 255
202 225 255
202 225 255
202 225 255
202 225 255
203 225 255
203 225 255
203 225 255
203 225 255
203 226 255
203 226 255
203 226 255
204 226 255
204 226 255
204 226 255
204 226 255
204 226 255
204 226 255
204 226 255
205 226 255
205 226 255
205 226 255
205 227 255
205 227 255
205 227 255
205 227 255
206 227 255
206 227 255
206 227 255
206 227 255
206 227 255
206 227 255
206 227 255
206 227 255
207 227 255
207 227 255
207 228 255
207 228 255
207 228 255
207 228 255
207 228 255
207 228 255
208 228 255
208 228 255
208 228 255
208 228 255
208 228 255
208 228 255
208 228 255
208 228 255
208 228 255
209 228 255
209 229 255
209 229 255
209 229 255
209 229 255
209 229 255
209 229 255
209 229 255
209 229 255
209 229 255
210 229 255
210 229 255
210 229 255
210 229 255
210 229 255
210 229 255
210 229 255
210 229 255
210 229 255
210 229 255
211 230 255
211 230 255
210 230 255
210 229 255
210 229 255
210 229 255
210 229 255
210 229 255
210 229 255
210 229 255
210 229 255
210 229 255
210 229 255
209 229 255
209 229 255
209 229 255
209 229 255
209 229 255
209 229 255
209 229 255
209 229 255
209 229 255
209 228 255
208 228 255
208 228 255
208 228 255
208 228 255
208 228 255
208 228 255
208 228 255
208 228 255
208 228 255
207 228 255
207 228 255
207 228 255
207 228 255
207 228 255
207 228 255
207 227 255
207 227 255
206 227 255
206 227 255
206 227 255
206 227 255
206 227 255
206 227 255
206 227 255
206 227 255
205 227 255
205 227 255
205 227 255
205 227 255
205 226 255
205 226 255
205 226 255
204 226 255
204 226 255
204 226 255
204 226 255
204 226 255
204 226 255
204 226 255
203 226 255
203 226 255
203 226 255
203 225 255
203 225 255
203 225 255
203 225 255
202 225 255
202 225 255
202 225 255
202 225 255
202 225 255
202 225 255
202 225 255
202 225 255
201 225 255
201 225 255
201 225 255
201 224 255
201 224 255
201 224 255
201 224 255
201 224 255
201 224 255
201 224 255
201 224 255
200 224 255
200 224 255
200 224 255
200 224 255
200 224 255
200 224 255
200 224 255
200 224 255
200 224 255
200 224 255
200 224 255
200 224 255
200 224 255
200 224 255
200 224 255
200 224 255
200 224 255
200 224 255
200 224 255
200 224 255
200 224 255
200 224 255
200 224 255
200 224 255
201 224 255
201 224 255
201 224 255
201 224 255
201 224 255
201 224 255
201 224 255
201 224 255
201 225 255
201 225 255
201 225 255
202 225 255
202 225 255
202 225 255
202 225 255
202 225 255
202 225 255
202 225 255
202 225 255
203 225 255
203 225 255
203 225 255
203 225 255
203 226 255
203 226 255
203 226 255
204 226 255
204 226 255
204 226 255
204 226 255
204 226 255
204 226 255
204 226 255
205 226 255
205 226 255
205 226 255
205 227 255
205 227 255
205 227 255
205 227 255
206 227 255
206 227 255
206 227 255
206 227 255
206 227 255
206 227 255
206 227 255
206 227 255
207 227 255
207 227 255
207 228 255
207 228 255
207 228 255
207 228 255
207 228 255
207 228 255
208 228 255
208 228 255
208 228 255
208 228 255
208 228 255
208 228 255
208 228 255
208 228 255
208 228 255
209 228 255
209 229 255
209 229 255
209 229 255
209 229 255
209 229 255
209 229 255
209 229 255
209 229 255
209 229 255
210 229 255
210 229 255
210 229 255
210 229 255
210 229 255
210 229 255
210 229 255
210 229 255
210 229 255
210 229 255
210 230 255
211 230 255
211 230 255
211 230 255
211 230 255
211 230 255
211 230 255
211 230 255
210 230 255
210 230 255
210 229 255
210 229 255
210 229 255
210 229 255
210 229 255
210 229 255
210 229 255
210 229 255
210 229 255
210 229 255
209 229 255
209 229 255
209 229 255
209 229 255
209 229 255
209 229 255
209 229 255
209 229 255
209 229 255
208 228 255
208 228 255
208 228 255
208 228 255
208 228 255
208 228 255
208 228 255
208 228 255
208 228 255
207 228 255
207 228 255
207 228 255
207 228 255
207 228 255
207 228 255
207 227 255
207 227 255
206 227 255
206 227 255
206 227 255
206 227 255
206 227 255
206 227 255
206 227 255
206 227 255
205 227 255
205 227 255
205 227 255
205 227 255
205 226 255
205 226 255
205 226 255
204 226 255
204 226 255
204 226 255
204 226 255
204 226 255
204 226 255
204 226 255
203 226 255
203 226 255
203 226 255
203 226 255
203 225 255
203 225 255
203 225 255
203 225 255
202 225 255
202 225 255
202 225 255
202 225 255
202 225 255
202 225 255
202 225 255
202 225 255
202 225 255
201 225 255
201 225 255
201 225 255
201 224 255
201 224 255
201 224 255
201 224 255
201 224 255
201 224 255
201 224 255
201 224 255
201 224 255
201 224 255
201 224 255
201 224 255
201 224 255
201 224 255
201 224 255
201 224 255
201 224 255
201 224 255
201 224 255
201 224 255
201 224 255
201 224 255
201 224 255
201 224 255
201 224 255
201 224 255
201 224 255
201 224 255
201 224 255
201 224 255
201 225 255
201 225 255
201 225 255
202 225 255
202 225 255
202 225 255
202 225 255
202 225 255
202 225 255
202 225 255
202 225 255
202 225 255
203 225 255
203 225 255
203 225 255
203 225 255
203 226 255
203 226 255
203 226 255
203 226 255
204 226 255
204 226 255
204 226 255
204 226 255
204 226 255
204 226 255
204 226 255
205 226 255
205 226 255
205 226 255
205 227 255
205 227 255
205 227 255
205 227 255
206 227 255
206 227 255
206 227 255
206 227 255
206 227 255
206 227 255
206 227 255
206 227 255
207 227 255
207 227 255
207 228 255
207 228 255
207 228 255
207 228 255
207 228 255
207 228 255
208 228 255
208 228 255
208 228 255
208 228 255
208 228 255
208 228 255
208 228 255
208 228 255
208 228 255
209 229 255
209 229 255
209 229 255
209 229 255
209 229 255
209 229 255
209 229 255
209 229 255
209 229 255
210 229 255
210 229 255
210 229 255
210 229 255
210 229 255
210 229 255
210 229 255
210 229 255
210 229 255
210 229 255
210 230 255
210 230 255
211 230 255
211 230 255
211 230 255
211 230 255
211 230 255
211 230 255
211 230 255
211 230 255
211 230 255
211 230 255
211 230 255
211 230 255
211 230 255
211 230 255
210 230 255
210 229 255
210 229 255
210 229 255
210 229 255
210 229 255
210 229 255
210 229 255
210 229 255
210 229 255
210 229 255
209 229 255
209 229 255
209 229 255
209 229 255
209 229 255
209 229 255
209 229 255
209 229 255
209 229 255
209 228 255
208 228 255
208 228 255
208 228 255
208 228 255
208 228 255
208 228 255
208 228 255
208 228 255
208 228 255
207 228 255
207 228 255
207 228 255
207 228 255
207 228 255
207 228 255
207 227 255
206 227 255
206 227 255
206 227 255
206 227 255
206 227 255
206 227 255
206 227 255
206 227 255
205 227 255
205 227 255
205 227 255
205 227 255
205 226 255
205 226 255
205 226 255
204 226 255
204 226 255
204 226 255
204 226 255
204 226 255
204 226 255
204 226 255
204 226 255
203 226 255
203 226 255
203 226 255
203 225 255
203 225 255
203 225 255
203 225 255
203 225 255
202 225 255
202 225 255
202 225 255
202 225 255
202 225 255
202 225 255
202 225 255
202 225 255
202 225 255
202 225 255
201 225 255
201 225 255
201 225 255
201 225 255
201 225 255
201 224 255
201 224 255
201 224 255
201 224 255
201 224 255
201 224 255
201 224 255
201 224 255
201 224 255
201 224 255
201 224 255
201 224 255
201 224 255
201 224 255
201 224 255
201 225 255
201 225 255
201 225 255
201 225 255
201 225 255
201 225 255
202 225 255
202 225 255
202 225 255
202 225 255
202 225 255
202 225 255
202 225 255
202 225 255
202 225 255
202 225 255
203 225 255
203 225 255
203 225 255
203 225 255
203 225 255
203 226 255
203 226 255
203 226 255
204 226 255
204 226 255
204 226 255
204 226 255
204 226 255
204 226 255
204 226 255
204 226 255
205 226 255
205 226 255
205 227 255
205 227 255
205 227 255
205 227 255
205 227 255
206 227 255
206 227 255
206 227 255
206 227 255
206 227 255
206 227 255
206 227 255
207 227 255
207 227 255
207 228 255
207 228 255
207 228 255
207 228 255
207 228 255
207 228 255
207 228 255
208 228 255
208 228 255
208 228 255
208 228 255
208 228 255
208 228 255
208 228 255
208 228 255
209 228 255
209 229 255
209 229 255
209 229 255
209 229 255
209 229 255
209 229 255
209 229 255
209 229 255
209 229 255
210 229 255
210 229 255
210 229 255
210 229 255
210 229 255
210 229 255
210 229 255
210 229 255
210 229 255
210 229 255
210 230 255
211 230 255
211 230 255
211 230 255
211 230 255
211 230 255
211 230 255
211 230 255
211 230 255
211 230 255
212 230 255
211 230 255
211 230 255
211 230 255
211 230 255
211 230 255
211 230 255
211 230 255
211 230 255
211 230 255
211 230 255
211 230 255
211 230 255
210 230 255
210 229 255
210 229 255
210 229 255
210 229 255
210 229 255
210 229 255
210 229 255
210 229 255
210 229 255
210 229 255
209 229 255
209 229 255
209 229 255
209 229 255
209 229 255
209 229 255
209 229 255
209 229 255
209 229 255
208 228 255
208 228 255
208 228 255
208 228 255
208 228 255
208 228 255
208 228 255
208 228 255
208 228 255
207 228 255
207 228 255
207 228 255
207 228 255
207 228 255
207 228 255
207 227 255
207 227 255
206 227 255
206 227 255
206 227 255
206 227 255
206 227 255
206 227 255
206 227 255
205 227 255
205 227 255
205 227 255
205 227 255
205 227 255
205 226 255
205 226 255
205 226 255
204 226 255
204 226 255
204 226 255
204 226 255
204 226 255
204 226 255
204 226 255
204 226 255
203 226 255
203 226 255
203 226 255
203 225 255
203 225 255
203 225 255
203 225 255
203 225 255
203 225 255
202 225 255
202 225 255
202 225 255
202 225 255
202 225 255
202 225 255
202 225 255
202 225 255
202 225 255
202 225 255
202 225 255
202 225 255
202 225 255
202 225 255
202 225 255
202 225 255
202 225 255
202 225 255
202 225 255
202 225 255
202 225 255
202 225 255
202 225 255
202 225 255
202 225 255
202 225 255
202 225 255
202 225 255
202 225 255
202 225 255
202 225 255
202 225 255
202 225 255
202 225 255
202 225 255
202 225 255
203 225 255
203 225 255
203 225 255
203 225 255
203 225 255
203 225 255
203 226 255
203 226 255
203 226 255
204 226 255
204 226 255
204 226 255
204 226 255
204 226 255
204 226 255
204 226 255
204 226 255
205 226 255
205 226 255
205 226 255
205 227 255
205 227 255
205 227 255
205 227 255
206 227 255
206 227 255
206 227 255
206 227 255
206 227 255
206 227 255
206 227 255
206 227 255
207 227 255
207 227 255
207 228 255
207 228 255
207 228 255
207 228 255
207 228 255
207 228 255
208 228 255
208 228 255
208 228 255
208 228 255
208 228 255
208 228 255
208 228 255
208 228 255
208 228 255
209 229 255
209 229 255
209 229 255
209 229 255
209 229 255
209 229 255
209 229 255
209 229 255
209 229 255
210 229 255
210 229 255
210 229 255
210 229 255
210 229 255
210 229 255
210 229 255
210 229 255
210 229 255
210 230 255
210 230 255
211 230 255
211 230 255
211 230 255
211 230 255
211 230 255
211 230 255
211 230 255
211 230 255
211 230 255
211 230 255
211 230 255
211 230 255
212 230 255
212 230 255
212 230 255
212 230 255
212 230 255
212 230 255
211 230 255
211 230 255
211 230 255
211 230 255
211 230 255
211 230 255
211 230 255
211 230 255
211 230 255
211 230 255
211 230 255
211 230 255
210 230 255
210 229 255
210 229 255
210 229 255
210 229 255
210 229 255
207 227 248
206 226 241
204 224 238
202 222 231
201 222 231
196 218 217
197 219 223
194 217 212
192 215 206
191 214 198
192 215 204
193 215 206
194 216 209
196 218 218
193 216 207
196 218 217
195 217 214
201 223 234
202 223 238
206 227 252
207 228 254
208 228 255
207 228 255
207 228 255
207 228 255
207 228 255
207 228 255
207 228 255
207 227 255
207 227 255
206 227 255
206 227 255
206 227 255
206 227 255
206 227 255
206 227 255
206 227 255
206 227 255
205 227 255
205 227 255
205 227 255
205 227 255
205 227 255
205 226 255
205 226 255
205 226 255
204 226 255
204 226 255
204 226 255
204 226 255
204 226 255
204 226 255
204 226 255
204 226 255
203 226 255
203 226 255
203 226 255
203 226 255
203 225 255
203 225 255
203 225 255
203 225 255
203 225 255
203 225 255
203 225 255
202 225 255
202 225 255
202 225 255
202 225 255
202 225 255
194 217 250
169 193 233
136 161 214
136 161 214
111 139 199
109 137 199
97 126 193
97 126 194
100 129 194
111 138 199
122 148 204
153 177 223
177 200 238
195 218 250
202 225 255
202 225 255
202 225 255
202 225 255
202 225 255
203 225 255
203 225 255
203 225 255
203 225 255
203 225 255
203 225 255
203 225 255
203 226 255
203 226 255
203 226 255
203 226 255
204 226 255
204 226 255
204 226 255
204 226 255
204 226 255
204 226 255
204 226 255
204 226 255
204 226 255
205 226 255
205 226 255
205 226 255
205 227 255
205 227 255
205 227 255
205 227 255
206 227 255
206 227 255
206 227 255
206 227 255
206 227 255
206 227 255
206 227 255
206 227 255
207 227 255
207 227 255
207 228 255
207 228 255
207 228 255
207 228 255
207 228 255
207 228 255
208 228 255
197 216 240
196 212 228
189 203 214
186 199 207
173 182 179
162 169 164
157 162 150
154 158 141
147 150 127
129 130 102
145 147 123
150 153 133
146 151 136
148 152 136
154 158 141
163 169 161
165 173 170
177 187 188
175 187 199
187 201 214
199 216 236
210 229 254
210 229 255
210 229 255
210 229 255
210 229 255
210 230 255
211 230 255
211 230 255
211 230 255
211 230 255
211 230 255
211 230 255
211 230 255
211 230 255
211 230 255
211 230 255
211 230 255
211 230 255
212 230 255
212 230 255
212 230 255
212 230 255
212 230 255
212 230 255
212 230 255
212 230 255
212 230 255
212 230 255
212 230 255
212 230 255
212 230 255
212 230 255
211 230 255
211 230 255
211 230 255
211 230 255
211 230 255
211 230 255
211 230 255
211 230 255
211 230 255
209 228 252
203 224 234
200 221 226
195 217 211
190 213 188
184 207 177
185 209 165
184 208 173
182 207 163
183 207 161
181 206 159
182 206 157
181 206 153
182 207 159
179 204 140
180 205 147
177 201 122
179 204 142
183 207 157
182 207 157
179 204 147
181 206 155
179 204 147
183 208 175
184 208 173
186 211 191
188 211 184
193 216 203
199 221 227
203 224 241
206 227 252
207 228 255
207 228 255
207 228 255
207 228 255
207 228 255
207 228 255
207 227 255
207 227 255
206 227 255
206 227 255
206 227 255
206 227 255
206 227 255
206 227 255
206 227 255
206 227 255
205 227 255
205 227 255
205 227 255
205 227 255
205 226 255
205 226 255
205 226 255
205 226 255
204 226 255
204 226 255
204 226 255
204 226 255
204 226 255
204 226 255
204 226 255
204 226 255
204 226 255
203 226 255
203 226 255
203 226 255
203 226 255
203 226 255
203 226 255
203 225 255
201 224 254
182 205 242
143 168 217
91 121 189
62 99 181
62 99 181
61 98 175
62 99 180
62 99 177
61 98 180
62 99 180
63 100 179
61 99 177
62 99 180
62 99 177
62 99 177
62 99 181
62 99 178
89 120 188
136 161 213
171 194 234
202 225 255
203 225 255
203 225 255
203 226 255
203 226 255
203 226 255
203 226 255
203 226 255
204 226 255
204 226 255
204 226 255
204 226 255
204 226 255
204 226 255
204 226 255
204 226 255
204 226 255
205 226 255
205 226 255
205 226 255
205 226 255
205 227 255
205 227 255
205 227 255
205 227 255
206 227 255
206 227 255
206 227 255
206 227 255
206 227 255
206 227 255
206 227 255
206 227 255
207 227 255
207 227 255
207 228 255
207 228 255
207 228 255
207 228 255
207 228 255
207 228 255
202 221 246
188 204 221
172 181 177
153 161 154
141 142 112
134 133 89
140 138 93
144 142 95
143 141 95
129 128 85
138 137 92
140 139 94
144 142 95
143 142 95
140 138 92
140 138 93
152 150 100
134 133 89
147 144 96
136 135 89
148 144 95
139 136 90
134 133 89
133 131 87
137 135 89
131 128 85
143 141 107
160 161 137
171 179 178
186 198 206
198 215 235
211 230 255
211 230 255
211 230 255
211 230 255
211 230 255
211 230 255
211 230 255
211 230 255
211 230 255
212 230 255
212 230 255
212 230 255
212 230 255
212 230 255
212 230 255
212 230 255
212 230 255
212 230 255
212 231 255
212 231 255
212 231 255
212 231 255
212 230 255
212 230 255
212 230 255
212 230 255
212 230 255
212 230 255
212 230 255
212 230 255
212 230 255
212 230 255
211 230 255
206 225 238
201 221 226
191 213 193
186 210 179
184 207 159
185 209 173
181 206 169
179 203 135
179 204 153
180 204 144
178 203 149
181 205 144
177 201 122
177 201 122
177 202 133
174 199 117
176 201 111
175 201 117
175 200 105
176 201 142
176 201 122
176 201 105
177 201 114
173 198 99
178 202 135
178 203 135
180 205 147
178 204 142
179 203 142
182 206 151
181 206 157
179 204 137
184 209 169
183 208 165
189 212 188
199 222 234
201 223 238
207 228 254
207 228 255
207 228 255
207 228 255
207 228 255
207 228 255
207 228 255
207 227 255
207 227 255
206 227 255
206 227 255
206 227 255
206 227 255
206 227 255
206 227 255
206 227 255
206 227 255
205 227 255
205 227 255
205 227 255
205 227 255
205 227 255
205 226 255
205 226 255
205 226 255
205 226 255
204 226 255
204 226 255
204 226 255
204 226 255
204 226 255
204 226 255
204 226 255
204 226 255
204 226 255
203 225 255
145 170 218
85 116 187
62 99 178
62 99 177
62 99 179
62 99 180
62 99 179
63 100 177
62 99 174
62 99 178
62 99 176
61 98 169
62 99 176
62 99 177
62 99 176
62 99 177
63 100 179
63 99 174
61 98 174
62 99 180
62 99 175
62 99 179
80 113 187
152 176 222
199 221 252
204 226 255
204 226 255
204 226 255
204 226 255
204 226 255
204 226 255
204 226 255
204 226 255
204 226 255
204 226 255
205 226 255
205 226 255
205 226 255
205 227 255
205 227 255
205 227 255
205 227 255
205 227 255
206 227 255
206 227 255
206 227 255
206 227 255
206 227 255
206 227 255
206 227 255
206 227 255
207 227 255
207 227 255
207 228 255
207 228 255
207 228 255
207 228 255
207 228 255
207 228 255
206 226 253
193 209 228
174 185 186
146 148 122
132 131 87
146 146 98
144 143 96
137 136 91
143 143 96
151 150 101
154 153 103
140 140 94
147 146 98
143 142 96
144 143 96
151 150 101
143 142 96
146 145 97
156 155 104
147 145 97
149 146 97
153 151 101
147 145 97
151 149 100
147 144 95
145 144 96
147 144 96
144 141 94
157 154 103
147 144 96
141 138 92
142 138 91
142 139 92
138 135 90
130 126 82
148 147 118
170 179 180
187 199 211
204 221 242
212 230 255
212 230 255
212 230 255
212 230 255
212 230 255
212 230 255
212 230 255
212 230 255
212 230 255
212 230 255
212 231 255
212 231 255
212 231 255
212 231 255
213 231 255
213 231 255
213 231 255
213 231 255
213 231 255
212 231 255
212 231 255
212 231 255
212 231 255
212 230 255
212 230 255
210 229 250
207 226 240
200 221 226
191 214 189
186 210 173
180 204 142
178 203 142
179 203 142
177 202 127
181 206 159
177 203 142
174 199 102
178 203 137
176 201 133
177 202 127
178 202 114
173 199 117
178 202 125
175 200 108
178 202 127
176 201 125
177 202 122
173 199 117
173 198 84
176 201 133
172 198 105
177 203 140
175 201 125
174 200 111
175 200 95
175 200 114
175 201 120
176 201 117
175 200 102
177 202 127
174 200 135
175 201 125
180 205 142
178 203 135
178 203 133
180 205 153
185 209 171
194 217 211
202 223 238
208 228 255
208 228 255
207 228 255
207 228 255
207 228 255
207 228 255
207 228 255
207 228 255
207 227 255
207 227 255
206 227 255
206 227 255
206 227 255
206 227 255
206 227 255
206 227 255
206 227 255
206 227 255
205 227 255
205 227 255
205 227 255
205 227 255
205 227 255
205 227 255
205 226 255
205 226 255
205 226 255
205 226 255
204 226 255
204 226 255
202 224 254
158 181 226
68 103 181
62 99 177
63 100 180
62 99 177
63 99 177
62 99 179
63 99 176
62 99 174
63 100 176
63 100 174
63 99 175
62 99 175
62 99 177
63 100 175
62 99 174
62 99 175
63 99 177
63 100 178
62 99 173
62 99 177
62 99 174
62 99 173
63 100 176
62 99 179
63 100 179
81 113 186
152 176 221
195 217 249
204 226 255
204 226 255
205 226 255
205 226 255
205 226 255
205 226 255
205 226 255
205 227 255
205 227 255
205 227 255
205 227 255
205 227 255
206 227 255
206 227 255
206 227 255
206 227 255
206 227 255
206 227 255
206 227 255
206 227 255
207 227 255
207 227 255
207 227 255
207 228 255
207 228 255
207 228 255
207 228 255
207 228 255
207 228 255
205 225 252
189 204 220
161 170 169
141 140 96
143 142 95
142 142 95
147 147 99
145 145 97
146 146 99
148 148 100
147 146 99
145 145 98
152 152 103
153 153 103
151 151 102
152 151 102
153 152 103
147 146 98
145 144 97
151 150 101
153 151 101
147 147 99
155 154 103
145 144 97
146 144 97
156 155 104
148 147 99
150 148 99
156 153 102
152 150 99
155 153 103
145 142 95
151 148 98
148 145 97
147 144 96
143 141 93
140 136 90
138 135 90
141 137 90
138 136 88
144 140 90
118 115 78
159 162 143
184 194 199
209 227 249
212 230 255
212 230 255
212 231 255
212 231 255
212 231 255
212 231 255
213 231 255
213 231 255
213 231 255
213 231 255
213 231 255
213 231 255
213 231 255
213 231 255
213 231 255
213 231 255
213 231 255
213 231 255
213 231 255
213 231 255
208 227 244
200 221 221
191 213 184
189 212 194
187 210 182
183 207 155
180 205 144
179 204 140
174 199 127
178 202 125
178 203 140
174 199 114
178 203 133
177 203 137
177 202 125
177 202 127
172 198 108
176 201 120
177 201 111
176 201 114
175 200 111
176 201 117
172 198 80
171 196 88
174 200 99
175 200 99
174 199 95
176 201 120
174 200 114
173 199 95
174 200 117
175 200 117
173 198 102
175 199 95
176 201 117
173 199 114
172 198 111
175 201 122
175 201 108
174 199 95
177 202 117
176 201 120
175 201 130
178 203 135
177 202 130
182 207 153
188 212 189
197 219 217
204 225 241
208 228 255
208 228 255
207 228 255
207 228 255
207 228 255
207 228 255
207 228 255
207 228 255
207 228 255
207 227 255
207 227 255
206 227 255
206 227 255
206 227 255
206 227 255
206 227 255
206 227 255
206 227 255
206 227 255
206 227 255
205 227 255
205 227 255
205 227 255
205 227 255
205 227 255
205 227 255
171 194 233
92 121 187
62 99 177
63 100 178
63 100 177
63 100 177
63 99 175
62 99 175
62 99 173
63 99 175
62 99 175
63 99 174
63 100 170
63 100 173
63 100 178
63 100 178
62 99 173
62 99 174
63 99 172
62 99 178
63 99 176
62 99 177
63 100 178
63 99 175
63 100 176
63 99 175
62 99 178
62 99 174
63 100 180
63 99 177
89 120 187
162 185 227
205 227 255
205 227 255
205 227 255
205 227 255
205 227 255
205 227 255
206 227 255
206 227 255
206 227 255
206 227 255
206 227 255
206 227 255
206 227 255
206 227 255
206 227 255
207 227 255
207 227 255
207 228 255
207 228 255
207 228 255
207 228 255
207 228 255
207 228 255
208 228 255
208 228 255
208 228 255
202 220 241
171 181 182
139 139 108
144 143 96
133 132 89
137 136 92
150 149 101
149 149 101
154 154 104
146 146 99
155 155 105
149 149 101
147 148 100
148 148 100
154 154 104
146 147 99
149 149 101
155 155 104
151 151 102
155 155 105
157 156 104
155 154 104
152 152 103
157 156 104
153 152 102
156 154 103
143 142 95
157 155 103
157 154 103
160 157 105
151 149 99
159 156 103
156 152 100
159 155 102
145 143 95
150 147 97
158 155 103
155 151 100
152 148 97
152 149 99
147 143 94
140 137 89
154 149 98
137 134 87
131 128 84
141 136 87
142 137 96
154 159 148
198 212 228
213 231 255
213 231 255
213 231 255
213 231 255
213 231 255
213 231 255
213 231 255
213 231 255
213 231 255
213 231 255
213 231 255
213 231 255
213 231 255
213 231 255
213 231 255
213 231 254
209 228 246
197 218 209
192 214 203
187 211 179
181 205 144
182 206 155
181 205 155
180 204 147
178 202 122
181 205 151
180 205 147
179 204 135
180 205 149
176 201 117
179 204 133
174 199 102
179 203 130
172 197 92
178 203 142
174 200 111
175 201 111
176 202 120
174 200 111
174 198 88
174 199 99
171 197 80
175 200 111
174 199 92
172 198 92
177 202 120
173 199 92
173 199 102
173 199 117
173 198 102
174 200 114
173 199 99
175 201 114
172 198 80
173 198 88
175 200 114
174 199 114
173 199 105
175 200 120
175 200 111
174 200 108
172 198 125
176 201 117
176 201 125
178 203 149
182 207 173
184 209 177
193 215 206
204 224 241
208 228 255
208 228 255
208 228 255
208 228 255
208 228 255
207 228 255
207 228 255
207 228 255
207 228 255
207 228 255
207 228 255
207 228 255
207 227 255
207 227 255
206 227 255
206 227 255
206 227 255
206 227 255
206 227 255
206 227 255
206 227 255
206 227 255
199 220 251
130 155 205
62 99 177
62 99 173
63 100 179
62 99 174
63 99 176
63 99 177
62 99 174
63 100 177
63 100 173
63 99 173
63 99 174
63 99 173
63 100 174
62 99 170
63 99 173
63 99 171
63 99 172
63 100 175
63 99 174
62 99 170
64 100 174
63 99 175
63 100 177
62 99 170
63 100 175
62 99 172
63 100 176
63 99 175
63 99 174
63 100 178
62 99 176
63 99 174
131 156 209
200 221 251
206 227 255
206 227 255
206 227 255
206 227 255
206 227 255
206 227 255
206 227 255
206 227 255
207 227 255
207 227 255
207 228 255
207 228 255
207 228 255
207 228 255
207 228 255
207 228 255
207 228 255
208 228 255
208 228 255
208 228 255
208 228 255
208 228 255
195 211 230
154 162 156
133 131 87
146 144 97
148 147 99
151 150 101
152 152 103
147 147 99
149 149 101
151 151 102
153 153 104
154 154 104
154 154 104
157 157 106
154 154 104
153 153 104
160 160 108
156 156 106
162 161 109
149 148 100
160 160 108
157 156 105
160 159 107
162 161 108
161 159 106
159 158 106
159 158 106
159 159 107
164 162 108
158 156 104
155 153 102
156 154 103
159 155 103
164 161 107
153 150 100
160 157 104
157 155 103
153 150 99
158 155 103
162 159 105
156 152 100
151 147 96
145 142 93
153 148 97
156 151 98
151 145 95
148 143 93
140 136 84
147 142 92
145 140 91
144 140 89
156 157 133
187 198 206
211 229 253
213 231 255
213 231 255
213 231 255
213 231 255
213 231 255
213 231 255
214 231 255
214 231 255
214 231 255
214 231 255
213 231 255
207 226 238
200 220 223
185 208 171
185 209 167
181 205 153
179 203 135
179 203 130
180 203 133
179 204 133
175 199 108
180 204 137
178 203 130
177 201 102
177 202 125
174 199 111
175 200 99
175 200 108
177 202 125
175 200 102
174 199 105
175 200 99
174 200 108
174 200 120
174 200 108
175 201 108
175 200 108
175 199 80
175 200 117
173 198 95
175 200 95
176 200 95
174 200 111
174 200 117
175 200 102
173 199 99
174 199 102
173 199 114
173 199 114
172 197 80
172 198 99
172 198 108
174 200 102
173 198 84
172 197 80
173 199 108
173 198 102
176 201 125
176 201 114
173 198 92
174 200 114
175 200 122
174 200 120
178 203 130
177 201 125
182 206 161
190 214 194
205 226 246
208 228 255
208 228 255
208 228 255
208 228 255
208 228 255
208 228 255
208 228 255
208 228 255
207 228 255
207 228 255
207 228 255
207 228 255
207 228 255
207 228 255
207 228 255
207 227 255
207 227 255
207 227 255
206 227 255
191 212 244
88 118 185
63 99 173
63 99 173
63 99 173
63 99 175
63 100 174
63 100 172
63 99 174
63 99 175
62 99 168
63 100 176
63 99 172
63 99 171
62 99 169
63 100 177
62 99 170
63 100 175
63 100 170
63 100 172
64 100 176
63 99 171
63 99 174
63 99 169
62 98 167
63 99 172
63 99 174
63 99 174
62 99 171
63 99 172
62 99 175
62 99 177
63 100 172
62 99 169
63 99 176
64 100 178
86 116 182
188 209 242
206 227 255
207 227 255
207 227 255
207 227 255
207 228 255
207 228 255
207 228 255
207 228 255
207 228 255
207 228 255
207 228 255
208 228 255
208 228 255
208 228 255
208 228 255
208 228 255
208 228 255
208 228 255
208 228 255
198 215 234
161 166 151
130 128 86
144 143 96
143 142 96
142 142 95
150 150 102
148 148 100
157 156 106
152 152 103
159 159 108
157 157 106
149 150 101
157 158 107
158 159 108
157 158 107
157 157 106
155 155 105
157 157 106
161 161 108
162 162 109
159 158 106
164 163 109
159 158 106
163 162 109
162 161 108
159 158 106
159 158 106
160 158 106
165 163 109
163 161 108
157 155 104
151 149 99
166 164 109
162 160 107
162 158 105
163 159 106
165 161 107
156 153 102
157 154 103
161 158 104
153 150 98
158 154 101
158 154 101
156 152 99
152 149 97
155 150 99
146 142 93
147 143 93
153 148 93
148 143 92
155 150 97
152 147 92
138 133 84
144 138 88
148 150 129
186 197 207
212 229 253
214 231 255
214 231 255
214 231 255
214 231 255
214 232 255
214 232 255
214 231 255
210 229 246
193 214 201
190 212 191
188 211 179
182 206 157
179 204 137
179 203 140
178 203 127
178 202 133
176 201 122
177 202 122
176 201 108
179 204 140
175 200 114
177 202 127
177 201 125
177 201 125
176 201 111
176 201 120
174 199 102
174 200 108
176 201 105
172 198 95
172 198 88
176 201 122
171 197 62
175 200 114
172 198 95
172 197 72
176 201 111
174 200 111
174 199 99
171 197 67
173 199 99
174 200 105
173 199 111
176 201 102
175 201 114
174 200 108
172 197 72
169 195 88
175 201 120
175 201 122
176 201 105
172 198 99
173 199 105
173 198 99
174 199 92
173 199 92
174 200 117
174 199 95
172 198 108
172 198 105
174 200 122
174 200 111
176 201 130
176 201 122
177 202 135
182 207 175
194 217 209
208 227 252
209 229 255
209 228 255
208 228 255
208 228 255
208 228 255
208 228 255
208 228 255
208 228 255
208 228 255
208 228 255
208 228 255
207 228 255
207 228 255
207 228 255
207 228 255
207 228 255
178 199 235
68 103 178
63 99 176
63 100 174
63 100 174
62 98 166
62 99 170
63 99 171
63 99 172
64 100 174
63 99 174
62 99 167
62 99 170
63 99 171
62 99 168
63 99 166
63 99 171
62 99 168
64 100 173
63 99 169
63 100 173
63 100 171
64 101 179
63 100 175
63 100 174
63 100 174
62 98 163
64 100 174
62 99 171
63 99 171
63 100 176
62 99 169
63 100 177
63 100 173
63 100 175
62 99 171
63 100 177
63 100 177
76 109 181
176 198 236
207 228 255
207 228 255
207 228 255
207 228 255
207 228 255
208 228 255
208 228 255
208 228 255
208 228 255
208 228 255
208 228 255
208 228 255
208 228 255
208 228 255
208 228 255
209 229 255
202 220 244
163 171 166
142 140 94
150 149 100
151 149 100
146 145 97
152 152 102
150 149 101
152 152 103
155 155 105
157 157 106
159 159 108
164 165 112
158 158 107
155 155 104
157 158 107
153 153 104
158 159 108
156 156 106
164 163 110
163 163 110
165 164 110
167 166 112
163 162 109
162 161 108
157 156 104
163 162 109
163 162 109
167 165 110
163 162 109
161 159 106
165 163 109
160 158 106
162 160 106
166 162 108
160 157 104
165 162 106
165 162 108
164 161 108
166 162 108
158 154 102
157 154 101
162 157 104
147 143 94
166 161 105
157 154 101
156 152 100
166 160 104
162 157 103
155 150 97
156 152 97
153 149 97
150 144 91
154 150 97
154 150 96
143 139 89
130 126 80
137 132 86
127 123 75
157 158 135
196 209 222
214 231 255
214 231 255
214 232 255
214 232 255
213 230 253
206 225 231
193 214 188
186 208 161
182 206 151
181 205 142
180 204 147
180 205 135
182 206 144
179 203 135
177 201 114
177 202 120
175 200 105
175 200 105
177 202 120
173 198 92
175 200 102
174 199 95
174 199 95
174 199 99
175 200 105
174 200 108
174 199 102
176 201 117
179 203 130
175 199 95
175 200 108
174 200 111
174 199 95
176 200 111
173 198 95
175 200 111
172 198 88
173 199 92
172 198 76
173 198 88
175 200 105
174 200 108
174 200 102
171 197 76
174 199 99
174 199 95
174 200 111
175 200 111
176 201 108
173 200 117
174 199 105
172 198 88
174 199 92
174 199 84
174 200 117
174 199 95
172 198 88
176 200 108
174 199 99
174 198 88
174 199 88
174 200 120
172 198 88
176 201 111
178 203 130
180 205 155
184 208 177
202 223 234
209 229 255
209 229 255
209 229 255
209 229 255
209 229 255
209 228 255
208 228 255
208 228 255
208 228 255
208 228 255
208 228 255
208 228 255
208 228 255
208 228 255
176 197 231
63 100 178
62 98 172
63 99 172
63 100 174
63 99 171
63 99 171
63 99 170
63 99 171
63 99 167
63 99 169
63 99 167
64 100 174
62 98 166
63 99 170
63 99 171
62 98 162
63 100 172
63 99 169
63 99 170
62 99 167
63 99 166
63 99 166
63 99 170
63 99 170
63 99 170
63 99 171
63 100 173
62 99 170
63 100 172
63 99 170
62 99 167
63 99 168
63 99 168
63 99 171
62 98 167
63 100 177
63 99 171
63 99 174
63 100 174
62 98 167
178 199 235
208 228 255
208 228 255
208 228 255
208 228 255
208 228 255
208 228 255
208 228 255
208 228 255
209 228 255
209 229 255
209 229 255
209 229 255
209 229 255
209 229 255
177 190 199
141 141 105
152 149 99
156 154 104
146 145 97
147 146 99
159 159 107
153 152 103
151 152 103
153 153 103
155 155 104
154 154 104
155 155 105
158 158 107
155 155 104
162 162 109
159 158 107
159 159 108
163 163 110
161 161 109
160 159 108
167 165 111
163 162 109
164 163 109
167 165 111
161 160 108
166 164 110
168 166 111
168 167 111
163 162 109
167 166 111
168 165 110
164 162 108
163 161 106
163 161 108
165 163 108
162 160 106
167 164 109
161 159 105
163 160 106
162 159 106
166 163 107
170 165 109
167 163 108
161 157 103
156 152 99
163 158 103
157 154 100
157 153 99
164 158 102
157 152 97
158 154 101
160 155 102
155 150 96
154 150 96
154 149 97
150 145 93
146 141 90
150 144 93
149 144 93
147 142 89
136 131 81
174 180 175
211 227 248
214 232 255
212 229 249
199 220 214
191 213 189
181 205 149
183 206 155
183 206 147
178 202 122
175 199 120
183 207 153
180 204 144
178 202 133
179 203 136
175 199 102
178 203 125
176 201 114
177 202 117
175 200 88
175 200 111
175 200 108
174 199 102
175 200 102
174 199 99
175 200 99
175 200 102
178 202 111
175 200 88
174 199 102
172 198 88
173 198 92
174 199 102
172 198 80
176 201 105
174 199 92
173 199 92
174 199 84
173 197 84
174 199 95
172 198 88
175 200 105
173 199 84
173 198 88
174 200 105
174 198 95
174 199 102
175 200 105
176 201 117
173 198 88
172 199 102
175 200 111
173 199 102
171 197 80
174 200 114
171 198 88
172 197 92
175 200 111
172 198 92
173 199 114
172 198 76
172 198 95
175 201 120
176 201 105
176 201 117
176 202 133
170 196 137
179 204 149
194 217 209
208 228 252
209 229 255
209 229 255
209 229 255
209 229 255
209 229 255
209 229 255
209 229 255
209 229 255
209 229 255
209 228 255
208 228 255
179 200 233
69 103 175
63 100 174
63 100 174
63 99 171
63 99 167
63 100 176
63 99 171
62 99 168
63 100 170
63 99 167
64 100 177
63 99 167
63 99 166
62 98 164
63 99 167
63 99 170
63 99 168
63 99 168
64 100 170
63 99 172
63 99 166
63 100 172
63 99 166
63 99 165
63 99 172
63 100 173
62 98 164
64 100 171
63 99 171
63 99 170
63 100 170
63 99 172
63 99 167
63 99 168
64 100 173
63 99 169
63 99 170
63 100 169
62 98 168
63 100 173
63 99 167
68 102 171
172 193 230
208 228 255
209 228 255
209 229 255
209 229 255
209 229 255
209 229 255
209 229 255
209 229 255
209 229 255
209 229 255
209 229 255
206 225 250
155 159 142
134 132 87
148 147 98
153 152 102
152 151 102
155 154 104
157 157 106
160 160 108
159 159 108
156 156 106
157 157 106
158 157 106
159 159 108
161 161 109
161 160 108
158 157 106
165 165 112
162 161 109
164 163 109
162 161 109
169 168 113
166 165 111
164 164 110
167 166 111
165 164 110
161 160 108
167 166 112
165 163 109
168 166 110
163 161 107
164 162 108
168 165 110
164 161 108
169 166 110
163 160 105
166 163 108
165 163 108
169 166 109
168 165 109
165 161 106
166 163 109
165 161 107
159 155 102
163 160 104
165 161 106
162 158 103
163 159 103
163 159 103
164 159 102
166 162 104
161 156 101
161 157 102
159 154 99
156 152 97
161 155 101
160 155 100
152 146 92
151 147 94
154 149 94
153 147 94
153 147 93
149 144 89
146 140 87
137 132 80
141 138 104
190 202 213
196 217 198
188 210 167
183 206 159
183 205 149
184 208 157
183 207 157
176 201 117
176 201 111
173 197 115
175 199 115
173 198 117
176 201 117
172 197 102
172 197 114
174 199 95
170 196 94
173 198 92
174 200 99
171 197 90
173 198 95
175 200 105
174 200 102
174 199 92
177 202 114
174 199 92
171 197 67
171 197 62
175 200 99
172 198 84
175 200 95
175 201 120
173 198 80
177 201 111
173 198 92
174 200 108
174 199 105
174 199 88
174 199 99
173 199 95
173 199 92
175 200 105
173 199 99
175 201 122
173 198 80
172 197 76
172 198 92
176 201 111
175 200 105
173 199 105
172 198 84
172 197 84
175 200 108
174 199 95
172 198 92
174 200 99
175 202 133
169 195 76
173 200 108
173 199 102
174 200 114
173 198 108
176 200 120
174 199 114
176 201 117
174 199 99
179 204 151
187 210 179
205 225 238
210 229 255
210 229 255
210 229 255
210 229 255
210 229 255
209 229 255
209 229 255
209 229 255
209 229 255
186 206 239
73 107 173
62 98 170
64 100 175
63 99 169
63 99 168
64 100 176
64 100 173
63 99 160
62 99 167
63 99 165
62 98 162
64 100 170
63 99 166
63 99 168
63 99 167
63 99 165
62 98 160
63 99 167
63 98 160
63 100 170
62 99 166
63 100 174
63 99 166
63 100 173
63 99 164
62 98 163
62 98 161
62 98 160
62 99 165
63 99 167
63 99 162
63 99 168
63 100 174
63 99 169
64 100 171
64 100 171
63 100 171
64 100 171
63 99 169
63 99 166
63 99 169
64 100 176
63 99 168
69 103 173
188 208 241
209 229 255
209 229 255
209 229 255
209 229 255
210 229 255
210 229 255
210 229 255
210 229 255
210 229 255
191 206 222
143 144 115
146 143 95
149 147 99
151 150 100
145 145 98
155 154 104
156 156 105
159 158 107
158 158 107
162 162 109
159 159 108
158 158 107
156 156 105
163 163 110
163 163 110
161 160 108
161 161 109
162 162 109
163 163 110
162 162 109
166 164 110
169 168 113
168 167 112
170 168 112
168 167 112
165 163 109
167 165 110
173 170 113
168 165 110
169 167 112
169 167 112
172 169 113
168 165 109
164 161 107
165 162 108
166 163 108
165 162 108
168 165 108
171 168 111
170 166 110
164 161 105
170 166 110
167 162 106
170 166 109
162 158 102
169 164 106
168 164 106
164 159 104
164 158 103
165 161 102
167 162 104
165 159 103
160 155 99
167 161 104
159 153 98
161 156 97
163 157 101
163 158 101
159 153 97
154 148 94
153 148 95
154 148 92
146 141 87
143 138 86
154 148 91
150 144 90
143 138 88
187 209 173
183 206 155
182 206 155
180 204 133
181 205 133
181 205 143
174 198 125
173 197 125
171 196 84
170 196 82
173 198 108
172 197 95
175 200 105
172 197 97
172 197 90
170 195 84
167 192 92
169 195 86
173 198 110
171 196 103
172 196 88
172 197 94
174 200 92
176 201 105
173 199 92
175 200 95
174 199 95
174 199 92
176 201 105
174 199 99
176 200 92
174 199 88
174 200 102
177 202 117
175 200 102
177 202 114
175 200 102
173 199 88
174 200 108
173 199 92
174 199 92
173 199 84
174 200 111
171 197 76
175 200 108
172 197 67
173 198 88
171 196 57
172 198 88
174 200 111
173 199 95
174 200 105
172 198 92
174 200 108
173 198 80
170 197 80
173 199 99
174 200 111
172 198 84
172 198 99
175 200 108
175 201 114
170 195 99
174 199 108
172 197 102
174 200 120
176 201 137
185 209 175
202 223 231
210 229 255
210 229 255
210 229 255
210 229 255
210 229 255
210 229 255
210 229 255
200 220 248
99 126 179
63 99 169
64 100 167
63 99 166
63 99 166
63 100 174
62 98 162
62 98 158
63 99 164
63 99 166
63 99 163
63 99 167
64 99 168
63 99 169
64 100 170
63 99 164
62 98 165
63 99 167
63 99 163
62 99 168
62 98 160
63 99 168
62 99 164
63 99 167
63 99 165
63 99 165
63 99 168
64 100 169
63 99 163
64 100 169
63 99 167
63 99 170
63 99 163
62 98 157
63 99 166
63 99 169
63 100 170
63 99 167
62 98 161
63 99 169
63 100 173
62 99 167
64 100 173
63 99 169
63 99 170
78 108 171
201 220 249
210 229 255
210 229 255
210 229 255
210 229 255
210 229 255
210 229 255
210 229 255
180 191 199
138 135 90
153 150 100
151 150 101
155 153 103
155 153 103
159 157 106
159 158 106
159 157 106
161 161 109
163 163 110
159 159 108
159 158 107
164 164 110
164 163 110
163 163 110
167 166 112
165 164 111
167 167 113
169 167 112
167 166 111
166 165 110
168 166 111
169 168 113
166 165 111
166 165 111
169 167 111
169 167 112
160 159 107
171 168 112
166 164 110
171 168 112
168 165 110
172 169 112
162 160 108
171 167 111
170 167 111
169 165 109
174 169 111
167 163 107
164 160 104
169 165 109
171 167 109
172 167 109
173 167 109
170 165 109
170 165 108
169 165 107
174 169 108
168 163 106
166 161 104
167 163 106
173 166 106
168 162 104
172 166 106
161 156 99
160 155 99
161 155 96
160 154 98
159 154 97
163 157 99
155 150 94
147 142 88
154 148 93
148 143 87
147 142 88
149 144 89
147 141 89
145 138 85
187 209 165
181 205 147
176 200 133
175 199 126
173 198 103
173 197 124
170 195 102
175 200 118
174 199 122
173 198 107
173 199 80
172 197 100
176 201 114
173 198 97
170 196 86
173 198 102
170 195 76
171 197 74
172 197 86
172 198 92
168 194 84
172 197 99
174 199 100
174 199 95
175 200 95
178 202 108
173 198 80
172 198 95
173 199 102
173 199 102
177 202 114
173 199 92
177 202 108
171 197 80
172 198 76
172 198 80
175 199 84
172 198 84
176 201 108
172 198 72
174 199 92
174 200 111
172 198 95
173 198 84
175 200 88
177 201 102
172 198 76
174 199 99
171 197 84
173 199 108
173 198 80
171 197 67
174 199 99
171 197 72
173 198 76
174 200 111
171 197 88
175 200 95
173 198 84
172 197 108
172 197 84
171 198 92
175 200 92
173 199 114
175 200 105
173 199 102
171 197 120
177 202 137
181 205 159
201 221 228
211 230 255
211 230 255
211 230 255
211 230 255
211 230 255
210 230 255
124 148 199
63 99 170
63 100 169
64 100 169
63 99 167
63 99 167
64 100 169
63 99 167
63 99 165
64 100 169
63 98 162
63 99 166
63 99 162
63 99 161
63 99 166
63 99 166
63 99 166
63 99 166
64 100 169
63 99 163
63 99 165
63 99 166
63 99 165
63 99 168
63 99 166
63 99 162
64 100 166
63 99 163
63 99 166
62 98 162
63 99 162
63 99 165
63 100 171
63 99 165
62 99 167
64 100 172
63 99 162
63 99 164
63 99 165
64 100 171
64 100 166
63 99 165
63 99 165
63 99 167
63 99 171
63 99 168
62 98 164
125 149 198
209 229 255
211 230 255
211 230 255
211 230 255
211 230 255
211 230 255
178 187 189
143 139 90
148 144 95
149 147 98
151 150 101
150 148 100
157 157 106
154 153 103
156 156 106
162 161 108
159 158 107
162 161 109
158 157 106
165 164 110
164 163 110
165 163 110
166 165 111
167 166 112
164 163 110
168 167 112
166 164 110
169 167 112
169 167 112
169 168 112
172 169 113
168 166 111
171 169 113
171 168 112
169 166 110
171 168 112
171 168 112
167 165 110
172 168 110
170 168 113
170 167 111
169 165 109
173 169 109
174 169 110
171 167 109
169 165 109
172 167 108
177 172 113
177 172 112
173 167 110
171 166 106
169 164 106
167 163 106
169 164 107
169 164 107
166 161 104
169 163 105
169 164 104
170 164 104
169 164 106
172 166 105
168 163 103
165 159 104
171 164 105
165 159 100
172 165 104
158 152 98
161 156 96
161 156 97
163 156 97
165 158 98
154 148 92
148 143 88
146 141 87
149 143 90
152 144 88
181 204 142
181 204 153
178 202 130
177 201 127
178 202 129
175 200 113
174 198 110
172 196 88
174 198 113
172 198 94
172 197 92
173 198 96
171 197 88
174 198 102
171 196 92
171 196 82
172 197 86
174 199 113
172 197 86
173 197 97
171 196 97
170 195 90
172 197 99
170 195 84
172 197 88
175 200 102
172 198 92
174 199 84
174 200 105
175 200 102
177 202 108
172 198 72
174 199 95
173 199 84
172 197 76
171 197 72
176 200 95
172 198 72
177 201 105
173 199 88
174 199 92
172 198 84
175 200 108
173 198 84
173 199 84
171 197 88
173 199 92
176 201 114
175 200 99
171 197 72
174 199 76
173 199 92
173 199 92
175 200 95
172 198 92
174 199 92
172 198 99
172 198 95
172 198 76
174 200 120
174 199 95
175 200 102
175 200 108
171 196 88
174 200 108
172 198 92
175 201 127
174 199 120
174 199 130
181 205 159
199 220 218
211 230 255
211 230 255
211 230 255
211 230 255
162 183 218
62 99 168
64 100 168
62 99 163
63 99 164
62 98 163
62 98 160
63 99 168
63 99 164
63 99 165
63 99 162
63 99 164
62 98 160
62 98 159
63 100 168
62 98 158
63 99 165
62 98 158
63 99 163
62 98 157
62 98 156
63 99 170
64 100 170
63 99 167
63 99 162
63 99 163
63 99 167
63 99 161
64 100 166
63 99 161
63 99 161
63 99 167
61 97 157
62 98 164
63 99 163
63 99 161
62 98 160
63 99 162
62 98 161
63 99 166
63 99 163
63 99 162
63 99 161
63 99 162
62 97 152
63 99 170
63 99 166
62 98 168
62 97 159
176 196 229
211 230 255
211 230 255
211 230 255
211 230 255
180 189 191
153 149 98
151 147 97
151 149 100
158 156 105
156 154 103
160 158 107
154 153 103
158 156 105
164 163 110
161 160 108
159 158 107
165 164 110
165 164 110
165 164 111
163 163 110
159 159 108
163 163 111
168 167 112
168 167 112
167 165 111
170 168 112
170 168 113
168 166 110
168 166 111
173 169 111
174 170 113
170 167 110
170 167 109
170 166 109
174 170 112
172 169 111
174 170 112
171 168 112
175 172 113
175 170 112
169 166 108
171 167 109
175 171 113
178 172 113
174 170 112
174 169 109
168 164 107
167 164 105
176 170 110
170 164 106
173 168 109
170 165 106
173 167 108
173 168 107
165 160 102
168 163 103
168 162 104
164 159 101
165 160 103
165 160 102
166 159 99
166 159 102
165 158 99
166 161 101
168 162 103
166 160 99
159 154 97
165 160 101
162 156 99
155 150 93
163 156 97
152 147 93
152 146 89
149 143 88
149 142 88
177 202 125
175 199 127
175 200 111
179 203 126
175 199 108
174 199 100
171 196 92
172 198 88
175 200 95
169 194 90
173 198 102
171 196 100
171 196 94
172 197 86
174 199 97
174 199 88
171 196 92
176 200 121
174 199 92
169 195 60
171 197 67
170 196 80
174 199 88
171 197 84
172 197 82
175 200 108
174 199 84
175 199 92
173 198 80
172 197 84
175 201 111
175 200 99
178 202 111
176 201 105
175 200 105
174 199 84
176 200 95
173 199 92
174 198 80
172 198 76
173 198 76
172 198 88
173 199 99
171 197 88
172 198 88
171 197 76
174 199 84
175 200 102
172 198 88
172 198 72
172 198 92
172 198 84
173 199 92
171 197 80
175 200 105
173 199 92
175 201 114
173 198 76
173 198 80
175 200 102
171 198 99
170 196 67
176 201 99
173 199 95
174 199 92
175 200 102
171 196 72
174 199 117
172 197 102
172 197 105
180 204 153
202 222 231
212 230 255
212 230 255
206 225 251
89 119 179
63 99 166
63 99 160
62 99 165
63 99 168
63 99 164
63 99 162
63 99 161
63 99 163
62 98 163
63 99 164
63 99 161
64 100 169
63 99 161
63 99 164
62 98 160
64 100 169
64 100 165
63 99 167
64 99 165
62 98 158
62 98 161
62 98 161
62 98 158
63 99 163
62 98 159
63 99 161
63 99 162
63 98 155
64 100 167
63 99 163
62 98 157
63 99 161
62 98 154
64 100 170
63 99 163
63 99 162
63 99 164
62 98 160
63 99 165
62 98 159
63 99 167
63 99 169
63 99 168
62 98 165
63 98 163
62 97 164
62 97 158
62 98 162
89 117 172
202 221 249
212 230 255
212 230 255
180 193 205
134 131 86
154 151 98
148 147 99
153 151 102
160 158 107
147 147 100
152 152 104
154 154 105
152 152 104
150 150 103
157 157 108
162 160 108
161 160 108
165 164 110
165 164 110
165 164 111
168 166 112
168 165 110
167 165 111
167 165 110
170 167 112
168 166 110
169 166 110
171 169 113
171 168 112
174 171 113
172 168 112
172 169 112
172 169 112
174 170 112
174 169 110
175 171 113
175 171 113
174 170 112
171 167 109
175 170 112
176 172 112
173 168 109
174 169 110
173 168 110
170 166 108
175 169 109
170 165 108
173 167 108
172 167 108
174 169 110
173 168 108
175 170 110
171 165 105
170 165 106
171 166 104
168 164 104
171 165 106
171 165 104
168 162 103
173 166 105
172 164 103
166 160 101
168 162 103
168 163 101
159 154 96
162 157 98
163 157 98
163 157 95
162 156 95
159 153 95
160 154 97
161 155 94
156 150 92
154 148 90
154 148 90
175 199 114
175 199 121
173 197 118
173 198 108
175 200 103
172 196 99
176 200 110
176 200 92
175 199 103
179 203 126
170 195 76
171 196 94
171 196 105
168 194 67
168 193 74
172 197 88
170 195 84
169 195 73
171 197 70
166 191 68
173 198 92
169 194 70
172 197 82
170 196 82
169 195 67
172 197 94
171 197 74
172 197 86
175 200 99
173 198 62
173 198 76
176 201 102
172 198 84
173 198 67
174 200 105
172 198 84
175 200 99
172 198 67
171 197 95
174 199 84
174 199 92
174 199 84
174 200 95
174 199 92
176 201 105
174 200 99
173 198 84
174 199 84
174 199 95
171 197 88
171 197 80
174 199 80
172 198 72
174 200 108
172 198 92
174 199 95
174 199 92
174 199 105
175 200 105
173 199 84
174 199 88
171 197 76
169 195 62
172 198 92
176 201 99
174 199 105
172 198 95
178 203 127
173 198 108
176 201 117
176 201 130
181 206 153
207 226 241
212 231 255
142 164 208
62 98 158
63 99 163
63 99 165
63 99 162
63 99 164
62 98 159
63 99 161
63 99 168
62 98 157
63 99 164
62 97 154
63 99 164
62 98 155
62 98 158
63 99 164
64 99 164
63 99 160
62 98 161
62 98 155
64 99 163
63 99 161
62 98 153
63 99 162
62 99 163
62 98 162
62 98 162
63 98 162
62 98 155
62 98 157
63 99 161
63 99 160
63 99 159
63 98 158
62 98 157
62 98 156
62 98 155
63 98 156
64 100 166
63 99 159
62 98 155
62 98 159
63 99 162
63 99 162
63 99 162
63 98 159
63 99 162
63 98 161
64 99 166
63 98 162
62 97 164
155 176 214
212 231 255
189 201 213
143 139 91
147 144 95
148 146 97
148 146 97
152 150 101
151 150 101
152 152 104
140 141 99
155 154 105
154 153 104
157 156 106
159 159 108
164 162 110
156 155 107
157 156 106
166 164 111
164 162 110
163 161 108
170 168 110
167 165 111
171 168 112
170 168 110
174 171 113
175 170 113
174 171 112
171 169 112
173 170 112
172 168 108
171 167 109
175 170 112
175 171 112
175 171 112
174 170 113
175 170 109
172 167 109
175 170 110
176 172 112
174 169 110
176 170 110
176 170 111
175 170 109
176 170 110
174 169 108
174 169 108
173 167 108
172 167 107
176 171 110
174 169 109
167 162 105
174 168 108
174 168 107
172 166 101
172 166 106
173 167 106
166 161 102
170 163 100
169 163 101
173 166 105
170 163 101
165 159 99
167 161 104
155 149 93
167 160 99
164 158 97
162 157 96
163 157 95
167 161 99
165 158 98
162 156 96
158 152 94
162 156 95
152 146 90
178 202 132
176 201 117
173 198 102
173 198 95
170 195 98
174 198 107
175 199 99
170 195 89
167 193 78
168 193 67
169 194 90
171 196 76
172 197 113
170 195 78
171 195 98
169 194 60
167 193 88
168 194 67
170 195 72
170 196 62
171 197 94
169 195 67
170 195 91
170 195 99
172 197 78
171 197 82
170 195 88
172 197 92
173 198 76
178 202 111
175 200 95
172 197 72
174 199 80
175 200 95
173 198 72
174 199 84
173 198 76
173 199 92
173 199 84
176 201 102
174 200 102
174 199 84
173 199 88
172 198 76
174 199 88
175 200 102
177 202 114
175 200 102
173 198 72
174 199 92
175 200 105
173 199 88
174 200 102
174 199 92
173 199 95
176 201 102
173 198 72
175 200 99
173 199 92
171 197 76
171 197 88
172 197 80
173 198 76
174 199 92
172 198 76
175 199 95
173 198 92
172 197 72
171 197 76
173 199 102
173 199 108
181 205 161
184 208 170
204 223 244
82 112 165
62 98 157
63 99 167
62 98 157
62 98 156
63 100 168
62 97 157
63 98 157
63 99 165
62 98 159
63 98 156
63 99 158
63 99 162
62 98 155
62 97 154
64 99 162
62 98 157
61 97 153
63 98 157
62 97 155
62 98 157
63 99 159
62 98 159
62 98 157
63 99 164
62 98 161
63 99 160
62 97 150
62 98 155
63 99 160
63 99 159
63 98 158
62 97 150
63 98 159
63 99 161
63 98 160
62 98 159
62 98 154
63 99 163
63 98 158
62 98 155
63 98 156
63 98 159
62 97 153
62 98 154
62 98 157
63 99 163
64 99 167
63 98 162
62 97 159
62 97 159
87 117 174
204 221 243
140 138 100
146 142 93
147 143 95
151 150 102
144 144 98
148 147 100
149 148 99
148 148 101
150 150 103
147 148 103
150 150 104
143 143 97
160 159 108
156 156 107
162 161 108
155 154 105
165 163 109
161 160 108
163 161 108
165 162 109
165 162 108
174 170 112
173 169 110
175 171 113
174 170 110
176 171 113
172 169 109
177 172 113
176 171 113
173 169 110
176 172 112
173 169 109
175 170 110
175 170 109
176 171 111
174 169 106
177 172 112
172 167 108
175 171 111
177 171 110
176 171 109
173 168 106
175 170 107
175 169 108
175 169 108
177 172 112
176 171 109
172 167 108
175 169 108
173 167 108
170 164 103
171 165 105
177 170 106
176 170 105
174 167 106
168 162 103
168 161 99
173 166 102
167 160 99
167 160 99
167 161 99
170 164 102
169 163 99
167 160 99
160 154 96
169 162 101
166 160 99
159 153 94
153 147 89
157 150 90
156 150 88
153 147 86
154 148 87
182 205 136
170 195 84
173 197 102
179 202 131
175 200 97
171 195 99
171 196 97
169 194 95
168 194 82
169 194 101
171 196 102
168 193 78
173 198 92
168 194 88
161 186 86
169 195 78
167 193 78
168 194 67
167 193 62
167 193 62
168 193 92
169 195 80
169 194 66
171 196 78
171 196 99
172 197 78
174 199 100
168 194 54
173 198 99
174 200 95
172 198 76
177 202 111
174 199 88
175 200 95
173 198 76
177 201 108
173 198 84
175 201 108
178 203 122
175 200 95
177 201 102
172 198 76
171 197 76
173 198 76
173 198 76
175 200 92
172 197 72
176 201 108
174 200 95
175 200 95
172 197 76
175 200 105
174 199 99
174 199 88
176 201 99
173 198 76
170 197 76
172 197 62
173 198 80
175 200 105
172 199 92
171 197 95
173 198 88
174 200 95
174 199 95
177 202 117
177 202 120
175 200 95
176 201 102
172 198 99
173 198 95
175 200 122
178 203 135
138 162 175
62 98 160
63 99 166
62 98 159
62 98 156
62 98 159
62 98 156
62 98 158
62 98 160
63 98 159
63 99 160
62 98 154
63 98 157
62 98 153
62 98 154
62 98 154
63 99 163
62 98 155
61 97 151
63 99 157
63 99 160
62 98 154
62 97 152
63 99 161
63 98 158
63 99 166
63 99 161
62 98 157
62 97 152
63 99 158
63 99 159
63 99 155
63 99 157
62 98 153
63 98 156
62 98 154
62 98 161
62 98 152
63 99 160
63 99 165
63 98 156
62 97 153
61 97 152
63 99 163
63 100 169
63 99 164
63 99 164
62 98 157
63 98 162
63 99 157
63 98 163
63 98 165
62 97 160
109 117 127
149 145 92
143 140 93
136 135 92
139 138 94
141 141 97
134 134 92
139 139 96
127 128 91
140 142 99
141 141 98
145 147 103
154 153 104
147 147 102
159 158 108
161 160 108
160 158 107
161 159 106
167 164 109
168 165 110
170 166 111
171 168 110
170 166 109
174 170 111
175 171 113
176 172 113
170 166 109
175 171 112
173 169 110
174 170 110
177 172 113
175 171 110
175 171 109
177 172 112
176 170 110
177 172 112
177 171 111
178 172 108
174 170 107
175 169 107
175 170 110
178 171 109
175 170 108
179 173 112
179 171 109
178 171 109
173 167 106
175 168 108
175 169 107
174 168 104
179 171 110
173 167 104
167 161 101
175 169 106
171 164 102
173 167 104
172 166 102
165 160 97
172 165 100
175 167 105
173 166 103
168 161 98
167 161 95
167 161 97
166 159 97
166 160 96
167 161 95
164 157 95
164 158 97
166 159 99
162 156 90
158 152 90
156 150 89
154 147 87
174 198 103
177 201 117
175 199 105
174 198 99
171 195 99
170 195 84
170 195 107
168 192 82
167 192 97
172 197 84
170 195 94
169 195 95
169 194 100
175 200 111
169 194 90
167 193 80
168 193 90
170 196 78
169 194 80
166 192 51
166 191 67
169 194 70
170 195 82
167 193 76
168 193 80
172 197 74
170 196 86
172 197 72
173 198 67
173 199 100
172 197 94
175 200 95
174 199 88
177 201 99
175 200 92
171 197 57
174 199 95
175 200 92
173 198 80
173 198 76
172 198 84
174 200 95
174 199 76
174 199 95
172 198 80
175 199 84
174 200 95
176 202 114
174 199 88
172 198 62
172 198 72
174 199 92
169 195 57
175 200 99
172 198 72
175 200 95
174 199 95
172 198 76
175 200 105
173 198 84
174 200 95
178 202 114
171 197 72
171 196 72
174 200 99
174 199 102
178 203 114
177 201 117
175 200 108
175 200 102
177 202 117
176 201 114
177 202 120
84 115 160
63 99 162
63 99 158
63 99 165
63 99 160
62 97 154
63 99 164
63 99 157
63 98 159
63 98 158
63 98 158
62 97 156
63 98 157
63 99 162
62 98 153
63 99 159
62 97 151
63 99 161
62 98 151
63 98 159
62 98 153
63 99 159
62 98 156
63 99 162
62 97 148
63 98 157
62 98 155
63 98 156
62 98 152
62 97 153
63 99 158
62 98 157
62 98 153
63 99 159
62 98 153
63 99 158
62 98 161
63 99 158
62 98 159
61 97 149
64 100 168
63 99 164
63 98 160
63 99 162
62 98 153
62 97 156
62 97 153
62 97 147
63 99 161
63 99 161
63 98 159
62 97 159
61 96 155
71 99 149
138 135 89
135 134 90
128 128 87
136 136 94
130 131 92
128 131 93
128 130 92
133 135 94
127 129 91
135 137 96
134 136 95
140 141 98
145 145 99
146 146 101
145 145 102
158 156 104
164 161 107
171 167 108
167 164 108
166 163 109
172 168 112
170 167 109
170 167 109
170 167 109
176 170 110
174 169 107
179 172 113
176 171 111
178 173 113
178 172 109
176 170 109
178 172 111
177 171 109
178 172 110
175 170 108
179 173 110
178 172 108
179 172 110
176 171 110
176 170 106
176 169 106
178 171 109
175 168 102
177 171 108
176 170 105
176 171 106
175 170 106
175 168 104
176 169 103
173 167 104
176 169 105
171 165 101
172 165 100
173 166 101
172 165 102
175 169 105
176 169 106
169 163 97
166 160 98
171 164 99
169 163 101
171 164 101
169 162 99
161 155 91
167 159 97
166 160 93
162 156 95
159 153 92
158 150 91
164 157 96
150 144 83
148 142 85
155 149 89
174 198 121
175 199 107
167 193 84
168 193 102
169 193 101
166 191 97
171 196 105
166 191 86
167 193 81
169 194 94
171 196 84
169 194 88
171 196 70
170 195 94
164 189 62
169 193 92
167 192 82
168 193 90
166 192 65
170 195 80
168 193 74
169 194 88
168 194 90
169 194 74
169 194 71
169 194 92
169 194 90
174 198 99
174 198 78
171 196 84
172 198 88
174 199 88
175 200 88
177 201 105
176 201 102
175 200 88
175 199 80
176 200 88
174 199 88
175 200 99
173 198 76
172 197 51
175 199 84
174 200 95
172 198 76
174 199 84
174 199 88
173 199 84
172 198 80
175 200 92
177 201 108
175 200 95
174 199 84
173 199 80
175 200 102
175 200 105
176 201 102
175 200 92
175 200 92
173 199 95
173 198 76
176 201 105
175 200 95
172 198 72
176 201 102
174 198 105
169 195 76
170 196 80
169 195 84
171 196 94
175 200 110
175 200 95
151 177 107
62 98 153
62 98 156
62 97 154
62 98 154
63 98 158
63 99 158
62 98 150
62 98 157
62 98 158
63 98 159
63 99 161
61 97 149
62 97 148
62 97 151
63 98 157
61 97 149
63 99 160
62 98 156
63 99 164
62 98 155
62 97 151
63 98 156
63 99 158
62 97 150
61 97 153
63 99 159
62 98 150
63 98 155
62 98 156
62 98 154
63 99 158
62 97 149
63 98 155
63 99 158
61 97 145
63 98 157
63 98 155
62 98 156
63 99 161
63 99 160
62 97 151
62 98 154
62 97 150
62 98 153
62 98 156
62 98 154
62 98 157
61 96 147
62 98 152
62 97 150
62 98 156
62 97 147
61 95 149
62 97 157
121 126 110
129 128 87
128 129 90
126 127 90
115 118 83
125 127 90
124 127 90
126 129 93
122 125 89
139 140 98
144 144 98
154 152 103
137 139 98
146 146 100
155 153 104
156 154 103
157 155 104
162 159 106
166 163 108
168 164 105
169 165 108
175 169 111
175 170 109
172 168 109
173 168 108
177 171 109
178 172 110
179 173 111
178 172 109
175 170 106
179 172 110
177 171 109
175 169 105
178 171 109
179 173 109
177 171 106
178 172 108
175 171 108
177 171 106
179 171 110
178 171 104
179 172 109
176 171 106
175 168 104
175 169 106
174 167 104
176 169 103
177 170 106
177 170 105
176 169 103
174 167 102
173 167 103
173 166 104
173 167 106
175 169 106
177 169 106
174 167 103
176 168 103
171 164 102
164 158 95
177 169 105
172 164 98
170 162 99
162 156 89
167 160 95
166 160 97
160 154 90
160 155 90
156 150 87
158 151 90
160 154 90
159 153 89
159 153 87
178 202 130
172 197 105
168 192 101
167 193 100
173 198 108
169 193 98
171 196 95
169 194 97
171 196 102
172 197 95
168 193 99
167 192 76
168 194 82
171 196 84
168 193 80
170 195 76
168 193 88
168 193 57
167 193 51
170 195 74
167 192 65
168 194 82
173 197 111
170 196 78
172 197 90
170 195 51
171 195 88
172 197 78
173 198 72
172 197 90
173 198 97
173 198 82
173 198 62
176 201 95
174 199 80
175 200 92
174 199 88
176 200 95
173 198 76
173 198 76
172 198 72
171 197 62
174 199 88
172 198 72
174 199 76
175 199 88
174 199 84
173 198 76
175 199 84
172 197 67
174 199 84
174 199 88
173 198 80
174 199 80
172 198 80
173 199 80
176 200 99
174 199 88
173 199 80
172 198 76
175 200 95
173 198 95
166 191 66
166 191 54
165 190 100
165 191 65
168 193 78
169 194 88
166 191 67
170 195 88
170 195 65
173 198 94
124 150 116
63 98 156
62 98 159
63 99 160
63 98 157
63 99 158
63 98 155
63 98 153
63 98 156
61 97 151
63 98 155
63 98 156
62 98 153
61 96 143
62 97 148
62 97 144
61 97 145
63 99 162
62 98 150
62 97 149
62 97 151
62 98 154
63 98 152
61 97 143
62 97 150
63 99 158
62 97 148
62 97 148
64 99 160
62 98 152
62 98 153
62 98 153
62 97 148
62 98 151
61 97 149
62 97 151
62 97 148
62 97 149
63 98 155
62 98 156
62 98 154
62 98 149
61 96 143
63 98 155
62 97 150
62 97 154
63 99 159
63 98 152
62 97 148
62 97 154
61 96 147
62 97 150
63 98 161
62 97 157
61 95 148
85 101 126
132 131 89
110 113 81
113 115 81
116 119 83
116 119 85
108 111 80
104 109 81
121 123 87
121 124 89
122 124 88
136 136 94
137 137 95
151 149 99
142 142 98
155 154 105
153 151 101
165 161 106
164 160 105
171 166 109
168 163 106
173 168 108
175 170 110
171 167 106
173 167 106
176 170 109
179 172 109
176 170 107
179 173 108
179 173 108
177 171 109
174 169 103
173 168 104
178 171 104
179 173 109
179 172 108
176 170 106
176 170 106
177 171 104
176 170 103
180 173 108
175 169 104
175 169 105
174 168 101
177 170 104
177 170 103
174 167 99
178 171 105
176 169 104
173 167 103
172 167 103
174 168 103
172 165 100
167 160 97
173 167 99
166 160 94
172 166 101
167 161 96
174 167 101
172 165 99
171 164 96
168 162 95
171 164 97
173 165 98
167 160 95
164 158 93
163 156 92
164 157 90
165 158 91
153 148 85
158 151 86
160 153 86
160 154 89
174 198 94
168 192 97
174 198 102
168 192 112
169 193 88
171 196 94
169 194 108
169 194 92
170 195 80
167 193 84
169 194 76
171 196 84
171 196 95
167 193 78
175 199 99
169 194 82
173 198 84
170 195 67
168 193 92
168 193 78
173 198 99
164 190 88
168 194 54
172 196 84
169 195 86
170 195 78
169 194 76
169 194 76
171 196 78
173 198 88
173 198 99
173 198 95
173 198 84
176 200 92
176 200 95
176 201 95
174 199 76
174 199 80
175 200 88
176 200 92
176 200 92
176 200 95
175 200 99
175 199 84
174 199 76
171 196 51
175 200 92
174 199 84
174 200 92
173 199 84
174 199 84
174 199 84
173 198 76
173 199 84
175 200 88
176 200 88
174 199 84
174 199 76
174 199 92
174 199 84
173 198 74
168 192 84
165 190 44
170 195 78
168 193 57
163 188 72
163 189 49
168 193 80
165 190 70
165 189 82
168 193 88
171 196 82
85 115 139
62 98 155
61 97 148
63 99 159
61 97 152
61 97 143
62 97 147
62 98 152
62 98 153
63 98 150
63 98 153
61 96 142
63 98 153
62 97 148
63 99 155
61 97 147
63 98 153
62 97 148
62 98 153
63 98 156
63 98 156
62 98 154
62 97 149
62 98 152
63 98 155
62 97 145
62 97 152
63 99 154
63 98 150
62 98 149
63 99 157
62 97 149
62 97 151
62 97 148
62 98 156
62 98 151
61 96 144
63 98 153
61 96 141
62 98 153
62 97 152
62 97 150
63 99 159
62 97 152
62 98 150
61 96 149
62 98 155
62 97 150
61 96 148
62 98 154
62 97 148
62 98 155
61 96 146
61 96 142
60 94 139
63 93 138
101 104 74
95 98 69
99 101 71
95 99 71
87 93 68
108 112 81
114 118 85
117 120 86
120 123 88
124 126 90
122 123 86
139 139 93
138 137 94
139 139 93
161 157 102
155 153 100
157 154 99
163 160 102
162 158 101
167 163 105
169 165 106
173 168 109
169 164 105
173 167 106
170 165 100
180 173 111
176 171 107
178 171 105
175 169 103
178 170 104
178 171 104
178 171 106
177 171 106
180 173 110
178 172 108
175 169 101
178 170 106
178 171 105
178 171 104
176 170 101
178 170 106
177 170 105
180 172 103
175 168 99
175 169 103
178 171 105
175 169 99
173 166 101
173 167 97
177 170 101
171 165 99
176 169 102
174 166 100
173 166 100
168 161 95
172 166 99
170 163 96
171 164 99
164 157 93
167 160 95
172 164 97
165 159 97
170 162 98
168 161 96
164 157 93
164 157 85
164 157 92
159 153 87
158 152 89
161 154 92
166 158 93
160 154 90
175 199 99
172 196 94
170 194 109
167 192 99
174 198 82
168 193 80
174 199 76
169 194 91
171 196 107
166 191 79
169 194 87
168 193 73
170 195 65
170 195 88
170 195 65
170 194 94
171 196 94
169 194 99
170 195 76
163 189 74
169 194 65
171 196 88
168 193 102
168 194 70
171 196 86
167 192 86
173 198 99
170 196 47
169 194 82
170 194 67
174 199 88
174 198 82
171 196 84
175 199 94
173 198 72
174 199 84
176 200 92
173 198 67
175 199 84
173 198 72
173 198 72
178 202 108
172 198 72
174 199 88
174 199 76
173 198 76
175 200 99
172 198 67
173 198 67
176 200 84
176 201 102
174 199 80
172 197 57
174 199 88
175 199 88
177 201 99
174 199 76
173 198 72
173 199 80
171 196 82
167 192 72
166 191 70
168 193 76
165 190 51
167 191 75
165 189 70
165 190 82
170 194 86
169 193 76
165 190 72
161 186 76
158 183 94
62 98 150
61 97 147
62 97 152
62 98 150
62 98 151
62 98 150
63 99 158
62 97 142
62 97 149
61 96 144
63 98 155
63 98 153
61 97 145
61 96 147
62 97 147
61 97 142
62 97 145
61 97 145
62 98 153
61 97 149
63 98 155
61 97 144
63 98 154
63 98 155
62 97 148
63 98 154
62 98 154
62 97 145
62 98 150
62 97 150
62 98 151
62 97 144
62 97 149
63 98 153
62 97 151
63 98 155
61 97 147
62 97 145
63 98 152
62 97 149
62 97 147
63 99 162
62 97 149
62 97 149
63 98 156
63 98 155
61 96 147
61 96 144
62 97 152
62 97 147
62 97 147
61 96 145
61 96 150
60 95 143
63 98 158
62 96 152
101 104 81
90 92 65
80 86 66
89 94 68
97 102 73
91 97 72
105 109 78
115 119 84
107 111 80
109 113 79
131 131 89
133 133 92
136 136 92
143 141 92
145 144 96
158 154 99
159 155 101
165 161 100
167 162 103
168 164 105
168 163 102
171 165 103
169 164 105
174 168 105
177 171 105
176 170 106
178 170 104
174 168 101
178 171 104
178 171 102
177 171 106
180 173 105
177 170 101
177 170 104
179 172 107
179 172 104
177 170 106
181 173 105
179 171 101
176 170 101
176 169 98
180 172 103
176 170 99
177 169 103
174 168 99
175 168 97
174 168 99
175 168 98
178 170 102
176 168 100
174 167 95
175 168 99
176 168 97
175 169 99
172 165 98
173 167 97
167 161 93
166 160 88
176 169 98
170 162 97
172 165 97
166 160 90
168 162 95
173 165 100
159 153 85
166 159 93
164 157 94
165 157 90
165 159 90
163 156 90
162 155 90
159 152 84
176 199 118
169 194 84
171 195 113
171 196 84
172 196 84
173 197 90
170 195 91
174 198 78
171 194 103
166 191 80
169 194 93
166 192 65
165 191 82
168 193 76
172 196 88
169 194 78
169 194 88
168 193 67
170 195 86
167 192 72
171 196 95
170 195 62
170 195 65
170 195 86
171 195 82
171 196 90
166 191 61
169 194 78
174 199 84
172 196 79
173 198 72
172 197 74
172 197 78
172 196 89
175 200 88
177 201 99
174 199 84
172 197 62
175 200 88
176 201 102
174 199 84
176 200 84
176 200 95
175 200 92
170 196 57
173 198 76
175 200 84
175 200 92
175 200 92
173 198 72
175 199 80
176 200 92
175 200 92
175 200 92
174 199 88
174 199 80
172 198 72
176 201 99
172 198 67
161 187 62
165 190 70
164 189 66
169 194 47
169 194 72
165 189 60
166 191 60
167 192 67
170 194 88
170 195 88
167 192 92
168 193 54
144 169 95
63 99 161
62 97 151
61 96 139
61 96 145
62 97 147
61 97 147
61 97 141
62 98 151
62 98 150
61 97 153
61 97 144
60 96 134
61 97 144
62 98 150
62 97 150
63 99 157
63 98 154
61 97 150
62 98 156
60 95 133
63 98 150
62 97 149
62 98 152
63 98 150
61 97 144
63 98 150
63 98 154
61 97 142
62 97 149
63 98 152
61 96 141
62 98 148
61 96 141
63 99 157
62 97 148
62 97 145
61 97 149
61 96 141
63 99 158
62 97 150
61 96 152
62 97 150
62 97 147
63 98 154
61 96 145
62 98 152
62 97 151
63 98 157
62 97 150
61 96 147
63 98 152
62 97 148
62 97 150
61 95 146
61 96 151
59 92 139
75 86 87
64 70 52
85 89 63
70 76 55
89 94 67
92 97 70
101 105 74
102 106 77
108 111 79
127 128 88
115 119 83
126 127 87
138 138 92
134 133 90
154 151 92
150 147 92
159 155 99
158 154 98
166 161 103
166 161 99
166 161 98
170 163 102
174 168 103
174 168 104
175 168 102
180 172 104
175 169 105
178 171 102
176 170 99
177 170 103
175 169 102
179 172 104
180 172 102
174 168 96
176 169 99
172 167 97
180 172 102
175 169 98
177 170 99
178 171 103
174 167 96
176 169 98
177 170 97
179 171 101
173 167 95
177 170 101
173 167 99
178 170 101
174 166 95
176 169 97
169 163 90
174 167 95
173 165 97
177 169 101
172 165 97
172 165 98
175 167 99
169 162 95
173 165 98
174 166 99
168 162 90
174 165 95
170 163 92
166 160 92
169 163 95
168 161 92
168 160 93
158 152 87
161 155 87
166 158 89
153 147 85
159 152 84
170 195 81
171 196 74
170 194 102
170 195 65
170 195 82
174 198 102
165 190 97
174 198 107
170 195 89
171 195 99
172 196 94
170 195 76
170 195 86
173 198 80
174 198 107
166 191 88
174 199 99
172 196 90
168 192 60
172 196 84
170 195 78
172 196 82
165 190 60
166 192 67
172 197 91
171 196 72
171 195 88
169 194 70
169 193 73
173 198 90
172 196 100
174 199 78
175 199 86
175 200 92
172 197 82
174 199 80
174 199 72
175 199 80
175 199 80
177 201 95
176 200 88
176 201 92
175 200 88
174 199 80
174 199 72
177 201 95
174 199 76
174 199 72
174 199 67
173 198 76
171 196 51
175 200 92
172 197 62
173 198 76
174 199 72
176 200 88
174 199 76
175 200 97
168 194 62
170 195 54
163 188 70
164 190 51
163 189 67
166 191 65
168 193 80
162 188 54
167 192 60
167 192 78
170 195 60
164 190 60
164 189 58
124 151 110
61 96 143
61 96 145
61 97 143
62 97 144
61 97 147
61 96 142
62 97 149
62 97 150
62 97 147
61 97 143
61 96 137
62 98 150
61 96 140
62 97 150
62 97 148
62 98 154
62 97 143
62 97 143
62 97 149
62 98 150
63 98 155
61 96 140
62 97 148
62 97 144
60 95 135
62 97 148
62 97 149
61 96 139
60 95 136
63 99 156
62 97 144
61 96 139
61 97 144
61 96 141
63 98 151
61 96 140
60 95 133
62 97 145
61 96 134
62 97 148
62 98 154
61 97 145
62 98 149
61 97 143
62 97 140
62 98 153
62 97 146
62 97 148
63 98 150
62 97 142
62 97 152
60 95 141
62 97 145
62 96 148
60 94 138
60 93 137
61 82 107
64 69 50
70 74 52
65 72 52
75 82 60
76 82 60
93 98 67
84 90 67
117 120 82
103 107 72
126 126 84
127 128 86
138 137 89
136 135 89
148 145 95
153 149 97
154 151 92
156 152 92
169 163 99
162 156 95
169 164 101
167 162 98
170 164 96
174 168 101
173 167 102
176 169 98
174 168 98
173 167 101
174 168 100
177 170 100
174 168 96
175 169 97
177 170 103
175 169 101
177 170 96
177 170 98
179 172 103
175 168 97
175 168 99
179 171 103
176 169 99
179 172 102
175 168 95
177 169 96
179 171 102
175 168 95
174 168 97
172 166 92
176 168 97
175 168 94
174 167 97
175 168 97
173 165 92
172 165 91
176 169 100
173 166 96
172 165 90
171 164 93
168 162 92
171 164 97
165 158 88
174 166 97
166 159 84
171 164 92
169 161 91
161 156 84
163 155 90
169 162 91
166 159 88
158 151 87
156 150 85
159 152 84
207 223 225
209 224 233
212 227 233
213 228 234
212 227 236
209 224 231
208 223 227
214 229 238
209 224 232
213 227 236
211 226 232
214 228 241
213 228 236
214 229 236
211 225 237
211 226 229
214 228 244
217 231 244
215 229 242
211 225 237
213 227 236
213 228 239
216 230 235
216 230 243
213 228 235
213 228 238
213 227 234
211 225 232
215 229 239
215 229 240
214 228 230
213 228 231
218 233 241
213 228 234
214 229 231
216 231 237
214 229 228
211 227 220
212 228 223
213 228 226
208 225 212
209 226 215
209 225 214
208 224 211
211 227 221
208 225 212
204 221 199
201 219 189
204 221 199
200 218 186
198 217 179
202 220 193
199 217 182
197 217 184
190 211 153
188 209 147
186 208 140
187 208 143
176 198 121
175 197 111
173 197 95
170 194 70
169 195 57
166 191 31
166 190 72
164 189 76
168 193 72
166 191 78
163 189 51
165 190 58
172 196 82
112 139 121
63 98 152
61 96 141
62 97 143
62 98 149
62 97 145
62 97 149
62 97 145
62 97 147
62 97 148
62 98 150
62 97 141
62 97 149
62 97 147
62 97 141
61 97 143
60 95 137
62 97 142
61 97 144
61 96 147
60 96 137
61 96 139
60 95 130
60 95 135
60 96 137
61 95 131
62 97 143
61 96 142
64 99 153
62 97 141
63 98 152
62 97 144
61 96 137
62 97 145
62 97 151
62 97 149
61 95 141
61 96 137
62 97 148
62 98 148
62 97 145
61 96 140
61 96 140
62 97 149
62 97 145
61 95 141
62 97 148
62 98 151
61 97 153
61 96 142
63 98 158
60 94 134
61 96 140
60 95 145
61 95 143
60 94 139
60 93 135
52 76 101
40 46 31
55 60 42
53 62 45
77 82 57
74 81 58
74 82 60
83 89 61
89 96 64
108 110 75
117 119 79
134 133 86
125 125 84
138 136 84
140 138 87
152 150 88
152 149 92
150 148 85
158 154 89
161 156 95
168 162 95
170 164 98
170 164 97
173 166 99
177 169 98
169 164 92
169 164 93
177 169 96
179 171 103
177 169 97
175 169 99
176 170 99
175 168 94
176 169 94
175 168 94
177 170 99
175 169 97
177 170 98
179 171 100
176 169 97
181 172 101
173 167 91
178 170 101
175 168 97
175 168 94
173 166 92
174 167 94
169 163 86
171 164 92
177 170 95
173 166 91
173 166 95
174 166 94
175 168 98
173 165 93
173 167 93
177 169 97
170 163 90
173 166 94
164 158 83
167 160 90
167 161 89
173 167 93
166 159 90
169 162 86
163 157 89
167 159 90
166 159 89
160 155 81
163 156 89
158 151 84
151 145 82
222 236 255
217 231 251
219 233 253
219 233 253
214 228 250
218 232 252
218 232 252
216 230 251
221 235 254
216 230 250
218 232 252
219 233 252
216 230 251
214 227 248
218 232 252
219 233 253
220 234 253
220 233 253
217 231 251
218 232 251
219 233 253
211 226 248
216 230 250
220 233 252
220 234 254
215 229 249
217 231 250
218 232 252
218 232 251
215 229 248
218 232 250
218 232 252
223 237 255
221 235 254
223 237 255
220 234 254
223 237 255
223 237 255
223 236 255
223 237 255
223 237 255
223 237 255
223 237 255
223 236 255
223 237 255
223 237 255
223 237 255
224 237 255
223 237 255
223 237 255
223 237 255
223 237 255
223 237 255
223 237 255
224 237 255
223 237 255
223 237 255
219 232 251
209 223 244
217 230 249
212 225 246
217 230 249
216 229 248
212 226 242
209 223 233
215 229 236
205 221 218
197 214 198
201 217 200
196 214 188
196 214 188
112 136 158
60 95 136
61 96 142
62 97 144
62 97 148
61 96 137
62 97 145
62 98 148
62 97 142
62 97 143
61 96 141
62 97 147
62 97 144
60 95 135
61 96 140
63 98 145
62 97 147
61 97 148
62 97 144
61 96 141
60 95 133
61 96 142
61 96 143
61 96 139
62 97 141
62 97 148
61 96 136
62 97 148
61 96 139
60 95 131
62 97 144
61 96 148
61 97 145
61 96 141
63 98 148
62 97 148
60 95 133
61 96 141
63 98 151
63 98 153
62 97 145
61 96 135
62 97 148
60 95 136
61 96 137
62 97 145
61 96 142
61 97 145
61 96 140
61 96 142
62 97 145
60 95 134
62 96 146
62 97 146
61 94 136
61 95 143
60 94 142
52 80 114
38 45 33
48 54 36
51 59 43
54 62 44
74 81 53
87 92 62
78 85 61
90 96 61
106 109 72
110 112 75
121 122 80
117 119 75
130 129 82
140 138 81
158 153 91
150 147 89
152 149 88
158 154 90
165 159 91
164 160 91
164 160 89
172 165 95
171 165 96
171 165 98
171 166 94
174 168 95
171 165 94
171 165 91
173 166 91
176 169 99
177 170 96
177 169 95
177 170 96
178 171 100
176 168 93
179 171 97
177 170 97
174 168 93
174 167 93
179 171 99
175 167 92
176 168 92
175 168 97
174 167 93
173 166 90
172 166 90
173 166 91
172 165 90
173 166 94
170 164 87
170 163 91
170 163 87
169 163 84
170 163 90
170 163 88
175 167 92
171 163 93
164 158 82
163 157 85
172 165 93
168 162 89
166 160 85
167 159 87
156 151 78
161 154 84
159 153 80
158 151 82
160 154 84
159 153 82
158 152 80
154 147 81
217 231 251
216 230 251
215 229 250
214 228 250
218 232 253
218 232 253
218 232 253
217 231 251
217 231 252
213 227 248
217 231 252
221 235 255
216 230 251
214 228 250
216 230 250
216 230 252
217 231 252
219 233 253
216 230 250
217 231 252
215 229 250
218 232 252
216 230 251
219 233 253
221 235 255
217 231 251
219 233 254
220 234 254
215 229 251
218 232 251
220 233 252
222 236 255
223 236 255
219 233 253
220 234 254
222 236 255
223 236 255
222 236 255
222 236 255
222 236 255
222 236 255
222 236 255
222 236 255
222 236 255
222 236 255
222 236 255
222 236 255
222 236 255
223 236 255
223 236 255
223 236 255
223 236 255
222 236 255
222 236 255
223 236 255
223 236 255
222 236 255
217 231 251
217 231 250
215 229 248
210 224 245
214 228 247
218 232 252
220 234 253
220 234 252
215 228 248
210 225 244
211 225 244
209 223 243
217 231 250
214 228 247
99 125 166
60 95 134
61 97 144
61 96 136
61 96 136
60 95 142
60 95 136
63 98 154
60 95 135
60 95 133
61 96 136
63 98 148
60 95 129
61 96 142
62 97 151
61 96 141
62 98 148
62 98 151
62 97 145
61 96 141
61 96 136
61 96 133
61 96 142
62 97 148
61 96 141
61 97 144
62 97 144
61 96 135
61 96 137
61 96 144
60 95 137
63 99 155
62 97 144
61 97 141
61 95 135
60 95 131
60 95 133
62 97 145
61 95 140
62 97 147
61 96 137
62 97 143
62 98 151
63 98 151
62 97 140
62 96 139
62 96 142
62 97 140
61 95 138
62 97 144
62 97 148
62 97 145
61 95 139
61 96 141
59 93 125
59 93 132
58 91 125
55 84 124
29 37 25
42 49 35
43 51 35
56 65 43
63 71 51
62 72 54
78 84 59
84 90 64
98 102 68
111 112 69
118 118 78
132 131 80
131 131 80
136 136 80
154 150 86
148 146 86
155 151 87
157 153 90
162 157 87
162 157 87
163 158 88
168 162 95
166 160 88
169 163 91
164 159 78
169 163 90
173 167 91
172 166 87
176 169 96
175 167 89
177 169 97
174 168 98
174 167 93
175 168 90
175 168 94
176 168 95
174 167 90
177 169 95
174 168 91
173 166 93
171 165 90
173 167 92
177 169 97
175 168 93
177 169 93
171 165 87
174 166 90
175 167 90
174 166 92
178 170 98
175 168 91
175 167 94
172 166 91
169 163 87
170 163 90
170 163 88
163 156 84
174 167 92
172 165 90
167 161 82
167 160 89
175 167 93
166 159 89
167 159 89
166 159 85
164 159 84
153 148 75
159 152 80
159 154 80
158 151 83
160 153 86
214 229 250
215 230 250
217 232 252
211 226 249
213 228 250
215 230 250
217 232 252
216 231 252
217 231 252
217 232 252
219 233 254
210 225 247
213 228 249
218 233 253
212 227 250
216 231 250
214 229 250
213 228 249
215 230 250
211 226 247
213 228 250
215 230 250
216 231 252
216 230 251
217 232 252
219 233 253
217 232 252
215 230 250
218 233 253
220 234 254
220 234 253
217 232 252
221 235 254
222 236 255
220 234 254
221 235 254
222 236 255
222 236 255
222 236 255
222 236 255
222 236 255
222 236 255
222 236 255
222 236 255
222 236 255
222 236 255
222 236 255
222 236 255
222 236 255
222 236 255
222 236 255
222 236 255
222 236 255
222 236 255
222 236 255
222 236 255
222 236 255
218 232 251
210 225 248
214 228 248
217 231 251
215 229 248
213 227 248
212 227 247
217 231 251
213 228 247
216 230 250
216 230 251
214 228 249
215 229 249
213 227 248
76 106 145
63 98 156
62 97 144
61 96 136
60 95 134
61 96 130
62 97 147
61 96 137
61 96 139
61 96 139
61 96 140
62 97 142
61 96 143
61 96 133
62 97 144
62 97 145
62 97 142
60 95 129
61 96 135
62 97 143
62 97 148
59 93 124
61 96 140
62 98 149
61 96 135
62 97 142
62 97 144
62 97 144
62 97 143
61 96 136
61 96 134
59 94 124
61 97 143
59 94 121
61 96 137
62 97 141
60 95 135
63 98 152
61 96 142
61 96 139
62 97 144
62 97 139
62 97 144
60 95 137
60 95 127
61 96 135
61 96 144
61 96 144
60 95 136
60 95 133
61 96 139
61 96 137
60 94 139
60 94 134
60 94 135
61 95 138
60 93 135
55 85 115
32 39 25
45 51 32
50 58 40
47 56 36
63 70 49
64 71 43
80 85 54
88 92 58
92 97 66
94 99 59
118 119 67
110 112 66
119 120 61
139 137 81
139 137 77
140 139 79
155 152 83
159 154 86
158 153 85
162 157 89
163 158 86
166 160 89
167 161 87
166 161 85
166 161 85
174 167 90
164 159 80
173 166 87
170 164 85
173 167 87
171 165 84
174 167 90
171 164 80
176 169 93
173 166 86
171 165 84
174 167 89
170 164 83
175 168 89
169 163 81
178 171 99
175 167 89
172 165 87
173 166 89
174 167 90
174 167 88
174 167 89
173 166 87
173 166 88
173 166 90
173 166 89
169 163 83
171 164 86
167 161 83
169 163 84
168 161 81
172 165 90
171 163 87
167 161 84
166 159 86
173 165 88
174 166 95
170 162 86
161 155 83
164 158 80
159 153 75
164 158 80
159 153 81
153 147 75
160 154 82
154 148 80
209 224 247
214 229 250
215 229 250
215 230 251
215 230 252
217 231 253
207 222 246
218 232 253
214 228 250
213 228 250
214 229 251
210 225 246
217 231 251
218 232 252
213 227 249
217 231 253
217 231 253
210 225 248
218 232 253
217 231 252
219 233 254
216 230 252
215 230 252
216 230 252
217 231 252
219 233 254
219 233 254
218 232 254
221 235 255
216 230 252
220 234 255
217 231 252
221 235 255
218 232 253
221 235 255
221 235 255
221 235 255
221 235 255
221 235 255
221 235 255
221 235 255
221 235 255
221 235 255
221 235 255
221 235 255
221 235 255
221 235 255
221 235 255
221 235 255
221 235 255
221 235 255
221 235 255
221 235 255
221 235 255
221 235 255
221 235 255
219 233 254
218 232 253
214 229 251
208 223 244
212 227 248
208 223 242
210 225 248
212 227 248
207 222 245
214 229 251
215 230 251
212 227 247
214 229 252
211 226 248
212 227 249
106 130 159
60 95 135
61 96 135
59 94 125
61 96 139
62 97 144
61 96 139
61 96 142
60 95 129
61 96 139
60 95 139
59 94 129
62 97 150
61 96 134
61 96 134
62 97 144
61 96 139
61 96 140
61 96 135
62 96 141
60 95 127
63 98 156
61 96 140
60 95 135
61 96 139
61 96 135
60 95 130
60 95 129
62 97 143
60 95 130
61 96 135
60 95 130
60 95 131
60 95 130
60 95 131
61 96 141
61 96 137
61 96 139
61 96 141
61 95 137
61 96 140
61 96 141
61 96 137
61 96 137
60 95 133
60 95 130
61 95 138
60 95 136
60 94 133
60 94 129
61 96 141
61 96 144
60 94 130
61 95 135
62 96 143
61 95 137
61 95 137
54 83 107
27 34 20
41 50 31
41 49 30
52 60 39
69 76 44
69 76 46
72 79 54
94 97 56
93 96 56
103 106 65
101 104 60
115 116 67
119 121 64
132 131 73
137 136 71
145 142 76
161 155 87
153 149 82
158 153 84
160 155 80
159 154 81
153 149 76
170 163 86
169 162 85
164 159 82
167 161 78
165 159 80
173 165 89
173 166 89
168 162 78
170 164 82
170 165 82
172 165 84
169 163 78
173 167 90
171 165 85
176 168 93
166 160 79
174 167 84
172 165 84
169 163 80
171 165 85
168 163 76
172 166 87
170 164 83
173 166 89
170 164 84
169 163 79
172 166 86
170 163 85
163 158 76
176 168 89
168 162 82
165 159 84
169 162 84
171 164 87
170 162 87
170 163 87
165 158 81
167 159 87
166 158 85
165 159 80
163 157 80
158 153 78
166 159 86
162 156 79
155 149 74
161 155 73
161 154 80
161 156 83
156 149 78
215 230 251
212 227 249
214 229 251
217 232 252
216 231 252
213 228 251
218 233 254
217 232 253
216 231 253
212 227 248
214 229 251
214 229 250
217 232 253
215 230 251
213 228 248
214 229 250
218 233 254
214 229 249
217 232 252
215 230 251
216 231 252
215 230 250
215 230 251
216 231 252
216 231 252
218 233 254
215 230 251
215 230 252
218 233 253
216 231 252
219 234 254
220 235 255
215 230 250
217 232 253
218 233 250
215 230 250
219 234 253
220 234 254
217 233 249
218 233 250
218 234 252
218 233 249
219 234 252
219 234 253
218 233 249
217 232 248
218 234 252
217 233 249
219 234 253
217 233 249
218 233 252
218 234 252
218 234 252
219 234 252
216 232 246
217 233 249
218 233 252
214 229 247
209 224 245
210 225 245
208 224 246
215 230 252
207 222 245
213 229 252
211 226 249
208 224 247
209 225 247
215 230 253
212 227 250
213 228 250
211 226 250
108 132 162
61 96 135
60 94 129
61 95 134
62 97 145
62 97 144
60 95 136
60 94 129
61 96 137
59 94 125
60 95 133
61 96 137
60 94 124
62 97 145
61 96 130
61 96 135
61 96 141
62 97 147
60 95 130
60 94 130
58 93 125
60 95 135
62 96 141
60 95 135
60 95 135
60 95 134
60 95 134
60 95 133
61 96 141
60 95 134
60 95 130
61 96 137
61 96 131
60 94 122
61 96 136
61 96 135
61 97 143
61 96 133
62 97 140
60 94 134
60 94 127
61 96 137
60 95 135
60 95 134
61 97 141
61 96 141
61 96 134
61 96 142
61 96 137
60 95 134
61 96 135
60 94 131
60 95 130
59 93 131
59 93 123
58 91 112
60 93 130
53 82 105
35 40 18
35 42 21
39 47 25
41 51 30
45 57 41
77 81 46
86 88 52
82 88 42
87 92 53
101 104 59
105 108 55
121 121 67
131 131 73
129 129 59
134 131 71
139 137 68
144 141 74
152 149 78
162 156 84
153 149 75
157 154 80
160 156 78
157 153 73
171 164 84
170 164 85
166 160 75
171 164 87
172 165 87
172 165 84
170 164 83
174 167 88
167 162 76
172 165 82
170 165 80
168 163 77
172 166 85
173 166 86
166 160 69
165 161 75
166 161 76
171 164 81
169 163 82
171 164 84
173 165 84
173 167 88
170 163 84
169 163 79
169 162 83
170 163 84
170 164 86
170 163 87
169 162 80
168 162 85
166 160 81
167 160 84
165 159 77
167 161 77
169 163 80
167 160 85
163 157 80
161 155 75
165 160 79
166 160 79
164 158 81
166 158 80
159 153 75
166 160 79
162 155 77
157 152 72
160 153 81
159 153 81
208 224 246
213 229 250
210 226 246
213 229 250
210 226 248
213 228 249
216 231 252
214 229 250
213 228 249
212 227 249
213 229 250
213 228 249
211 226 246
214 229 250
216 231 252
208 224 244
216 231 249
212 228 247
209 225 240
213 229 248
208 223 244
215 231 248
207 223 238
209 225 245
209 226 240
213 229 245
215 231 246
213 229 247
209 226 242
213 228 246
211 227 242
212 229 239
215 231 246
217 233 254
216 232 250
214 230 243
215 231 244
216 232 249
215 231 245
213 229 238
216 232 248
215 231 244
215 231 245
214 230 241
214 230 241
215 231 246
214 230 241
215 231 245
215 231 246
212 229 237
215 231 246
216 232 248
215 231 246
216 232 250
215 231 246
216 232 250
216 232 250
214 230 248
209 225 246
208 224 245
211 227 249
213 229 251
210 226 249
208 224 247
205 221 244
209 225 250
212 229 252
209 225 248
210 227 250
210 226 250
211 228 251
111 134 162
60 95 130
61 96 137
61 95 136
60 95 126
60 95 131
60 95 129
60 94 129
61 95 133
60 95 126
59 94 131
60 94 124
61 96 131
61 96 134
60 95 133
60 94 127
61 96 136
62 97 141
60 95 130
60 94 130
60 94 125
60 94 126
59 94 131
60 95 133
61 96 136
60 94 126
61 96 135
61 96 133
60 95 127
61 96 137
60 95 136
61 96 133
61 95 137
60 95 135
62 97 149
60 95 140
61 96 137
61 95 136
61 96 140
62 97 139
60 95 129
60 95 130
60 95 130
61 96 139
61 95 139
60 95 124
60 95 133
59 93 122
58 93 120
58 92 118
60 94 128
61 95 139
60 94 131
60 94 129
59 93 123
61 95 146
59 92 124
49 75 94
33 39 23
36 44 18
36 44 22
41 49 28
57 65 35
75 80 44
76 82 40
92 95 55
96 98 51
95 98 59
108 110 54
114 114 64
113 115 54
119 119 61
120 122 59
139 137 69
143 140 72
137 136 63
150 147 74
153 149 72
160 156 74
163 158 82
167 161 83
161 156 68
163 158 73
161 157 73
166 161 77
170 163 82
161 157 64
165 160 75
170 163 78
171 164 81
172 165 87
166 161 74
171 165 84
169 163 80
168 162 76
176 168 89
171 164 77
167 161 75
169 163 80
168 162 81
170 163 83
170 164 80
170 164 81
168 162 77
169 163 76
166 160 75
168 163 76
169 162 80
172 165 87
168 162 80
165 159 75
168 162 75
162 157 76
167 160 82
169 163 83
168 161 82
169 163 84
171 164 83
166 160 78
160 154 76
162 155 78
165 158 83
161 155 80
160 153 76
164 157 81
160 154 80
152 147 71
153 148 73
158 152 76
214 229 252
213 228 249
213 229 248
215 230 250
212 228 247
206 223 243
209 225 242
211 227 242
209 226 242
207 223 238
208 225 238
206 223 237
204 221 231
209 226 238
208 225 236
214 230 245
207 223 240
209 225 243
203 220 233
210 227 240
205 222 236
206 224 232
207 224 232
212 228 247
209 226 238
214 230 248
209 226 238
211 227 242
207 224 236
208 224 244
210 227 236
213 229 246
214 231 248
211 228 241
214 231 245
214 230 244
216 232 250
214 230 245
215 231 248
215 232 249
216 232 250
215 231 246
215 231 248
214 230 245
212 229 240
213 230 244
213 230 244
213 230 244
216 232 252
214 230 245
214 231 246
214 230 245
215 231 249
213 230 246
214 231 248
212 229 242
214 231 248
213 229 247
205 222 244
203 220 243
205 222 243
208 225 248
209 226 250
209 226 248
211 228 250
210 227 249
211 228 252
211 228 250
213 229 252
206 223 248
202 220 246
133 154 184
60 94 129
60 94 131
61 96 137
59 94 127
61 95 135
61 95 134
60 94 126
60 95 126
60 94 130
59 94 121
59 94 122
60 95 131
61 96 133
62 97 142
61 96 136
60 95 134
61 96 137
59 93 113
58 93 114
60 95 130
61 96 135
60 95 127
60 95 130
61 95 136
60 95 131
60 94 118
61 96 137
60 95 129
60 94 129
60 95 127
61 96 133
60 95 133
59 94 126
61 96 137
60 95 134
61 96 139
59 93 125
61 96 133
60 94 125
60 94 129
59 94 125
59 94 130
60 95 127
61 97 139
59 93 120
59 94 125
61 95 135
60 95 130
61 96 137
59 94 130
60 94 131
58 91 117
60 94 132
60 94 135
61 95 138
59 93 135
47 69 81
32 39 16
38 45 21
41 49 26
47 54 29
66 72 30
64 70 29
70 76 38
81 87 42
101 103 58
96 99 47
104 105 51
110 111 45
129 128 61
132 130 62
139 137 67
140 138 63
138 136 60
150 147 64
157 152 71
153 149 65
153 149 72
161 156 74
155 152 68
163 157 80
161 156 71
159 154 74
169 163 75
172 165 82
165 159 71
167 161 78
166 161 71
167 162 77
166 160 70
170 163 78
167 161 71
165 159 71
163 158 65
169 162 79
168 162 75
169 163 80
171 164 81
168 162 73
169 163 74
168 161 81
168 162 80
168 161 79
166 161 74
164 159 72
167 161 76
168 162 75
162 156 70
168 161 84
170 163 80
167 161 77
168 162 76
166 160 75
165 159 78
163 157 75
165 159 76
162 155 76
166 158 83
162 156 72
165 158 80
161 155 73
161 154 82
153 147 75
164 158 76
162 157 75
153 149 65
159 152 80
151 145 71
207 224 237
206 223 234
205 223 236
212 228 242
211 229 242
206 224 236
205 223 234
205 223 239
211 228 244
211 227 246
207 224 240
207 225 237
208 225 238
210 227 241
204 221 236
209 226 241
206 222 238
209 225 241
208 225 239
207 224 240
204 222 235
211 228 244
208 225 239
212 229 246
203 221 234
206 224 237
205 223 235
201 218 232
207 224 239
209 226 239
211 228 242
209 226 239
209 226 240
210 227 240
210 227 240
214 231 248
215 232 252
214 231 248
213 230 246
213 230 245
212 229 241
214 231 249
212 230 244
213 230 245
212 230 244
214 231 248
213 230 245
212 229 242
213 230 245
212 229 244
211 228 241
212 229 244
212 229 245
213 230 248
211 229 242
213 230 249
212 229 246
211 228 248
210 228 249
212 229 253
204 221 245
209 226 250
204 221 245
207 224 248
204 222 245
205 222 246
209 226 251
205 223 248
205 223 248
209 226 251
207 224 248
145 166 194
59 93 122
60 95 136
61 96 136
61 95 135
60 95 134
60 95 129
60 95 133
59 94 122
61 96 140
60 95 129
59 94 126
60 95 127
60 94 122
59 94 126
60 94 129
61 96 140
59 94 121
60 95 131
60 95 129
61 95 133
59 93 118
62 97 143
60 95 133
61 96 134
60 95 129
62 97 140
60 95 133
60 95 129
60 95 131
61 96 137
59 94 120
62 98 145
60 95 129
60 94 124
59 94 127
60 95 125
60 95 129
60 95 131
59 94 127
61 96 131
61 95 127
60 94 125
61 96 134
59 94 124
60 95 131
60 95 134
61 95 134
60 95 130
59 94 122
60 94 128
59 93 121
58 92 125
59 93 132
60 94 131
59 93 123
57 90 110
43 62 71
40 45 18
41 47 21
45 53 20
46 53 22
59 65 25
64 70 32
71 77 28
69 77 34
93 96 49
97 102 39
95 100 47
113 114 53
111 112 57
121 122 45
136 134 59
130 129 48
142 140 60
144 140 66
153 149 65
153 148 67
156 152 70
148 147 61
161 157 69
159 155 65
160 155 74
164 159 71
163 158 75
164 159 76
167 161 74
166 159 77
165 159 71
162 158 67
166 160 75
163 158 68
162 157 63
168 162 73
164 159 75
169 163 75
162 157 67
166 161 73
163 159 66
169 162 75
164 159 70
167 162 74
167 161 77
169 163 77
167 161 75
167 161 74
161 157 66
169 162 80
169 162 79
166 160 74
162 156 70
168 161 78
168 162 77
157 152 67
163 157 78
161 154 73
160 155 73
160 153 78
168 161 81
163 158 71
163 156 80
157 151 73
155 150 69
157 151 71
160 153 79
156 150 75
157 151 66
157 151 73
156 150 76
201 218 229
211 228 244
202 220 230
207 225 237
207 224 241
210 228 244
206 223 235
202 220 228
200 218 229
206 224 236
207 224 238
209 226 239
207 224 239
204 222 233
208 226 236
209 226 242
210 227 242
205 223 238
207 225 241
205 222 233
206 224 240
209 226 240
205 222 240
205 223 233
206 224 238
206 224 243
203 221 233
210 228 246
205 223 233
207 225 242
212 229 250
211 229 246
211 229 244
213 230 248
213 230 250
211 228 241
212 230 245
213 230 248
213 230 249
211 229 242
212 229 245
211 229 242
211 229 244
213 230 249
213 230 248
213 231 250
212 230 248
211 229 245
212 230 248
212 229 248
211 229 242
209 227 240
212 230 249
211 229 246
214 231 253
211 229 245
211 229 249
211 229 249
208 226 244
210 227 251
204 221 245
200 218 242
206 224 249
206 224 248
201 219 244
202 221 247
206 224 250
202 221 247
197 216 242
206 224 250
202 221 247
169 189 217
62 96 139
58 93 124
61 96 136
60 95 134
61 96 135
59 94 121
60 94 124
58 93 113
59 93 117
60 95 131
61 95 130
58 93 117
60 94 126
60 95 127
61 96 130
59 94 120
60 95 126
60 94 121
59 94 121
62 97 143
60 95 137
60 95 136
60 95 133
58 93 121
61 95 131
61 96 136
59 93 114
61 96 134
61 96 137
60 95 131
59 94 120
60 95 125
59 94 127
60 94 129
61 96 127
60 95 134
61 96 134
61 96 136
60 95 135
60 95 131
61 96 133
60 95 134
60 94 126
59 94 122
60 94 125
60 94 124
60 94 126
60 94 136
60 95 131
60 95 131
60 94 126
59 92 124
57 91 107
59 93 124
58 91 129
58 89 111
51 67 74
49 53 14
42 46 10
53 58 20
56 62 16
50 57 19
65 70 30
75 79 32
76 81 32
91 95 35
102 103 49
105 107 52
116 117 48
122 122 48
116 116 45
127 126 55
149 145 63
134 133 53
143 140 53
146 143 57
150 146 67
141 139 55
157 152 70
150 147 61
154 151 60
159 153 70
154 152 57
162 157 71
163 158 64
164 159 68
165 160 67
167 160 74
159 154 58
163 158 65
163 159 65
160 156 61
164 159 65
167 161 71
167 161 75
164 159 70
163 157 68
164 159 68
165 158 72
168 161 78
162 157 66
165 159 71
162 157 68
165 158 73
165 159 72
170 164 80
162 157 65
167 161 74
163 157 70
165 159 75
162 157 70
167 160 77
163 157 72
159 154 71
162 156 69
157 152 66
163 157 70
166 159 80
159 153 67
155 150 62
156 151 70
154 149 68
154 148 69
157 152 67
157 151 76
154 148 70
155 149 69
153 147 73
207 225 238
201 220 226
201 219 230
205 223 237
203 221 236
208 226 241
205 223 234
206 225 235
207 224 242
208 226 240
208 225 242
207 225 240
197 216 224
202 220 235
203 221 237
198 217 221
208 226 240
207 224 238
207 225 240
208 226 239
202 220 231
208 226 243
206 224 242
199 217 228
206 223 240
204 222 239
205 223 240
205 223 236
207 225 242
210 227 247
207 226 235
209 227 244
210 228 244
213 230 250
210 228 242
209 227 237
210 228 242
211 229 244
210 229 244
210 228 244
212 229 248
212 230 249
213 231 252
212 230 249
211 229 245
208 227 241
211 229 245
210 228 245
210 228 244
209 227 240
211 229 249
208 227 241
211 229 248
208 226 238
207 226 241
208 226 244
210 228 248
207 225 242
208 226 244
207 225 246
208 226 250
206 225 248
205 223 248
204 222 247
204 223 247
202 221 244
204 223 247
200 219 244
203 222 248
206 225 252
203 222 249
192 211 238
59 94 117
59 94 122
61 95 127
60 95 126
60 95 125
60 95 135
60 95 133
59 94 124
58 92 110
60 95 127
61 95 135
60 95 131
60 95 126
60 95 127
58 92 118
61 95 130
58 92 113
59 94 121
58 93 113
60 95 131
59 94 129
60 95 133
59 94 121
60 95 134
59 93 120
60 95 125
61 95 131
59 93 114
59 94 118
60 94 129
59 94 115
60 95 124
59 93 115
61 96 136
60 95 126
61 95 134
60 94 127
60 94 124
59 94 120
60 94 127
59 94 120
60 95 129
61 95 134
58 92 108
60 94 122
60 95 124
60 94 133
58 92 115
59 94 125
60 95 134
60 95 129
60 94 131
60 94 128
58 91 117
57 89 117
55 86 105
48 57 38
47 50 7
54 58 21
51 56 17
59 63 15
64 69 22
63 68 25
76 80 27
90 92 37
87 90 34
89 90 34
103 104 38
104 106 37
121 120 50
123 123 44
128 127 48
131 131 43
126 125 47
146 143 54
131 131 38
140 138 47
138 137 46
149 145 55
151 148 55
153 149 55
158 154 61
160 154 67
157 153 60
161 156 67
165 160 66
161 156 64
163 158 66
163 158 64
165 160 65
160 155 57
161 156 58
168 161 73
160 155 64
162 157 61
160 156 64
164 158 70
158 155 53
161 156 54
159 156 57
164 158 65
163 157 62
166 159 75
161 156 69
160 154 65
160 155 58
164 160 68
164 158 69
161 156 65
164 158 69
163 157 69
159 154 60
159 155 62
162 156 72
160 154 71
157 151 65
157 151 65
155 150 66
162 156 75
159 153 71
161 155 70
162 155 76
153 148 69
157 151 69
159 153 70
149 143 66
160 153 70
150 144 65
208 226 238
199 218 223
202 222 225
202 220 231
201 220 228
202 221 233
202 220 230
205 224 238
201 219 236
207 225 236
199 218 226
204 222 237
203 221 236
209 227 242
207 225 245
204 222 234
206 224 238
203 222 236
203 222 231
207 225 244
208 226 242
195 214 227
205 223 240
205 223 238
208 226 248
203 222 240
206 225 236
207 225 242
206 224 237
207 225 242
208 226 239
211 229 249
204 223 234
210 228 245
211 229 249
210 228 244
208 227 240
212 230 252
210 229 246
209 227 242
211 230 250
208 227 240
211 229 249
210 228 246
209 228 245
208 227 244
210 229 248
209 228 246
210 228 246
208 227 241
208 227 244
208 227 245
204 224 238
209 227 246
211 230 254
208 227 242
207 226 249
206 225 245
209 228 252
205 224 245
198 217 238
206 225 249
205 224 249
207 226 253
202 221 246
202 222 247
208 227 253
204 224 250
204 224 250
197 217 243
202 222 248
200 221 243
83 111 133
59 93 120
59 94 118
58 92 110
57 91 100
59 93 110
59 94 117
61 96 127
60 95 125
59 94 124
59 93 118
60 94 127
60 95 130
58 92 113
59 93 113
59 93 105
60 95 133
61 96 139
58 92 114
59 94 131
60 95 129
60 95 130
59 94 124
60 94 122
60 94 127
58 92 114
58 92 113
59 94 127
60 95 130
60 94 125
60 95 130
59 93 118
58 92 113
58 93 117
61 95 133
59 94 121
60 95 129
61 96 134
58 93 115
59 94 120
59 93 125
59 94 124
59 94 122
56 90 99
61 95 131
59 93 127
58 92 115
60 95 125
59 92 128
59 93 114
58 92 115
60 94 123
59 93 126
58 91 120
57 89 109
54 80 92
58 60 16
59 60 12
54 57 14
56 60 13
56 61 14
64 67 18
85 88 27
65 70 20
96 97 35
88 91 33
93 96 39
96 99 34
104 104 31
117 117 42
114 114 32
120 120 43
134 133 42
137 135 48
132 129 42
138 136 46
136 134 43
151 147 54
141 139 46
156 151 57
152 148 54
149 146 48
154 151 54
162 157 61
157 152 61
158 154 60
161 155 65
161 156 57
165 159 62
160 155 58
158 153 62
162 157 54
158 153 58
157 153 61
159 155 62
166 159 69
165 159 68
165 159 68
157 152 54
161 156 61
159 155 63
161 155 64
162 156 68
161 157 61
160 155 59
164 159 66
166 159 72
166 159 69
159 154 64
159 154 65
162 157 66
162 157 67
154 150 61
157 152 61
163 157 71
161 154 72
151 147 62
153 148 62
153 148 57
156 151 64
156 151 64
153 148 66
154 149 65
149 145 62
150 144 69
154 149 64
156 149 73
145 141 59
202 222 230
204 223 231
201 220 227
202 221 232
205 224 243
202 221 235
202 221 234
207 225 242
205 224 233
204 223 235
204 223 240
202 222 234
202 220 240
196 215 225
202 221 237
207 226 245
204 223 232
205 224 240
202 221 238
210 228 252
204 223 236
205 224 240
202 221 239
206 225 241
201 220 232
204 223 244
204 223 239
207 226 239
209 228 246
208 227 240
211 229 252
208 226 248
208 227 241
208 227 241
207 226 238
210 229 249
207 226 241
209 228 248
206 225 236
208 227 241
208 227 244
208 227 242
210 229 250
209 228 249
210 229 249
209 228 250
209 228 249
208 227 245
208 227 249
205 224 241
207 226 244
210 229 253
207 226 245
207 226 245
206 225 245
204 223 241
206 225 248
204 223 248
208 227 252
206 225 250
198 217 240
205 224 249
204 224 250
199 218 242
198 218 244
203 223 250
201 221 248
197 218 244
202 223 249
194 214 238
198 219 240
198 220 237
135 158 177
58 92 110
60 94 126
58 92 115
60 94 117
59 94 117
59 94 114
60 95 127
57 91 100
59 93 117
60 94 122
58 93 117
59 94 120
59 93 122
60 95 125
59 94 120
59 93 117
60 94 121
60 94 122
60 95 127
58 92 111
59 93 115
58 93 114
58 92 114
59 93 122
59 93 121
60 94 121
61 96 134
57 91 107
57 91 107
59 93 113
60 95 127
60 95 129
60 95 130
59 94 122
60 94 120
60 95 126
59 94 118
60 94 124
60 94 125
59 94 126
59 93 122
58 92 122
58 92 113
57 91 108
60 95 130
60 95 131
57 91 107
58 92 113
59 92 120
60 94 130
57 91 117
59 92 118
59 92 120
57 89 112
65 81 78
78 77 25
77 76 12
59 61 14
62 65 8
61 64 19
68 72 11
73 76 14
80 83 21
84 86 24
84 87 31
94 97 19
95 96 25
108 108 34
100 103 27
119 118 41
126 126 32
135 135 44
134 132 46
137 135 38
143 140 53
137 135 45
141 139 42
144 142 51
140 137 48
150 146 54
149 147 42
149 145 47
152 148 57
152 149 41
158 153 52
150 148 39
154 150 49
159 155 53
155 151 49
152 148 53
155 151 49
159 154 59
161 156 58
156 152 48
162 157 59
161 156 62
161 156 62
158 154 51
160 155 57
157 152 56
162 157 62
156 152 53
160 156 66
161 155 64
165 158 68
161 155 70
156 151 60
161 156 62
157 152 59
162 157 64
156 152 57
162 157 65
152 147 54
156 151 63
157 152 64
158 153 62
159 153 67
149 144 61
163 157 70
155 150 64
152 147 64
158 153 69
148 144 62
148 143 59
151 147 66
153 147 70
151 145 64
200 220 214
200 219 231
202 221 232
200 220 231
198 217 226
203 222 240
203 222 236
202 222 236
204 224 239
197 216 228
203 222 240
204 223 237
202 222 236
204 223 244
201 220 236
197 216 232
202 221 235
204 224 242
203 222 240
204 223 239
206 225 244
203 222 245
207 226 244
204 223 239
201 221 242
200 219 233
208 227 245
206 225 243
204 224 238
205 225 241
209 228 251
207 227 247
208 227 246
208 227 246
210 229 253
209 228 248
209 228 250
207 227 244
208 227 245
207 226 241
208 227 246
204 224 238
207 227 244
208 227 248
208 228 250
208 227 250
205 225 242
207 226 245
206 226 244
208 228 250
206 226 246
208 227 250
206 226 246
207 227 249
209 229 255
204 224 244
201 221 242
203 223 245
201 221 244
201 221 245
201 221 245
199 219 242
200 220 244
199 218 245
196 216 241
200 221 246
200 221 248
199 219 244
201 222 248
199 220 248
195 217 236
193 215 231
168 191 208
58 92 113
58 93 113
58 93 117
59 94 118
58 92 121
57 91 108
59 94 122
59 94 126
59 92 118
59 93 120
58 92 111
58 92 114
59 93 118
57 91 110
59 94 125
59 93 110
60 95 127
59 93 115
58 93 118
59 93 117
58 93 114
60 95 126
58 93 113
60 94 120
58 92 111
59 93 114
60 95 131
58 92 110
59 94 122
58 92 120
59 93 117
59 94 122
59 93 111
58 92 118
59 94 125
59 94 121
59 93 117
59 93 114
58 92 110
58 93 113
60 95 129
59 94 121
57 91 114
60 94 125
58 92 115
59 92 113
58 92 118
59 93 120
59 94 121
58 91 111
58 92 115
59 92 116
58 91 110
57 89 114
86 93 67
90 89 25
75 78 8
62 62 14
75 75 8
66 68 8
69 72 17
59 63 12
75 78 10
85 86 22
84 87 22
95 97 25
93 94 24
103 104 29
111 111 20
112 111 22
117 117 36
133 130 42
130 128 35
132 130 40
136 134 44
136 135 42
143 141 42
142 140 45
148 144 51
148 145 47
150 147 44
151 148 52
145 144 36
151 149 49
154 150 56
151 148 43
151 147 51
151 146 52
153 149 52
152 149 49
153 149 49
155 151 45
155 151 49
151 148 39
162 156 66
155 150 47
161 156 58
153 150 45
160 154 60
157 153 51
158 153 56
161 156 64
157 152 54
159 154 64
158 153 60
155 151 53
156 153 48
161 156 61
160 155 63
157 153 52
160 154 63
157 152 62
159 154 62
155 149 64
159 154 64
158 152 64
156 150 62
158 152 62
151 146 60
154 149 60
153 148 64
154 150 63
148 144 57
152 147 66
152 147 63
152 146 72
146 140 59
202 222 227
201 221 232
201 221 226
201 220 234
200 220 226
194 214 224
200 220 234
201 220 233
197 217 231
199 218 235
199 218 233
204 223 245
207 226 250
202 222 239
202 222 240
198 218 237
202 222 236
203 223 241
199 220 231
200 220 238
200 220 237
203 223 240
203 222 240
205 224 244
202 222 242
206 225 244
205 225 242
207 227 246
205 225 247
204 224 239
203 223 237
206 226 241
207 227 246
208 227 246
208 227 248
207 227 245
207 227 248
208 228 249
208 227 249
207 227 249
207 227 245
207 227 248
204 224 242
206 226 244
204 224 240
206 226 242
204 224 244
206 226 244
205 225 245
205 226 249
203 223 244
205 226 248
207 227 250
204 225 244
205 226 246
205 226 250
201 222 238
204 225 252
205 225 248
200 221 244
201 221 246
201 222 246
198 219 245
201 222 246
200 221 249
200 221 248
203 224 252
200 222 248
195 216 240
195 217 236
197 220 244
197 220 245
189 213 220
85 113 125
58 91 108
58 93 114
58 92 105
59 94 121
58 92 115
58 93 113
58 93 108
59 93 122
57 91 97
59 93 117
60 94 122
58 92 107
60 94 125
57 91 105
57 91 100
58 92 110
59 94 118
60 94 125
58 92 110
57 91 102
58 93 115
58 92 117
59 93 117
59 94 121
58 93 113
60 95 130
59 94 121
60 94 115
59 93 115
59 93 121
59 94 122
60 95 130
59 93 120
59 94 114
60 94 124
56 89 95
59 93 115
59 93 118
60 95 128
60 94 124
58 92 115
59 93 124
58 91 114
58 92 111
59 93 118
59 93 113
59 93 117
57 91 108
57 90 108
57 90 107
58 92 116
55 87 93
63 87 85
106 103 30
87 86 26
81 80 28
78 78 12
73 73 8
67 69 14
72 72 12
77 78 12
78 79 13
86 84 16
92 93 15
89 90 21
98 101 22
103 103 29
108 107 30
122 121 32
116 116 22
119 118 28
116 115 28
125 124 26
133 132 37
129 127 42
136 133 40
135 133 34
141 139 40
146 143 37
142 140 32
141 140 22
148 145 42
151 147 47
150 148 41
154 151 47
151 147 47
148 145 39
147 144 47
153 149 47
154 151 42
160 155 61
149 147 34
155 151 48
160 156 57
153 150 42
149 146 41
153 149 48
160 156 52
154 151 51
155 150 59
154 150 53
157 153 57
151 148 44
156 151 54
149 146 47
159 154 54
160 155 56
159 155 60
152 148 53
152 147 58
159 154 60
150 146 54
156 150 59
149 146 49
151 146 58
156 150 62
144 141 53
149 144 59
155 151 62
153 148 64
157 151 65
155 149 64
151 146 57
151 146 65
146 141 54
146 141 60
198 218 222
196 217 216
201 221 231
201 222 231
199 219 232
201 221 240
199 219 234
202 222 245
197 217 235
198 218 235
198 219 233
204 223 242
197 218 233
201 220 243
199 220 237
196 217 228
199 219 240
198 219 236
198 219 234
203 223 246
199 219 237
202 222 243
194 214 231
203 223 243
203 223 240
202 223 242
203 223 241
204 224 245
204 224 244
202 222 237
205 225 242
206 226 244
207 227 248
206 227 248
205 225 245
206 226 248
205 226 246
206 226 246
206 226 246
206 227 250
205 225 242
206 226 246
206 226 248
204 225 248
203 224 242
204 225 242
203 224 241
204 225 249
203 224 241
202 223 241
204 225 245
204 225 249
202 223 244
202 223 242
202 223 246
204 226 250
202 223 245
204 225 252
194 216 237
200 221 246
202 223 250
199 220 246
200 221 248
196 218 244
194 216 240
195 216 240
193 215 240
198 221 248
200 223 248
194 217 234
192 215 227
190 215 230
190 215 218
143 168 155
58 92 111
59 93 121
58 92 113
57 91 100
56 90 95
58 92 102
58 92 108
60 95 125
57 91 99
59 94 120
58 92 115
57 91 108
58 92 113
59 93 113
60 95 124
59 93 121
58 92 105
57 91 105
59 93 118
58 92 115
57 91 113
58 92 113
60 95 121
59 93 121
58 92 110
59 93 115
57 90 100
59 93 117
60 95 125
58 92 110
58 92 103
58 92 108
59 93 115
57 90 102
60 94 122
59 93 122
60 94 122
58 93 114
59 94 122
58 92 110
59 93 120
59 93 121
57 90 108
58 91 108
57 90 102
59 94 125
57 91 113
57 90 105
56 88 101
56 89 107
58 91 116
54 85 87
98 107 70
96 94 19
111 107 36
84 83 11
94 92 25
69 68 14
83 79 0
80 80 10
80 81 14
81 81 16
89 90 14
76 78 16
90 91 14
95 96 25
105 104 18
107 107 21
117 115 35
107 108 16
116 116 30
125 123 28
130 128 30
127 127 31
140 138 37
129 127 34
135 133 30
136 135 31
147 144 45
145 142 37
145 143 36
142 141 36
151 147 49
145 143 32
149 146 39
151 147 42
154 150 44
145 143 32
150 146 42
150 145 44
149 146 37
150 145 45
151 147 47
152 149 42
154 150 44
155 151 47
151 146 45
156 151 48
154 150 58
152 148 45
152 149 47
152 147 49
155 150 53
153 149 51
154 149 52
155 151 54
158 153 63
153 149 51
153 149 51
150 146 53
148 145 42
152 147 57
156 152 58
157 151 63
153 148 56
149 145 49
156 151 60
157 151 67
150 145 60
146 143 48
146 142 53
151 146 61
149 143 66
142 137 56
146 140 58
148 143 60
195 216 213
200 221 232
201 222 233
197 218 222
202 222 241
199 220 230
196 217 222
198 219 230
199 219 238
199 219 237
196 216 226
196 216 240
198 219 238
196 217 235
199 219 238
198 219 231
200 221 240
200 220 242
198 218 240
199 220 236
198 219 237
199 220 240
204 224 244
203 224 242
204 224 243
200 220 239
202 222 242
203 223 244
201 222 246
205 226 248
205 226 244
203 224 236
204 225 244
205 225 245
205 225 245
206 227 250
206 227 250
203 224 240
205 226 249
202 223 241
204 225 248
205 226 248
203 224 245
202 223 240
206 226 250
203 224 244
204 225 246
204 225 246
202 223 244
202 223 244
202 224 248
203 224 246
201 223 248
202 224 245
201 223 248
201 223 246
200 222 248
198 220 244
195 217 241
197 218 244
201 223 253
197 219 245
194 217 244
197 219 245
194 217 241
193 216 240
194 217 241
193 217 237
190 214 231
188 212 228
187 211 227
189 214 220
184 209 191
165 191 51
59 92 107
57 91 105
57 90 103
58 92 107
58 92 100
58 92 108
57 91 97
59 93 124
56 90 110
59 93 114
58 92 111
59 93 114
56 90 102
59 93 121
59 93 114
57 91 100
60 94 129
60 94 124
58 92 108
58 92 107
57 91 99
58 93 108
58 92 113
58 92 114
59 93 118
58 92 107
57 91 107
58 93 113
59 93 111
58 91 103
59 94 118
58 92 111
57 91 111
57 91 97
58 92 108
59 93 117
58 93 117
58 92 114
58 91 110
58 92 103
56 90 99
58 92 108
58 93 114
56 89 95
57 90 107
57 90 105
59 93 118
56 88 104
59 92 116
58 92 114
54 86 95
65 93 76
152 174 8
107 108 28
110 107 28
86 85 21
87 84 0
81 80 14
68 68 16
72 72 11
87 86 12
74 72 12
78 80 9
99 98 12
88 89 16
95 94 12
104 103 16
104 103 11
116 116 18
117 116 25
122 119 11
113 111 21
128 126 19
122 120 28
132 131 31
130 128 19
137 134 28
132 132 21
140 137 32
140 137 31
145 143 28
140 138 41
148 144 42
143 140 32
147 144 36
147 144 34
149 144 37
146 144 32
147 144 39
150 146 42
149 146 37
152 148 37
149 147 32
157 152 58
156 151 47
154 150 45
154 149 47
151 146 44
153 149 41
151 148 48
155 151 42
153 149 49
149 146 36
155 150 52
158 151 58
153 149 47
157 152 53
152 147 47
150 146 48
159 154 61
151 147 45
152 148 52
149 144 51
151 146 48
146 142 51
144 141 47
145 141 45
146 142 52
149 144 57
149 145 53
145 141 58
146 142 48
136 132 52
136 133 48
151 145 63
143 136 59
196 218 217
199 221 227
201 222 233
201 222 230
199 220 228
197 218 230
198 219 231
201 222 234
197 219 228
200 221 238
199 221 235
200 221 238
199 220 239
197 218 238
200 221 238
199 220 238
201 222 242
197 218 235
204 225 248
202 223 247
200 221 240
201 222 244
204 225 246
205 226 249
202 223 239
205 226 250
201 222 244
203 224 246
205 226 249
205 226 248
206 227 252
204 225 246
203 224 242
203 224 244
202 223 242
203 224 244
202 224 241
201 223 242
203 224 242
203 225 248
202 223 242
203 225 248
203 225 246
201 223 244
203 225 246
200 222 242
201 223 244
202 223 245
202 224 249
201 223 241
199 222 241
205 226 250
201 223 249
201 223 249
199 221 245
198 220 248
199 222 245
200 223 249
197 220 245
196 218 242
194 217 244
199 222 248
194 218 236
193 217 245
196 220 241
190 213 231
190 214 234
185 209 227
189 214 226
188 213 230
185 211 226
183 208 196
169 194 88
168 194 0
126 152 78
56 88 103
56 90 84
58 92 111
58 92 113
57 90 105
58 92 108
59 93 121
57 91 108
57 91 110
55 88 82
58 92 111
58 93 110
58 92 117
58 92 111
57 91 107
57 91 102
57 91 108
57 91 102
58 92 108
58 92 111
57 91 97
57 92 110
57 91 102
57 91 108
57 91 102
56 89 108
57 91 108
59 93 113
59 93 113
57 92 113
58 93 115
57 91 108
56 89 99
58 92 111
59 93 114
57 91 103
59 93 126
59 94 115
57 90 105
58 92 114
58 92 108
58 92 102
57 90 111
57 90 108
57 90 111
56 89 102
57 90 108
53 85 92
56 88 88
54 85 94
114 137 49
166 189 0
152 170 11
104 100 32
101 98 25
99 93 28
90 89 11
82 80 11
82 80 8
69 69 14
80 81 8
86 83 11
92 89 11
93 92 0
95 94 0
104 103 16
95 92 0
105 105 14
116 114 16
108 107 18
120 119 16
121 121 21
127 125 24
130 127 23
127 123 28
132 130 16
134 134 16
135 133 16
141 138 28
136 134 28
137 134 22
144 140 36
142 140 22
140 138 30
143 139 34
140 138 25
145 143 25
146 142 32
150 145 41
152 150 44
151 146 34
153 149 39
153 149 47
148 145 36
149 146 34
150 146 44
148 144 41
153 150 42
151 146 42
150 145 41
154 149 49
148 145 44
154 150 45
154 150 53
155 150 47
149 144 42
153 148 49
153 149 42
149 144 54
145 141 36
149 144 51
149 145 47
147 141 48
149 145 51
150 144 57
154 149 56
139 135 47
151 147 52
143 138 54
143 137 56
150 144 57
151 145 58
144 139 54
149 143 57
143 137 58
193 215 213
195 217 219
197 218 224
195 217 231
196 218 225
198 220 232
200 222 238
198 220 235
202 223 242
196 217 223
196 217 229
197 219 229
201 223 237
200 221 236
197 218 230
200 222 236
201 223 243
202 223 244
201 223 242
200 221 241
203 225 247
202 223 244
201 223 247
202 224 248
201 223 246
202 224 244
202 223 243
204 225 246
202 224 240
203 225 245
202 224 242
205 226 252
202 224 244
203 225 246
203 225 248
203 225 248
201 223 245
203 225 246
201 223 242
201 224 248
202 224 245
198 220 234
202 224 249
201 223 244
201 223 246
199 222 244
199 222 240
201 223 248
197 220 240
198 221 241
200 223 248
202 224 253
201 224 248
199 222 241
197 220 244
197 220 244
198 221 248
195 218 241
198 221 242
198 221 246
196 220 246
194 218 244
195 220 246
192 217 244
191 216 237
193 218 245
190 215 236
189 215 238
186 212 228
185 211 228
183 209 217
172 197 102
166 192 0
169 194 0
162 188 36
76 106 92
56 90 97
58 92 102
57 91 109
56 89 103
58 91 102
57 91 100
58 92 100
57 91 103
56 90 100
55 88 90
58 92 114
56 90 103
55 89 80
56 90 99
58 92 113
59 94 122
57 90 103
57 91 103
57 90 105
56 90 92
56 90 100
58 92 105
56 90 97
56 90 97
59 93 117
56 90 108
55 88 97
57 91 99
57 91 114
56 90 97
57 90 95
58 92 113
57 90 108
57 90 105
57 91 107
56 89 103
58 92 107
57 91 105
57 91 102
57 90 100
56 89 94
55 88 95
54 87 84
57 90 107
56 88 107
56 89 103
55 88 94
54 85 89
70 94 86
161 184 19
163 186 0
165 188 0
140 153 19
93 89 19
100 95 30
98 95 22
94 91 19
87 85 0
82 81 11
83 80 8
90 88 8
82 80 8
90 88 8
89 88 0
96 94 8
90 89 0
110 108 14
108 108 18
116 115 25
115 114 0
121 118 16
123 120 16
121 120 0
126 122 22
127 126 11
133 130 24
133 130 24
133 129 16
133 131 18
136 134 16
135 132 19
147 141 34
142 139 30
147 143 32
142 140 25
139 137 22
149 143 34
144 140 30
147 143 28
146 143 41
144 141 25
144 141 19
149 144 34
145 142 30
145 142 32
153 149 47
146 141 36
144 141 36
143 139 37
147 143 36
146 143 37
146 144 28
145 141 45
149 147 32
145 141 41
145 142 37
149 145 45
150 146 47
140 135 42
142 138 39
154 148 57
150 146 52
145 140 49
145 142 41
150 146 52
146 141 42
146 141 49
142 138 42
138 133 53
148 142 57
144 139 60
137 132 48
140 135 47
140 135 58
193 216 208
192 214 208
194 217 219
193 216 218
193 215 215
197 219 228
197 219 231
199 221 237
193 216 224
196 218 231
200 222 238
197 219 233
198 220 239
199 221 237
200 222 239
191 213 221
201 223 245
199 221 238
195 217 236
197 219 242
199 221 242
198 220 238
197 219 238
198 220 239
199 221 237
202 224 249
202 224 244
202 224 244
202 224 246
201 223 238
201 223 241
200 223 241
200 223 242
202 224 244
201 224 246
201 223 244
202 225 250
202 224 248
201 223 244
201 223 244
201 223 242
198 220 238
199 221 244
200 222 241
199 222 238
198 221 241
200 223 248
202 224 252
198 222 246
199 223 246
197 220 242
197 220 245
197 220 242
196 219 241
197 220 245
200 223 250
194 217 240
196 220 245
195 219 238
192 217 244
191 216 238
192 217 238
192 218 246
192 218 245
191 217 245
189 216 237
189 216 234
185 212 231
184 210 218
185 211 211
176 200 125
168 193 0
168 193 0
168 193 0
169 193 0
139 164 54
57 90 95
56 89 86
55 88 86
55 89 86
57 91 108
55 88 99
57 90 97
59 93 120
57 91 105
57 91 106
56 89 86
56 90 95
58 92 107
57 91 100
59 93 117
58 91 113
56 89 86
56 90 102
58 93 107
55 89 90
58 93 114
58 91 108
56 89 94
57 90 97
57 90 97
57 91 105
57 90 99
57 91 103
55 88 92
58 92 107
57 91 107
57 90 108
56 90 95
58 91 118
55 88 103
57 90 95
55 89 94
57 90 100
56 90 94
56 89 99
57 90 101
57 90 105
56 88 102
56 90 99
55 87 90
56 88 102
56 88 100
53 85 86
131 151 36
157 178 0
162 183 0
160 179 0
157 178 0
141 150 16
107 101 34
95 90 16
83 80 11
89 86 0
75 71 11
82 79 0
83 82 0
83 80 3
91 88 0
85 83 0
96 96 8
112 107 11
94 93 8
98 95 11
115 110 19
115 112 18
121 117 0
114 110 16
126 124 0
125 122 0
127 125 19
121 119 11
135 131 22
131 127 16
135 131 11
137 134 19
135 132 11
142 139 32
136 131 25
142 139 25
142 139 19
142 141 16
144 140 30
147 142 37
143 140 28
141 138 19
145 141 30
144 141 22
140 136 19
139 135 30
142 139 32
148 144 37
148 143 41
151 147 39
148 143 45
153 148 41
146 141 36
145 141 36
152 146 42
148 145 37
149 145 42
147 142 39
151 145 44
151 146 45
144 142 41
141 137 37
146 141 49
148 142 49
146 142 42
148 143 45
144 140 45
152 147 45
142 138 48
143 139 47
140 136 45
143 138 54
139 135 44
132 128 44
138 134 45
140 136 49
189 212 191
192 215 204
195 218 224
191 214 211
198 220 232
193 216 223
196 218 228
196 219 231
198 220 239
191 214 220
196 219 228
195 218 232
196 219 236
195 218 232
195 217 232
197 220 234
200 222 244
196 219 238
198 220 238
199 222 238
195 218 239
197 219 239
201 223 250
199 221 240
202 224 249
202 224 248
200 222 242
199 222 238
199 222 241
200 223 244
200 223 246
202 224 248
200 224 249
200 223 241
201 223 249
200 223 248
200 223 248
199 222 242
199 222 245
199 222 245
199 222 242
198 222 245
200 223 248
198 222 244
198 221 244
199 222 249
197 220 240
195 219 242
199 222 248
198 222 244
198 222 245
195 220 242
198 222 249
197 221 245
192 216 237
197 221 249
195 220 246
191 216 236
188 213 231
191 216 237
190 216 241
191 217 241
187 213 233
192 218 241
186 212 230
185 211 228
185 212 230
185 212 227
180 206 196
176 200 114
169 192 0
166 190 0
171 195 0
169 192 0
171 195 0
165 189 0
89 114 74
56 89 102
57 91 97
52 84 65
56 90 94
56 90 94
55 88 84
55 89 97
56 90 97
57 91 107
59 93 111
57 91 97
55 88 92
56 89 103
57 91 105
58 93 111
58 92 110
58 91 110
59 93 115
55 89 99
57 91 102
58 92 115
56 90 103
56 89 88
56 89 95
55 88 94
57 91 110
57 91 105
57 90 99
57 90 102
57 91 110
55 88 94
56 89 103
57 91 110
56 89 95
56 89 100
58 92 103
55 88 94
55 87 86
57 90 105
55 88 94
58 91 111
55 87 94
55 88 97
54 85 88
56 88 100
50 80 76
94 114 47
151 170 0
156 175 0
153 170 0
149 164 0
154 171 0
157 176 0
128 134 11
80 77 11
91 88 22
84 81 18
87 84 11
86 83 0
87 82 0
89 88 0
98 94 0
103 99 0
99 97 0
103 101 8
107 102 0
99 96 0
108 104 8
107 103 0
111 109 11
115 111 0
119 117 0
123 118 16
123 122 16
126 121 0
134 129 16
127 124 11
133 129 11
136 132 11
133 130 11
133 129 19
137 134 28
142 138 11
138 134 19
139 135 16
144 141 22
137 133 28
143 139 30
143 140 22
142 140 22
143 139 25
144 139 34
143 140 25
144 140 28
140 137 16
143 139 32
149 145 37
135 131 34
147 143 37
145 139 39
139 136 28
147 144 32
142 139 39
143 139 32
147 143 39
145 141 36
146 142 39
146 142 41
141 137 45
142 139 42
137 133 34
149 145 42
143 138 48
142 138 47
140 135 47
145 140 54
134 130 45
142 136 54
134 131 34
144 138 56
134 128 47
132 128 45
130 127 44
189 213 189
192 215 204
193 216 211
193 217 221
195 218 222
194 217 226
195 218 230
191 214 223
195 218 236
194 217 226
196 219 239
196 219 232
195 218 236
198 221 242
196 219 232
198 221 245
198 221 242
196 219 237
192 216 230
194 217 235
198 222 244
197 220 237
199 222 242
198 222 244
199 222 240
198 221 237
199 222 244
197 221 237
198 222 241
197 220 238
200 223 245
199 222 240
200 223 246
200 223 249
200 223 250
198 221 242
198 221 237
197 221 241
199 223 250
197 221 244
202 225 254
199 222 248
200 223 252
196 220 240
197 221 248
197 220 245
197 221 246
195 219 242
198 222 245
195 219 244
196 221 250
195 220 245
194 219 245
193 219 241
193 219 240
191 217 242
192 217 241
192 217 241
192 219 246
190 217 246
189 215 236
185 212 231
187 214 233
184 211 227
181 209 226
184 211 230
179 207 215
175 201 181
174 198 99
167 190 0
170 194 0
166 189 0
168 190 0
165 188 0
164 187 0
164 187 0
157 180 31
80 107 72
55 87 95
55 89 92
56 90 95
55 88 90
57 91 108
54 87 86
56 89 97
56 89 102
55 88 82
55 88 88
57 90 99
57 91 95
55 88 94
57 91 100
57 91 99
55 88 88
57 90 95
55 88 100
56 90 97
56 89 92
56 89 94
58 91 105
56 89 94
57 90 107
57 92 97
57 91 100
56 90 99
56 89 100
56 90 102
56 90 86
55 89 97
57 90 103
56 89 103
56 89 102
56 90 103
56 89 105
55 88 92
57 90 108
56 89 101
54 87 84
56 89 100
54 86 90
55 87 82
52 82 89
74 97 72
136 150 0
150 166 0
143 161 0
146 159 0
144 159 0
155 171 0
156 170 0
149 162 0
127 134 11
82 76 11
79 75 16
91 85 11
74 69 0
76 72 0
91 86 0
88 81 0
96 90 0
102 95 0
96 92 0
94 91 8
98 94 0
107 104 0
111 106 0
113 109 0
119 116 0
123 120 16
112 109 0
125 120 11
123 118 0
130 124 0
135 132 19
132 127 11
133 127 16
133 129 16
127 123 11
136 132 16
139 136 19
146 142 37
138 134 16
134 130 11
136 132 19
143 139 16
141 135 19
130 127 11
139 133 25
136 131 30
136 132 25
144 139 28
140 136 16
140 134 28
145 139 42
143 139 37
145 141 36
139 133 30
138 135 28
147 142 34
140 137 32
137 133 34
147 143 45
139 135 30
148 141 49
142 138 37
142 137 39
145 140 47
142 137 39
140 135 37
139 134 39
137 132 42
130 127 36
133 128 44
139 134 45
139 135 37
132 127 52
129 124 44
125 121 39
137 132 52
129 124 41
185 209 167
189 213 196
189 213 193
190 214 204
189 213 199
195 218 224
194 217 222
193 217 220
193 217 226
193 217 228
187 210 223
195 219 228
195 219 240
196 219 235
191 215 230
194 217 235
195 219 239
191 215 227
193 217 237
197 221 242
198 221 241
196 220 236
199 223 248
195 219 231
197 220 233
198 222 244
198 221 236
197 221 241
197 221 244
196 220 236
197 221 240
197 221 244
196 221 242
194 218 231
192 216 230
194 219 238
196 220 242
196 220 238
197 221 242
196 221 246
194 219 238
196 220 245
197 222 250
195 219 240
194 219 241
195 220 245
195 220 241
195 220 241
193 219 244
193 219 245
194 220 245
190 215 237
189 214 237
192 218 244
191 217 237
189 216 238
190 216 238
189 216 241
187 214 240
187 215 238
186 214 234
184 212 228
180 209 224
182 211 224
181 210 227
182 210 215
177 204 175
172 195 76
170 193 0
169 193 0
170 193 0
167 190 0
166 189 0
166 189 0
164 187 0
155 179 0
162 184 0
136 160 40
60 91 88
53 86 74
54 86 82
54 86 88
54 86 80
54 87 84
57 91 105
54 87 76
55 89 90
56 90 95
56 90 97
56 89 99
55 88 97
57 90 105
56 89 99
54 87 82
54 87 94
56 90 95
54 87 80
55 89 92
55 88 86
55 87 90
57 91 97
56 89 97
57 90 107
56 90 95
54 87 84
56 90 100
55 87 94
56 90 99
55 88 86
56 89 94
55 89 94
54 87 86
56 89 88
55 88 78
55 88 90
55 87 88
54 86 86
53 85 88
57 89 100
55 86 99
52 82 78
64 91 75
124 142 32
137 152 0
141 155 0
141 151 0
145 160 0
138 148 0
143 154 0
136 144 0
147 156 0
137 147 0
127 130 0
101 98 16
73 69 11
92 84 11
77 72 0
86 80 0
98 90 0
97 90 0
95 90 0
98 93 0
98 93 0
110 105 0
98 94 0
120 115 0
116 111 0
117 112 0
114 109 0
120 116 11
125 121 0
117 114 0
121 118 0
120 116 11
124 118 0
127 123 0
129 124 11
129 124 0
131 125 11
132 128 11
132 129 11
138 133 16
132 128 11
136 132 19
138 133 19
137 133 28
137 133 22
130 126 19
134 130 19
141 137 28
140 136 19
139 134 25
140 136 11
143 138 36
140 134 34
136 133 19
142 138 34
139 135 39
148 143 39
146 140 34
140 134 32
141 136 36
146 142 34
146 141 34
145 140 41
139 135 36
145 139 41
146 141 36
144 140 44
141 136 39
136 132 37
141 137 32
145 139 52
140 137 36
142 137 51
132 126 51
123 119 39
128 124 39
122 118 47
117 114 39
174 199 88
179 204 137
183 207 167
188 212 191
191 215 209
190 213 199
192 216 215
194 218 221
192 216 215
194 218 226
194 218 228
194 218 227
194 218 228
194 218 229
193 217 229
195 219 231
194 218 226
194 218 227
199 222 244
196 220 238
198 222 245
195 219 231
195 219 234
195 219 236
198 222 253
195 219 234
196 220 241
196 220 242
196 220 238
196 220 240
197 221 241
196 220 245
195 219 237
196 221 245
195 220 241
194 219 240
196 221 248
195 220 240
193 219 238
193 219 241
195 220 245
195 220 244
194 219 237
192 218 234
194 220 245
192 217 236
193 219 242
192 218 241
193 219 241
190 217 244
189 215 240
185 212 228
191 217 242
190 216 238
190 217 245
186 214 236
187 214 234
183 211 230
182 210 226
185 213 238
183 211 228
183 212 234
179 208 223
180 209 217
180 208 212
175 201 159
167 191 44
166 190 0
166 190 0
166 190 0
166 188 0
166 188 0
163 185 0
163 185 0
163 185 0
161 183 0
158 181 0
147 170 0
131 154 36
57 87 70
51 83 72
51 83 60
55 88 86
55 87 92
54 87 80
56 89 92
54 87 97
54 87 82
56 90 99
52 83 94
56 89 100
55 89 92
53 86 88
56 90 88
55 88 99
55 88 76
55 87 88
55 88 86
56 89 97
56 89 94
56 89 90
57 90 100
55 87 92
54 87 86
54 87 72
56 89 86
55 88 95
54 87 74
56 89 95
55 87 95
54 87 95
55 88 92
53 84 74
54 86 76
56 89 99
52 82 88
53 85 82
51 82 68
52 82 90
54 85 84
51 79 67
113 128 31
137 151 0
135 148 0
126 140 0
130 140 0
132 141 0
133 145 0
133 144 0
136 143 0
131 132 0
134 141 0
129 134 0
138 144 0
82 78 0
80 73 11
78 70 0
82 77 11
87 81 0
92 86 0
90 82 0
93 89 0
100 91 0
109 102 0
90 86 0
104 99 0
115 109 0
100 95 0
120 114 0
110 103 0
117 112 0
121 117 0
117 111 0
127 120 0
117 112 11
124 120 11
133 129 16
130 124 0
127 122 11
132 128 16
132 128 0
133 128 0
132 129 0
136 131 11
134 129 0
137 133 16
141 135 22
138 132 19
139 134 22
132 126 16
138 133 16
139 133 22
140 134 25
136 131 22
133 128 25
143 137 32
140 135 19
136 132 28
140 136 28
139 134 25
139 133 36
138 134 32
134 130 19
145 139 45
135 129 37
137 131 36
127 123 19
136 132 44
135 129 41
140 135 48
135 129 45
139 134 39
139 136 41
130 125 42
130 126 34
125 122 37
123 117 48
117 114 36
116 119 28
155 174 19
170 195 0
169 194 25
175 200 105
178 203 151
186 211 189
188 212 194
192 215 211
191 215 212
189 213 201
192 216 218
192 216 223
193 217 226
192 217 226
192 217 224
192 217 224
192 216 227
194 219 234
193 218 230
193 218 230
195 219 236
195 219 237
195 220 238
194 219 236
194 219 236
196 221 246
194 219 236
195 220 245
195 220 241
195 220 240
193 218 236
195 220 245
194 219 242
194 220 242
193 219 240
194 219 244
195 221 246
192 218 238
193 219 241
191 217 237
192 218 238
192 218 240
194 220 246
190 216 233
190 216 237
192 218 245
190 217 240
192 219 242
188 215 236
189 216 242
190 217 244
190 218 248
188 216 240
187 215 234
186 213 233
186 214 234
185 213 230
186 215 242
184 213 233
183 213 233
184 214 242
182 211 221
179 208 217
178 206 203
171 197 157
173 198 111
169 192 0
165 188 0
169 192 0
164 187 0
166 189 0
161 184 0
162 184 0
155 178 0
162 184 0
160 181 0
156 177 0
156 178 0
148 169 0
142 165 0
122 144 18
52 83 72
52 85 67
53 85 72
52 84 74
52 84 74
53 86 74
52 84 72
56 89 100
53 86 80
52 85 74
55 87 90
56 89 90
55 87 92
54 87 86
54 87 70
56 89 99
54 87 80
53 85 72
55 89 88
53 86 82
53 86 76
55 88 80
54 86 78
55 88 90
55 88 99
55 89 90
54 87 86
53 85 80
54 87 84
54 87 95
53 86 82
54 86 92
53 85 76
52 84 65
53 85 74
54 86 90
56 89 95
50 80 70
51 81 76
47 77 60
98 116 44
123 137 0
131 143 0
125 137 0
123 134 0
128 140 0
124 131 0
117 126 0
127 132 0
128 134 0
122 125 0
126 126 0
120 120 0
123 129 0
124 121 0
106 100 11
74 65 16
76 69 11
79 71 11
81 71 16
98 91 0
99 90 0
93 85 0
98 90 0
95 87 0
108 102 0
95 88 0
108 100 0
112 105 0
108 102 0
115 107 0
114 109 0
118 113 0
125 119 0
117 111 0
126 121 11
122 114 0
131 123 0
128 121 0
129 124 0
122 116 0
131 123 11
130 124 0
133 129 11
133 127 11
135 131 0
130 124 16
139 133 28
138 131 19
131 126 16
133 129 22
131 127 16
140 135 16
131 127 19
138 133 25
143 139 30
138 133 34
137 132 25
134 130 32
138 135 25
134 129 25
131 127 28
138 133 30
132 127 28
136 130 28
140 135 44
141 136 41
128 124 32
136 130 37
136 131 36
139 132 49
125 121 37
137 132 44
135 130 49
134 128 39
124 117 41
136 130 52
145 154 36
167 191 0
169 195 0
168 194 0
166 192 0
169 195 0
171 197 67
173 199 108
185 209 186
188 212 203
188 213 201
190 215 214
188 213 199
190 215 209
193 218 231
191 216 220
190 215 220
192 217 226
191 216 224
192 217 230
191 216 223
193 219 237
192 217 237
192 217 233
192 218 234
193 218 240
193 218 236
194 220 246
192 217 233
192 218 240
193 219 241
194 220 245
192 218 240
193 219 246
193 218 241
193 219 238
191 217 240
194 219 240
191 218 241
193 219 245
192 219 241
192 219 246
189 216 236
188 215 238
190 216 241
190 217 244
190 217 238
189 216 240
188 215 237
190 217 240
187 215 238
188 216 238
185 213 231
186 214 238
185 214 240
186 214 240
184 213 238
183 212 228
182 211 231
178 208 228
182 212 234
182 212 238
178 207 204
177 206 207
175 204 193
171 198 137
167 193 25
166 191 0
165 188 0
165 189 0
163 186 0
162 184 0
167 189 0
162 184 0
156 177 0
155 177 0
153 175 0
157 178 0
148 170 0
153 175 0
149 171 0
148 170 0
142 164 0
117 138 36
56 87 62
50 81 72
53 85 70
52 84 72
53 85 88
53 85 80
54 86 86
54 87 80
53 85 78
55 88 92
52 84 84
55 88 92
56 89 100
54 87 76
55 88 97
54 86 97
55 88 88
52 83 67
54 86 76
53 86 74
54 87 86
52 85 70
53 85 72
54 87 95
53 85 80
53 85 82
54 86 90
54 86 82
51 83 70
55 88 88
51 83 70
52 84 74
52 84 88
52 83 82
51 82 72
51 82 60
49 79 47
50 78 72
95 111 48
114 126 0
111 125 0
107 120 0
110 122 0
112 125 0
120 132 0
124 133 0
118 126 0
112 121 0
116 121 0
116 118 0
103 105 0
112 114 0
112 110 0
109 105 0
106 105 0
110 106 0
79 72 0
75 69 0
70 63 0
80 73 0
81 74 0
87 81 0
97 87 0
95 88 0
93 87 0
103 94 0
109 100 0
106 98 0
106 97 0
104 94 0
114 107 0
116 107 0
111 106 0
116 110 0
122 116 0
126 121 11
123 118 0
124 118 0
132 125 19
129 123 0
123 119 0
128 123 0
134 128 0
129 121 11
133 127 11
137 132 19
128 123 19
136 130 0
129 123 11
131 125 16
134 128 16
134 129 22
136 132 25
136 132 25
136 128 30
135 129 28
141 135 30
137 134 25
135 130 22
135 130 34
133 127 25
132 125 28
131 125 34
132 127 30
128 125 30
132 126 32
135 129 39
134 130 42
130 126 30
126 120 32
127 122 34
120 116 19
125 119 39
116 111 34
133 135 39
164 185 19
169 195 0
169 194 0
168 195 0
168 195 0
169 195 0
169 195 0
168 194 0
169 195 0
170 196 80
173 198 130
179 204 157
186 211 193
188 214 207
189 214 209
189 213 206
188 213 209
188 213 211
190 215 218
189 214 212
192 218 234
190 216 223
188 214 215
192 218 236
190 216 228
190 216 230
190 217 231
191 217 234
192 218 236
191 218 237
190 217 234
191 217 236
189 216 236
192 218 241
190 217 237
190 217 236
191 218 241
190 217 234
188 215 230
191 217 240
192 218 241
190 216 237
189 217 241
188 215 236
189 216 242
188 215 230
186 213 227
189 216 238
187 216 244
185 214 234
185 213 233
186 215 238
184 213 231
183 213 236
183 213 234
183 212 228
179 208 230
183 213 233
181 211 228
180 210 228
178 208 217
176 206 214
176 206 207
172 202 188
173 200 149
161 187 57
167 193 0
163 188 0
159 183 0
160 184 0
162 185 0
159 182 0
158 180 0
159 181 0
147 169 0
153 174 0
157 179 0
146 168 0
146 166 0
152 173 0
143 164 0
138 159 0
146 167 0
132 152 0
128 147 0
110 131 18
60 87 44
51 83 54
51 83 62
52 84 67
50 82 65
54 87 80
53 85 84
52 84 76
53 85 78
55 88 80
53 85 82
52 85 80
53 86 74
52 83 65
51 83 65
53 85 74
54 88 76
53 85 76
54 87 76
53 87 65
53 85 82
54 87 72
51 82 70
52 83 76
53 86 80
51 83 84
52 85 74
52 84 78
51 82 67
51 82 67
50 81 62
53 84 80
53 84 82
47 77 65
48 77 70
50 75 51
95 109 18
101 116 0
98 114 0
119 131 0
109 119 0
95 109 0
116 129 0
110 120 0
99 107 0
109 113 0
107 113 0
101 106 0
107 114 0
107 109 0
108 108 0
110 109 0
104 104 0
105 103 0
95 90 0
103 98 0
93 85 0
71 61 0
77 68 0
83 74 0
84 73 0
79 72 0
90 82 0
89 78 0
95 86 0
95 84 0
106 96 0
104 96 0
112 103 0
107 100 0
112 107 0
106 98 0
112 103 0
122 114 0
112 105 11
120 108 0
119 108 11
127 120 0
120 114 0
127 119 0
125 119 0
124 116 16
123 116 0
122 114 0
131 123 16
126 120 16
122 118 0
129 121 19
124 117 19
133 126 22
132 124 19
127 120 19
131 123 11
134 128 22
125 120 19
130 125 0
138 133 28
134 129 28
130 125 28
135 130 32
132 126 34
130 127 25
129 125 28
133 127 25
127 120 36
127 124 25
122 117 34
125 120 36
123 119 30
121 117 37
113 108 32
131 130 37
148 166 16
167 192 0
170 195 0
169 195 0
169 194 0
168 193 0
169 195 0
167 193 0
167 192 0
167 193 0
166 192 0
166 193 0
168 194 0
169 194 62
177 203 135
182 207 181
183 208 177
186 212 203
187 212 204
188 214 215
189 215 218
189 215 217
189 215 221
191 217 233
190 216 230
189 215 226
190 217 234
190 216 231
190 216 231
189 215 223
189 216 231
188 215 230
189 216 227
188 214 215
189 215 228
188 215 231
185 212 217
188 215 231
187 214 231
186 213 220
188 215 240
186 214 227
188 216 238
186 214 236
187 216 241
186 215 237
187 216 242
185 214 234
184 213 230
183 212 224
184 213 236
184 213 233
184 214 237
183 212 231
182 212 231
181 211 233
180 210 228
181 212 233
180 211 230
180 210 217
178 209 223
177 207 215
174 205 212
169 199 177
166 194 117
164 191 67
157 183 0
161 187 0
161 187 0
164 188 0
163 187 0
159 183 0
155 179 0
159 182 0
153 176 0
155 178 0
147 169 0
147 169 0
147 168 0
148 168 0
145 167 0
145 166 0
137 157 0
128 147 0
138 159 0
131 152 0
128 147 0
114 133 0
111 130 25
79 101 40
49 80 65
49 79 72
51 83 60
51 82 76
50 82 62
50 81 72
53 84 84
53 85 76
50 82 47
51 83 72
51 83 70
51 83 62
53 86 84
52 84 62
51 84 60
52 84 74
51 82 65
51 82 74
51 82 62
50 82 72
52 83 82
54 86 76
51 82 76
52 83 78
51 82 72
51 82 62
51 82 72
51 82 65
52 83 84
50 81 67
47 76 54
47 76 51
60 83 57
86 100 18
84 94 0
98 112 0
95 106 0
100 114 0
89 101 0
108 121 0
97 107 0
101 111 0
100 108 0
106 119 0
108 117 0
100 104 0
100 106 0
109 111 0
109 112 0
102 104 0
93 94 0
101 101 0
100 96 0
95 90 0
99 91 0
92 81 0
74 63 0
67 57 11
70 59 0
79 67 0
72 61 0
83 72 0
96 84 0
88 78 0
98 88 0
98 90 0
108 98 0
107 97 0
109 99 0
110 101 0
119 111 0
113 103 0
121 113 0
119 111 0
120 110 0
119 114 0
113 106 11
128 121 0
114 107 0
118 110 16
124 115 0
123 117 11
123 116 11
131 125 19
136 128 16
123 117 11
133 125 16
137 127 16
133 126 28
125 120 11
133 126 11
126 119 19
129 124 25
128 122 22
121 117 22
131 125 30
131 122 22
128 122 28
121 115 25
127 120 32
123 117 11
135 130 41
123 117 36
123 117 36
128 124 36
128 123 34
114 110 32
134 138 34
149 163 19
168 193 0
168 194 0
169 192 0
168 194 0
169 194 0
168 194 0
170 195 0
168 194 0
169 194 0
164 190 0
165 190 0
166 192 0
168 194 0
167 192 0
165 191 0
168 194 0
165 191 44
171 196 108
181 206 161
184 210 191
188 214 215
186 211 203
184 209 188
186 213 209
187 213 211
188 215 227
187 214 230
188 215 224
187 214 224
188 215 230
188 215 228
187 214 226
189 217 240
189 217 244
188 216 237
185 213 227
188 216 237
188 216 244
186 214 228
186 214 226
185 213 227
187 215 237
186 214 234
185 214 231
184 213 230
184 213 231
184 214 234
184 213 231
182 212 237
183 212 230
182 212 228
183 213 237
182 212 231
182 212 234
178 208 215
179 209 221
180 211 226
179 210 221
177 207 214
178 209 215
174 205 214
173 202 193
174 204 184
167 195 125
162 190 51
164 191 0
161 188 0
162 188 0
163 189 0
162 186 0
160 183 0
162 186 0
160 183 0
160 183 0
152 174 0
153 174 0
159 181 0
154 176 0
146 167 0
145 166 0
144 165 0
138 159 0
136 157 0
138 158 0
126 146 0
132 152 0
116 135 0
108 127 0
120 138 0
102 120 0
107 125 0
85 103 40
53 81 47
47 77 57
48 78 54
46 76 60
49 80 51
50 81 62
51 83 70
52 84 80
50 82 60
50 81 65
52 84 82
52 84 84
50 82 57
49 80 51
51 84 65
51 82 80
52 85 74
52 83 72
53 84 92
52 84 70
50 80 74
48 79 57
48 78 70
47 77 65
50 80 65
48 78 60
48 78 62
47 76 60
46 74 54
45 72 54
71 86 36
78 88 0
76 85 0
82 93 0
84 94 0
102 114 0
96 105 0
102 114 0
89 98 0
89 100 0
91 102 0
103 111 0
107 116 0
98 105 0
102 109 0
104 112 0
99 105 0
100 105 0
104 108 0
101 101 0
110 110 0
95 93 0
92 87 0
95 91 0
91 85 0
80 71 0
74 64 0
70 57 0
73 62 0
63 50 0
64 55 0
85 74 0
83 70 0
96 87 0
101 90 0
101 89 0
98 88 0
92 82 0
108 94 0
108 97 0
116 105 0
121 109 0
112 102 0
113 105 0
99 91 11
120 107 0
124 116 11
122 114 11
113 106 0
117 109 0
128 119 0
124 117 11
118 111 16
124 114 11
126 118 11
121 112 0
129 119 11
123 116 16
126 118 11
128 123 16
127 119 11
130 124 11
124 118 22
125 119 22
128 122 28
126 121 32
126 121 22
128 121 36
118 113 22
116 111 22
119 114 28
121 115 30
109 104 22
108 104 25
136 144 28
152 170 16
170 194 0
168 192 0
170 194 0
167 192 0
167 192 0
168 193 0
167 193 0
168 194 0
168 193 0
167 193 0
168 194 0
166 192 0
164 190 0
163 189 0
166 192 0
166 191 0
165 191 0
160 186 0
166 192 0
167 192 0
167 192 51
168 193 84
178 202 142
181 206 177
181 207 184
186 212 199
185 212 204
185 211 207
186 212 214
186 212 211
186 214 227
186 213 214
186 213 217
186 214 224
187 214 228
186 213 217
186 214 231
184 212 217
183 211 215
185 213 233
184 212 218
184 213 228
185 214 237
184 213 230
184 213 228
184 213 228
182 211 226
182 212 230
181 210 223
182 211 227
180 210 230
180 211 224
181 212 228
178 208 217
180 210 226
180 211 234
178 209 223
178 209 221
177 208 220
174 205 209
175 205 203
172 202 182
171 200 157
164 192 76
160 187 36
162 189 0
164 190 0
159 185 0
159 185 0
160 184 0
157 182 0
160 183 0
161 184 0
156 179 0
156 179 0
160 182 0
159 181 0
145 167 0
157 178 0
151 171 0
154 174 0
150 171 0
147 168 0
139 160 0
135 156 0
132 152 0
129 149 0
131 151 0
117 136 0
115 132 0
112 131 0
93 112 0
111 128 0
76 93 0
89 105 0
57 76 31
50 78 57
47 76 60
48 77 54
48 77 62
47 76 60
49 80 74
49 80 62
50 80 74
52 84 60
49 80 67
48 79 65
52 84 74
49 80 62
50 82 62
48 79 65
44 72 40
51 82 67
47 77 65
49 80 60
50 81 67
47 76 65
47 77 40
48 78 57
46 75 40
47 76 62
45 72 54
50 66 47
61 72 18
73 83 0
77 90 0
77 88 0
68 77 0
90 101 0
94 107 0
102 115 0
85 97 0
94 106 0
93 105 0
97 106 0
96 107 0
100 110 0
96 107 0
95 103 0
104 110 0
100 107 0
94 98 0
93 96 0
88 90 0
86 90 0
96 96 0
99 95 0
93 91 0
91 87 0
87 84 0
85 77 0
77 68 0
77 67 0
66 55 0
59 48 0
76 63 0
71 57 0
76 61 0
84 68 0
98 84 0
91 78 0
90 79 0
108 98 0
96 84 0
101 91 0
112 100 0
104 93 0
108 97 0
105 95 0
109 98 0
116 105 0
115 105 0
108 98 0
113 101 0
120 110 0
118 107 0
117 107 11
126 115 11
121 112 19
123 114 0
112 104 16
122 114 16
125 116 19
111 102 16
126 118 16
124 117 25
124 117 16
128 120 30
116 110 16
120 114 22
121 115 32
116 108 22
120 113 28
120 113 37
116 109 28
129 133 28
138 150 19
165 186 16
168 193 0
168 192 0
167 190 0
169 193 0
166 190 0
167 191 0
167 191 0
166 190 0
168 194 0
168 193 0
167 193 0
164 190 0
167 193 0
165 192 0
165 190 0
164 190 0
166 192 0
165 190 0
166 191 0
166 191 0
165 191 0
164 189 0
165 191 0
165 190 0
165 190 0
160 185 36
171 196 80
176 201 127
181 206 153
182 207 169
182 208 182
184 212 209
184 211 203
183 210 206
184 211 201
183 211 214
184 212 218
184 211 211
184 211 212
184 212 220
182 211 217
183 212 221
183 211 221
182 211 220
183 211 217
181 210 217
181 210 215
181 211 227
181 211 218
179 209 215
181 211 224
179 209 209
179 209 220
178 209 220
177 207 204
176 206 207
175 205 201
176 207 211
174 205 201
174 204 182
170 200 163
167 196 133
163 192 88
161 188 0
161 188 0
164 190 0
162 188 0
161 186 0
159 185 0
163 188 0
160 184 0
166 190 0
156 179 0
157 181 0
157 180 0
157 180 0
153 175 0
148 170 0
149 170 0
154 175 0
149 170 0
144 165 0
152 173 0
148 169 0
129 149 0
141 161 0
140 160 0
138 158 0
135 155 0
116 136 0
111 129 0
110 128 0
97 113 0
102 120 0
101 118 0
87 102 0
79 94 0
79 94 0
55 71 0
48 66 25
45 70 44
44 72 47
42 70 44
47 77 60
50 81 57
49 80 54
47 77 62
48 78 57
48 78 47
50 80 65
48 77 65
48 78 51
49 79 60
47 76 51
44 73 51
47 78 51
44 72 51
46 76 54
43 70 36
46 74 57
46 74 67
38 63 47
44 61 36
68 77 0
64 71 0
65 75 0
78 89 0
86 97 0
83 96 0
76 86 0
89 103 0
85 96 0
103 113 0
103 115 0
97 109 0
89 99 0
100 113 0
95 106 0
112 123 0
109 119 0
109 119 0
108 119 0
110 118 0
108 114 0
113 119 0
95 98 0
99 101 0
101 106 0
106 105 0
93 92 0
96 96 0
93 85 0
93 86 0
93 87 0
81 77 0
86 77 0
73 61 0
67 56 0
51 40 0
62 50 0
65 52 0
75 59 0
82 69 0
86 72 0
80 67 0
94 78 0
95 81 0
94 80 0
90 81 0
107 95 0
95 84 0
104 93 0
112 100 0
111 100 0
116 104 11
114 105 0
107 97 0
113 102 0
121 110 0
118 106 0
115 107 16
115 109 19
115 106 16
115 106 11
114 105 0
115 106 16
112 105 19
114 106 22
113 105 11
117 111 16
109 102 19
120 113 19
104 97 11
117 110 25
134 141 19
145 157 11
160 179 11
165 187 0
166 189 0
167 190 0
165 188 0
165 188 0
163 185 0
163 187 0
167 190 0
167 192 0
166 190 0
168 190 0
168 192 0
166 190 0
167 192 0
165 190 0
166 192 0
167 193 0
163 188 0
166 192 0
164 189 0
163 188 0
166 191 0
166 191 0
163 188 0
165 190 0
167 191 0
167 192 0
170 194 0
171 195 0
170 194 0
171 195 0
170 194 0
172 196 62
174 199 111
177 201 117
180 206 159
181 206 169
181 207 175
181 208 186
180 208 191
181 208 189
181 208 188
180 208 198
181 210 207
180 209 207
181 210 212
180 209 207
180 209 209
180 209 215
178 208 201
179 208 204
179 209 214
180 211 227
178 208 203
176 206 198
175 204 182
175 205 196
175 205 189
171 201 165
168 197 135
166 195 99
164 192 84
162 189 44
161 189 0
161 188 0
160 186 0
162 189 0
164 190 0
162 188 0
161 187 0
160 186 0
163 187 0
157 181 0
156 179 0
163 185 0
162 185 0
154 177 0
156 178 0
149 171 0
146 168 0
148 169 0
151 172 0
146 167 0
152 174 0
152 173 0
143 164 0
137 158 0
136 157 0
121 142 0
137 157 0
131 151 0
119 138 0
120 139 0
118 138 0
112 131 0
98 116 0
104 121 0
101 118 0
98 115 0
85 102 0
78 92 0
81 94 0
54 66 0
65 78 0
34 51 18
37 57 36
39 64 54
43 69 47
46 75 57
43 71 40
47 76 44
42 70 47
47 76 57
42 70 36
46 74 57
46 76 57
42 70 44
44 72 65
45 73 51
38 63 44
40 67 25
41 67 31
36 55 31
31 46 36
50 58 0
51 60 0
50 60 0
68 79 0
47 59 0
61 70 0
65 77 0
81 92 0
72 82 0
76 87 0
100 115 0
108 122 0
91 104 0
100 115 0
99 110 0
106 118 0
110 121 0
95 108 0
97 107 0
103 111 0
110 120 0
108 118 0
84 91 0
111 118 0
104 112 0
101 107 0
109 113 0
103 105 0
96 98 0
106 108 0
106 100 0
92 89 0
88 84 0
94 89 0
97 89 0
94 85 0
89 84 0
91 82 0
74 62 0
77 65 0
67 54 0
66 52 0
65 51 0
69 55 0
73 59 0
71 57 0
81 66 0
82 73 0
95 82 0
96 79 0
91 79 0
95 84 0
95 85 0
97 84 0
107 94 0
99 88 0
109 98 16
104 95 16
96 85 0
106 95 16
111 100 16
106 97 11
108 97 11
118 109 11
105 94 11
107 98 16
104 93 11
116 110 19
130 126 16
121 123 16
133 142 19
153 166 0
155 168 0
160 177 0
161 175 0
162 181 0
163 184 0
161 180 0
162 183 0
165 185 0
168 190 0
164 185 0
167 188 0
167 190 0
166 188 0
164 185 0
169 190 0
166 189 0
166 189 0
166 190 0
165 191 0
165 190 0
165 191 0
165 192 0
164 189 0
164 190 0
165 190 0
165 190 0
164 189 0
164 190 0
166 191 0
166 190 0
168 192 0
169 194 0
168 192 0
168 193 0
168 192 0
172 194 0
175 198 0
173 196 0
172 195 0
172 196 0
174 197 0
174 197 44
176 200 99
176 200 92
176 201 125
177 201 117
176 201 122
176 201 135
175 202 144
174 202 151
174 201 157
175 202 155
175 203 159
172 200 151
174 203 163
173 201 151
170 197 122
170 198 133
168 196 108
167 195 84
163 190 51
163 191 25
161 189 0
162 189 0
162 190 0
163 190 0
166 192 0
165 192 0
164 190 0
164 190 0
161 187 0
164 189 0
164 188 0
162 187 0
161 185 0
161 186 0
157 181 0
161 184 0
161 184 0
162 184 0
156 178 0
149 170 0
153 175 0
157 178 0
155 177 0
158 179 0
145 166 0
146 167 0
148 170 0
133 153 0
129 150 0
131 152 0
125 146 0
143 165 0
135 156 0
127 147 0
115 134 0
117 136 0
102 121 0
105 124 0
104 121 0
101 117 0
94 110 0
86 102 0
79 93 0
63 79 0
75 89 0
72 85 0
64 75 0
42 53 0
35 44 0
44 53 18
21 35 0
33 49 18
36 55 18
35 58 36
38 63 31
39 64 51
32 54 25
36 59 31
36 60 36
31 51 36
32 48 18
23 39 18
38 46 0
31 38 0
34 40 0
43 51 0
34 44 0
58 65 0
75 86 0
67 79 0
64 77 0
81 91 0
72 85 0
71 84 0
94 107 0
92 104 0
86 100 0
93 104 0
101 114 0
99 111 0
101 115 0
104 115 0
104 116 0
109 120 0
105 120 0
102 112 0
102 115 0
120 131 0
117 130 0
110 118 0
104 114 0
108 114 0
119 129 0
109 115 0
110 115 0
112 118 0
118 123 0
104 106 0
114 114 0
102 100 0
98 91 0
100 97 0
100 95 0
93 86 0
86 81 0
93 82 0
91 84 0
96 84 0
87 76 0
89 78 0
61 47 0
90 78 0
78 63 0
83 70 0
83 70 0
86 71 0
84 72 0
90 77 0
97 84 0
97 85 11
91 80 0
95 83 11
108 98 0
95 82 0
105 93 11
102 89 16
107 99 11
108 98 0
117 113 0
127 124 19
130 130 0
140 146 0
143 148 11
152 162 0
154 163 0
158 172 0
157 170 0
158 172 0
162 176 0
160 176 0
159 176 0
161 178 0
161 178 0
161 180 0
161 177 0
164 184 0
163 184 0
166 185 0
164 184 0
168 190 0
167 188 0
162 184 0
167 189 0
162 186 0
167 191 0
166 189 0
166 191 0
166 191 0
165 191 0
172 196 0
167 192 0
167 191 0
167 191 0
168 192 0
168 191 0
169 193 0
168 193 0
170 194 0
171 195 0
173 196 0
170 194 0
175 198 0
172 194 0
172 196 0
174 197 0
170 194 0
174 197 0
173 196 0
173 195 0
172 195 0
173 196 0
172 195 0
171 195 0
171 195 0
172 196 0
171 195 0
169 194 0
168 193 0
168 193 0
168 193 0
166 191 0
167 193 0
167 192 0
166 192 0
165 192 0
164 191 0
165 191 0
164 190 0
162 189 0
164 190 0
163 190 0
166 192 0
164 190 0
166 192 0
163 188 0
165 191 0
165 189 0
165 189 0
164 188 0
163 187 0
164 188 0
165 188 0
165 188 0
166 188 0
162 186 0
153 175 0
154 177 0
160 182 0
158 180 0
151 173 0
156 177 0
158 179 0
151 173 0
145 167 0
151 174 0
142 163 0
138 159 0
135 155 0
136 157 0
141 161 0
129 150 0
139 159 0
125 145 0
129 149 0
109 129 0
109 129 0
104 123 0
97 115 0
106 126 0
98 114 0
96 110 0
89 105 0
83 99 0
77 91 0
75 88 0
60 72 0
67 79 0
52 63 0
47 56 0
62 71 0
38 50 0
47 55 0
42 48 0
23 30 0
22 30 0
34 41 0
56 64 0
39 46 0
29 36 0
26 37 0
35 42 0
18 30 0
40 48 0
43 51 0
54 64 0
56 67 0
60 69 0
63 75 0
61 73 0
72 83 0
73 84 0
73 86 0
80 94 0
77 90 0
81 94 0
77 90 0
85 96 0
89 102 0
101 115 0
93 105 0
102 115 0
107 122 0
103 115 0
109 124 0
100 114 0
115 131 0
104 115 0
106 118 0
114 126 0
106 118 0
104 111 0
101 110 0
112 119 0
111 120 0
100 106 0
102 107 0
118 122 0
109 111 0
99 98 0
120 123 0
103 104 0
109 109 0
107 105 0
110 111 0
115 108 0
104 98 0
102 99 0
104 97 0
100 90 0
97 87 0
96 85 0
88 75 0
95 81 0
95 81 0
100 90 0
94 83 0
107 96 0
107 95 0
103 91 0
109 100 0
115 104 0
112 101 0
120 112 0
121 115 0
125 118 0
136 134 0
140 138 0
143 142 0
133 131 0
141 141 0
144 148 0
149 155 0
150 155 0
150 156 0
150 158 0
157 169 0
155 163 0
151 164 0
160 173 0
154 167 0
158 171 0
159 171 0
156 171 0
164 179 0
162 179 0
159 176 0
163 181 0
165 183 0
161 178 0
164 185 0
167 189 0
167 188 0
164 185 0
166 188 0
166 187 0
165 188 0
167 192 0
168 193 0
163 188 0
167 192 0
168 193 0
165 190 0
170 194 0
170 194 0
168 192 0
170 195 0
172 195 0
171 195 0
174 196 0
171 194 0
175 198 0
173 197 0
173 196 0
173 196 0
175 197 0
174 197 0
174 197 0
176 198 0
173 196 0
174 197 0
173 196 0
173 196 0
173 197 0
172 196 0
171 195 0
171 195 0
171 195 0
167 192 0
168 193 0
167 193 0
165 190 0
167 193 0
166 192 0
166 191 0
164 190 0
163 189 0
167 193 0
166 192 0
168 193 0
165 191 0
168 193 0
164 189 0
164 189 0
166 191 0
166 190 0
161 185 0
165 189 0
165 189 0
163 187 0
168 191 0
161 184 0
163 186 0
158 181 0
158 181 0
163 185 0
158 180 0
155 177 0
151 173 0
155 177 0
155 176 0
142 163 0
159 181 0
146 168 0
154 174 0
148 168 0
147 168 0
147 169 0
136 157 0
135 155 0
131 153 0
133 154 0
134 155 0
122 142 0
127 147 0
109 129 0
120 140 0
100 120 0
98 116 0
97 116 0
97 116 0
89 106 0
73 90 0
91 107 0
90 105 0
83 99 0
69 83 0
72 87 0
70 82 0
48 60 0
50 61 0
36 48 0
65 77 0
48 56 0
36 46 0
45 56 0
43 53 0
30 38 0
35 43 0
35 42 0
54 64 0
54 64 0
60 69 0
51 59 0
60 69 0
61 71 0
81 95 0
70 81 0
68 81 0
59 73 0
80 94 0
66 82 0
78 92 0
87 100 0
76 89 0
88 104 0
88 103 0
85 98 0
97 115 0
104 118 0
97 111 0
107 122 0
113 130 0
104 119 0
108 121 0
114 128 0
116 131 0
104 117 0
110 121 0
103 115 0
115 129 0
121 131 0
113 124 0
113 123 0
110 121 0
119 129 0
109 118 0
125 134 0
114 117 0
123 127 0
111 115 0
111 115 0
109 113 0
109 109 0
117 116 0
118 114 0
112 110 0
119 115 0
110 104 0
117 110 0
114 109 0
110 101 0
100 92 0
111 102 0
111 101 0
106 95 0
109 99 0
108 98 0
105 93 0
111 101 0
110 103 0
114 102 0
115 108 0
122 116 0
123 117 0
125 122 0
127 122 0
138 137 0
137 134 0
139 137 0
141 141 0
142 143 0
148 149 0
149 153 0
155 161 0
153 155 0
152 159 0
147 152 0
156 167 0
154 163 0
155 164 0
156 167 0
162 176 0
159 173 0
156 171 0
159 173 0
160 177 0
162 180 0
163 183 0
161 178 0
162 180 0
164 182 0
163 184 0
165 185 0
167 189 0
165 185 0
162 183 0
168 193 0
169 192 0
169 193 0
171 194 0
167 191 0
168 192 0
166 190 0
172 196 0
168 192 0
173 196 0
174 197 0
171 194 0
174 197 0
172 195 0
173 196 0
172 195 0
174 197 0
175 197 0
173 196 0
174 197 0
173 196 0
173 196 0
173 196 0
171 194 0
172 196 0
171 195 0
171 195 0
170 195 0
170 194 0
169 195 0
170 195 0
169 193 0
169 194 0
169 194 0
165 191 0
166 191 0
167 192 0
167 192 0
168 193 0
165 190 0
167 192 0
168 193 0
166 191 0
165 190 0
169 194 0
166 190 0
164 189 0
172 195 0
166 190 0
165 189 0
165 188 0
164 188 0
164 186 0
162 185 0
164 186 0
160 182 0
165 188 0
159 181 0
143 165 0
158 179 0
156 178 0
159 181 0
159 180 0
154 176 0
158 181 0
153 175 0
146 168 0
141 164 0
143 165 0
145 167 0
144 165 0
137 158 0
142 164 0
131 150 0
137 157 0
133 153 0
117 138 0
117 136 0
112 134 0
115 136 0
99 118 0
100 122 0
97 117 0
99 117 0
99 118 0
91 108 0
92 110 0
74 91 0
91 107 0
83 100 0
72 87 0
74 87 0
64 78 0
54 67 0
73 88 0
71 84 0
54 66 0
46 58 0
51 63 0
56 68 0
55 66 0
47 58 0
59 69 0
54 65 0
61 73 0
49 64 0
60 73 0
49 61 0
62 76 0
56 70 0
71 84 0
73 86 0
70 83 0
90 105 0
85 100 0
95 111 0
97 111 0
86 102 0
86 101 0
100 115 0
93 107 0
92 109 0
105 121 0
101 116 0
101 115 0
113 129 0
111 126 0
108 124 0
117 132 0
116 131 0
108 121 0
111 126 0
122 136 0
114 129 0
120 134 0
119 130 0
119 133 0
118 131 0
120 133 0
120 132 0
118 127 0
118 128 0
123 131 0
124 133 0
116 121 0
120 123 0
126 133 0
115 118 0
120 121 0
118 124 0
127 126 0
112 111 0
118 114 0
114 112 0
120 116 0
124 118 0
110 104 0
110 105 0
117 110 0
122 114 0
119 111 0
120 114 0
125 119 0
111 104 0
120 112 0
121 114 0
118 110 0
125 117 0
128 119 0
135 130 0
135 129 0
132 131 0
138 136 0
143 142 0
139 141 0
143 142 0
143 149 0
145 147 0
151 156 0
148 151 0
153 158 0
152 161 0
147 155 0
154 165 0
152 159 0
152 163 0
156 167 0
160 176 0
157 170 0
159 172 0
157 172 0
162 177 0
161 177 0
161 179 0
160 177 0
165 184 0
164 182 0
163 182 0
165 186 0
166 187 0
168 194 0
169 192 0
170 194 0
170 195 0
174 197 0
171 194 0
172 196 0
171 195 0
174 197 0
171 195 0
172 195 0
174 197 0
172 196 0
175 197 0
173 196 0
174 197 0
174 197 0
174 197 0
175 198 0
175 197 0
174 197 0
175 198 0
172 195 0
173 196 0
171 194 0
171 195 0
173 196 0
171 194 0
169 193 0
170 194 0
169 193 0
171 195 0
168 193 0
168 194 0
169 193 0
167 192 0
170 194 0
169 193 0
166 190 0
169 193 0
167 192 0
167 191 0
166 191 0
162 186 0
170 194 0
169 193 0
168 192 0
168 191 0
162 186 0
167 191 0
165 188 0
163 186 0
159 182 0
162 184 0
168 191 0
162 185 0
159 181 0
153 176 0
164 185 0
152 174 0
158 180 0
156 178 0
149 170 0
151 173 0
152 173 0
156 179 0
142 165 0
139 161 0
138 159 0
136 156 0
134 154 0
141 163 0
127 148 0
132 153 0
129 150 0
118 138 0
121 142 0
119 140 0
128 149 0
119 139 0
108 127 0
100 120 0
104 124 0
108 127 0
101 119 0
106 123 0
100 118 0
104 122 0
86 103 0
85 103 0
83 98 0
80 97 0
88 103 0
61 77 0
66 80 0
67 81 0
75 89 0
64 76 0
57 71 0
49 62 0
54 66 0
68 81 0
66 79 0
55 69 0
73 86 0
67 80 0
66 81 0
74 88 0
79 92 0
76 91 0
72 86 0
80 95 0
87 102 0
90 104 0
84 101 0
95 109 0
102 118 0
96 113 0
92 107 0
96 113 0
97 114 0
106 122 0
103 118 0
117 135 0
110 127 0
119 137 0
128 144 0
115 132 0
112 128 0
119 136 0
127 144 0
114 129 0
116 132 0
130 144 0
120 134 0
125 138 0
128 142 0
116 129 0
125 136 0
114 122 0
125 136 0
126 138 0
121 128 0
114 123 0
122 131 0
128 134 0
128 133 0
125 130 0
118 119 0
127 132 0
131 132 0
127 132 0
122 119 0
123 122 0
124 122 0
119 116 0
127 127 0
123 119 0
127 122 0
131 126 0
124 122 0
120 113 0
122 116 0
127 121 0
126 118 0
123 114 0
135 128 0
123 117 0
124 119 0
129 125 0
129 124 0
133 133 0
134 131 0
131 130 0
139 140 0
145 142 0
143 145 0
138 139 0
151 155 0
146 150 0
146 150 0
145 149 0
153 159 0
156 164 0
157 166 0
153 162 0
157 167 0
157 167 0
150 162 0
159 173 0
160 170 0
158 172 0
160 177 0
160 174 0
162 179 0
159 174 0
162 182 0
162 180 0
163 182 0
165 187 0
172 196 0
172 197 0
170 194 0
171 195 0
174 197 0
168 192 0
174 197 0
175 197 0
173 196 0
175 198 0
175 198 0
176 198 0
173 196 0
175 198 0
175 197 0
173 196 0
173 196 0
172 195 0
174 197 0
173 196 0
173 196 0
173 197 0
173 196 0
172 195 0
172 195 0
173 197 0
170 194 0
171 194 0
171 195 0
169 194 0
170 194 0
168 193 0
169 193 0
173 196 0
169 193 0
170 193 0
168 193 0
170 194 0
169 193 0
169 192 0
169 193 0
169 193 0
165 189 0
167 190 0
169 193 0
166 189 0
161 185 0
164 188 0
166 190 0
166 189 0
168 191 0
165 188 0
165 187 0
162 184 0
158 180 0
161 183 0
167 189 0
162 183 0
154 176 0
154 176 0
162 185 0
151 173 0
148 170 0
154 176 0
151 173 0
149 171 0
145 167 0
142 164 0
147 169 0
137 159 0
138 159 0
135 157 0
135 157 0
130 152 0
133 154 0
133 153 0
124 144 0
124 145 0
114 134 0
127 148 0
111 131 0
118 138 0
100 120 0
110 129 0
110 129 0
106 124 0
99 116 0
92 110 0
84 101 0
89 107 0
82 98 0
89 105 0
83 100 0
76 93 0
82 98 0
80 97 0
84 100 0
78 93 0
87 102 0
55 70 0
65 78 0
75 91 0
67 81 0
69 84 0
69 84 0
75 90 0
58 72 0
81 95 0
80 97 0
77 93 0
82 98 0
97 113 0
90 107 0
83 100 0
87 103 0
91 107 0
90 107 0
90 106 0
100 117 0
103 118 0
117 136 0
103 117 0
114 133 0
107 124 0
110 127 0
113 131 0
113 131 0
120 140 0
120 136 0
112 128 0
112 128 0
126 140 0
117 129 0
128 143 0
124 140 0
119 134 0
130 144 0
127 140 0
124 137 0
120 131 0
130 145 0
126 136 0
121 134 0
118 130 0
129 138 0
126 136 0
127 139 0
120 128 0
129 136 0
132 138 0
124 130 0
133 138 0
133 134 0
128 131 0
120 124 0
134 140 0
121 121 0
125 124 0
125 127 0
127 125 0
133 131 0
129 126 0
132 129 0
124 119 0
125 116 0
126 121 0
135 132 0
130 127 0
129 127 0
132 126 0
130 128 0
130 125 0
133 130 0
138 136 0
141 140 0
139 142 0
141 142 0
144 145 0
146 150 0
144 146 0
149 154 0
144 149 0
154 164 0
151 156 0
151 160 0
149 159 0
152 162 0
155 167 0
155 165 0
150 162 0
157 170 0
159 172 0
160 174 0
160 175 0
159 170 0
165 182 0
164 179 0
160 174 0
160 175 0
161 179 0
172 195 0
173 197 0
173 197 0
173 197 0
174 197 0
174 197 0
175 197 0
173 196 0
173 196 0
175 198 0
173 196 0
174 197 0
175 197 0
175 198 0
175 197 0
175 197 0
174 197 0
174 197 0
174 197 0
174 197 0
172 196 0
174 197 0
172 196 0
172 196 0
172 195 0
171 195 0
171 195 0
171 195 0
171 195 0
169 193 0
172 195 0
171 195 0
171 195 0
171 195 0
167 191 0
166 190 0
164 188 0
171 194 0
169 192 0
167 190 0
170 194 0
166 189 0
166 189 0
170 193 0
169 192 0
172 194 0
168 192 0
163 186 0
165 188 0
165 187 0
155 178 0
164 187 0
160 183 0
162 184 0
158 179 0
163 186 0
158 181 0
157 178 0
156 178 0
158 179 0
156 178 0
158 179 0
147 169 0
150 172 0
157 179 0
145 167 0
143 166 0
147 169 0
147 168 0
138 161 0
145 167 0
132 153 0
146 169 0
131 151 0
126 148 0
136 158 0
119 140 0
128 149 0
129 151 0
123 144 0
111 132 0
112 133 0
114 133 0
106 126 0
106 126 0
109 128 0
104 123 0
101 120 0
101 121 0
85 104 0
80 99 0
79 98 0
79 98 0
82 99 0
82 99 0
86 103 0
88 105 0
80 97 0
76 92 0
85 101 0
78 92 0
92 109 0
82 96 0
84 100 0
78 92 0
78 95 0
85 102 0
75 91 0
100 117 0
88 104 0
81 98 0
91 108 0
92 110 0
94 114 0
95 110 0
88 106 0
107 123 0
95 112 0
89 107 0
110 129 0
106 123 0
101 120 0
110 128 0
116 135 0
113 131 0
116 133 0
121 138 0
126 144 0
113 129 0
125 143 0
121 138 0
119 137 0
119 137 0
113 129 0
130 146 0
125 142 0
125 138 0
114 125 0
129 143 0
120 133 0
125 138 0
130 144 0
129 140 0
122 136 0
130 143 0
130 137 0
135 144 0
129 142 0
126 136 0
129 137 0
129 136 0
129 136 0
139 147 0
139 143 0
136 137 0
122 125 0
129 130 0
135 136 0
126 128 0
130 131 0
129 131 0
138 139 0
129 130 0
129 126 0
131 130 0
130 129 0
137 134 0
133 133 0
136 134 0
137 134 0
133 132 0
133 130 0
140 141 0
139 141 0
138 138 0
143 147 0
139 142 0
141 142 0
139 142 0
148 150 0
148 152 0
152 155 0
147 151 0
148 153 0
152 156 0
149 154 0
149 156 0
157 166 0
153 161 0
156 164 0
159 169 0
154 165 0
157 171 0
153 163 0
159 173 0
160 176 0
162 179 0
164 181 0
163 180 0
162 180 0
172 196 0
171 194 0
172 195 0
175 198 0
174 197 0
175 198 0
174 197 0
174 197 0
175 198 0
176 198 0
175 198 0
172 196 0
175 198 0
175 198 0
174 196 0
176 198 0
174 197 0
173 195 0
173 197 0
173 197 0
173 195 0
173 197 0
173 196 0
170 193 0
173 197 0
172 196 0
172 195 0
171 195 0
171 194 0
172 195 0
171 194 0
172 196 0
171 193 0
172 195 0
173 196 0
170 194 0
169 192 0
167 190 0
171 194 0
169 193 0
167 191 0
167 190 0
167 191 0
168 190 0
166 189 0
168 190 0
166 189 0
170 192 0
168 190 0
165 187 0
166 188 0
162 185 0
157 178 0
160 182 0
165 187 0
163 185 0
162 184 0
156 178 0
156 178 0
160 182 0
150 172 0
146 168 0
156 179 0
158 180 0
153 175 0
150 172 0
142 164 0
142 165 0
140 163 0
142 164 0
139 160 0
141 162 0
132 155 0
133 154 0
131 153 0
128 150 0
125 148 0
119 141 0
111 132 0
117 137 0
98 119 0
114 134 0
110 129 0
109 128 0
109 129 0
97 115 0
101 120 0
100 119 0
109 129 0
96 114 0
100 120 0
89 106 0
83 102 0
90 109 0
99 117 0
81 99 0
89 106 0
90 107 0
70 87 0
86 104 0
101 118 0
88 104 0
89 105 0
88 105 0
95 111 0
79 96 0
90 108 0
100 118 0
83 102 0
89 107 0
91 107 0
101 120 0
100 118 0
97 114 0
112 132 0
108 126 0
103 121 0
103 122 0
107 125 0
112 130 0
96 115 0
105 123 0
107 126 0
118 137 0
110 127 0
125 144 0
106 123 0
123 140 0
114 133 0
132 152 0
123 140 0
127 144 0
129 147 0
119 138 0
129 144 0
126 143 0
124 140 0
129 146 0
139 154 0
131 147 0
129 145 0
141 155 0
124 137 0
130 145 0
122 133 0
139 151 0
127 138 0
139 153 0
119 129 0
137 145 0
131 142 0
138 149 0
134 142 0
133 141 0
136 144 0
134 140 0
137 144 0
130 138 0
132 136 0
135 143 0
140 141 0
134 137 0
136 139 0
131 134 0
138 139 0
140 142 0
133 132 0
138 138 0
134 134 0
140 144 0
140 140 0
139 142 0
137 137 0
142 145 0
144 142 0
140 140 0
144 144 0
142 143 0
137 138 0
144 148 0
149 154 0
135 137 0
134 135 0
148 154 0
148 152 0
153 158 0
156 166 0
155 163 0
152 161 0
155 165 0
155 164 0
155 167 0
151 162 0
153 161 0
159 170 0
160 173 0
155 167 0
156 170 0
161 175 0
159 171 0
173 196 0
174 198 0
174 197 0
173 197 0
174 196 0
175 198 0
175 198 0
177 199 0
174 197 0
175 198 0
175 198 0
173 196 0
176 198 0
173 196 0
176 198 0
175 198 0
174 197 0
175 197 0
174 197 0
173 196 0
173 196 0
172 195 0
172 195 0
173 196 0
172 196 0
171 194 0
173 196 0
170 194 0
173 197 0
169 192 0
172 196 0
170 194 0
173 196 0
168 191 0
167 190 0
171 194 0
168 191 0
169 192 0
169 193 0
172 194 0
168 190 0
167 190 0
163 186 0
165 188 0
165 187 0
160 182 0
166 188 0
163 185 0
160 183 0
164 187 0
165 187 0
161 183 0
163 185 0
154 176 0
159 182 0
164 186 0
162 184 0
152 175 0
153 176 0
159 182 0
147 170 0
152 175 0
155 178 0
145 168 0
148 170 0
143 167 0
150 173 0
145 167 0
131 152 0
135 157 0
137 159 0
135 156 0
139 160 0
129 151 0
130 151 0
133 155 0
134 155 0
127 149 0
124 144 0
130 152 0
124 146 0
110 131 0
118 139 0
115 136 0
113 133 0
107 127 0
101 121 0
113 134 0
104 124 0
97 117 0
102 121 0
103 123 0
98 117 0
100 119 0
102 122 0
106 126 0
99 117 0
99 117 0
98 116 0
105 123 0
98 116 0
92 110 0
97 115 0
99 118 0
84 102 0
103 120 0
93 112 0
90 108 0
98 116 0
99 117 0
100 120 0
92 110 0
109 127 0
111 129 0
109 128 0
93 113 0
117 137 0
117 136 0
101 118 0
115 135 0
116 135 0
129 148 0
117 133 0
118 136 0
119 139 0
112 130 0
122 141 0
122 141 0
121 138 0
120 138 0
123 141 0
124 142 0
133 149 0
126 143 0
123 140 0
129 147 0
137 156 0
127 142 0
125 143 0
128 143 0
140 156 0
127 145 0
125 142 0
139 156 0
140 156 0
126 142 0
129 143 0
136 147 0
146 157 0
138 149 0
133 143 0
139 149 0
137 147 0
139 146 0
142 150 0
132 138 0
141 148 0
136 142 0
138 145 0
136 141 0
130 135 0
142 146 0
137 141 0
139 144 0
135 140 0
140 145 0
144 150 0
144 150 0
137 141 0
143 147 0
144 144 0
146 148 0
145 148 0
140 142 0
137 138 0
143 145 0
145 145 0
136 139 0
148 152 0
146 150 0
150 155 0
142 147 0
149 156 0
151 159 0
155 158 0
148 151 0
150 156 0
146 153 0
143 148 0
150 159 0
154 163 0
155 165 0
154 163 0
155 165 0
158 171 0
154 168 0
157 170 0
158 170 0
157 172 0
160 178 0
172 196 0
174 197 0
171 195 0
175 198 0
174 197 0
175 198 0
175 197 0
175 198 0
173 196 0
175 197 0
174 197 0
175 198 0
174 197 0
174 197 0
174 197 0
175 198 0
174 197 0
173 195 0
173 196 0
171 194 0
172 195 0
172 195 0
170 193 0
172 196 0
171 193 0
173 197 0
173 195 0
173 196 0
172 195 0
173 195 0
174 197 0
173 196 0
170 193 0
168 191 0
171 194 0
169 192 0
173 196 0
168 191 0
170 192 0
166 189 0
167 191 0
163 185 0
165 187 0
169 192 0
165 186 0
165 187 0
162 185 0
164 187 0
161 184 0
166 189 0
158 181 0
160 182 0
163 186 0
159 183 0
157 180 0
161 184 0
156 179 0
150 173 0
158 182 0
151 174 0
150 173 0
155 177 0
148 170 0
149 172 0
145 168 0
142 164 0
149 172 0
144 167 0
148 171 0
138 161 0
136 158 0
144 167 0
137 159 0
132 155 0
125 148 0
126 149 0
127 149 0
128 151 0
120 142 0
127 149 0
108 129 0
122 144 0
128 149 0
127 148 0
114 135 0
115 136 0
100 121 0
102 123 0
116 137 0
106 127 0
111 131 0
97 117 0
97 117 0
100 121 0
101 120 0
100 119 0
95 115 0
106 126 0
101 120 0
112 131 0
93 112 0
116 135 0
90 108 0
92 110 0
99 118 0
92 111 0
94 113 0
98 117 0
104 124 0
108 125 0
105 125 0
87 105 0
103 122 0
109 128 0
112 132 0
106 126 0
116 136 0
113 132 0
119 140 0
110 129 0
123 143 0
114 135 0
102 122 0
129 150 0
117 136 0
132 154 0
124 143 0
125 142 0
121 141 0
128 148 0
125 143 0
126 145 0
124 143 0
133 152 0
123 142 0
122 138 0
127 142 0
140 161 0
129 146 0
136 152 0
131 146 0
132 149 0
133 151 0
130 146 0
138 152 0
126 141 0
133 148 0
140 157 0
136 148 0
143 158 0
131 143 0
131 142 0
134 146 0
138 149 0
134 146 0
139 149 0
137 147 0
146 157 0
144 156 0
142 149 0
150 159 0
146 151 0
144 153 0
143 149 0
144 150 0
146 153 0
144 149 0
139 147 0
145 150 0
143 149 0
140 145 0
141 144 0
145 148 0
147 153 0
142 144 0
141 141 0
143 148 0
145 149 0
144 151 0
144 147 0
142 145 0
150 154 0
148 154 0
153 160 0
149 154 0
151 160 0
150 156 0
151 159 0
152 164 0
154 161 0
148 158 0
154 164 0
152 163 0
156 167 0
156 167 0
158 170 0
159 170 0
159 171 0
158 173 0
161 177 0
174 196 0
176 198 0
174 197 0
174 197 0
174 197 0
175 198 0
173 196 0
173 196 0
173 196 0
175 198 0
175 198 0
174 197 0
174 197 0
176 197 0
172 195 0
174 197 0
172 196 0
173 196 0
173 195 0
174 196 0
175 198 0
173 196 0
173 195 0
175 197 0
176 198 0
172 195 0
169 192 0
175 197 0
172 196 0
168 191 0
173 196 0
169 192 0
169 191 0
171 194 0
168 191 0
172 195 0
170 193 0
173 195 0
169 191 0
166 188 0
171 194 0
164 186 0
170 192 0
166 188 0
167 190 0
167 189 0
163 186 0
165 188 0
160 182 0
160 183 0
162 185 0
151 172 0
161 184 0
153 175 0
160 183 0
155 177 0
169 191 0
152 175 0
151 174 0
145 167 0
145 169 0
149 173 0
149 171 0
150 172 0
150 172 0
146 168 0
149 172 0
146 169 0
137 161 0
139 162 0
144 167 0
133 155 0
136 158 0
141 164 0
125 148 0
130 153 0
131 153 0
129 151 0
127 149 0
123 146 0
129 151 0
124 147 0
127 149 0
115 136 0
115 136 0
118 140 0
105 127 0
113 134 0
103 123 0
105 126 0
107 128 0
117 138 0
115 136 0
107 127 0
106 126 0
97 118 0
112 134 0
100 119 0
108 128 0
96 116 0
109 129 0
94 113 0
117 135 0
101 121 0
105 125 0
106 125 0
105 126 0
124 145 0
108 127 0
101 121 0
104 123 0
115 135 0
120 139 0
108 127 0
107 125 0
113 134 0
119 139 0
112 131 0
119 139 0
104 123 0
115 135 0
120 138 0
117 137 0
120 139 0
123 142 0
120 139 0
114 133 0
115 134 0
115 136 0
122 142 0
123 144 0
118 136 0
123 142 0
123 142 0
123 140 0
128 147 0
134 155 0
136 153 0
140 159 0
129 146 0
134 151 0
136 154 0
135 152 0
130 145 0
136 153 0
144 163 0
134 150 0
144 159 0
132 145 0
140 154 0
136 149 0
137 152 0
135 151 0
141 153 0
143 157 0
145 155 0
139 150 0
141 148 0
144 157 0
148 158 0
136 147 0
139 149 0
143 151 0
134 137 0
144 153 0
142 148 0
140 149 0
141 148 0
141 146 0
148 154 0
153 162 0
144 151 0
146 152 0
149 155 0
146 149 0
144 147 0
147 153 0
147 153 0
148 151 0
150 156 0
148 152 0
148 155 0
151 158 0
154 159 0
146 151 0
148 158 0
149 155 0
152 159 0
152 159 0
154 164 0
153 160 0
153 164 0
155 162 0
155 163 0
154 164 0
155 167 0
159 170 0
152 166 0
162 176 0
160 175 0
171 194 0
174 197 0
172 196 0
174 197 0
175 197 0
173 197 0
175 198 0
176 198 0
175 197 0
175 198 0
175 197 0
175 198 0
172 195 0
174 197 0
172 195 0
172 195 0
174 197 0
174 196 0
173 196 0
173 196 0
171 195 0
171 195 0
172 194 0
170 192 0
171 195 0
172 195 0
169 193 0
171 193 0
170 193 0
169 193 0
170 192 0
166 189 0
172 194 0
171 194 0
172 194 0
169 191 0
169 192 0
164 186 0
172 194 0
165 187 0
168 190 0
162 186 0
168 191 0
162 184 0
162 185 0
164 187 0
164 187 0
162 185 0
159 183 0
160 183 0
159 181 0
158 182 0
154 177 0
159 182 0
155 178 0
159 182 0
154 176 0
153 176 0
161 183 0
158 181 0
151 174 0
149 172 0
146 169 0
148 171 0
142 165 0
141 165 0
142 165 0
147 170 0
151 174 0
142 164 0
147 171 0
142 165 0
141 165 0
140 163 0
139 162 0
141 165 0
137 159 0
128 150 0
132 155 0
129 152 0
137 160 0
131 154 0
120 142 0
130 152 0
122 143 0
124 146 0
127 148 0
118 140 0
114 136 0
113 133 0
106 126 0
104 124 0
110 131 0
116 136 0
105 125 0
119 140 0
101 122 0
120 142 0
110 132 0
107 128 0
97 116 0
99 118 0
109 129 0
110 131 0
104 125 0
113 133 0
117 138 0
102 122 0
111 131 0
105 124 0
118 139 0
102 123 0
114 135 0
115 136 0
116 137 0
123 144 0
113 133 0
114 133 0
122 143 0
111 132 0
122 143 0
129 150 0
131 152 0
129 150 0
121 142 0
126 146 0
136 156 0
121 142 0
131 152 0
131 151 0
130 149 0
128 148 0
126 146 0
138 158 0
136 155 0
134 154 0
142 162 0
132 152 0
138 159 0
138 158 0
141 160 0
138 157 0
134 151 0
140 157 0
138 156 0
148 166 0
143 164 0
132 149 0
150 168 0
136 153 0
139 154 0
147 163 0
139 150 0
136 150 0
142 158 0
140 154 0
144 155 0
142 156 0
147 161 0
140 152 0
147 157 0
144 155 0
137 149 0
142 151 0
139 147 0
147 156 0
144 155 0
144 154 0
145 152 0
146 157 0
144 150 0
146 152 0
151 158 0
149 159 0
145 149 0
151 159 0
148 150 0
146 151 0
146 151 0
152 158 0
148 153 0
145 150 0
139 146 0
146 152 0
147 155 0
151 158 0
148 156 0
157 165 0
150 157 0
149 159 0
145 153 0
150 157 0
158 170 0
154 165 0
152 159 0
158 169 0
156 167 0
154 167 0
159 171 0
157 171 0
174 197 0
173 196 0
174 197 0
176 199 0
175 198 0
173 196 0
172 196 0
174 197 0
173 195 0
174 197 0
174 197 0
174 197 0
173 196 0
174 197 0
174 197 0
174 197 0
172 195 0
174 196 0
173 196 0
172 195 0
169 193 0
174 196 0
171 194 0
170 194 0
172 195 0
172 195 0
170 192 0
172 195 0
169 192 0
172 194 0
169 192 0
173 195 0
169 191 0
172 194 0
170 192 0
170 192 0
168 190 0
165 188 0
169 191 0
164 186 0
172 194 0
165 188 0
165 187 0
160 183 0
165 187 0
164 187 0
158 181 0
164 186 0
160 183 0
158 181 0
159 182 0
159 183 0
158 182 0
165 189 0
157 180 0
157 180 0
154 177 0
160 183 0
147 170 0
157 180 0
155 178 0
145 168 0
154 177 0
146 169 0
142 164 0
135 158 0
148 170 0
146 169 0
137 160 0
141 164 0
148 171 0
138 160 0
138 161 0
129 152 0
129 152 0
139 162 0
133 155 0
133 155 0
135 158 0
134 156 0
138 160 0
117 139 0
125 147 0
128 149 0
125 146 0
122 144 0
124 145 0
116 138 0
116 137 0
113 135 0
117 138 0
112 133 0
115 136 0
107 128 0
119 139 0
111 132 0
112 133 0
114 136 0
107 128 0
105 126 0
119 140 0
116 136 0
102 123 0
113 134 0
112 133 0
118 138 0
116 136 0
119 141 0
123 144 0
118 139 0
101 122 0
107 127 0
111 131 0
112 132 0
117 138 0
118 138 0
110 131 0
120 139 0
121 141 0
109 130 0
123 142 0
129 149 0
124 145 0
120 141 0
131 153 0
122 142 0
128 148 0
133 153 0
124 145 0
136 156 0
134 154 0
124 144 0
129 147 0
130 151 0
136 155 0
139 159 0
130 148 0
137 158 0
135 154 0
137 156 0
135 152 0
136 152 0
138 155 0
140 158 0
143 161 0
131 148 0
136 154 0
141 159 0
137 155 0
145 161 0
144 162 0
139 155 0
146 163 0
139 155 0
141 157 0
147 163 0
139 149 0
150 167 0
137 153 0
141 154 0
147 155 0
149 163 0
144 157 0
144 156 0
144 154 0
145 156 0
149 157 0
144 155 0
149 159 0
148 158 0
146 157 0
143 152 0
149 159 0
141 148 0
151 157 0
146 153 0
150 155 0
147 157 0
149 159 0
147 153 0
145 152 0
150 158 0
146 152 0
156 166 0
152 158 0
149 155 0
150 158 0
153 162 0
153 163 0
153 161 0
155 167 0
151 160 0
159 168 0
154 163 0
158 172 0
155 164 0
148 157 0
146 155 0
155 167 0
160 172 0
174 197 0
174 196 0
174 197 0
174 197 0
174 197 0
175 197 0
174 196 0
175 198 0
174 197 0
174 197 0
172 195 0
174 197 0
176 199 0
174 197 0
173 196 0
171 195 0
174 197 0
173 195 0
171 194 0
170 193 0
172 195 0
173 196 0
172 195 0
174 196 0
171 194 0
170 193 0
172 194 0
170 193 0
173 195 0
174 197 0
167 190 0
170 192 0
171 194 0
167 189 0
168 190 0
168 191 0
169 191 0
167 190 0
165 187 0
169 192 0
163 187 0
163 187 0
165 189 0
162 185 0
160 183 0
164 187 0
161 184 0
162 186 0
161 184 0
158 182 0
159 182 0
160 183 0
154 178 0
157 180 0
153 175 0
154 177 0
160 183 0
149 171 0
155 178 0
155 177 0
147 171 0
149 172 0
153 175 0
144 167 0
153 177 0
144 167 0
139 163 0
140 163 0
137 160 0
136 159 0
131 155 0
134 157 0
138 162 0
135 157 0
132 155 0
135 158 0
135 158 0
135 157 0
135 158 0
127 150 0
129 152 0
135 159 0
125 147 0
123 145 0
118 140 0
127 150 0
125 146 0
125 147 0
124 146 0
119 140 0
118 140 0
111 133 0
122 143 0
122 144 0
111 132 0
110 130 0
109 130 0
113 134 0
116 138 0
117 139 0
115 136 0
116 136 0
117 139 0
116 137 0
120 142 0
118 140 0
111 133 0
120 140 0
116 137 0
116 138 0
119 140 0
123 145 0
120 139 0
115 137 0
116 138 0
122 142 0
125 147 0
127 149 0
123 145 0
129 152 0
124 144 0
119 138 0
126 148 0
139 160 0
125 146 0
121 140 0
128 149 0
139 160 0
132 154 0
129 152 0
140 160 0
134 154 0
130 151 0
128 147 0
133 154 0
138 158 0
135 154 0
141 163 0
130 152 0
142 161 0
135 155 0
143 161 0
136 156 0
139 158 0
137 155 0
143 161 0
135 154 0
136 153 0
145 162 0
137 157 0
137 154 0
145 162 0
137 153 0
148 166 0
145 162 0
143 158 0
142 156 0
143 157 0
148 161 0
148 161 0
143 156 0
147 160 0
140 151 0
136 149 0
145 158 0
146 159 0
149 161 0
147 160 0
153 166 0
149 159 0
149 159 0
145 155 0
144 154 0
150 161 0
149 158 0
146 155 0
143 150 0
154 162 0
149 157 0
153 159 0
151 161 0
151 156 0
151 161 0
152 156 0
147 153 0
151 161 0
142 147 0
152 161 0
147 154 0
149 158 0
150 158 0
151 159 0
153 164 0
157 171 0
158 171 0
161 173 0
157 167 0
158 169 0
156 169 0
158 172 0
172 196 0
175 198 0
173 196 0
173 196 0
176 198 0
172 194 0
174 197 0
175 198 0
172 195 0
172 195 0
175 198 0
172 195 0
172 196 0
172 195 0
174 197 0
173 196 0
172 195 0
172 195 0
175 197 0
172 195 0
171 194 0
172 195 0
171 194 0
168 191 0
171 194 0
169 191 0
170 193 0
170 192 0
166 189 0
171 193 0
171 193 0
172 194 0
169 192 0
166 188 0
168 191 0
167 190 0
158 183 0
165 188 0
169 193 0
163 186 0
166 188 0
165 188 0
163 187 0
166 190 0
166 190 0
162 185 0
159 183 0
162 185 0
163 187 0
157 180 0
156 179 0
164 187 0
153 176 0
157 180 0
156 179 0
158 183 0
155 178 0
150 174 0
158 181 0
148 172 0
148 173 0
148 172 0
151 175 0
138 161 0
151 174 0
137 161 0
148 171 0
144 168 0
145 169 0
142 166 0
151 174 0
146 169 0
139 163 0
144 167 0
129 152 0
127 151 0
133 157 0
136 159 0
136 159 0
139 163 0
121 144 0
137 159 0
130 153 0
127 150 0
119 141 0
118 140 0
126 148 0
122 145 0
125 148 0
125 147 0
125 146 0
127 150 0
113 134 0
119 141 0
117 138 0
118 141 0
117 139 0
110 130 0
123 145 0
119 141 0
123 144 0
124 146 0
121 143 0
116 137 0
109 129 0
124 143 0
112 132 0
115 137 0
122 144 0
115 136 0
122 143 0
121 143 0
117 137 0
118 138 0
116 137 0
126 147 0
123 143 0
130 152 0
124 147 0
122 145 0
121 141 0
127 149 0
126 148 0
130 152 0
135 157 0
128 150 0
129 150 0
136 158 0
133 155 0
131 153 0
130 151 0
135 156 0
133 154 0
139 161 0
132 152 0
134 156 0
137 157 0
136 155 0
138 157 0
144 165 0
135 154 0
139 158 0
137 156 0
143 165 0
142 158 0
138 158 0
130 150 0
145 164 0
135 154 0
143 163 0
145 164 0
142 160 0
147 164 0
145 160 0
144 161 0
147 166 0
143 161 0
145 158 0
140 155 0
145 160 0
147 159 0
147 162 0
147 160 0
147 163 0
147 160 0
148 158 0
149 164 0
145 159 0
146 160 0
146 159 0
153 163 0
145 152 0
147 159 0
148 157 0
148 159 0
147 157 0
145 154 0
151 161 0
156 168 0
147 155 0
145 156 0
151 161 0
151 162 0
150 156 0
150 162 0
152 160 0
149 155 0
157 170 0
151 161 0
152 161 0
152 163 0
154 161 0
158 170 0
156 167 0
152 164 0
153 163 0
146 155 0
156 168 0
156 168 0
155 167 0
176 198 0
173 197 0
174 197 0
173 196 0
171 194 0
173 196 0
175 197 0
173 196 0
174 197 0
172 195 0
174 197 0
174 196 0
175 197 0
170 194 0
174 197 0
173 195 0
172 196 0
170 193 0
173 196 0
171 193 0
172 195 0
174 196 0
170 194 0
170 193 0
169 192 0
170 193 0
171 193 0
170 193 0
168 191 0
167 190 0
169 192 0
168 190 0
164 188 0
168 190 0
164 187 0
167 190 0
163 186 0
164 188 0
169 192 0
167 191 0
166 189 0
161 184 0
159 183 0
162 186 0
166 189 0
154 177 0
160 183 0
165 188 0
161 183 0
163 186 0
160 184 0
155 179 0
155 179 0
149 173 0
156 180 0
151 174 0
155 177 0
151 175 0
156 180 0
144 168 0
154 178 0
144 168 0
160 183 0
154 177 0
154 177 0
152 176 0
147 170 0
149 173 0
144 168 0
148 170 0
140 163 0
143 166 0
136 158 0
136 160 0
140 163 0
138 161 0
134 157 0
134 157 0
132 155 0
133 156 0
131 154 0
125 148 0
136 158 0
138 161 0
126 148 0
134 157 0
126 149 0
125 148 0
121 144 0
124 146 0
123 146 0
134 158 0
120 142 0
121 144 0
125 148 0
120 142 0
115 136 0
112 134 0
132 155 0
132 155 0
116 138 0
117 139 0
124 146 0
115 137 0
127 149 0
123 144 0
120 141 0
125 146 0
119 141 0
127 150 0
129 150 0
125 147 0
119 141 0
124 145 0
116 137 0
119 140 0
123 145 0
124 146 0
117 139 0
132 155 0
130 151 0
128 151 0
127 147 0
131 153 0
131 152 0
122 143 0
136 156 0
136 158 0
129 150 0
134 154 0
135 155 0
138 159 0
132 153 0
141 162 0
133 153 0
132 152 0
131 150 0
132 151 0
141 160 0
138 159 0
137 156 0
141 161 0
148 166 0
143 163 0
146 166 0
140 158 0
144 164 0
140 160 0
149 169 0
142 160 0
145 163 0
145 166 0
149 166 0
142 162 0
148 166 0
144 162 0
146 162 0
147 164 0
151 165 0
146 163 0
147 162 0
148 164 0
147 164 0
152 168 0
149 163 0
152 170 0
142 157 0
152 165 0
143 154 0
143 156 0
141 153 0
146 156 0
151 162 0
154 169 0
153 166 0
147 160 0
145 154 0
148 157 0
147 160 0
153 162 0
151 159 0
149 162 0
154 166 0
152 166 0
151 162 0
153 164 0
155 169 0
160 171 0
157 170 0
153 162 0
155 170 0
151 162 0
151 161 0
154 163 0
150 163 0
158 170 0
150 161 0
156 167 0
159 172 0
157 169 0
174 197 0
173 197 0
176 198 0
175 197 0
174 197 0
172 195 0
172 195 0
174 197 0
175 197 0
174 197 0
171 194 0
171 194 0
171 194 0
175 198 0
170 192 0
171 194 0
170 193 0
172 195 0
172 195 0
170 193 0
173 196 0
169 192 0
171 193 0
170 193 0
163 186 0
171 194 0
172 196 0
170 193 0
170 193 0
166 189 0
167 191 0
169 192 0
169 192 0
168 191 0
168 191 0
164 188 0
164 188 0
166 189 0
170 192 0
162 186 0
157 181 0
165 189 0
165 188 0
160 183 0
160 184 0
158 181 0
163 187 0
160 183 0
163 188 0
162 186 0
162 186 0
156 180 0
153 177 0
158 183 0
156 180 0
152 176 0
156 180 0
149 173 0
149 173 0
151 174 0
155 180 0
146 169 0
147 170 0
144 169 0
148 172 0
152 176 0
142 166 0
148 172 0
144 167 0
142 166 0
148 171 0
146 169 0
140 164 0
133 157 0
141 164 0
126 149 0
144 167 0
136 159 0
136 160 0
132 154 0
135 158 0
136 159 0
128 151 0
135 158 0
133 155 0
126 148 0
134 157 0
127 149 0
125 149 0
142 166 0
122 145 0
123 145 0
128 150 0
127 150 0
131 153 0
129 152 0
126 149 0
120 141 0
128 150 0
124 148 0
126 147 0
128 150 0
124 147 0
123 143 0
127 150 0
116 137 0
126 148 0
116 138 0
114 135 0
130 153 0
128 149 0
126 147 0
125 147 0
119 141 0
127 148 0
132 155 0
133 155 0
125 148 0
126 150 0
123 145 0
128 149 0
132 153 0
133 155 0
135 156 0
115 136 0
141 163 0
134 156 0
133 153 0
133 153 0
136 158 0
133 152 0
135 157 0
132 151 0
139 159 0
130 150 0
142 163 0
144 165 0
137 159 0
137 159 0
143 163 0
137 158 0
141 161 0
142 164 0
144 164 0
138 157 0
146 167 0
140 160 0
140 158 0
138 158 0
146 165 0
148 168 0
140 157 0
142 159 0
146 163 0
145 163 0
145 163 0
148 168 0
136 153 0
149 165 0
149 164 0
146 161 0
150 166 0
146 162 0
148 165 0
143 157 0
146 160 0
150 163 0
146 164 0
148 160 0
146 161 0
149 162 0
155 173 0
147 159 0
147 159 0
146 160 0
153 165 0
148 160 0
147 158 0
152 166 0
147 159 0
154 165 0
152 165 0
150 164 0
154 165 0
151 163 0
156 168 0
153 166 0
154 166 0
156 168 0
151 165 0
151 162 0
151 165 0
157 166 0
150 161 0
156 167 0
154 165 0
149 161 0
156 170 0
156 167 0
156 170 0
174 198 0
175 197 0
175 197 0
171 195 0
170 193 0
171 194 0
174 197 0
172 195 0
172 195 0
170 194 0
172 195 0
171 194 0
174 197 0
173 195 0
172 194 0
171 194 0
171 194 0
170 193 0
169 193 0
171 193 0
170 193 0
171 194 0
170 193 0
171 193 0
170 193 0
169 192 0
169 192 0
169 191 0
172 194 0
169 192 0
166 188 0
167 190 0
165 188 0
161 185 0
166 189 0
168 191 0
166 189 0
164 187 0
156 180 0
166 190 0
166 189 0
157 181 0
164 188 0
163 186 0
158 181 0
162 185 0
159 183 0
166 190 0
157 181 0
154 178 0
159 182 0
159 183 0
150 174 0
154 179 0
154 177 0
158 182 0
150 172 0
160 184 0
152 176 0
147 170 0
149 172 0
151 174 0
150 174 0
149 173 0
146 170 0
152 176 0
145 169 0
144 168 0
140 163 0
139 163 0
146 169 0
139 163 0
153 176 0
141 166 0
141 164 0
136 160 0
141 164 0
134 157 0
142 165 0
136 159 0
137 160 0
133 156 0
140 165 0
131 154 0
126 149 0
131 154 0
145 169 0
123 145 0
135 157 0
125 148 0
138 160 0
134 157 0
127 150 0
120 144 0
117 138 0
136 159 0
116 138 0
129 152 0
126 148 0
126 149 0
130 152 0
124 146 0
118 140 0
123 145 0
132 153 0
127 149 0
122 144 0
123 144 0
125 147 0
124 146 0
135 158 0
132 155 0
127 149 0
129 151 0
128 150 0
124 146 0
137 159 0
130 153 0
129 153 0
121 144 0
132 153 0
135 157 0
134 156 0
136 159 0
126 148 0
140 163 0
134 156 0
135 157 0
136 157 0
130 148 0
137 158 0
138 158 0
141 163 0
134 157 0
138 158 0
140 161 0
140 161 0
149 171 0
140 163 0
138 160 0
146 168 0
145 163 0
144 162 0
146 167 0
133 154 0
143 164 0
133 152 0
148 167 0
145 165 0
143 163 0
145 167 0
145 166 0
149 168 0
146 165 0
147 166 0
141 159 0
141 157 0
150 167 0
150 168 0
148 168 0
146 161 0
139 156 0
143 163 0
153 169 0
149 165 0
152 168 0
155 172 0
150 165 0
151 164 0
149 161 0
152 169 0
147 165 0
146 159 0
152 167 0
155 170 0
148 160 0
158 174 0
151 164 0
152 166 0
150 164 0
151 164 0
153 166 0
153 164 0
156 168 0
154 163 0
152 162 0
150 166 0
155 168 0
152 164 0
151 162 0
153 166 0
154 167 0
153 167 0
153 165 0
163 178 0
157 169 0
156 166 0
159 172 0
155 167 0
156 171 0
173 196 0
170 193 0
174 197 0
171 195 0
171 195 0
174 197 0
171 195 0
173 196 0
173 196 0
169 193 0
175 197 0
171 194 0
174 196 0
173 196 0
175 197 0
168 192 0
171 194 0
173 197 0
171 195 0
172 196 0
172 194 0
171 194 0
165 189 0
169 192 0
166 189 0
167 191 0
163 187 0
170 193 0
172 195 0
170 193 0
167 190 0
168 191 0
167 192 0
162 187 0
166 189 0
165 187 0
165 189 0
167 190 0
160 184 0
169 192 0
161 185 0
165 189 0
161 184 0
157 181 0
162 186 0
164 187 0
155 179 0
160 184 0
148 171 0
161 185 0
151 175 0
154 177 0
154 178 0
156 180 0
155 178 0
157 181 0
150 175 0
154 178 0
156 180 0
148 173 0
149 173 0
155 179 0
151 175 0
148 172 0
150 174 0
151 175 0
144 168 0
152 176 0
144 168 0
141 165 0
144 167 0
149 173 0
144 168 0
140 164 0
144 168 0
141 164 0
142 166 0
141 165 0
142 166 0
135 159 0
140 163 0
133 156 0
135 158 0
131 153 0
139 162 0
125 148 0
132 156 0
122 144 0
131 154 0
137 161 0
131 154 0
137 159 0
126 149 0
123 146 0
132 155 0
129 152 0
124 146 0
131 153 0
132 155 0
128 151 0
126 149 0
122 145 0
122 144 0
125 147 0
127 150 0
122 144 0
134 157 0
132 155 0
138 162 0
128 152 0
130 153 0
131 154 0
131 153 0
135 159 0
127 148 0
131 154 0
133 155 0
132 156 0
139 161 0
129 153 0
136 158 0
131 153 0
141 164 0
140 162 0
138 160 0
131 154 0
138 161 0
137 157 0
137 160 0
136 159 0
136 157 0
134 155 0
137 160 0
134 156 0
138 160 0
140 162 0
141 163 0
148 169 0
140 161 0
136 157 0
139 161 0
139 160 0
143 163 0
141 162 0
142 163 0
147 169 0
146 169 0
144 167 0
148 168 0
147 168 0
136 156 0
146 166 0
142 159 0
151 169 0
141 161 0
148 169 0
151 172 0
152 170 0
150 172 0
148 165 0
151 169 0
152 169 0
152 171 0
150 165 0
146 161 0
153 169 0
151 169 0
148 165 0
143 158 0
149 166 0
157 174 0
145 160 0
152 168 0
146 162 0
152 168 0
153 170 0
153 168 0
151 164 0
156 172 0
153 166 0
151 165 0
148 160 0
155 170 0
146 157 0
156 171 0
153 165 0
157 169 0
160 173 0
154 166 0
153 166 0
155 168 0
150 162 0
155 165 0
155 168 0
153 164 0
156 169 0
157 170 0
153 168 0
155 169 0
156 169 0
172 195 0
173 195 0
175 198 0
172 194 0
174 197 0
169 192 0
171 194 0
171 194 0
173 196 0
173 196 0
168 191 0
172 194 0
174 197 0
171 194 0
170 194 0
169 193 0
168 192 0
169 193 0
166 189 0
170 193 0
169 193 0
168 191 0
167 191 0
171 194 0
166 190 0
165 189 0
167 190 0
168 192 0
166 189 0
162 185 0
168 190 0
166 189 0
165 189 0
167 191 0
166 189 0
165 189 0
168 192 0
165 190 0
160 184 0
159 183 0
165 189 0
163 187 0
157 181 0
157 180 0
162 186 0
162 185 0
160 184 0
158 181 0
157 181 0
157 181 0
159 183 0
156 180 0
158 182 0
154 178 0
163 188 0
155 179 0
148 173 0
155 178 0
149 173 0
149 173 0
151 175 0
146 171 0
151 175 0
155 178 0
157 181 0
152 176 0
143 167 0
139 163 0
146 170 0
146 169 0
142 166 0
136 160 0
141 164 0
141 165 0
146 169 0
138 162 0
146 171 0
143 167 0
138 161 0
138 162 0
128 152 0
136 160 0
145 170 0
140 164 0
135 158 0
134 157 0
130 152 0
135 158 0
127 149 0
131 153 0
129 152 0
138 161 0
132 155 0
134 157 0
130 152 0
130 153 0
120 143 0
132 155 0
131 154 0
129 152 0
131 154 0
124 146 0
136 159 0
129 151 0
130 153 0
128 150 0
131 154 0
133 155 0
123 147 0
130 153 0
133 156 0
129 150 0
133 155 0
130 152 0
138 160 0
136 160 0
134 157 0
126 149 0
131 154 0
131 153 0
135 158 0
138 162 0
132 153 0
136 158 0
138 161 0
134 156 0
138 161 0
140 162 0
137 160 0
135 157 0
136 157 0
139 162 0
137 158 0
140 162 0
139 161 0
145 168 0
145 166 0
140 160 0
140 162 0
144 165 0
144 167 0
149 172 0
144 166 0
137 158 0
146 169 0
144 166 0
138 159 0
141 160 0
152 174 0
137 157 0
147 166 0
146 166 0
149 171 0
149 169 0
145 163 0
147 167 0
148 169 0
156 178 0
153 171 0
151 169 0
148 167 0
153 173 0
143 160 0
149 168 0
146 164 0
145 162 0
154 171 0
152 169 0
147 165 0
146 164 0
139 155 0
154 170 0
151 166 0
155 172 0
151 167 0
152 169 0
156 171 0
156 172 0
152 169 0
151 168 0
150 164 0
155 167 0
155 169 0
157 174 0
151 166 0
145 159 0
154 168 0
154 166 0
154 169 0
155 170 0
152 165 0
157 170 0
150 161 0
160 174 0
158 171 0
155 167 0
157 169 0
156 170 0
155 168 0
155 166 0
174 196 0
173 196 0
172 196 0
173 196 0
174 197 0
173 196 0
164 187 0
174 196 0
168 191 0
171 194 0
171 195 0
171 194 0
173 196 0
170 194 0
169 192 0
171 193 0
168 191 0
169 192 0
169 192 0
173 196 0
169 193 0
170 194 0
165 189 0
168 190 0
167 190 0
167 190 0
167 191 0
163 185 0
161 184 0
165 188 0
163 187 0
163 187 0
163 187 0
168 191 0
163 187 0
166 189 0
161 186 0
166 189 0
159 183 0
157 181 0
156 181 0
158 183 0
162 185 0
161 185 0
157 181 0
162 187 0
157 181 0
159 184 0
159 183 0
157 181 0
161 185 0
156 180 0
153 179 0
161 185 0
154 178 0
146 171 0
155 180 0
146 170 0
155 181 0
150 175 0
149 174 0
151 176 0
144 168 0
148 172 0
147 172 0
152 176 0
145 169 0
145 169 0
149 174 0
138 162 0
146 170 0
138 162 0
142 164 0
139 163 0
141 164 0
142 166 0
144 167 0
145 168 0
141 165 0
141 165 0
138 161 0
144 168 0
140 163 0
129 153 0
144 167 0
133 156 0
135 158 0
139 162 0
137 160 0
136 160 0
145 169 0
134 158 0
120 142 0
134 158 0
136 160 0
137 161 0
123 146 0
143 166 0
130 154 0
135 157 0
131 154 0
136 159 0
132 156 0
130 153 0
128 150 0
136 159 0
142 167 0
132 155 0
129 152 0
129 152 0
130 153 0
142 166 0
135 158 0
139 163 0
127 150 0
132 155 0
134 156 0
127 150 0
131 154 0
133 157 0
132 154 0
136 159 0
135 157 0
136 158 0
138 161 0
138 161 0
134 158 0
137 159 0
133 155 0
133 155 0
140 163 0
141 164 0
143 165 0
141 163 0
145 166 0
142 164 0
137 159 0
149 171 0
142 163 0
145 165 0
144 166 0
138 159 0
147 170 0
148 171 0
145 167 0
140 160 0
145 166 0
145 168 0
144 165 0
151 174 0
142 162 0
146 167 0
148 170 0
145 164 0
148 169 0
152 171 0
145 166 0
158 181 0
151 172 0
146 165 0
141 160 0
146 165 0
147 167 0
150 168 0
149 169 0
150 168 0
152 166 0
141 157 0
148 165 0
151 170 0
150 168 0
151 170 0
153 170 0
153 170 0
153 170 0
154 172 0
151 166 0
147 163 0
150 168 0
148 166 0
153 166 0
156 173 0
156 171 0
152 168 0
154 167 0
155 167 0
157 174 0
157 170 0
151 164 0
151 167 0
155 173 0
154 166 0
156 171 0
157 171 0
154 168 0
162 176 0
155 170 0
154 166 0
155 167 0
156 172 0
172 195 0
171 193 0
175 197 0
174 197 0
173 196 0
172 195 0
172 194 0
170 194 0
170 194 0
171 194 0
173 196 0
174 196 0
168 191 0
167 190 0
168 192 0
170 193 0
168 191 0
171 195 0
171 194 0
169 192 0
168 191 0
166 190 0
168 191 0
167 190 0
165 189 0
167 190 0
166 189 0
168 192 0
164 187 0
166 190 0
166 190 0
164 188 0
161 185 0
161 185 0
168 192 0
166 189 0
161 185 0
164 187 0
155 181 0
164 188 0
161 184 0
161 186 0
164 187 0
157 181 0
157 181 0
158 182 0
155 180 0
163 187 0
159 183 0
162 185 0
155 181 0
159 183 0
155 180 0
153 176 0
152 176 0
151 176 0
145 170 0
154 178 0
156 180 0
147 172 0
156 181 0
148 172 0
150 175 0
145 170 0
147 172 0
149 172 0
148 173 0
150 173 0
147 171 0
143 166 0
147 171 0
139 163 0
143 168 0
144 169 0
143 168 0
147 171 0
140 164 0
143 167 0
144 168 0
144 167 0
140 163 0
142 166 0
141 165 0
137 160 0
144 168 0
130 153 0
135 159 0
126 149 0
146 170 0
142 166 0
133 157 0
133 156 0
134 158 0
134 157 0
139 163 0
129 152 0
132 155 0
141 165 0
129 151 0
129 152 0
135 158 0
147 170 0
135 159 0
134 158 0
138 161 0
137 161 0
128 151 0
125 148 0
133 156 0
135 159 0
142 165 0
126 149 0
136 158 0
123 146 0
139 162 0
130 154 0
137 160 0
121 144 0
124 147 0
137 160 0
127 150 0
130 153 0
133 155 0
138 161 0
144 168 0
135 158 0
139 164 0
135 157 0
146 169 0
137 160 0
146 168 0
141 163 0
144 166 0
138 161 0
135 158 0
143 164 0
147 170 0
145 165 0
144 167 0
140 161 0
152 175 0
140 163 0
144 167 0
140 161 0
136 158 0
147 169 0
144 165 0
141 163 0
144 166 0
143 164 0
150 173 0
147 166 0
149 169 0
147 169 0
150 171 0
142 163 0
146 165 0
152 172 0
151 171 0
147 168 0
151 171 0
154 172 0
143 160 0
150 169 0
154 174 0
153 173 0
152 170 0
151 171 0
152 171 0
153 171 0
157 177 0
143 160 0
152 170 0
149 167 0
155 170 0
152 170 0
151 166 0
153 168 0
150 165 0
152 167 0
152 166 0
152 169 0
153 168 0
154 168 0
154 170 0
153 169 0
156 172 0
152 167 0
152 166 0
152 168 0
156 170 0
157 173 0
154 165 0
156 168 0
153 169 0
159 173 0
156 172 0
155 172 0
155 168 0
154 168 0
