P3
200 100
255
206 227 255
206 227 255
205 227 255
205 227 255
205 227 255
205 227 255
205 227 255
205 226 255
205 226 255
205 226 255
204 226 255
204 226 255
204 226 255
204 226 255
204 226 255
204 226 255
204 226 255
204 226 255
204 226 255
203 226 255
203 226 255
203 226 255
203 225 255
203 225 255
203 225 255
203 225 255
202 225 255
202 225 255
202 225 255
202 225 255
202 225 255
202 225 255
202 225 255
201 225 255
201 225 255
201 224 255
201 224 255
201 224 255
201 224 255
201 224 255
200 224 255
200 224 255
200 224 255
200 224 255
200 224 255
200 224 255
199 224 255
199 223 255
199 223 255
199 223 255
199 223 255
199 223 255
198 223 255
198 223 255
198 223 255
198 223 255
198 223 255
198 223 255
198 223 255
197 222 255
197 222 255
197 222 255
197 222 255
197 222 255
197 222 255
196 222 255
196 222 255
196 222 255
196 222 255
196 222 255
196 222 255
196 222 255
195 221 255
195 221 255
195 221 255
195 221 255
195 221 255
195 221 255
195 221 255
195 221 255
195 221 255
194 221 255
194 221 255
194 221 255
194 221 255
194 221 255
194 221 255
194 221 255
194 221 255
194 221 255
194 221 255
194 220 255
194 220 255
194 220 255
194 220 255
194 220 255
193 220 255
193 220 255
193 220 255
193 220 255
193 220 255
193 220 255
193 220 255
194 220 255
194 220 255
194 220 255
194 220 255
194 220 255
194 220 255
194 221 255
194 221 255
194 221 255
194 221 255
194 221 255
194 221 255
194 221 255
194 221 255
194 221 255
194 221 255
195 221 255
195 221 255
195 221 255
195 221 255
195 221 255
195 221 255
195 221 255
195 221 255
195 221 255
196 222 255
196 222 255
196 222 255
196 222 255
196 222 255
196 222 255
196 222 255
197 222 255
197 222 255
197 222 255
197 222 255
197 222 255
197 222 255
198 223 255
198 223 255
198 223 255
198 223 255
198 223 255
198 223 255
198 223 255
199 223 255
199 223 255
199 223 255
199 223 255
199 223 255
199 224 255
200 224 255
200 224 255
200 224 255
200 224 255
200 224 255
200 224 255
201 224 255
201 224 255
201 224 255
201 224 255
201 224 255
201 225 255
201 225 255
202 225 255
202 225 255
202 225 255
202 225 255
202 225 255
202 225 255
202 225 255
203 225 255
203 225 255
203 225 255
203 225 255
203 226 255
203 226 255
203 226 255
204 226 255
204 226 255
204 226 255
204 226 255
204 226 255
204 226 255
204 226 255
204 226 255
204 226 255
205 226 255
205 226 255
205 226 255
205 227 255
205 227 255
205 227 255
205 227 255
205 227 255
206 227 255
206 227 255
206 227 255
206 227 255
206 227 255
206 227 255
205 227 255
205 227 255
205 227 255
205 227 255
205 227 255
205 226 255
205 226 255
205 226 255
205 226 255
204 226 255
204 226 255
204 226 255
204 226 255
204 226 255
204 226 255
204 226 255
204 226 255
203 226 255
203 226 255
203 226 255
203 225 255
203 225 255
203 225 255
203 225 255
202 225 255
202 225 255
202 225 255
202 225 255
202 225 255
202 225 255
202 225 255
201 225 255
201 225 255
201 224 255
201 224 255
201 224 255
201 224 255
201 224 255
200 224 255
200 224 255
200 224 255
200 224 255
200 224 255
200 224 255
199 224 255
199 223 255
199 223 255
199 223 255
199 223 255
199 223 255
198 223 255
198 223 255
198 223 255
198 223 255
198 223 255
198 223 255
198 223 255
197 222 255
197 222 255
197 222 255
197 222 255
197 222 255
197 222 255
197 222 255
196 222 255
196 222 255
196 222 255
196 222 255
196 222 255
196 222 255
196 221 255
195 221 255
195 221 255
195 221 255
195 221 255
195 221 255
195 221 255
195 221 255
195 221 255
195 221 255
194 221 255
194 221 255
194 221 255
194 221 255
194 221 255
194 221 255
194 221 255
194 221 255
194 221 255
194 221 255
194 221 255
194 221 255
194 221 255
194 221 255
194 221 255
194 221 255
194 221 255
194 221 255
194 221 255
194 221 255
194 221 255
194 221 255
194 221 255
194 221 255
194 221 255
194 221 255
194 221 255
194 221 255
194 221 255
194 221 255
194 221 255
194 221 255
195 221 255
195 221 255
195 221 255
195 221 255
195 221 255
195 221 255
195 221 255
195 221 255
195 221 255
196 221 255
196 222 255
196 222 255
196 222 255
196 222 255
196 222 255
196 222 255
197 222 255
197 222 255
197 222 255
197 222 255
197 222 255
197 222 255
197 222 255
198 223 255
198 223 255
198 223 255
198 223 255
198 223 255
198 223 255
199 223 255
199 223 255
199 223 255
199 223 255
199 223 255
199 223 255
199 224 255
200 224 255
200 224 255
200 224 255
200 224 255
200 224 255
200 224 255
201 224 255
201 224 255
201 224 255
201 224 255
201 224 255
201 225 255
201 225 255
202 225 255
202 225 255
202 225 255
202 225 255
202 225 255
202 225 255
202 225 255
203 225 255
203 225 255
203 225 255
203 225 255
203 226 255
203 226 255
203 226 255
204 226 255
204 226 255
204 226 255
204 226 255
204 226 255
204 226 255
204 226 255
204 226 255
205 226 255
205 226 255
205 226 255
205 227 255
205 227 255
205 227 255
205 227 255
205 227 255
205 227 255
206 227 255
206 227 255
206 227 255
206 227 255
206 227 255
206 227 255
206 227 255
206 227 255
206 227 255
206 227 255
206 227 255
205 227 255
205 227 255
205 227 255
205 227 255
205 227 255
205 226 255
205 226 255
205 226 255
204 226 255
204 226 255
204 226 255
204 226 255
204 226 255
204 226 255
204 226 255
204 226 255
203 226 255
203 226 255
203 226 255
203 225 255
203 225 255
203 225 255
203 225 255
202 225 255
202 225 255
202 225 255
202 225 255
202 225 255
202 225 255
202 225 255
201 225 255
201 225 255
201 224 255
201 224 255
201 224 255
201 224 255
201 224 255
200 224 255
200 224 255
200 224 255
200 224 255
200 224 255
200 224 255
199 224 255
199 223 255
199 223 255
199 223 255
199 223 255
199 223 255
199 223 255
198 223 255
198 223 255
198 223 255
198 223 255
198 223 255
198 223 255
197 222 255
197 222 255
197 222 255
197 222 255
197 222 255
197 222 255
197 222 255
196 222 255
196 222 255
196 222 255
196 222 255
196 222 255
196 222 255
196 222 255
196 221 255
195 221 255
195 221 255
195 221 255
195 221 255
195 221 255
195 221 255
195 221 255
195 221 255
195 221 255
195 221 255
194 221 255
194 221 255
194 221 255
194 221 255
194 221 255
194 221 255
194 221 255
194 221 255
194 221 255
194 221 255
194 221 255
194 221 255
194 221 255
194 221 255
194 221 255
194 221 255
194 221 255
194 221 255
194 221 255
194 221 255
194 221 255
194 221 255
194 221 255
194 221 255
195 221 255
195 221 255
195 221 255
195 221 255
195 221 255
195 221 255
195 221 255
195 221 255
195 221 255
195 221 255
196 221 255
196 222 255
196 222 255
196 222 255
196 222 255
196 222 255
196 222 255
196 222 255
197 222 255
197 222 255
197 222 255
197 222 255
197 222 255
197 222 255
197 222 255
198 223 255
198 223 255
198 223 255
198 223 255
198 223 255
198 223 255
198 223 255
199 223 255
199 223 255
199 223 255
199 223 255
199 223 255
199 224 255
200 224 255
200 224 255
200 224 255
200 224 255
200 224 255
200 224 255
201 224 255
201 224 255
201 224 255
201 224 255
201 224 255
201 225 255
201 225 255
202 225 255
202 225 255
202 225 255
202 225 255
202 225 255
202 225 255
202 225 255
203 225 255
203 225 255
203 225 255
203 225 255
203 226 255
203 226 255
203 226 255
204 226 255
204 226 255
204 226 255
204 226 255
204 226 255
204 226 255
204 226 255
204 226 255
205 226 255
205 226 255
205 226 255
205 227 255
205 227 255
205 227 255
205 227 255
205 227 255
206 227 255
206 227 255
206 227 255
206 227 255
206 227 255
206 227 255
206 227 255
206 227 255
206 227 255
206 227 255
206 227 255
206 227 255
206 227 255
206 227 255
206 227 255
206 227 255
205 227 255
205 227 255
205 227 255
205 227 255
205 227 255
205 226 255
205 226 255
205 226 255
205 226 255
204 226 255
204 226 255
204 226 255
204 226 255
204 226 255
204 226 255
204 226 255
203 226 255
203 226 255
203 226 255
203 226 255
203 225 255
203 225 255
203 225 255
203 225 255
202 225 255
202 225 255
202 225 255
202 225 255
202 225 255
202 225 255
201 225 255
201 225 255
201 224 255
201 224 255
201 224 255
201 224 255
201 224 255
200 224 255
200 224 255
200 224 255
200 224 255
200 224 255
200 224 255
199 224 255
199 223 255
199 223 255
199 223 255
199 223 255
199 223 255
199 223 255
198 223 255
198 223 255
198 223 255
198 223 255
198 223 255
198 223 255
197 222 255
197 222 255
197 222 255
197 222 255
197 222 255
197 222 255
197 222 255
196 222 255
196 222 255
196 222 255
196 222 255
196 222 255
196 222 255
196 222 255
196 222 255
196 221 255
195 221 255
195 221 255
195 221 255
195 221 255
195 221 255
195 221 255
195 221 255
195 221 255
195 221 255
195 221 255
195 221 255
195 221 255
195 221 255
195 221 255
194 221 255
194 221 255
194 221 255
194 221 255
194 221 255
194 221 255
194 221 255
194 221 255
194 221 255
194 221 255
194 221 255
195 221 255
195 221 255
195 221 255
195 221 255
195 221 255
195 221 255
195 221 255
195 221 255
195 221 255
195 221 255
195 221 255
195 221 255
195 221 255
196 221 255
196 222 255
196 222 255
196 222 255
196 222 255
196 222 255
196 222 255
196 222 255
196 222 255
197 222 255
197 222 255
197 222 255
197 222 255
197 222 255
197 222 255
197 222 255
198 223 255
198 223 255
198 223 255
198 223 255
198 223 255
198 223 255
199 223 255
199 223 255
199 223 255
199 223 255
199 223 255
199 223 255
199 224 255
200 224 255
200 224 255
200 224 255
200 224 255
200 224 255
200 224 255
201 224 255
201 224 255
201 224 255
201 224 255
201 224 255
201 225 255
201 225 255
202 225 255
202 225 255
202 225 255
202 225 255
202 225 255
202 225 255
203 225 255
203 225 255
203 225 255
203 225 255
203 226 255
203 226 255
203 226 255
203 226 255
204 226 255
204 226 255
204 226 255
204 226 255
204 226 255
204 226 255
204 226 255
205 226 255
205 226 255
205 226 255
205 226 255
205 227 255
205 227 255
205 227 255
205 227 255
205 227 255
206 227 255
206 227 255
206 227 255
206 227 255
206 227 255
206 227 255
206 227 255
206 227 255
206 227 255
207 227 255
207 227 255
207 227 255
206 227 255
206 227 255
206 227 255
206 227 255
206 227 255
206 227 255
206 227 255
206 227 255
206 227 255
205 227 255
205 227 255
205 227 255
205 227 255
205 227 255
205 226 255
205 226 255
205 226 255
204 226 255
204 226 255
204 226 255
204 226 255
204 226 255
204 226 255
204 226 255
204 226 255
203 226 255
203 226 255
203 226 255
203 225 255
203 225 255
203 225 255
203 225 255
202 225 255
202 225 255
202 225 255
202 225 255
202 225 255
202 225 255
202 225 255
201 225 255
201 224 255
201 224 255
201 224 255
201 224 255
201 224 255
200 224 255
200 224 255
200 224 255
200 224 255
200 224 255
200 224 255
200 224 255
199 223 255
199 223 255
199 223 255
199 223 255
199 223 255
199 223 255
198 223 255
198 223 255
198 223 255
198 223 255
198 223 255
198 223 255
198 223 255
197 222 255
197 222 255
197 222 255
197 222 255
197 222 255
197 222 255
197 222 255
196 222 255
196 222 255
196 222 255
196 222 255
196 222 255
196 222 255
196 222 255
196 222 255
196 221 255
195 221 255
195 221 255
195 221 255
195 221 255
195 221 255
195 221 255
195 221 255
195 221 255
195 221 255
195 221 255
195 221 255
195 221 255
195 221 255
195 221 255
195 221 255
195 221 255
195 221 255
195 221 255
195 221 255
195 221 255
195 221 255
195 221 255
195 221 255
195 221 255
195 221 255
195 221 255
195 221 255
195 221 255
195 221 255
195 221 255
195 221 255
195 221 255
196 221 255
196 222 255
196 222 255
196 222 255
196 222 255
196 222 255
196 222 255
196 222 255
196 222 255
197 222 255
197 222 255
197 222 255
197 222 255
197 222 255
197 222 255
197 222 255
198 223 255
198 223 255
198 223 255
198 223 255
198 223 255
198 223 255
198 223 255
199 223 255
199 223 255
199 223 255
199 223 255
199 223 255
199 223 255
200 224 255
200 224 255
200 224 255
200 224 255
200 224 255
200 224 255
200 224 255
201 224 255
201 224 255
201 224 255
201 224 255
201 225 255
201 225 255
202 225 255
202 225 255
202 225 255
202 225 255
202 225 255
202 225 255
202 225 255
203 225 255
203 225 255
203 225 255
203 225 255
203 226 255
203 226 255
203 226 255
204 226 255
204 226 255
204 226 255
204 226 255
204 226 255
204 226 255
204 226 255
204 226 255
205 226 255
205 226 255
205 226 255
205 227 255
205 227 255
205 227 255
205 227 255
205 227 255
206 227 255
206 227 255
206 227 255
206 227 255
206 227 255
206 227 255
206 227 255
206 227 255
206 227 255
207 227 255
207 227 255
207 227 255
207 228 255
207 228 255
207 228 255
207 227 255
207 227 255
207 227 255
206 227 255
206 227 255
206 227 255
206 227 255
206 227 255
206 227 255
206 227 255
206 227 255
205 227 255
205 227 255
205 227 255
205 227 255
205 227 255
205 226 255
205 226 255
205 226 255
205 226 255
204 226 255
204 226 255
204 226 255
204 226 255
204 226 255
204 226 255
204 226 255
203 226 255
203 226 255
203 226 255
203 225 255
203 225 255
203 225 255
203 225 255
202 225 255
202 225 255
202 225 255
202 225 255
202 225 255
202 225 255
202 225 255
201 225 255
201 225 255
201 224 255
201 224 255
201 224 255
201 224 255
200 224 255
200 224 255
200 224 255
200 224 255
200 224 255
200 224 255
200 224 255
199 224 255
199 223 255
199 223 255
199 223 255
199 223 255
199 223 255
198 223 255
198 223 255
198 223 255
198 223 255
198 223 255
198 223 255
198 223 255
197 222 255
197 222 255
197 222 255
197 222 255
197 222 255
197 222 255
197 222 255
197 222 255
196 222 255
196 222 255
196 222 255
196 222 255
196 222 255
196 222 255
196 222 255
196 222 255
196 222 255
196 221 255
195 221 255
195 221 255
195 221 255
195 221 255
195 221 255
195 221 255
195 221 255
195 221 255
195 221 255
195 221 255
195 221 255
195 221 255
195 221 255
195 221 255
195 221 255
195 221 255
195 221 255
195 221 255
195 221 255
195 221 255
195 221 255
195 221 255
195 221 255
195 221 255
196 221 255
196 222 255
196 222 255
196 222 255
196 222 255
196 222 255
196 222 255
196 222 255
196 222 255
196 222 255
197 222 255
197 222 255
197 222 255
197 222 255
197 222 255
197 222 255
197 222 255
197 222 255
198 223 255
198 223 255
198 223 255
198 223 255
198 223 255
198 223 255
198 223 255
199 223 255
199 223 255
199 223 255
199 223 255
199 223 255
199 224 255
200 224 255
200 224 255
200 224 255
200 224 255
200 224 255
200 224 255
200 224 255
201 224 255
201 224 255
201 224 255
201 224 255
201 225 255
201 225 255
202 225 255
202 225 255
202 225 255
202 225 255
202 225 255
202 225 255
202 225 255
203 225 255
203 225 255
203 225 255
203 225 255
203 226 255
203 226 255
203 226 255
204 226 255
204 226 255
204 226 255
204 226 255
204 226 255
204 226 255
204 226 255
204 226 255
205 226 255
205 226 255
205 226 255
205 227 255
205 227 255
205 227 255
205 227 255
205 227 255
206 227 255
206 227 255
206 227 255
206 227 255
206 227 255
206 227 255
206 227 255
206 227 255
207 227 255
207 227 255
207 227 255
207 228 255
207 228 255
207 228 255
207 228 255
207 228 255
207 228 255
207 228 255
207 228 255
207 228 255
207 227 255
207 227 255
206 227 255
206 227 255
206 227 255
206 227 255
206 227 255
206 227 255
206 227 255
206 227 255
206 227 255
205 227 255
205 227 255
205 227 255
205 227 255
205 227 255
205 226 255
205 226 255
205 226 255
204 226 255
204 226 255
204 226 255
204 226 255
204 226 255
204 226 255
204 226 255
203 226 255
203 226 255
203 226 255
203 226 255
203 225 255
203 225 255
203 225 255
202 225 255
202 225 255
202 225 255
202 225 255
202 225 255
202 225 255
202 225 255
201 225 255
201 225 255
201 224 255
201 224 255
201 224 255
201 224 255
201 224 255
200 224 255
200 224 255
200 224 255
200 224 255
200 224 255
200 224 255
199 224 255
199 223 255
199 223 255
199 223 255
199 223 255
199 223 255
199 223 255
198 223 255
198 223 255
198 223 255
198 223 255
198 223 255
198 223 255
198 223 255
197 222 255
197 222 255
197 222 255
197 222 255
197 222 255
197 222 255
197 222 255
197 222 255
196 222 255
196 222 255
196 222 255
196 222 255
196 222 255
196 222 255
196 222 255
196 222 255
196 222 255
196 222 255
196 222 255
196 222 255
196 221 255
196 221 255
196 221 255
195 221 255
195 221 255
195 221 255
195 221 255
195 221 255
195 221 255
195 221 255
195 221 255
196 221 255
196 221 255
196 221 255
196 222 255
196 222 255
196 222 255
196 222 255
196 222 255
196 222 255
196 222 255
196 222 255
196 222 255
196 222 255
196 222 255
196 222 255
197 222 255
197 222 255
197 222 255
197 222 255
197 222 255
197 222 255
197 222 255
197 222 255
198 223 255
198 223 255
198 223 255
198 223 255
198 223 255
198 223 255
198 223 255
199 223 255
199 223 255
199 223 255
199 223 255
199 223 255
199 223 255
199 224 255
200 224 255
200 224 255
200 224 255
200 224 255
200 224 255
200 224 255
201 224 255
201 224 255
201 224 255
201 224 255
201 224 255
201 225 255
201 225 255
202 225 255
202 225 255
202 225 255
202 225 255
202 225 255
202 225 255
202 225 255
203 225 255
203 225 255
203 225 255
203 226 255
203 226 255
203 226 255
203 226 255
204 226 255
204 226 255
204 226 255
204 226 255
204 226 255
204 226 255
204 226 255
205 226 255
205 226 255
205 226 255
205 227 255
205 227 255
205 227 255
205 227 255
205 227 255
206 227 255
206 227 255
206 227 255
206 227 255
206 227 255
206 227 255
206 227 255
206 227 255
206 227 255
207 227 255
207 227 255
207 228 255
207 228 255
207 228 255
207 228 255
207 228 255
207 228 255
208 228 255
208 228 255
207 228 255
207 228 255
207 228 255
207 228 255
207 228 255
207 228 255
207 228 255
207 227 255
207 227 255
206 227 255
206 227 255
206 227 255
206 227 255
206 227 255
206 227 255
206 227 255
206 227 255
206 227 255
205 227 255
205 227 255
205 227 255
205 227 255
205 226 255
205 226 255
205 226 255
205 226 255
204 226 255
204 226 255
204 226 255
204 226 255
204 226 255
204 226 255
204 226 255
203 226 255
203 226 255
203 226 255
203 225 255
203 225 255
203 225 255
203 225 255
202 225 255
202 225 255
202 225 255
202 225 255
202 225 255
202 225 255
201 225 255
201 225 255
201 224 255
201 224 255
201 224 255
201 224 255
201 224 255
200 224 255
200 224 255
200 224 255
200 224 255
200 224 255
200 224 255
199 224 255
199 223 255
199 223 255
199 223 255
199 223 255
199 223 255
199 223 255
198 223 255
198 223 255
198 223 255
198 223 255
198 223 255
198 223 255
198 223 255
198 223 255
197 222 255
197 222 255
197 222 255
197 222 255
197 222 255
197 222 255
197 222 255
197 222 255
197 222 255
196 222 255
196 222 255
196 222 255
196 222 255
196 222 255
196 222 255
196 222 255
196 222 255
196 222 255
196 222 255
196 222 255
196 222 255
196 222 255
196 222 255
196 222 255
196 222 255
196 222 255
196 222 255
196 222 255
196 222 255
196 222 255
196 222 255
196 222 255
196 222 255
196 222 255
196 222 255
196 222 255
196 222 255
196 222 255
196 222 255
197 222 255
197 222 255
197 222 255
197 222 255
197 222 255
197 222 255
197 222 255
197 222 255
197 222 255
197 223 255
198 223 255
198 223 255
198 223 255
198 223 255
198 223 255
198 223 255
198 223 255
199 223 255
199 223 255
199 223 255
199 223 255
199 223 255
199 224 255
199 224 255
200 224 255
200 224 255
200 224 255
200 224 255
200 224 255
200 224 255
201 224 255
201 224 255
201 224 255
201 224 255
201 224 255
201 225 255
201 225 255
202 225 255
202 225 255
202 225 255
202 225 255
202 225 255
202 225 255
203 225 255
203 225 255
203 225 255
203 225 255
203 226 255
203 226 255
203 226 255
204 226 255
204 226 255
204 226 255
204 226 255
204 226 255
204 226 255
204 226 255
204 226 255
205 226 255
205 226 255
205 226 255
205 227 255
205 227 255
205 227 255
205 227 255
206 227 255
206 227 255
206 227 255
206 227 255
206 227 255
206 227 255
206 227 255
206 227 255
206 227 255
207 227 255
207 227 255
207 228 255
207 228 255
207 228 255
207 228 255
207 228 255
207 228 255
207 228 255
208 228 255
208 228 255
208 228 255
208 228 255
208 228 255
208 228 255
207 228 255
207 228 255
207 228 255
207 228 255
207 228 255
207 228 255
207 228 255
207 227 255
207 227 255
207 227 255
206 227 255
206 227 255
206 227 255
206 227 255
206 227 255
206 227 255
206 227 255
206 227 255
205 227 255
205 227 255
205 227 255
205 227 255
205 227 255
205 226 255
205 226 255
205 226 255
204 226 255
204 226 255
204 226 255
204 226 255
204 226 255
204 226 255
204 226 255
203 226 255
203 226 255
203 226 255
203 225 255
203 225 255
203 225 255
203 225 255
202 225 255
202 225 255
202 225 255
202 225 255
202 225 255
202 225 255
202 225 255
201 225 255
201 225 255
201 224 255
201 224 255
201 224 255
201 224 255
200 224 255
200 224 255
200 224 255
200 224 255
200 224 255
200 224 255
200 224 255
199 224 255
199 223 255
199 223 255
199 223 255
199 223 255
199 223 255
199 223 255
198 223 255
198 223 255
198 223 255
198 223 255
198 223 255
198 223 255
198 223 255
198 223 255
197 222 255
197 222 255
197 222 255
197 222 255
197 222 255
197 222 255
197 222 255
197 222 255
197 222 255
197 222 255
197 222 255
196 222 255
196 222 255
196 222 255
196 222 255
196 222 255
196 222 255
196 222 255
196 222 255
196 222 255
196 222 255
196 222 255
196 222 255
196 222 255
196 222 255
196 222 255
196 222 255
196 222 255
196 222 255
196 222 255
196 222 255
197 222 255
197 222 255
197 222 255
197 222 255
197 222 255
197 222 255
197 222 255
197 222 255
197 222 255
197 222 255
197 222 255
198 223 255
198 223 255
198 223 255
198 223 255
198 223 255
198 223 255
198 223 255
198 223 255
199 223 255
199 223 255
199 223 255
199 223 255
199 223 255
199 223 255
199 224 255
200 224 255
200 224 255
200 224 255
200 224 255
200 224 255
200 224 255
200 224 255
201 224 255
201 224 255
201 224 255
201 224 255
201 225 255
201 225 255
202 225 255
202 225 255
202 225 255
202 225 255
202 225 255
202 225 255
202 225 255
203 225 255
203 225 255
203 225 255
203 225 255
203 226 255
203 226 255
203 226 255
204 226 255
204 226 255
204 226 255
204 226 255
204 226 255
204 226 255
204 226 255
205 226 255
205 226 255
205 226 255
205 227 255
205 227 255
205 227 255
205 227 255
205 227 255
206 227 255
206 227 255
206 227 255
206 227 255
206 227 255
206 227 255
206 227 255
206 227 255
207 227 255
207 227 255
207 228 255
207 228 255
207 228 255
207 228 255
207 228 255
207 228 255
207 228 255
208 228 255
208 228 255
208 228 255
208 228 255
208 228 255
208 228 255
208 228 255
208 228 255
208 228 255
208 228 255
208 228 255
208 228 255
207 228 255
207 228 255
207 228 255
207 228 255
207 228 255
207 228 255
207 228 255
207 227 255
207 227 255
207 227 255
206 227 255
206 227 255
206 227 255
206 227 255
206 227 255
206 227 255
206 227 255
206 227 255
205 227 255
205 227 255
205 227 255
205 227 255
205 226 255
205 226 255
205 226 255
205 226 255
204 226 255
204 226 255
204 226 255
204 226 255
204 226 255
204 226 255
204 226 255
203 226 255
203 226 255
203 226 255
203 225 255
203 225 255
203 225 255
202 225 255
202 225 255
202 225 255
202 225 255
202 225 255
202 225 255
202 225 255
201 225 255
201 225 255
201 224 255
201 224 255
201 224 255
201 224 255
201 224 255
200 224 255
200 224 255
200 224 255
200 224 255
200 224 255
200 224 255
200 224 255
199 224 255
199 223 255
199 223 255
199 223 255
199 223 255
199 223 255
199 223 255
198 223 255
198 223 255
198 223 255
198 223 255
198 223 255
198 223 255
198 223 255
198 223 255
197 223 255
197 222 255
197 222 255
197 222 255
197 222 255
197 222 255
197 222 255
197 222 255
197 222 255
197 222 255
197 222 255
197 222 255
197 222 255
197 222 255
197 222 255
197 222 255
197 222 255
197 222 255
197 222 255
197 222 255
197 222 255
197 222 255
197 222 255
197 222 255
197 222 255
197 222 255
197 222 255
197 222 255
197 222 255
197 222 255
197 222 255
197 222 255
197 222 255
197 222 255
197 222 255
197 223 255
198 223 255
198 223 255
198 223 255
198 223 255
198 223 255
198 223 255
198 223 255
198 223 255
199 223 255
199 223 255
199 223 255
199 223 255
199 223 255
199 223 255
199 223 255
200 224 255
200 224 255
200 224 255
200 224 255
200 224 255
200 224 255
200 224 255
201 224 255
201 224 255
201 224 255
201 224 255
201 224 255
201 225 255
201 225 255
202 225 255
202 225 255
202 225 255
202 225 255
202 225 255
202 225 255
203 225 255
203 225 255
203 225 255
203 225 255
203 226 255
203 226 255
203 226 255
204 226 255
204 226 255
204 226 255
204 226 255
204 226 255
204 226 255
204 226 255
205 226 255
205 226 255
205 226 255
205 227 255
205 227 255
205 227 255
205 227 255
205 227 255
206 227 255
206 227 255
206 227 255
206 227 255
206 227 255
206 227 255
206 227 255
206 227 255
206 227 255
207 227 255
207 227 255
207 228 255
207 228 255
207 228 255
207 228 255
207 228 255
207 228 255
207 228 255
208 228 255
208 228 255
208 228 255
208 228 255
208 228 255
208 228 255
208 228 255
208 228 255
208 228 255
208 228 255
208 228 255
208 228 255
208 228 255
208 228 255
208 228 255
208 228 255
208 228 255
207 228 255
207 228 255
207 228 255
207 228 255
207 228 255
207 228 255
207 228 255
207 227 255
207 227 255
206 227 255
206 227 255
206 227 255
206 227 255
206 227 255
206 227 255
206 227 255
206 227 255
206 227 255
205 227 255
205 227 255
205 227 255
205 227 255
205 226 255
205 226 255
205 226 255
204 226 255
204 226 255
204 226 255
204 226 255
204 226 255
204 226 255
204 226 255
203 226 255
203 226 255
203 226 255
203 225 255
203 225 255
203 225 255
203 225 255
202 225 255
202 225 255
202 225 255
202 225 255
202 225 255
202 225 255
202 225 255
201 225 255
201 225 255
201 224 255
201 224 255
201 224 255
201 224 255
200 224 255
200 224 255
200 224 255
200 224 255
200 224 255
200 224 255
200 224 255
199 224 255
199 223 255
199 223 255
199 223 255
199 223 255
199 223 255
199 223 255
199 223 255
198 223 255
198 223 255
198 223 255
198 223 255
198 223 255
198 223 255
198 223 255
198 223 255
198 223 255
198 223 255
197 222 255
197 222 255
197 222 255
197 222 255
197 222 255
197 222 255
197 222 255
197 222 255
197 222 255
197 222 255
197 222 255
197 222 255
197 222 255
197 222 255
197 222 255
197 222 255
197 222 255
197 222 255
197 222 255
197 222 255
197 222 255
197 222 255
197 222 255
197 222 255
197 222 255
197 222 255
198 223 255
198 223 255
198 223 255
198 223 255
198 223 255
198 223 255
198 223 255
198 223 255
198 223 255
198 223 255
199 223 255
199 223 255
199 223 255
199 223 255
199 223 255
199 223 255
199 223 255
199 224 255
200 224 255
200 224 255
200 224 255
200 224 255
200 224 255
200 224 255
200 224 255
201 224 255
201 224 255
201 224 255
201 224 255
201 225 255
201 225 255
202 225 255
202 225 255
202 225 255
202 225 255
202 225 255
202 225 255
202 225 255
203 225 255
203 225 255
203 225 255
203 225 255
203 226 255
203 226 255
203 226 255
204 226 255
204 226 255
204 226 255
204 226 255
204 226 255
204 226 255
204 226 255
205 226 255
205 226 255
205 226 255
205 227 255
205 227 255
205 227 255
205 227 255
206 227 255
206 227 255
206 227 255
206 227 255
206 227 255
206 227 255
206 227 255
206 227 255
206 227 255
207 227 255
207 227 255
207 228 255
207 228 255
207 228 255
207 228 255
207 228 255
207 228 255
207 228 255
208 228 255
208 228 255
208 228 255
208 228 255
208 228 255
208 228 255
208 228 255
208 228 255
208 228 255
208 228 255
209 229 255
209 229 255
209 229 255
208 228 255
208 228 255
208 228 255
208 228 255
208 228 255
208 228 255
208 228 255
208 228 255
208 228 255
208 228 255
207 228 255
207 228 255
207 228 255
207 228 255
207 228 255
207 228 255
207 228 255
207 227 255
207 227 255
206 227 255
206 227 255
206 227 255
206 227 255
206 227 255
206 227 255
206 227 255
206 227 255
205 227 255
205 227 255
205 227 255
205 227 255
205 227 255
205 226 255
205 226 255
205 226 255
204 226 255
204 226 255
204 226 255
204 226 255
204 226 255
204 226 255
204 226 255
203 226 255
203 226 255
203 226 255
203 225 255
203 225 255
203 225 255
203 225 255
202 225 255
202 225 255
202 225 255
202 225 255
202 225 255
202 225 255
201 225 255
201 225 255
201 224 255
201 224 255
201 224 255
201 224 255
201 224 255
200 224 255
200 224 255
200 224 255
200 224 255
200 224 255
200 224 255
200 224 255
199 224 255
199 223 255
199 223 255
199 223 255
199 223 255
199 223 255
199 223 255
199 223 255
198 223 255
198 223 255
198 223 255
198 223 255
198 223 255
198 223 255
198 223 255
198 223 255
198 223 255
198 223 255
198 223 255
198 223 255
198 223 255
198 223 255
197 222 255
197 222 255
197 222 255
197 222 255
197 222 255
197 222 255
197 222 255
197 222 255
197 222 255
197 222 255
197 222 255
197 222 255
198 223 255
198 223 255
198 223 255
198 223 255
198 223 255
198 223 255
198 223 255
198 223 255
198 223 255
198 223 255
198 223 255
198 223 255
198 223 255
198 223 255
199 223 255
199 223 255
199 223 255
199 223 255
199 223 255
199 223 255
199 223 255
199 224 255
200 224 255
200 224 255
200 224 255
200 224 255
200 224 255
200 224 255
200 224 255
201 224 255
201 224 255
201 224 255
201 224 255
201 224 255
201 225 255
201 225 255
202 225 255
202 225 255
202 225 255
202 225 255
202 225 255
202 225 255
203 225 255
203 225 255
203 225 255
203 225 255
203 226 255
203 226 255
203 226 255
204 226 255
204 226 255
204 226 255
204 226 255
204 226 255
204 226 255
204 226 255
205 226 255
205 226 255
205 226 255
205 227 255
205 227 255
205 227 255
205 227 255
205 227 255
206 227 255
206 227 255
206 227 255
206 227 255
206 227 255
206 227 255
206 227 255
206 227 255
207 227 255
207 227 255
207 228 255
207 228 255
207 228 255
207 228 255
207 228 255
207 228 255
207 228 255
208 228 255
208 228 255
208 228 255
208 228 255
208 228 255
208 228 255
208 228 255
208 228 255
208 228 255
208 228 255
209 229 255
209 229 255
209 229 255
209 229 255
209 229 255
209 229 255
209 229 255
209 229 255
209 229 255
208 228 255
208 228 255
208 228 255
208 228 255
208 228 255
208 228 255
208 228 255
208 228 255
208 228 255
208 228 255
207 228 255
207 228 255
207 228 255
207 228 255
207 228 255
207 228 255
207 228 255
207 227 255
207 227 255
206 227 255
206 227 255
206 227 255
206 227 255
206 227 255
206 227 255
206 227 255
206 227 255
205 227 255
205 227 255
205 227 255
205 227 255
205 226 255
205 226 255
205 226 255
205 226 255
204 226 255
204 226 255
204 226 255
204 226 255
204 226 255
204 226 255
204 226 255
203 226 255
203 226 255
203 226 255
203 225 255
203 225 255
203 225 255
202 225 255
202 225 255
202 225 255
202 225 255
202 225 255
202 225 255
202 225 255
201 225 255
201 225 255
201 224 255
201 224 255
201 224 255
201 224 255
201 224 255
200 224 255
200 224 255
200 224 255
200 224 255
200 224 255
200 224 255
200 224 255
199 224 255
199 224 255
199 223 255
199 223 255
199 223 255
199 223 255
199 223 255
199 223 255
199 223 255
199 223 255
198 223 255
198 223 255
198 223 255
198 223 255
198 223 255
198 223 255
198 223 255
198 223 255
198 223 255
198 223 255
198 223 255
198 223 255
198 223 255
198 223 255
198 223 255
198 223 255
198 223 255
198 223 255
198 223 255
198 223 255
198 223 255
198 223 255
198 223 255
198 223 255
198 223 255
198 223 255
198 223 255
198 223 255
198 223 255
198 223 255
198 223 255
199 223 255
199 223 255
199 223 255
199 223 255
199 223 255
199 223 255
199 223 255
199 224 255
200 224 255
200 224 255
200 224 255
200 224 255
200 224 255
200 224 255
200 224 255
200 224 255
201 224 255
201 224 255
201 224 255
201 224 255
201 224 255
201 225 255
201 225 255
202 225 255
202 225 255
202 225 255
202 225 255
202 225 255
202 225 255
203 225 255
203 225 255
203 225 255
203 225 255
203 225 255
203 226 255
203 226 255
204 226 255
204 226 255
204 226 255
204 226 255
204 226 255
204 226 255
204 226 255
205 226 255
205 226 255
205 226 255
205 226 255
205 227 255
205 227 255
205 227 255
205 227 255
206 227 255
206 227 255
206 227 255
206 227 255
206 227 255
206 227 255
206 227 255
206 227 255
207 227 255
207 227 255
207 228 255
207 228 255
207 228 255
207 228 255
207 228 255
207 228 255
207 228 255
208 228 255
208 228 255
208 228 255
208 228 255
208 228 255
208 228 255
208 228 255
208 228 255
208 228 255
209 228 255
209 229 255
209 229 255
209 229 255
209 229 255
209 229 255
209 229 255
209 229 255
209 229 255
209 229 255
209 229 255
209 229 255
209 229 255
209 229 255
209 229 255
209 229 255
209 228 255
208 228 255
208 228 255
208 228 255
208 228 255
208 228 255
208 228 255
208 228 255
208 228 255
208 228 255
207 228 255
207 228 255
207 228 255
207 228 255
207 228 255
207 228 255
207 228 255
207 227 255
207 227 255
206 227 255
206 227 255
206 227 255
206 227 255
206 227 255
206 227 255
206 227 255
206 227 255
205 227 255
205 227 255
205 227 255
205 227 255
205 226 255
205 226 255
205 226 255
204 226 255
204 226 255
204 226 255
204 226 255
204 226 255
204 226 255
204 226 255
203 226 255
203 226 255
203 226 255
203 225 255
203 225 255
203 225 255
203 225 255
202 225 255
202 225 255
202 225 255
202 225 255
202 225 255
202 225 255
202 225 255
201 225 255
201 225 255
201 224 255
201 224 255
201 224 255
201 224 255
201 224 255
200 224 255
200 224 255
200 224 255
200 224 255
200 224 255
200 224 255
200 224 255
200 224 255
199 224 255
199 223 255
199 223 255
199 223 255
199 223 255
199 223 255
199 223 255
199 223 255
199 223 255
199 223 255
199 223 255
198 223 255
198 223 255
198 223 255
198 223 255
198 223 255
198 223 255
198 223 255
198 223 255
198 223 255
198 223 255
198 223 255
198 223 255
198 223 255
198 223 255
198 223 255
198 223 255
198 223 255
198 223 255
198 223 255
199 223 255
199 223 255
199 223 255
199 223 255
199 223 255
199 223 255
199 223 255
199 223 255
199 223 255
199 223 255
199 224 255
199 224 255
200 224 255
200 224 255
200 224 255
200 224 255
200 224 255
200 224 255
200 224 255
200 224 255
201 224 255
201 224 255
201 224 255
201 224 255
201 224 255
201 225 255
201 225 255
202 225 255
202 225 255
202 225 255
202 225 255
202 225 255
202 225 255
202 225 255
203 225 255
203 225 255
203 225 255
203 225 255
203 226 255
203 226 255
203 226 255
204 226 255
204 226 255
204 226 255
204 226 255
204 226 255
204 226 255
204 226 255
205 226 255
205 226 255
205 226 255
205 227 255
205 227 255
205 227 255
205 227 255
206 227 255
206 227 255
206 227 255
206 227 255
206 227 255
206 227 255
206 227 255
206 227 255
207 227 255
207 227 255
207 228 255
207 228 255
207 228 255
207 228 255
207 228 255
207 228 255
207 228 255
208 228 255
208 228 255
208 228 255
208 228 255
208 228 255
208 228 255
208 228 255
208 228 255
208 228 255
209 228 255
209 229 255
209 229 255
209 229 255
209 229 255
209 229 255
209 229 255
209 229 255
209 229 255
209 229 255
210 229 255
210 229 255
209 229 255
209 229 255
209 229 255
209 229 255
209 229 255
209 229 255
209 229 255
209 229 255
209 229 255
209 229 255
209 228 255
208 228 255
208 228 255
208 228 255
208 228 255
208 228 255
208 228 255
208 228 255
208 228 255
208 228 255
208 228 255
207 228 255
207 228 255
207 228 255
207 228 255
207 228 255
207 228 255
207 227 255
207 227 255
206 227 255
206 227 255
206 227 255
206 227 255
206 227 255
206 227 255
206 227 255
206 227 255
205 227 255
205 227 255
205 227 255
205 227 255
205 226 255
205 226 255
205 226 255
204 226 255
204 226 255
204 226 255
204 226 255
204 226 255
204 226 255
204 226 255
203 226 255
203 226 255
203 226 255
203 225 255
203 225 255
203 225 255
203 225 255
202 225 255
202 225 255
202 225 255
202 225 255
202 225 255
202 225 255
202 225 255
201 225 255
201 225 255
201 224 255
201 224 255
201 224 255
201 224 255
201 224 255
200 224 255
200 224 255
200 224 255
200 224 255
200 224 255
200 224 255
200 224 255
200 224 255
200 224 255
199 224 255
199 224 255
199 223 255
199 223 255
199 223 255
199 223 255
199 223 255
199 223 255
199 223 255
199 223 255
199 223 255
199 223 255
199 223 255
199 223 255
199 223 255
199 223 255
199 223 255
199 223 255
199 223 255
199 223 255
199 223 255
199 223 255
199 223 255
199 223 255
199 223 255
199 223 255
199 223 255
199 223 255
199 223 255
199 223 255
199 223 255
199 223 255
199 224 255
199 224 255
200 224 255
200 224 255
200 224 255
200 224 255
200 224 255
200 224 255
200 224 255
200 224 255
200 224 255
201 224 255
201 224 255
201 224 255
201 224 255
201 224 255
201 225 255
201 225 255
202 225 255
202 225 255
202 225 255
202 225 255
202 225 255
202 225 255
202 225 255
203 225 255
203 225 255
203 225 255
203 225 255
203 226 255
203 226 255
203 226 255
204 226 255
204 226 255
204 226 255
204 226 255
204 226 255
204 226 255
204 226 255
205 226 255
205 226 255
205 226 255
205 227 255
205 227 255
205 227 255
205 227 255
206 227 255
206 227 255
206 227 255
206 227 255
206 227 255
206 227 255
206 227 255
206 227 255
207 227 255
207 227 255
207 228 255
207 228 255
207 228 255
207 228 255
207 228 255
207 228 255
207 228 255
208 228 255
208 228 255
208 228 255
208 228 255
208 228 255
208 228 255
208 228 255
208 228 255
208 228 255
209 228 255
209 229 255
209 229 255
209 229 255
209 229 255
209 229 255
209 229 255
209 229 255
209 229 255
209 229 255
209 229 255
210 229 255
210 229 255
210 229 255
210 229 255
210 229 255
210 229 255
210 229 255
210 229 255
209 229 255
209 229 255
209 229 255
209 229 255
209 229 255
209 229 255
209 229 255
209 229 255
209 229 255
209 229 255
208 228 255
208 228 255
208 228 255
208 228 255
208 228 255
208 228 255
208 228 255
208 228 255
208 228 255
208 228 255
207 228 255
207 228 255
207 228 255
207 228 255
207 228 255
207 228 255
207 227 255
207 227 255
206 227 255
206 227 255
206 227 255
206 227 255
206 227 255
206 227 255
206 227 255
206 227 255
205 227 255
205 227 255
205 227 255
205 227 255
205 226 255
205 226 255
205 226 255
204 226 255
204 226 255
204 226 255
204 226 255
204 226 255
204 226 255
204 226 255
203 226 255
203 226 255
203 226 255
203 225 255
203 225 255
203 225 255
203 225 255
202 225 255
202 225 255
202 225 255
202 225 255
202 225 255
202 225 255
202 225 255
201 225 255
201 225 255
201 224 255
201 224 255
201 224 255
201 224 255
201 224 255
201 224 255
200 224 255
200 224 255
200 224 255
200 224 255
200 224 255
200 224 255
200 224 255
200 224 255
200 224 255
200 224 255
200 224 255
199 224 255
199 224 255
199 223 255
199 223 255
199 223 255
199 223 255
199 223 255
199 223 255
199 223 255
199 223 255
199 223 255
199 223 255
199 223 255
199 223 255
199 223 255
199 223 255
199 223 255
199 223 255
199 223 255
199 223 255
199 224 255
199 224 255
200 224 255
200 224 255
200 224 255
200 224 255
200 224 255
200 224 255
200 224 255
200 224 255
200 224 255
200 224 255
200 224 255
201 224 255
201 224 255
201 224 255
201 224 255
201 224 255
201 224 255
201 225 255
201 225 255
202 225 255
202 225 255
202 225 255
202 225 255
202 225 255
202 225 255
202 225 255
203 225 255
203 225 255
203 225 255
203 225 255
203 226 255
203 226 255
203 226 255
204 226 255
204 226 255
204 226 255
204 226 255
204 226 255
204 226 255
204 226 255
205 226 255
205 226 255
205 226 255
205 227 255
205 227 255
205 227 255
205 227 255
206 227 255
206 227 255
206 227 255
206 227 255
206 227 255
206 227 255
206 227 255
206 227 255
207 227 255
207 227 255
207 228 255
207 228 255
207 228 255
207 228 255
207 228 255
207 228 255
208 228 255
208 228 255
208 228 255
208 228 255
208 228 255
208 228 255
208 228 255
208 228 255
208 228 255
208 228 255
209 229 255
209 229 255
209 229 255
209 229 255
209 229 255
209 229 255
209 229 255
209 229 255
209 229 255
209 229 255
210 229 255
210 229 255
210 229 255
210 229 255
210 229 255
210 229 255
210 229 255
210 229 255
210 229 255
210 229 255
210 229 255
210 229 255
210 229 255
210 229 255
210 229 255
210 229 255
209 229 255
209 229 255
209 229 255
209 229 255
209 229 255
209 229 255
209 229 255
209 229 255
209 229 255
209 228 255
208 228 255
208 228 255
208 228 255
208 228 255
208 228 255
208 228 255
208 228 255
208 228 255
208 228 255
207 228 255
207 228 255
207 228 255
207 228 255
207 228 255
207 228 255
207 227 255
207 227 255
206 227 255
206 227 255
206 227 255
206 227 255
206 227 255
206 227 255
206 227 255
206 227 255
205 227 255
205 227 255
205 227 255
205 227 255
205 226 255
205 226 255
205 226 255
204 226 255
204 226 255
204 226 255
204 226 255
204 226 255
204 226 255
204 226 255
203 226 255
203 226 255
203 226 255
203 225 255
203 225 255
203 225 255
203 225 255
202 225 255
202 225 255
202 225 255
202 225 255
202 225 255
202 225 255
202 225 255
201 225 255
201 225 255
201 225 255
201 224 255
201 224 255
201 224 255
201 224 255
201 224 255
201 224 255
200 224 255
200 224 255
200 224 255
200 224 255
200 224 255
200 224 255
200 224 255
200 224 255
200 224 255
200 224 255
200 224 255
200 224 255
200 224 255
200 224 255
200 224 255
200 224 255
200 224 255
200 224 255
200 224 255
200 224 255
200 224 255
200 224 255
200 224 255
200 224 255
200 224 255
200 224 255
200 224 255
200 224 255
200 224 255
200 224 255
200 224 255
200 224 255
200 224 255
200 224 255
200 224 255
200 224 255
201 224 255
201 224 255
201 224 255
201 224 255
201 224 255
201 224 255
201 225 255
201 225 255
201 225 255
202 225 255
202 225 255
202 225 255
202 225 255
202 225 255
202 225 255
202 225 255
203 225 255
203 225 255
203 225 255
203 225 255
203 226 255
203 226 255
203 226 255
204 226 255
204 226 255
204 226 255
204 226 255
204 226 255
204 226 255
204 226 255
205 226 255
205 226 255
205 226 255
205 227 255
205 227 255
205 227 255
205 227 255
206 227 255
206 227 255
206 227 255
206 227 255
206 227 255
206 227 255
206 227 255
206 227 255
207 227 255
207 227 255
207 228 255
207 228 255
207 228 255
207 228 255
207 228 255
207 228 255
208 228 255
208 228 255
208 228 255
208 228 255
208 228 255
208 228 255
208 228 255
208 228 255
208 228 255
209 228 255
209 229 255
209 229 255
209 229 255
209 229 255
209 229 255
209 229 255
209 229 255
209 229 255
209 229 255
210 229 255
210 229 255
210 229 255
210 229 255
210 229 255
210 229 255
210 229 255
210 229 255
210 229 255
210 229 255
211 230 255
211 230 255
210 230 255
210 229 255
210 229 255
210 229 255
210 229 255
210 229 255
210 229 255
210 229 255
210 229 255
210 229 255
210 229 255
209 229 255
209 229 255
209 229 255
209 229 255
209 229 255
209 229 255
209 229 255
209 229 255
209 229 255
209 228 255
208 228 255
208 228 255
208 228 255
208 228 255
208 228 255
208 228 255
208 228 255
208 228 255
208 228 255
207 228 255
207 228 255
207 228 255
207 228 255
207 228 255
207 228 255
207 227 255
207 227 255
206 227 255
206 227 255
206 227 255
206 227 255
206 227 255
206 227 255
206 227 255
206 227 255
205 227 255
205 227 255
205 227 255
205 227 255
205 226 255
205 226 255
205 226 255
204 226 255
204 226 255
204 226 255
204 226 255
204 226 255
204 226 255
204 226 255
203 226 255
203 226 255
203 226 255
203 225 255
203 225 255
203 225 255
203 225 255
202 225 255
202 225 255
202 225 255
202 225 255
202 225 255
202 225 255
202 225 255
202 225 255
201 225 255
201 225 255
201 225 255
201 224 255
201 224 255
201 224 255
201 224 255
201 224 255
201 224 255
201 224 255
201 224 255
200 224 255
200 224 255
200 224 255
200 224 255
200 224 255
200 224 255
200 224 255
200 224 255
200 224 255
200 224 255
200 224 255
200 224 255
200 224 255
200 224 255
200 224 255
200 224 255
200 224 255
200 224 255
200 224 255
200 224 255
200 224 255
200 224 255
200 224 255
200 224 255
201 224 255
201 224 255
201 224 255
201 224 255
201 224 255
201 224 255
201 224 255
201 224 255
201 225 255
201 225 255
201 225 255
202 225 255
202 225 255
202 225 255
202 225 255
202 225 255
202 225 255
202 225 255
202 225 255
203 225 255
203 225 255
203 225 255
203 225 255
203 226 255
203 226 255
203 226 255
204 226 255
204 226 255
204 226 255
204 226 255
204 226 255
204 226 255
204 226 255
205 226 255
205 226 255
205 226 255
205 227 255
205 227 255
205 227 255
205 227 255
206 227 255
206 227 255
206 227 255
206 227 255
206 227 255
206 227 255
206 227 255
206 227 255
207 227 255
207 227 255
207 228 255
207 228 255
207 228 255
207 228 255
207 228 255
207 228 255
208 228 255
208 228 255
208 228 255
208 228 255
208 228 255
208 228 255
208 228 255
208 228 255
208 228 255
209 228 255
209 229 255
209 229 255
209 229 255
209 229 255
209 229 255
209 229 255
209 229 255
209 229 255
209 229 255
210 229 255
210 229 255
210 229 255
210 229 255
210 229 255
210 229 255
210 229 255
210 229 255
210 229 255
210 229 255
210 230 255
211 230 255
211 230 255
211 230 255
211 230 255
211 230 255
211 230 255
211 230 255
210 230 255
210 230 255
210 229 255
210 229 255
210 229 255
210 229 255
210 229 255
210 229 255
210 229 255
210 229 255
210 229 255
210 229 255
209 229 255
209 229 255
209 229 255
209 229 255
209 229 255
209 229 255
209 229 255
209 229 255
209 229 255
208 228 255
208 228 255
208 228 255
208 228 255
208 228 255
208 228 255
208 228 255
208 228 255
208 228 255
207 228 255
207 228 255
207 228 255
207 228 255
207 228 255
207 228 255
207 227 255
207 227 255
206 227 255
206 227 255
206 227 255
206 227 255
206 227 255
206 227 255
206 227 255
206 227 255
205 227 255
205 227 255
205 227 255
205 227 255
205 226 255
205 226 255
205 226 255
204 226 255
204 226 255
204 226 255
204 226 255
204 226 255
204 226 255
204 226 255
203 226 255
203 226 255
203 226 255
203 226 255
203 225 255
203 225 255
203 225 255
203 225 255
202 225 255
202 225 255
202 225 255
202 225 255
202 225 255
202 225 255
202 225 255
202 225 255
202 225 255
201 225 255
201 225 255
201 225 255
201 224 255
201 224 255
201 224 255
201 224 255
201 224 255
201 224 255
201 224 255
201 224 255
201 224 255
201 224 255
201 224 255
201 224 255
201 224 255
201 224 255
201 224 255
201 224 255
201 224 255
201 224 255
201 224 255
201 224 255
201 224 255
201 224 255
201 224 255
201 224 255
201 224 255
201 224 255
201 224 255
201 224 255
201 224 255
201 224 255
201 225 255
201 225 255
201 225 255
202 225 255
202 225 255
202 225 255
202 225 255
202 225 255
202 225 255
202 225 255
202 225 255
202 225 255
203 225 255
203 225 255
203 225 255
203 225 255
203 226 255
203 226 255
203 226 255
203 226 255
204 226 255
204 226 255
204 226 255
204 226 255
204 226 255
204 226 255
204 226 255
205 226 255
205 226 255
205 226 255
205 227 255
205 227 255
205 227 255
205 227 255
206 227 255
206 227 255
206 227 255
206 227 255
206 227 255
206 227 255
206 227 255
206 227 255
207 227 255
207 227 255
207 228 255
207 228 255
207 228 255
207 228 255
207 228 255
207 228 255
208 228 255
208 228 255
208 228 255
208 228 255
208 228 255
208 228 255
208 228 255
208 228 255
208 228 255
209 229 255
209 229 255
209 229 255
209 229 255
209 229 255
209 229 255
209 229 255
209 229 255
209 229 255
210 229 255
210 229 255
210 229 255
210 229 255
210 229 255
210 229 255
210 229 255
210 229 255
210 229 255
210 229 255
210 230 255
210 230 255
211 230 255
211 230 255
211 230 255
211 230 255
211 230 255
211 230 255
211 230 255
211 230 255
211 230 255
211 230 255
211 230 255
211 230 255
211 230 255
211 230 255
210 230 255
210 229 255
210 229 255
210 229 255
210 229 255
210 229 255
210 229 255
210 229 255
210 229 255
210 229 255
210 229 255
209 229 255
209 229 255
209 229 255
209 229 255
209 229 255
209 229 255
209 229 255
209 229 255
209 229 255
209 228 255
208 228 255
208 228 255
208 228 255
208 228 255
208 228 255
208 228 255
208 228 255
208 228 255
208 228 255
207 228 255
207 228 255
207 228 255
207 228 255
207 228 255
207 228 255
207 227 255
206 227 255
206 227 255
206 227 255
206 227 255
206 227 255
206 227 255
206 227 255
206 227 255
205 227 255
205 227 255
205 227 255
205 227 255
205 226 255
205 226 255
205 226 255
204 226 255
204 226 255
204 226 255
204 226 255
204 226 255
204 226 255
204 226 255
204 226 255
203 226 255
203 226 255
203 226 255
203 225 255
203 225 255
203 225 255
203 225 255
203 225 255
202 225 255
202 225 255
202 225 255
202 225 255
202 225 255
202 225 255
202 225 255
202 225 255
202 225 255
202 225 255
201 225 255
201 225 255
201 225 255
201 225 255
201 225 255
201 224 255
201 224 255
201 224 255
201 224 255
201 224 255
201 224 255
201 224 255
201 224 255
201 224 255
201 224 255
201 224 255
201 224 255
201 224 255
201 224 255
201 224 255
201 225 255
201 225 255
201 225 255
201 225 255
201 225 255
201 225 255
202 225 255
202 225 255
202 225 255
202 225 255
202 225 255
202 225 255
202 225 255
202 225 255
202 225 255
202 225 255
203 225 255
203 225 255
203 225 255
203 225 255
203 225 255
203 226 255
203 226 255
203 226 255
204 226 255
204 226 255
204 226 255
204 226 255
204 226 255
204 226 255
204 226 255
204 226 255
205 226 255
205 226 255
205 227 255
205 227 255
205 227 255
205 227 255
205 227 255
206 227 255
206 227 255
206 227 255
206 227 255
206 227 255
206 227 255
206 227 255
207 227 255
207 227 255
207 228 255
207 228 255
207 228 255
207 228 255
207 228 255
207 228 255
207 228 255
208 228 255
208 228 255
208 228 255
208 228 255
208 228 255
208 228 255
208 228 255
208 228 255
209 228 255
209 229 255
209 229 255
209 229 255
209 229 255
209 229 255
209 229 255
209 229 255
209 229 255
209 229 255
210 229 255
210 229 255
210 229 255
210 229 255
210 229 255
210 229 255
210 229 255
210 229 255
210 229 255
210 229 255
210 230 255
211 230 255
211 230 255
211 230 255
211 230 255
211 230 255
211 230 255
211 230 255
211 230 255
211 230 255
212 230 255
211 230 255
211 230 255
211 230 255
211 230 255
211 230 255
211 230 255
211 230 255
211 230 255
211 230 255
211 230 255
211 230 255
211 230 255
210 230 255
210 229 255
210 229 255
210 229 255
210 229 255
210 229 255
210 229 255
210 229 255
210 229 255
210 229 255
210 229 255
209 229 255
209 229 255
209 229 255
209 229 255
209 229 255
209 229 255
209 229 255
209 229 255
209 229 255
208 228 255
208 228 255
208 228 255
208 228 255
208 228 255
208 228 255
208 228 255
208 228 255
208 228 255
207 228 255
207 228 255
207 228 255
207 228 255
207 228 255
207 228 255
207 227 255
207 227 255
206 227 255
206 227 255
206 227 255
206 227 255
206 227 255
206 227 255
206 227 255
205 227 255
205 227 255
205 227 255
205 227 255
205 227 255
205 226 255
205 226 255
205 226 255
204 226 255
204 226 255
204 226 255
204 226 255
204 226 255
204 226 255
204 226 255
204 226 255
203 226 255
203 226 255
203 226 255
203 225 255
203 225 255
203 225 255
203 225 255
203 225 255
203 225 255
202 225 255
202 225 255
202 225 255
202 225 255
202 225 255
202 225 255
202 225 255
202 225 255
202 225 255
202 225 255
202 225 255
202 225 255
202 225 255
202 225 255
202 225 255
202 225 255
202 225 255
202 225 255
202 225 255
202 225 255
202 225 255
202 225 255
202 225 255
202 225 255
202 225 255
202 225 255
202 225 255
202 225 255
202 225 255
202 225 255
202 225 255
202 225 255
202 225 255
202 225 255
202 225 255
202 225 255
203 225 255
203 225 255
203 225 255
203 225 255
203 225 255
203 225 255
203 226 255
203 226 255
203 226 255
204 226 255
204 226 255
204 226 255
204 226 255
204 226 255
204 226 255
204 226 255
204 226 255
205 226 255
205 226 255
205 226 255
205 227 255
205 227 255
205 227 255
205 227 255
206 227 255
206 227 255
206 227 255
206 227 255
206 227 255
206 227 255
206 227 255
206 227 255
207 227 255
207 227 255
207 228 255
207 228 255
207 228 255
207 228 255
207 228 255
207 228 255
208 228 255
208 228 255
208 228 255
208 228 255
208 228 255
208 228 255
208 228 255
208 228 255
208 228 255
209 229 255
209 229 255
209 229 255
209 229 255
209 229 255
209 229 255
209 229 255
209 229 255
209 229 255
210 229 255
210 229 255
210 229 255
210 229 255
210 229 255
210 229 255
210 229 255
210 229 255
210 229 255
210 230 255
210 230 255
211 230 255
211 230 255
211 230 255
211 230 255
211 230 255
211 230 255
211 230 255
211 230 255
211 230 255
211 230 255
211 230 255
211 230 255
212 230 255
212 230 255
212 230 255
212 230 255
212 230 255
212 230 255
211 230 255
211 230 255
211 230 255
211 230 255
211 230 255
211 230 255
211 230 255
211 230 255
211 230 255
211 230 255
211 230 255
211 230 255
210 230 255
210 229 255
210 229 255
210 229 255
210 229 255
210 229 255
199 218 243
197 216 242
191 209 235
184 202 228
177 196 221
182 202 228
173 192 218
172 191 216
163 182 207
165 185 211
168 187 213
170 189 216
159 178 202
171 191 218
170 190 216
180 200 226
173 192 218
185 204 230
189 208 235
194 214 240
203 223 250
208 228 255
207 228 255
207 228 255
207 228 255
207 228 255
207 228 255
207 228 255
207 227 255
207 227 255
206 227 255
206 227 255
206 227 255
206 227 255
206 227 255
206 227 255
206 227 255
206 227 255
205 227 255
205 227 255
205 227 255
205 227 255
205 227 255
205 226 255
205 226 255
205 226 255
204 226 255
204 226 255
204 226 255
204 226 255
204 226 255
204 226 255
204 226 255
204 226 255
203 226 255
203 226 255
203 226 255
203 226 255
203 225 255
203 225 255
203 225 255
203 225 255
203 225 255
203 225 255
203 225 255
202 225 255
202 225 255
202 225 255
202 225 255
202 225 255
200 218 247
194 197 224
186 170 194
186 170 194
183 152 173
182 150 172
180 142 162
180 142 162
180 144 165
182 151 173
183 159 181
189 183 209
195 203 231
200 218 248
202 225 255
202 225 255
202 225 255
202 225 255
202 225 255
203 225 255
203 225 255
203 225 255
203 225 255
203 225 255
203 225 255
203 225 255
203 226 255
203 226 255
203 226 255
203 226 255
204 226 255
204 226 255
204 226 255
204 226 255
204 226 255
204 226 255
204 226 255
204 226 255
204 226 255
205 226 255
205 226 255
205 226 255
205 227 255
205 227 255
205 227 255
205 227 255
206 227 255
206 227 255
206 227 255
206 227 255
206 227 255
206 227 255
206 227 255
206 227 255
207 227 255
207 227 255
207 228 255
207 228 255
207 228 255
207 228 255
207 228 255
207 228 255
208 228 255
197 216 240
196 212 228
189 203 214
186 199 207
173 182 179
162 169 164
157 162 150
154 158 141
147 150 127
129 130 102
145 147 123
150 153 133
146 151 136
148 152 136
154 158 141
163 169 161
165 173 170
177 187 188
175 187 199
187 201 214
199 216 236
210 229 254
210 229 255
210 229 255
210 229 255
210 229 255
210 230 255
211 230 255
211 230 255
211 230 255
211 230 255
211 230 255
211 230 255
211 230 255
211 230 255
211 230 255
211 230 255
211 230 255
211 230 255
212 230 255
212 230 255
212 230 255
212 230 255
212 230 255
212 230 255
212 230 255
212 230 255
212 230 255
212 230 255
212 230 255
212 230 255
212 230 255
212 230 255
211 230 255
211 230 255
211 230 255
211 230 255
211 230 255
211 230 255
211 230 255
211 230 255
210 229 254
200 218 242
191 209 233
181 199 224
166 184 208
165 184 209
163 182 207
168 189 216
168 188 216
171 193 221
169 191 220
174 196 226
169 192 221
172 195 225
174 198 228
171 195 225
173 197 228
171 195 227
171 195 226
171 196 227
171 195 226
172 197 228
171 195 226
168 191 221
169 192 223
168 191 220
168 191 220
164 184 211
178 198 224
184 204 230
192 212 238
201 221 248
207 228 255
207 228 255
207 228 255
207 228 255
207 228 255
207 228 255
207 227 255
207 227 255
206 227 255
206 227 255
206 227 255
206 227 255
206 227 255
206 227 255
206 227 255
206 227 255
205 227 255
205 227 255
205 227 255
205 227 255
205 226 255
205 226 255
205 226 255
205 226 255
204 226 255
204 226 255
204 226 255
204 226 255
204 226 255
204 226 255
204 226 255
204 226 255
204 226 255
203 226 255
203 226 255
203 226 255
203 226 255
203 226 255
203 226 255
203 225 255
202 224 254
196 208 236
187 176 200
178 138 157
177 122 140
177 122 140
174 121 135
177 122 139
176 121 137
174 121 139
177 122 139
179 122 138
175 121 137
177 122 139
176 121 137
175 121 137
177 122 140
177 122 138
179 137 155
185 170 194
193 198 225
203 225 255
203 225 255
203 225 255
203 226 255
203 226 255
203 226 255
203 226 255
203 226 255
204 226 255
204 226 255
204 226 255
204 226 255
204 226 255
204 226 255
204 226 255
204 226 255
204 226 255
205 226 255
205 226 255
205 226 255
205 226 255
205 227 255
205 227 255
205 227 255
205 227 255
206 227 255
206 227 255
206 227 255
206 227 255
206 227 255
206 227 255
206 227 255
206 227 255
207 227 255
207 227 255
207 228 255
207 228 255
207 228 255
207 228 255
207 228 255
207 228 255
202 221 246
188 204 221
172 181 177
153 161 154
141 142 112
134 133 89
140 138 93
144 142 95
143 141 95
129 128 85
138 137 92
140 139 94
144 142 95
143 142 95
140 138 92
140 138 93
152 150 100
134 133 89
147 144 96
136 135 89
148 144 95
139 136 90
134 133 89
133 131 87
137 135 89
131 128 85
143 141 107
160 161 137
171 179 178
186 198 206
198 215 235
211 230 255
211 230 255
211 230 255
211 230 255
211 230 255
211 230 255
211 230 255
211 230 255
211 230 255
212 230 255
212 230 255
212 230 255
212 230 255
212 230 255
212 230 255
212 230 255
212 230 255
212 230 255
212 231 255
212 231 255
212 231 255
212 231 255
212 230 255
212 230 255
212 230 255
212 230 255
212 230 255
212 230 255
212 230 255
212 230 255
212 230 255
212 230 255
208 226 251
182 199 221
180 198 222
171 189 213
160 179 203
165 185 211
173 193 220
174 196 224
174 196 225
176 199 228
173 196 226
175 198 228
173 197 228
173 197 228
173 197 228
172 196 228
172 196 228
171 196 228
170 196 228
170 196 228
170 195 228
170 195 228
169 195 228
169 195 228
169 195 228
169 195 228
170 195 228
169 195 228
170 195 228
169 195 228
169 194 226
170 196 228
169 194 226
166 190 220
157 179 207
169 190 218
178 198 224
194 213 240
203 223 251
207 228 255
207 228 255
207 228 255
207 228 255
207 228 255
207 228 255
207 227 255
207 227 255
206 227 255
206 227 255
206 227 255
206 227 255
206 227 255
206 227 255
206 227 255
206 227 255
205 227 255
205 227 255
205 227 255
205 227 255
205 227 255
205 226 255
205 226 255
205 226 255
205 226 255
204 226 255
204 226 255
204 226 255
204 226 255
204 226 255
204 226 255
204 226 255
204 226 255
204 226 255
203 225 255
189 177 201
178 134 152
176 121 138
176 121 137
176 121 138
177 122 139
177 122 138
179 122 137
176 121 135
177 122 138
176 121 136
174 120 131
176 121 136
177 121 137
175 121 136
177 122 137
179 122 138
179 122 135
174 120 135
177 122 139
177 121 135
177 122 138
178 132 151
191 182 207
202 222 251
204 226 255
204 226 255
204 226 255
204 226 255
204 226 255
204 226 255
204 226 255
204 226 255
204 226 255
204 226 255
205 226 255
205 226 255
205 226 255
205 227 255
205 227 255
205 227 255
205 227 255
205 227 255
206 227 255
206 227 255
206 227 255
206 227 255
206 227 255
206 227 255
206 227 255
206 227 255
207 227 255
207 227 255
207 228 255
207 228 255
207 228 255
207 228 255
207 228 255
207 228 255
206 226 253
193 209 228
174 185 186
146 148 122
132 131 87
146 146 98
144 143 96
137 136 91
143 143 96
151 150 101
154 153 103
140 140 94
147 146 98
143 142 96
144 143 96
151 150 101
143 142 96
146 145 97
156 155 104
147 145 97
149 146 97
153 151 101
147 145 97
151 149 100
147 144 95
145 144 96
147 144 96
144 141 94
157 154 103
147 144 96
141 138 92
142 138 91
142 139 92
138 135 90
130 126 82
148 147 118
170 179 180
187 199 211
204 221 242
212 230 255
212 230 255
212 230 255
212 230 255
212 230 255
212 230 255
212 230 255
212 230 255
212 230 255
212 230 255
212 231 255
212 231 255
212 231 255
212 231 255
213 231 255
213 231 255
213 231 255
213 231 255
213 231 255
212 231 255
212 231 255
212 231 255
212 231 255
212 230 255
212 230 255
203 221 245
184 201 224
174 191 214
165 183 207
170 189 214
176 197 224
176 198 226
176 197 225
177 199 228
177 199 228
177 199 228
175 198 228
174 198 228
174 198 228
173 197 228
172 197 228
171 196 228
171 196 228
170 196 228
170 195 228
169 195 228
169 195 228
168 195 228
168 195 228
168 195 228
167 194 228
167 194 228
167 194 228
166 194 228
166 194 228
167 194 228
166 194 228
166 194 228
166 194 228
167 194 228
167 194 228
168 194 228
168 195 228
168 193 226
170 195 227
171 195 226
164 186 215
178 199 226
195 215 242
207 228 255
208 228 255
207 228 255
207 228 255
207 228 255
207 228 255
207 228 255
207 228 255
207 227 255
207 227 255
206 227 255
206 227 255
206 227 255
206 227 255
206 227 255
206 227 255
206 227 255
206 227 255
205 227 255
205 227 255
205 227 255
205 227 255
205 227 255
205 227 255
205 226 255
205 226 255
205 226 255
205 226 255
204 226 255
204 226 255
204 225 254
192 187 212
178 125 142
176 121 137
179 122 139
177 121 137
178 122 137
176 121 138
178 122 136
176 121 135
179 122 136
179 122 135
179 122 135
177 121 135
177 121 137
179 122 135
176 121 135
177 121 135
178 122 137
179 122 138
177 121 134
177 122 137
176 121 135
177 121 134
179 122 136
177 122 138
178 122 138
180 132 150
191 182 207
201 218 246
204 226 255
204 226 255
205 226 255
205 226 255
205 226 255
205 226 255
205 226 255
205 227 255
205 227 255
205 227 255
205 227 255
205 227 255
206 227 255
206 227 255
206 227 255
206 227 255
206 227 255
206 227 255
206 227 255
206 227 255
207 227 255
207 227 255
207 227 255
207 228 255
207 228 255
207 228 255
207 228 255
207 228 255
207 228 255
205 225 252
189 204 220
161 170 169
141 140 96
143 142 95
142 142 95
147 147 99
145 145 97
146 146 99
148 148 100
147 146 99
145 145 98
152 152 103
153 153 103
151 151 102
152 151 102
153 152 103
147 146 98
145 144 97
151 150 101
153 151 101
147 147 99
155 154 103
145 144 97
146 144 97
156 155 104
148 147 99
150 148 99
156 153 102
152 150 99
155 153 103
145 142 95
151 148 98
148 145 97
147 144 96
143 141 93
140 136 90
138 135 90
141 137 90
138 136 88
144 140 90
118 115 78
159 162 143
184 194 199
209 227 249
212 230 255
212 230 255
212 231 255
212 231 255
212 231 255
212 231 255
213 231 255
213 231 255
213 231 255
213 231 255
213 231 255
213 231 255
213 231 255
213 231 255
213 231 255
213 231 255
213 231 255
213 231 255
213 231 255
213 231 255
196 214 237
181 198 221
162 179 202
171 189 214
176 195 221
178 199 226
179 200 227
178 200 228
177 199 228
177 199 228
176 198 228
175 198 228
174 198 228
174 198 228
172 197 228
173 197 228
171 196 228
171 196 228
171 196 228
170 195 228
170 195 228
169 195 228
169 195 228
167 194 228
167 194 228
167 194 228
167 194 228
166 193 228
165 193 228
166 193 228
165 193 228
165 193 228
164 193 228
165 193 228
165 193 228
164 193 228
165 193 228
165 193 228
166 193 228
165 193 228
166 193 228
167 194 228
168 194 228
168 194 227
171 196 228
170 194 225
168 190 219
183 203 230
200 220 247
208 228 255
208 228 255
207 228 255
207 228 255
207 228 255
207 228 255
207 228 255
207 228 255
207 228 255
207 227 255
207 227 255
206 227 255
206 227 255
206 227 255
206 227 255
206 227 255
206 227 255
206 227 255
206 227 255
206 227 255
205 227 255
205 227 255
205 227 255
205 227 255
205 227 255
205 227 255
196 198 224
180 138 156
177 122 137
179 122 138
179 122 137
178 122 137
178 122 135
177 121 135
177 121 134
178 122 135
177 121 135
179 122 135
180 122 132
179 122 134
179 122 138
178 122 138
177 121 134
176 121 135
178 122 133
178 122 138
178 122 136
177 122 137
180 122 138
178 122 135
179 122 136
178 122 135
177 121 138
177 121 135
178 122 139
178 122 137
179 137 154
194 190 215
205 227 255
205 227 255
205 227 255
205 227 255
205 227 255
205 227 255
206 227 255
206 227 255
206 227 255
206 227 255
206 227 255
206 227 255
206 227 255
206 227 255
206 227 255
207 227 255
207 227 255
207 228 255
207 228 255
207 228 255
207 228 255
207 228 255
207 228 255
208 228 255
208 228 255
208 228 255
202 220 241
171 181 182
139 139 108
144 143 96
133 132 89
137 136 92
150 149 101
149 149 101
154 154 104
146 146 99
155 155 105
149 149 101
147 148 100
148 148 100
154 154 104
146 147 99
149 149 101
155 155 104
151 151 102
155 155 105
157 156 104
155 154 104
152 152 103
157 156 104
153 152 102
156 154 103
143 142 95
157 155 103
157 154 103
160 157 105
151 149 99
159 156 103
156 152 100
159 155 102
145 143 95
150 147 97
158 155 103
155 151 100
152 148 97
152 149 99
147 143 94
140 137 89
154 149 98
137 134 87
131 128 84
141 136 87
142 137 96
154 159 148
198 212 228
213 231 255
213 231 255
213 231 255
213 231 255
213 231 255
213 231 255
213 231 255
213 231 255
213 231 255
213 231 255
213 231 255
213 231 255
213 231 255
213 231 255
213 231 255
212 230 254
193 209 232
169 185 207
165 181 204
179 198 223
180 200 226
176 196 223
179 200 227
179 200 228
177 199 228
177 199 228
176 199 228
175 198 228
175 198 228
175 198 228
173 197 228
172 197 228
173 197 228
171 196 228
171 196 228
170 196 228
170 195 228
170 195 228
169 195 228
168 195 228
168 194 228
168 194 228
167 194 228
166 193 228
166 194 228
166 193 228
165 193 228
164 193 228
165 193 228
164 193 228
164 192 228
164 192 228
164 192 228
163 192 228
163 192 228
163 192 228
163 192 228
164 192 228
164 192 228
164 192 228
164 193 228
166 193 228
167 194 228
168 194 228
169 195 228
170 195 227
169 191 221
174 194 221
200 220 247
208 228 255
208 228 255
208 228 255
208 228 255
208 228 255
207 228 255
207 228 255
207 228 255
207 228 255
207 228 255
207 228 255
207 228 255
207 227 255
207 227 255
206 227 255
206 227 255
206 227 255
206 227 255
206 227 255
206 227 255
206 227 255
206 227 255
204 221 249
187 165 185
176 121 139
177 121 134
178 122 138
178 122 135
178 122 136
178 122 137
178 122 135
179 122 137
180 122 134
178 122 134
178 122 135
178 122 134
179 122 135
176 121 132
178 122 134
179 122 133
178 122 133
180 123 135
178 122 135
176 121 132
181 123 135
178 122 135
180 123 137
177 121 132
180 122 135
177 121 133
179 122 136
178 122 135
178 122 135
180 122 138
178 122 136
178 122 135
188 166 188
204 222 250
206 227 255
206 227 255
206 227 255
206 227 255
206 227 255
206 227 255
206 227 255
206 227 255
207 227 255
207 227 255
207 228 255
207 228 255
207 228 255
207 228 255
207 228 255
207 228 255
207 228 255
208 228 255
208 228 255
208 228 255
208 228 255
208 228 255
195 211 230
154 162 156
133 131 87
146 144 97
148 147 99
151 150 101
152 152 103
147 147 99
149 149 101
151 151 102
153 153 104
154 154 104
154 154 104
157 157 106
154 154 104
153 153 104
160 160 108
156 156 106
162 161 109
149 148 100
160 160 108
157 156 105
160 159 107
162 161 108
161 159 106
159 158 106
159 158 106
159 159 107
164 162 108
158 156 104
155 153 102
156 154 103
159 155 103
164 161 107
153 150 100
160 157 104
157 155 103
153 150 99
158 155 103
162 159 105
156 152 100
151 147 96
145 142 93
153 148 97
156 151 98
151 145 95
148 143 93
140 136 84
147 142 92
145 140 91
144 140 89
156 157 133
187 198 206
211 229 253
213 231 255
213 231 255
213 231 255
213 231 255
213 231 255
213 231 255
214 231 255
214 231 255
214 231 255
214 231 255
212 230 254
189 206 228
160 175 195
172 190 213
175 193 218
182 202 228
179 198 225
181 201 228
180 201 228
179 200 228
178 200 228
177 199 228
177 199 228
177 199 228
175 198 228
174 198 228
174 198 228
173 197 228
172 197 228
172 197 228
171 196 228
171 196 228
170 195 228
170 195 228
169 195 228
169 195 228
168 194 228
168 194 228
167 194 228
167 194 228
166 193 228
166 193 228
166 193 228
165 193 228
165 193 228
164 192 228
164 192 228
164 192 228
163 192 228
163 192 228
163 192 228
163 192 228
162 192 228
162 192 228
163 192 228
163 192 228
163 192 228
163 192 228
163 192 228
164 192 228
165 193 228
166 194 228
168 194 228
169 195 228
171 196 228
164 186 216
172 192 218
194 213 239
208 228 255
208 228 255
208 228 255
208 228 255
208 228 255
208 228 255
208 228 255
208 228 255
207 228 255
207 228 255
207 228 255
207 228 255
207 228 255
207 228 255
207 228 255
207 227 255
207 227 255
207 227 255
206 227 255
202 214 240
180 136 152
179 122 136
178 122 134
177 121 133
178 122 135
179 122 135
180 122 133
179 122 135
179 122 135
177 121 130
179 122 136
179 122 133
179 122 133
177 121 131
179 122 137
176 121 132
180 122 135
180 122 132
180 122 133
181 123 136
178 122 133
178 122 135
179 122 131
177 121 130
178 122 133
179 122 135
178 122 135
177 121 133
178 122 133
178 122 135
178 122 137
180 122 133
177 121 131
179 122 136
181 123 138
180 134 149
201 211 237
206 227 255
207 227 255
207 227 255
207 227 255
207 228 255
207 228 255
207 228 255
207 228 255
207 228 255
207 228 255
207 228 255
208 228 255
208 228 255
208 228 255
208 228 255
208 228 255
208 228 255
208 228 255
208 228 255
198 215 234
161 166 151
130 128 86
144 143 96
143 142 95
142 142 95
150 150 102
148 148 100
157 156 106
152 152 103
159 159 108
157 157 106
149 150 101
157 158 107
158 159 108
157 158 107
157 157 106
155 155 105
157 157 106
161 161 108
162 162 109
159 158 106
164 163 109
159 158 106
163 162 109
162 161 108
159 158 106
159 158 106
160 158 106
165 163 109
163 161 108
157 155 104
151 149 99
166 164 109
162 160 107
162 158 105
163 159 106
165 161 107
156 153 102
157 154 103
161 158 104
153 150 98
158 154 101
158 154 101
156 152 99
152 149 97
155 150 99
146 142 93
147 143 93
153 148 93
148 143 92
155 150 97
152 147 92
138 133 84
144 138 88
148 150 129
186 197 207
212 229 253
214 231 255
214 231 255
214 231 255
214 231 255
214 232 255
214 232 255
214 231 255
193 210 232
167 182 203
171 188 211
176 194 218
182 201 226
179 199 225
182 202 228
182 202 228
181 201 228
179 200 228
178 200 228
178 200 228
177 199 228
177 199 228
175 198 228
176 198 228
175 198 228
173 197 228
173 197 228
172 197 228
172 197 228
172 196 228
170 196 228
171 196 228
170 196 228
170 195 228
169 195 228
169 195 228
168 194 228
168 194 228
167 194 228
166 194 228
166 193 228
166 193 228
165 193 228
165 193 228
164 193 228
164 192 228
164 192 228
164 192 228
163 192 228
163 192 228
163 192 228
163 192 228
162 192 228
162 191 228
162 191 228
162 192 228
162 192 228
163 192 228
163 192 228
164 192 228
164 193 228
165 193 228
166 194 228
167 194 228
170 195 228
170 194 226
172 194 224
182 202 229
199 218 244
209 229 255
209 228 255
208 228 255
208 228 255
208 228 255
208 228 255
208 228 255
208 228 255
208 228 255
208 228 255
208 228 255
207 228 255
207 228 255
207 228 255
207 228 255
207 228 255
199 203 227
178 124 139
178 122 137
180 122 135
179 122 135
175 120 129
177 121 132
178 122 133
178 122 133
181 123 135
179 122 135
177 121 130
177 121 132
178 122 133
178 121 130
179 122 129
179 122 133
178 121 130
181 122 134
179 122 131
179 122 134
180 122 133
183 124 138
179 122 135
180 122 135
180 122 135
177 120 126
181 123 135
177 121 133
179 122 133
180 123 136
177 121 131
180 122 137
180 122 134
179 122 135
177 121 133
180 122 137
179 122 137
178 129 144
199 202 227
207 228 255
207 228 255
207 228 255
207 228 255
207 228 255
208 228 255
208 228 255
208 228 255
208 228 255
208 228 255
208 228 255
208 228 255
208 228 255
208 228 255
208 228 255
209 229 255
202 220 244
163 171 166
142 140 94
150 149 100
151 149 100
146 145 97
152 152 102
150 149 101
152 152 103
155 155 105
157 157 106
159 159 108
164 165 112
158 158 107
155 155 104
157 158 107
153 153 104
158 159 108
156 156 106
164 163 110
163 163 110
165 164 110
167 166 112
163 162 109
162 161 108
157 156 104
163 162 109
163 162 109
167 165 110
163 162 109
161 159 106
165 163 109
160 158 106
162 160 106
166 162 108
160 157 104
165 162 106
165 162 108
164 161 108
166 162 108
158 154 102
157 154 101
162 157 104
147 143 94
166 161 105
157 154 101
156 152 100
166 160 104
162 157 103
155 150 97
156 152 97
153 149 97
150 144 91
154 150 97
154 150 96
143 139 89
130 126 80
137 132 86
127 123 75
157 158 135
196 209 222
214 231 255
214 231 255
214 232 255
214 232 255
211 228 252
177 192 213
165 181 202
175 192 216
183 202 227
183 203 228
183 202 228
182 202 228
181 201 228
180 201 228
180 201 228
178 200 228
178 200 228
177 199 228
177 199 228
176 199 228
176 198 228
175 198 228
175 198 228
174 198 228
173 197 228
173 197 228
173 197 228
171 196 228
171 196 228
171 196 228
170 196 228
170 195 228
169 195 228
169 195 228
169 195 228
168 195 228
167 194 228
166 194 228
166 194 228
166 193 228
166 193 228
165 193 228
165 193 228
164 193 228
164 192 228
163 192 228
163 192 228
163 192 228
163 192 228
162 192 228
162 192 228
162 192 228
162 191 228
162 192 228
162 191 228
162 192 228
163 192 228
163 192 228
163 192 228
164 192 228
164 193 228
165 193 228
166 194 228
168 194 228
169 195 228
170 194 225
169 190 219
192 211 237
209 229 255
209 229 255
209 229 255
209 229 255
209 229 255
209 228 255
208 228 255
208 228 255
208 228 255
208 228 255
208 228 255
208 228 255
208 228 255
208 228 255
198 201 224
178 122 138
176 121 134
178 122 133
180 122 135
178 121 133
178 121 133
179 122 132
180 122 133
178 121 130
179 122 131
179 121 130
182 123 135
177 121 129
179 121 132
179 122 133
177 121 126
180 122 133
178 121 131
179 122 132
177 121 130
179 121 129
178 121 129
179 122 132
179 122 132
180 122 132
179 122 133
180 122 134
178 121 132
180 122 133
180 122 132
177 121 130
179 122 130
178 121 130
179 122 133
176 120 130
180 123 137
179 122 133
178 121 135
180 122 135
175 120 130
200 203 227
208 228 255
208 228 255
208 228 255
208 228 255
208 228 255
208 228 255
208 228 255
208 228 255
209 228 255
209 229 255
209 229 255
209 229 255
209 229 255
209 229 255
177 190 199
141 141 105
152 149 99
156 154 104
146 145 97
147 146 99
159 159 107
153 152 103
151 152 103
153 153 103
155 155 104
154 154 104
155 155 105
158 158 107
155 155 104
162 162 109
159 158 107
159 159 108
163 163 110
161 161 109
160 159 108
167 165 111
163 162 109
164 163 109
167 165 111
161 160 108
166 164 110
168 166 111
168 167 111
163 162 109
167 166 111
168 165 110
164 162 108
163 161 106
163 161 108
165 163 108
162 160 106
167 164 109
161 159 105
163 160 106
162 159 106
166 163 107
170 165 109
167 163 108
161 157 103
156 152 99
163 158 103
157 154 100
157 153 99
164 158 102
157 152 97
158 154 101
160 155 102
155 150 96
154 150 96
154 149 97
150 145 93
146 141 90
150 144 93
149 144 93
147 142 89
136 131 81
174 180 175
211 227 248
214 232 255
200 216 238
169 184 205
170 186 208
177 195 219
184 203 227
182 201 226
183 202 228
183 202 228
181 201 228
180 201 228
181 201 228
179 200 228
180 201 228
179 200 228
179 200 228
177 199 228
177 199 228
177 199 228
176 199 228
175 198 228
174 198 228
174 198 228
174 198 228
173 197 228
172 197 228
172 196 228
171 196 228
171 196 228
171 196 228
170 196 228
170 195 228
169 195 228
168 194 228
168 194 228
168 194 228
168 194 228
167 194 228
166 193 228
166 193 228
166 193 228
165 193 228
165 193 228
164 192 228
164 192 228
164 192 228
163 192 228
163 192 228
163 192 228
163 192 228
163 192 228
163 192 228
163 192 228
162 192 228
162 192 228
163 192 228
163 192 228
163 192 228
164 192 228
165 193 228
165 193 228
166 194 228
168 194 228
170 195 228
172 197 228
170 193 223
178 197 224
200 218 244
209 229 255
209 229 255
209 229 255
209 229 255
209 229 255
209 229 255
209 229 255
209 229 255
209 229 255
209 228 255
208 228 255
200 204 228
177 121 135
180 122 135
178 121 132
179 122 133
178 121 130
180 123 136
180 122 133
177 121 130
178 121 130
179 121 130
181 123 137
179 121 130
178 121 129
176 120 127
178 121 130
178 121 132
179 122 130
179 122 130
181 122 132
178 122 133
179 121 129
180 122 133
178 121 129
179 121 128
179 122 133
180 122 134
176 120 127
181 122 133
178 121 133
179 122 132
180 122 132
179 122 133
178 121 130
179 121 130
181 122 134
179 122 131
179 121 132
180 122 131
176 120 130
180 122 134
178 121 129
178 123 134
198 197 221
208 228 255
209 228 255
209 229 255
209 229 255
209 229 255
209 229 255
209 229 255
209 229 255
209 229 255
209 229 255
209 229 255
206 225 250
155 159 142
134 132 87
148 147 98
154 152 101
153 151 101
156 155 104
157 157 106
160 160 108
160 159 108
156 156 106
158 157 106
158 157 106
160 159 108
161 161 109
161 160 108
159 157 106
165 165 112
162 161 109
164 163 109
162 161 109
169 168 113
166 165 111
164 164 110
167 166 111
165 164 110
161 160 108
167 166 112
165 163 109
168 166 110
163 161 107
164 162 108
168 165 110
164 161 108
169 166 110
163 160 105
166 163 108
165 163 108
169 166 109
168 165 109
165 161 106
166 163 109
165 161 107
159 155 102
163 160 104
165 161 106
162 158 103
163 159 103
163 159 103
164 159 102
166 162 104
161 156 101
161 157 102
159 154 99
156 152 97
161 155 101
160 155 100
152 146 92
151 147 94
154 149 94
153 147 94
153 147 93
149 144 89
146 140 87
137 132 80
141 138 104
190 202 213
166 181 202
176 193 216
182 199 223
184 201 225
184 203 228
183 202 227
183 202 228
183 203 228
182 202 228
181 201 228
181 201 228
180 201 228
179 200 228
179 200 228
178 200 228
178 200 228
177 199 228
176 199 228
175 198 228
176 199 228
175 198 228
175 198 228
174 197 228
174 198 228
173 197 228
172 197 228
172 196 228
172 196 228
171 196 228
171 196 228
170 196 228
170 196 228
169 195 228
169 195 228
168 195 228
168 194 228
167 194 228
168 194 228
167 194 228
166 194 228
166 193 228
166 193 228
166 193 228
165 193 228
165 193 228
164 193 228
164 192 228
164 192 228
163 192 228
163 192 228
163 192 228
163 192 228
163 192 228
163 192 228
163 192 228
163 192 228
163 192 228
163 192 228
164 192 228
165 193 228
165 193 228
166 194 228
168 194 228
169 195 228
171 196 228
174 198 228
163 182 208
198 217 243
210 229 255
210 229 255
210 229 255
210 229 255
210 229 255
209 229 255
209 229 255
209 229 255
209 229 255
202 209 233
177 126 138
177 121 131
181 123 137
180 122 131
179 121 130
182 123 136
181 123 134
178 121 124
178 121 130
180 122 128
177 120 126
181 122 132
179 121 129
180 122 130
179 122 130
178 121 128
177 121 124
179 121 130
178 121 124
180 122 132
177 121 129
180 122 135
178 121 129
180 122 134
178 121 127
177 121 126
177 120 125
176 120 124
178 121 128
178 121 130
178 121 126
179 122 130
180 122 135
179 122 131
182 123 133
181 122 133
180 122 133
181 122 133
179 121 130
178 121 129
179 122 131
181 123 136
179 121 130
179 124 136
204 211 236
209 229 255
209 229 255
209 229 255
209 229 255
210 229 255
210 229 255
210 229 255
210 229 255
210 229 255
191 206 222
143 144 115
146 143 95
149 147 99
152 150 100
147 145 98
155 154 104
156 156 105
160 158 107
158 158 107
162 162 109
160 159 107
158 158 107
157 156 105
164 163 110
163 163 110
161 160 108
161 161 109
162 162 109
163 163 110
162 162 109
166 164 110
169 168 113
168 167 112
170 168 112
168 167 112
165 163 109
167 165 110
173 170 113
168 165 110
169 167 112
169 167 112
172 169 113
168 165 109
164 161 107
165 162 108
166 163 108
165 162 108
168 165 108
171 168 111
170 166 110
164 161 105
170 166 110
167 162 106
170 166 109
162 158 102
169 164 106
168 164 106
164 159 104
164 158 103
165 161 102
167 162 104
165 159 103
160 155 99
167 161 104
159 153 98
161 156 97
163 157 101
163 158 101
159 153 97
154 148 94
153 148 95
154 148 92
146 141 87
143 138 86
154 148 91
150 144 90
143 138 88
177 193 216
181 198 221
185 203 227
185 204 228
184 203 228
184 203 228
183 202 228
182 202 228
182 202 228
181 201 228
181 201 228
180 201 228
180 201 228
179 200 228
178 200 228
179 200 228
178 200 228
177 199 228
177 199 228
176 199 228
176 199 228
175 198 228
175 198 228
175 198 228
174 197 228
174 198 228
173 197 228
172 197 228
172 197 228
171 196 228
171 196 228
171 196 228
170 195 228
169 195 228
169 195 228
169 195 228
168 194 228
168 195 228
168 194 228
167 194 228
167 194 228
167 194 228
167 194 228
166 193 228
165 193 228
165 193 228
165 193 228
164 193 228
164 192 228
164 192 228
164 192 228
164 192 228
163 192 228
164 192 228
164 192 228
164 192 228
164 192 228
164 193 228
164 193 228
165 193 228
166 193 228
166 193 228
167 194 228
168 194 228
170 195 228
171 196 228
174 198 228
167 187 214
191 210 234
210 229 255
210 229 255
210 229 255
210 229 255
210 229 255
210 229 255
210 229 255
207 221 246
180 133 145
178 121 132
180 122 130
180 122 130
178 121 129
179 122 135
177 121 126
178 121 125
178 121 127
179 121 129
180 122 126
179 122 130
181 122 130
179 122 131
181 122 132
178 121 127
177 121 128
179 122 130
178 121 126
177 121 130
177 120 124
180 122 130
177 121 127
179 121 130
179 121 128
179 122 128
179 121 130
181 122 131
179 121 126
181 122 131
179 122 130
179 122 132
178 121 126
175 120 122
179 121 129
180 122 131
180 122 132
178 121 129
176 120 125
179 122 131
180 122 134
177 121 130
181 122 134
178 121 131
179 122 132
175 126 138
207 221 247
210 229 255
210 229 255
210 229 255
210 229 255
210 229 255
210 229 255
210 229 255
180 191 199
138 135 90
153 150 100
152 150 101
155 153 103
155 153 103
160 157 105
161 158 106
161 157 105
163 161 109
165 163 110
163 160 107
160 158 106
164 164 110
165 163 110
165 163 110
167 166 112
166 165 111
168 167 112
169 167 112
167 166 111
166 165 110
168 166 111
169 168 113
166 165 111
166 165 111
169 167 111
169 167 112
160 159 107
171 168 112
166 164 110
171 168 112
168 165 110
172 169 112
162 160 108
171 167 111
170 167 111
169 165 109
174 169 111
167 163 107
164 160 104
169 165 109
171 167 109
172 167 109
173 167 109
170 165 109
170 165 108
169 165 107
174 169 108
168 163 106
166 161 104
167 163 106
173 166 106
168 162 104
172 166 106
161 156 99
160 155 99
161 155 96
160 154 98
159 154 97
163 157 99
155 150 94
147 142 88
154 148 93
148 143 87
147 142 88
149 144 89
147 141 89
145 138 85
185 203 226
187 205 228
186 204 228
186 204 228
185 203 228
183 203 228
182 202 228
183 202 228
182 202 228
181 202 228
181 202 228
181 201 228
181 201 228
180 201 228
180 201 228
179 200 228
178 200 228
178 200 228
178 200 228
177 199 228
176 199 228
177 199 228
175 198 228
176 199 228
175 198 228
174 198 228
174 198 228
173 197 228
173 197 228
173 197 228
172 197 228
172 196 228
171 196 228
172 196 228
171 196 228
170 196 228
170 195 228
169 195 228
170 195 228
168 195 228
168 194 228
168 194 228
167 194 228
167 194 228
167 194 228
167 194 228
166 194 228
166 193 228
166 193 228
165 193 228
165 193 228
165 193 228
165 193 228
165 193 228
165 193 228
165 193 228
165 193 228
165 193 228
165 193 228
165 193 228
166 193 228
166 194 228
167 194 228
168 194 228
169 195 228
170 196 228
172 196 228
174 198 228
171 192 219
179 197 221
211 230 255
211 230 255
211 230 255
211 230 255
211 230 255
210 230 255
190 163 181
179 122 132
181 122 132
181 122 131
179 121 129
177 121 127
180 122 130
179 122 130
179 122 128
181 122 131
178 121 126
179 122 129
178 121 126
178 121 125
178 121 129
178 121 129
180 122 129
178 121 129
181 122 131
179 121 126
180 122 128
179 122 129
179 122 128
180 122 130
180 122 129
179 121 126
181 122 129
178 121 126
179 122 129
176 120 126
180 121 126
180 122 128
180 122 133
179 121 128
178 121 130
182 123 133
179 121 126
180 122 127
179 121 128
181 122 133
181 122 129
178 121 128
178 121 128
179 121 130
179 122 133
179 121 130
177 120 127
188 160 176
210 229 255
211 230 255
211 230 255
211 230 255
211 230 255
211 230 255
178 187 189
143 139 90
148 144 95
150 147 98
153 150 100
151 149 100
160 157 106
156 153 103
160 156 105
164 161 108
163 158 106
165 162 109
159 157 106
166 164 110
165 163 109
165 163 109
167 165 111
168 166 112
166 163 110
168 167 112
167 165 110
169 167 112
169 167 112
169 168 112
172 169 113
168 166 111
171 169 113
171 168 112
169 166 110
171 168 112
171 168 112
167 165 110
172 168 110
170 168 113
170 167 111
169 165 109
173 169 109
174 169 110
171 167 109
169 165 109
172 167 108
177 172 113
177 172 112
173 167 110
171 166 106
169 164 106
167 163 106
169 164 107
169 164 107
166 161 104
169 163 105
169 164 104
170 164 104
169 164 106
172 166 105
168 163 103
165 159 104
171 164 105
165 159 100
172 165 104
158 152 98
161 156 96
161 156 97
163 156 97
165 158 98
154 148 92
148 143 88
146 141 87
149 143 90
152 144 88
188 205 228
186 204 228
186 204 228
186 204 228
185 203 228
184 203 228
183 203 228
183 202 228
183 202 228
182 202 228
182 202 228
182 202 228
181 201 228
181 201 228
180 201 228
179 200 228
178 200 228
179 200 228
179 200 228
178 200 228
177 199 228
176 199 228
177 199 228
177 199 228
176 199 228
175 198 228
175 198 228
174 198 228
174 198 228
174 197 228
174 198 228
173 197 228
172 196 228
172 197 228
171 196 228
171 196 228
171 196 228
171 196 228
170 196 228
170 195 228
169 195 228
170 195 228
169 195 228
169 195 228
168 195 228
168 194 228
167 194 228
167 194 228
167 194 228
167 194 228
166 194 228
166 193 228
166 194 228
166 193 228
166 193 228
166 193 228
166 193 228
166 193 228
166 194 228
166 194 228
166 194 228
167 194 228
168 194 228
168 194 228
169 195 228
170 195 228
171 196 228
172 197 228
175 198 228
178 199 227
186 204 229
211 230 255
211 230 255
211 230 255
211 230 255
195 186 206
177 121 131
179 121 128
177 121 127
178 121 126
175 120 126
177 120 124
179 122 130
178 121 127
179 121 128
179 121 126
177 120 125
177 121 124
176 120 123
180 122 130
177 120 123
180 122 128
176 120 123
178 121 126
178 120 122
176 120 121
180 122 132
182 123 132
179 122 130
179 121 126
179 121 126
179 121 130
178 121 125
181 122 129
178 121 125
178 121 125
180 122 130
175 119 122
178 121 127
180 122 126
179 121 125
177 120 124
180 121 126
178 121 125
178 121 129
179 121 126
178 121 126
179 121 126
178 121 126
175 119 118
180 122 132
178 121 128
178 120 128
176 119 123
199 200 221
211 230 255
211 230 255
211 230 255
211 230 255
180 189 191
154 149 98
151 147 97
156 149 99
162 157 104
159 154 103
162 159 106
158 154 103
162 157 105
166 163 110
165 161 108
163 159 107
167 164 110
167 164 110
169 165 110
165 163 110
166 160 107
167 164 110
169 167 112
168 167 112
168 165 111
171 168 112
170 168 112
169 166 110
169 166 111
173 169 111
174 170 113
170 167 110
170 167 109
170 166 109
174 170 112
172 169 111
174 170 112
171 168 112
175 172 113
175 170 112
169 166 108
171 167 109
175 171 113
178 172 113
174 170 112
174 169 109
168 164 107
167 164 105
176 170 110
170 164 106
173 168 109
170 165 106
173 167 108
173 168 107
165 160 102
168 163 103
168 162 104
164 159 101
165 160 103
165 160 102
166 159 99
166 159 102
165 158 99
166 161 101
168 162 103
166 160 99
159 154 97
165 160 101
162 156 99
155 150 93
163 156 97
152 147 93
152 146 89
149 143 88
149 142 88
188 205 228
187 204 228
187 205 228
187 204 228
185 204 228
184 203 228
184 203 228
183 202 228
184 203 228
183 202 228
183 202 228
183 202 228
181 201 228
181 202 228
181 201 228
180 201 228
180 201 228
180 201 228
179 200 228
179 200 228
178 200 228
178 200 228
177 199 228
177 199 228
177 199 228
176 199 228
177 199 228
176 198 228
175 198 228
175 198 228
175 198 228
174 198 228
174 197 228
173 197 228
173 197 228
173 197 228
172 196 228
172 196 228
172 196 228
171 196 228
171 196 228
170 196 228
170 195 228
170 196 228
170 195 228
169 195 228
169 195 228
168 195 228
168 195 228
168 194 228
169 195 228
168 194 228
168 194 228
167 194 228
167 194 228
167 194 228
167 194 228
167 194 228
167 194 228
167 194 228
168 194 228
168 194 228
168 194 228
168 195 228
169 195 228
170 195 228
171 196 228
172 197 228
174 198 228
176 198 228
177 198 225
193 211 235
212 230 255
212 230 255
209 224 249
182 136 149
177 121 128
180 121 125
179 121 131
179 121 129
179 122 131
179 121 126
179 121 125
178 121 126
178 121 126
180 122 127
180 121 125
182 123 131
178 121 125
178 121 127
177 121 124
182 123 131
182 122 128
180 122 130
181 122 128
176 120 123
177 121 125
177 120 125
176 120 123
178 121 126
177 120 125
179 121 125
179 121 126
178 121 120
182 122 130
180 121 126
176 120 122
178 121 125
177 120 119
181 122 132
180 121 126
179 121 126
180 122 127
176 120 124
178 121 128
177 120 123
179 122 130
179 122 131
179 121 130
178 121 128
178 121 126
177 119 127
176 119 122
177 120 125
180 134 143
209 222 246
212 230 255
212 230 255
180 193 205
135 131 86
155 151 98
157 148 98
158 152 101
165 159 106
158 148 99
160 153 103
162 155 104
160 153 102
159 151 101
167 159 106
168 161 108
167 160 107
169 164 110
167 164 110
167 164 110
170 167 112
169 166 110
171 165 110
170 165 110
172 168 112
170 166 110
171 166 110
171 169 113
172 169 112
174 171 113
172 168 112
172 169 112
173 169 112
174 170 112
174 169 110
175 171 113
175 171 113
174 170 112
171 167 109
175 170 112
176 172 112
173 168 109
174 169 110
173 168 110
170 166 108
175 169 109
170 165 108
173 167 108
172 167 108
174 169 110
173 168 108
175 170 110
171 165 105
170 165 106
171 166 104
168 164 104
171 165 106
171 165 104
168 162 103
173 166 105
172 164 103
166 160 101
168 162 103
168 163 101
159 154 96
162 157 98
163 157 98
163 157 95
162 156 95
159 153 95
160 154 97
161 155 94
156 150 92
154 148 90
154 148 90
188 205 228
186 204 228
188 205 228
186 204 228
185 204 228
186 204 228
185 203 228
184 203 228
184 203 228
184 203 228
183 203 228
183 203 228
183 202 228
182 202 228
182 202 228
181 201 228
181 201 228
181 201 228
180 201 228
180 201 228
179 200 228
178 200 228
179 200 228
178 200 228
179 200 228
178 199 228
177 199 228
176 199 228
176 199 228
176 199 228
176 199 228
175 198 228
175 198 228
175 198 228
175 198 228
175 198 228
174 198 228
173 197 228
174 197 228
173 197 228
172 197 228
172 196 228
171 196 228
171 196 228
171 196 228
171 196 228
171 196 228
171 196 228
170 195 228
170 195 228
170 195 228
169 195 228
169 195 228
169 195 228
169 195 228
169 195 228
169 195 228
169 195 228
168 195 228
169 195 228
169 195 228
169 195 228
170 195 228
169 195 228
170 195 228
170 196 228
171 196 228
173 197 228
174 197 228
176 198 228
178 200 228
176 196 221
198 216 240
212 231 255
194 177 196
179 122 133
179 121 126
177 121 127
179 121 126
178 121 128
177 120 123
178 121 124
181 122 131
177 120 122
179 121 127
175 119 119
180 122 127
177 120 120
178 121 123
180 122 127
181 122 127
179 121 124
177 120 125
177 120 120
181 122 126
179 121 124
176 120 118
179 121 126
178 121 125
177 121 126
177 120 126
178 121 126
177 120 120
176 120 122
179 121 125
179 121 124
179 121 123
178 121 123
176 120 122
177 120 121
177 120 120
179 120 121
181 122 129
180 121 123
177 120 120
177 120 123
179 121 126
179 121 126
179 121 126
178 121 123
178 121 126
179 121 124
181 122 128
179 121 125
177 119 127
196 183 201
212 231 255
189 201 213
143 139 91
149 145 94
152 146 97
152 146 97
158 151 100
159 151 100
161 153 103
156 143 96
164 155 103
165 155 103
167 157 105
169 160 107
170 163 109
167 157 105
165 157 105
169 165 110
172 164 109
167 162 107
172 168 110
170 165 110
173 168 112
173 168 110
174 171 113
176 170 112
174 171 112
171 169 112
173 170 112
173 168 108
171 167 109
175 170 112
175 171 112
175 171 112
174 170 113
175 170 109
172 167 109
175 170 110
176 172 112
174 169 110
176 170 110
176 170 111
175 170 109
176 170 110
174 169 108
174 169 108
173 167 108
172 167 107
176 171 110
174 169 109
167 162 105
174 168 108
174 168 107
172 166 101
172 166 106
173 167 106
166 161 102
170 163 100
169 163 101
173 166 105
170 163 101
165 159 99
167 161 104
155 149 93
167 160 99
164 158 97
162 157 96
163 157 95
167 161 99
165 158 98
162 156 96
158 152 94
162 156 95
152 146 90
188 205 228
188 205 228
187 205 228
187 204 228
187 204 228
186 204 228
187 204 228
185 204 228
185 203 228
185 203 228
184 203 228
185 203 228
183 203 228
184 203 228
184 203 228
182 202 228
182 202 228
181 201 228
182 202 228
181 201 228
180 201 228
180 201 228
180 201 228
180 201 228
180 201 228
179 200 228
179 200 228
179 200 228
178 200 228
178 200 228
178 200 228
177 199 228
176 199 228
176 199 228
176 199 228
175 198 228
175 198 228
175 198 228
175 198 228
175 198 228
175 198 228
174 198 228
174 197 228
173 197 228
173 197 228
172 197 228
172 197 228
173 197 228
172 196 228
172 196 228
172 196 228
171 196 228
171 196 228
171 196 228
170 196 228
171 196 228
171 196 228
170 196 228
170 196 228
170 196 228
170 196 228
170 196 228
171 196 228
171 196 228
172 196 228
172 196 228
172 197 228
173 197 228
173 197 228
175 198 228
177 199 228
179 200 228
181 200 225
202 213 236
178 128 137
176 120 123
179 121 128
176 120 121
178 120 122
180 122 130
176 120 122
178 121 122
179 122 128
177 120 123
178 121 121
179 121 123
180 121 126
177 120 120
176 119 119
181 122 126
178 120 122
175 119 118
178 121 122
176 120 120
176 120 122
179 121 123
177 120 123
178 120 122
179 122 127
177 120 125
179 121 124
176 119 115
177 120 120
179 121 124
179 121 125
178 121 123
176 119 116
178 121 123
179 121 125
178 120 124
177 120 123
177 120 119
180 122 126
178 121 123
177 120 120
179 120 121
178 121 123
175 119 118
177 120 119
177 120 121
180 121 126
181 122 129
179 120 125
176 119 123
176 119 123
181 134 143
207 221 242
141 138 100
149 142 92
154 144 94
158 151 100
156 145 96
162 149 98
156 148 99
162 150 100
163 152 101
163 150 100
164 152 102
157 145 96
168 160 107
166 158 105
168 162 107
167 156 102
170 164 109
170 161 107
170 162 107
168 163 108
171 163 108
176 170 112
175 169 110
175 171 113
174 170 110
176 171 113
172 169 109
177 172 113
177 171 112
173 169 110
176 172 112
173 169 109
175 170 110
175 170 109
176 171 111
174 169 106
177 172 112
172 167 108
175 171 111
177 171 110
176 171 109
173 168 106
175 170 107
174 168 107
175 169 108
177 172 112
176 171 109
172 167 108
175 169 108
173 167 108
170 164 103
171 165 105
177 170 106
176 170 105
174 167 106
168 162 103
168 161 99
173 166 102
167 160 99
167 160 99
167 161 99
170 164 102
169 163 99
167 160 99
160 154 96
169 162 101
166 160 99
159 153 94
153 147 89
157 150 90
156 150 88
153 147 86
154 148 87
188 205 228
187 205 228
188 205 228
187 205 228
187 205 228
188 205 228
187 205 228
185 204 228
185 204 228
186 204 228
185 204 228
186 204 228
185 203 228
184 203 228
183 202 228
183 203 228
183 203 228
183 202 228
182 202 228
182 202 228
183 202 228
182 202 228
181 201 228
181 201 228
181 201 228
180 201 228
181 201 228
180 201 228
180 201 228
179 201 228
179 200 228
179 200 228
178 200 228
179 200 228
178 200 228
178 200 228
177 199 228
177 199 228
176 199 228
176 199 228
176 199 228
175 198 228
175 198 228
175 198 228
175 198 228
175 198 228
174 198 228
174 198 228
174 197 228
173 197 228
173 197 228
173 197 228
173 197 228
173 197 228
173 197 228
172 197 228
172 197 228
172 197 228
172 196 228
172 196 228
172 197 228
172 196 228
172 194 225
171 189 219
171 193 224
171 189 219
172 192 222
172 192 223
174 196 226
176 198 228
177 199 228
180 201 228
181 201 228
179 157 175
176 120 127
179 122 132
179 121 128
178 121 124
176 120 123
175 119 119
177 120 123
177 120 124
178 121 123
179 121 124
176 120 119
179 121 122
176 119 118
177 120 119
177 120 119
180 122 126
177 120 120
174 119 117
179 121 120
179 121 124
177 120 119
177 120 118
178 121 125
178 121 123
179 121 129
180 121 125
176 120 122
175 119 118
179 121 123
179 121 123
180 121 120
179 121 122
177 120 118
178 120 121
175 119 117
178 121 125
176 120 118
178 121 124
180 122 128
178 120 121
176 119 118
174 119 118
179 121 126
180 122 131
179 121 127
179 121 127
177 120 121
178 120 125
179 121 122
179 120 126
178 120 126
178 119 124
156 126 108
152 145 91
152 141 92
151 137 90
151 140 92
155 143 94
152 136 90
155 141 94
152 132 87
160 144 96
158 144 96
165 150 100
167 155 102
165 150 100
170 160 106
168 161 107
168 159 106
171 160 105
172 165 108
172 165 109
175 167 110
173 168 110
174 167 108
175 170 111
176 171 112
177 172 113
171 167 109
176 171 112
175 169 110
174 170 109
177 172 113
175 171 110
175 171 109
177 172 112
176 170 110
177 172 112
177 171 111
178 172 108
174 170 107
175 169 107
175 170 110
178 171 109
175 170 108
179 173 112
179 171 109
178 171 109
173 167 106
175 168 108
175 169 107
174 168 104
179 171 110
173 167 104
167 161 101
175 169 106
171 164 102
173 167 104
172 166 102
165 160 97
172 165 100
175 167 105
173 166 103
168 161 98
167 161 95
167 161 97
166 159 97
166 160 96
167 161 95
164 157 95
164 158 97
166 159 99
162 156 90
158 152 90
156 150 89
154 147 87
189 206 228
188 205 228
189 205 228
188 205 228
188 205 228
187 205 228
187 204 228
187 205 228
186 204 228
186 204 228
186 204 228
185 203 228
186 204 228
185 204 228
185 204 228
184 203 228
184 203 228
184 203 228
184 203 228
184 203 228
184 203 228
183 202 228
182 202 228
182 202 228
181 202 228
182 202 228
181 201 228
181 201 228
181 201 228
181 201 228
181 201 228
181 201 228
180 201 228
180 201 228
180 201 228
179 200 228
178 200 228
178 200 228
178 200 228
178 200 228
178 200 228
178 200 228
177 199 228
177 199 228
177 199 228
177 199 228
176 199 228
176 199 228
175 198 228
176 198 228
175 198 228
176 198 228
174 198 228
175 198 228
174 198 228
174 198 228
174 198 228
174 198 228
174 197 228
174 197 228
173 193 224
173 193 223
171 187 216
170 184 213
168 176 204
168 178 206
167 173 200
168 175 202
171 182 210
171 184 212
176 194 223
179 200 228
182 200 227
178 137 148
176 120 124
177 120 122
179 121 128
178 121 124
177 120 121
180 121 125
179 121 122
178 121 123
178 120 122
178 121 124
176 120 121
178 121 122
179 121 126
176 120 119
180 121 123
176 119 117
180 121 125
177 120 117
178 121 123
177 120 118
179 121 123
178 120 121
180 122 126
175 119 113
178 121 122
178 120 120
179 121 121
177 120 118
176 119 118
180 121 123
177 120 122
177 120 118
180 121 123
177 120 118
179 121 123
178 120 125
179 121 123
178 121 123
174 119 115
182 122 130
180 122 127
178 121 124
180 122 126
177 120 118
176 119 121
176 119 118
175 119 113
179 121 125
179 121 125
178 120 123
176 119 123
174 117 120
170 118 117
149 137 87
149 135 88
146 130 84
153 138 92
154 134 89
155 134 89
156 134 88
157 138 91
155 133 88
159 140 92
159 139 92
167 144 94
165 148 97
168 149 98
167 148 98
166 157 103
171 162 106
174 167 108
173 165 107
173 164 108
176 169 111
175 167 108
175 167 108
174 167 108
178 171 109
176 169 107
180 173 113
177 171 111
178 173 113
178 172 109
176 170 109
178 172 111
177 171 109
178 172 110
175 170 108
179 173 110
178 172 108
179 172 110
176 171 110
176 170 106
176 169 106
178 171 109
175 168 102
177 171 108
176 170 105
176 171 106
175 170 106
175 168 104
176 169 103
173 167 104
176 169 105
171 165 101
172 165 100
173 166 101
172 165 102
175 169 105
176 169 106
169 163 97
166 160 98
171 164 99
169 163 101
171 164 101
169 162 99
161 155 91
167 159 97
166 160 93
162 156 95
159 153 92
158 150 91
164 157 96
150 144 83
148 142 85
155 149 89
190 206 228
190 206 228
188 205 228
189 205 228
189 206 228
188 205 228
188 205 228
189 205 228
188 205 228
188 205 228
186 204 228
187 204 228
186 204 228
186 204 228
186 204 228
186 204 228
186 204 228
185 204 228
186 204 228
185 203 228
185 203 228
184 203 228
183 203 228
184 203 228
183 203 228
184 203 228
184 203 228
184 203 228
183 202 228
182 202 228
182 202 228
183 202 228
182 202 228
182 202 228
181 202 228
181 202 228
181 202 228
180 201 228
180 201 228
180 201 228
180 201 228
179 200 228
180 201 228
178 200 228
179 200 228
178 200 228
178 200 228
178 200 228
178 200 228
177 199 228
177 199 228
177 199 228
177 199 228
177 199 228
177 199 228
176 198 228
177 199 228
176 198 228
176 198 228
175 196 225
174 191 220
170 181 209
170 180 207
167 166 191
167 164 189
163 150 173
159 150 173
163 154 178
161 157 181
162 159 183
170 175 200
176 193 220
180 189 213
174 118 120
178 120 124
174 119 118
176 120 118
179 121 123
179 121 123
177 120 116
175 119 120
178 120 123
179 121 123
179 121 125
175 119 116
175 119 114
175 119 115
178 121 122
174 118 114
179 121 124
177 120 120
180 122 127
177 120 120
175 119 117
179 121 121
179 121 123
175 119 116
175 119 118
180 121 123
177 120 115
178 120 120
178 120 121
177 120 119
178 121 123
176 119 115
178 121 120
180 121 123
175 119 113
179 120 122
179 120 120
177 120 121
180 121 125
179 121 123
175 119 116
177 120 119
176 119 116
178 120 118
177 120 121
177 120 119
176 120 122
175 118 114
177 120 118
176 119 116
176 120 121
176 119 114
172 116 115
178 119 122
158 132 97
147 130 85
155 132 87
156 131 86
150 122 79
156 131 86
155 131 86
158 133 88
156 129 84
165 144 95
164 146 96
167 154 101
165 143 94
167 149 97
171 155 101
170 156 101
170 156 103
171 161 105
174 164 107
173 165 105
173 165 107
178 170 110
178 170 109
174 168 109
176 169 108
178 171 109
179 172 110
180 173 111
178 172 109
176 170 106
179 172 110
177 171 109
175 169 105
178 171 109
179 173 109
177 171 106
178 172 108
175 171 108
177 171 106
179 171 110
178 171 104
179 172 109
176 171 106
175 169 104
175 169 106
174 167 104
176 169 103
177 170 106
177 170 105
176 169 103
174 167 102
173 167 103
173 166 104
173 167 106
175 169 106
177 169 106
174 167 103
176 168 103
171 164 102
164 158 95
177 169 105
172 164 98
170 162 99
162 156 89
167 160 95
166 160 97
160 154 90
160 155 90
156 150 87
158 151 90
160 154 90
159 153 89
159 153 87
191 207 228
190 206 228
190 206 228
189 206 228
189 206 228
189 205 228
189 206 228
188 205 228
189 206 228
188 205 228
188 205 228
188 205 228
187 205 228
188 205 228
188 205 228
187 204 228
186 204 228
185 204 228
186 204 228
186 204 228
186 204 228
186 204 228
187 204 228
184 203 228
185 204 228
185 204 228
186 204 228
184 203 228
184 203 228
185 203 228
184 203 228
183 203 228
184 203 228
182 202 228
183 202 228
183 202 228
182 202 228
182 202 228
182 202 228
181 201 228
181 201 228
181 201 228
181 201 228
180 201 228
180 201 228
180 201 228
180 201 228
180 201 228
180 201 228
180 201 228
180 201 228
179 200 228
179 200 228
179 200 228
179 200 228
178 200 228
179 200 228
178 198 226
177 198 226
175 187 214
172 178 203
167 161 184
167 160 182
161 146 167
160 138 158
160 143 165
157 130 150
153 125 145
153 124 143
151 123 141
154 138 159
165 162 185
171 145 154
174 118 120
177 119 120
180 121 125
179 121 122
178 120 121
179 121 123
178 120 118
178 121 121
175 119 117
179 121 120
179 121 121
177 120 118
173 118 111
175 119 114
175 119 112
174 118 113
180 121 126
177 120 118
175 119 113
175 119 117
176 120 119
178 120 118
174 118 111
175 119 116
180 121 123
176 119 114
176 119 114
181 122 124
177 120 118
176 120 118
177 120 118
177 119 114
176 120 117
175 119 115
176 119 117
176 119 114
175 119 115
178 120 120
178 120 121
177 120 119
177 120 115
174 118 111
178 120 120
176 119 116
176 119 119
179 120 123
179 120 118
175 119 114
176 119 119
175 118 114
175 119 116
178 120 124
177 119 121
175 117 115
160 115 101
152 134 87
144 117 76
147 119 77
145 122 80
149 123 80
150 117 75
149 115 74
156 128 83
158 129 84
157 129 83
164 140 91
166 141 91
169 152 97
167 145 94
169 155 102
170 154 99
174 163 105
174 162 104
177 167 108
175 164 105
177 168 107
178 170 109
175 167 105
178 168 105
177 170 109
180 173 109
178 170 107
179 173 108
179 173 108
177 171 109
174 169 103
174 168 104
178 171 104
179 173 109
179 172 108
176 170 106
177 170 106
177 171 104
176 170 103
180 173 108
175 169 104
175 169 105
174 168 101
177 170 104
177 170 103
174 167 99
178 171 105
176 169 104
173 167 103
172 167 103
175 168 103
172 165 100
167 160 97
173 167 99
166 160 94
172 166 101
167 161 96
174 167 101
172 165 99
171 164 96
168 162 95
171 164 97
173 165 98
167 160 95
164 158 93
163 156 92
164 157 90
165 158 91
153 148 85
158 151 86
160 153 86
160 154 89
191 207 228
191 207 228
190 206 228
191 207 228
191 207 228
190 206 228
191 207 228
189 206 228
190 206 228
189 206 228
188 205 228
189 206 228
189 206 228
188 205 228
188 205 228
189 206 228
188 205 228
188 205 228
188 205 228
187 205 228
188 205 228
187 204 228
186 204 228
186 204 228
186 204 228
187 204 228
186 204 228
186 204 228
186 204 228
185 204 228
185 204 228
185 203 228
185 204 228
185 203 228
185 204 228
184 203 228
184 203 228
183 203 228
184 203 228
183 203 228
183 202 228
182 202 228
183 203 228
183 202 228
183 202 228
183 202 228
183 202 228
182 202 228
182 202 228
181 202 228
182 202 228
181 201 228
182 202 228
181 202 228
181 201 228
180 201 228
181 201 228
178 197 224
177 192 218
172 174 197
170 168 191
167 156 176
162 140 158
154 126 143
155 116 130
153 110 125
148 105 117
146 100 113
147 103 118
142 98 112
143 107 123
145 113 130
172 129 135
177 120 123
174 119 116
178 120 122
175 119 119
174 118 112
178 120 118
175 119 116
177 120 118
178 120 115
179 120 118
173 118 107
178 120 118
176 119 114
180 121 120
175 119 113
177 120 117
176 119 114
177 120 118
178 121 121
178 120 121
178 120 119
176 120 115
177 120 118
178 120 120
175 119 113
177 119 118
179 121 119
178 120 116
177 120 115
179 121 122
176 119 115
176 119 117
175 119 114
177 120 121
177 120 117
174 118 112
178 120 118
174 118 109
177 120 118
177 119 118
176 119 116
179 121 123
176 119 118
177 120 116
175 118 115
177 120 120
177 119 116
173 118 114
177 120 119
175 119 115
177 120 120
174 118 113
174 118 110
170 115 108
169 112 107
139 109 70
138 103 65
138 105 67
141 105 66
139 100 62
152 118 76
152 124 80
155 125 80
158 128 83
162 131 84
158 128 81
164 142 90
166 141 90
164 142 89
172 158 100
168 154 98
170 156 97
172 161 101
172 160 100
175 164 104
175 166 105
177 169 108
176 165 104
177 168 106
174 166 99
180 173 111
178 171 107
179 171 105
177 169 102
179 170 104
179 171 104
178 171 106
177 171 106
180 173 110
179 172 108
175 169 101
178 170 106
178 171 105
178 171 104
176 170 101
178 170 106
177 170 105
180 172 103
175 168 99
175 169 103
178 171 105
175 169 99
173 166 101
173 167 97
177 170 101
171 165 99
176 169 102
174 166 100
173 166 100
168 161 95
172 166 99
170 163 96
171 164 99
164 157 93
167 160 95
172 164 97
165 159 97
170 162 98
168 161 96
164 157 93
164 157 85
164 157 92
159 153 87
158 152 89
161 154 92
166 158 93
160 154 90
192 207 227
192 208 228
192 207 228
192 207 228
192 207 228
191 207 228
191 207 228
190 206 228
191 207 228
190 206 228
190 207 228
190 207 228
190 206 228
189 206 228
190 206 228
190 206 228
190 206 228
189 206 228
189 205 228
189 206 228
189 206 228
189 206 228
189 206 228
188 205 228
188 205 228
188 205 228
187 205 228
187 205 228
187 205 228
187 204 228
187 205 228
187 204 228
187 205 228
186 204 228
186 204 228
186 204 228
186 204 228
186 204 228
186 204 228
186 204 228
185 203 228
185 203 228
185 203 228
185 204 228
185 203 228
185 203 228
184 203 228
184 203 228
185 203 228
184 203 228
184 203 228
183 203 228
183 202 228
183 202 228
183 202 228
183 201 227
182 200 226
178 192 216
175 176 198
172 166 187
167 154 173
162 132 148
157 122 134
156 108 117
151 104 113
150 101 110
143 97 109
143 96 107
139 93 105
140 93 107
135 90 103
139 94 105
175 118 120
175 118 114
173 118 114
177 120 116
177 119 117
177 120 115
179 121 122
175 119 113
176 120 119
174 118 111
178 120 120
177 119 118
173 118 111
173 118 113
176 119 113
175 119 110
176 119 113
175 119 113
177 120 118
175 119 115
178 121 120
174 119 112
179 121 119
179 121 120
176 119 114
178 120 119
178 120 119
175 118 112
177 120 116
177 119 116
175 118 113
175 118 111
176 119 115
178 120 118
175 119 117
179 121 120
174 119 113
175 119 113
178 120 118
177 120 115
175 119 113
179 121 126
176 119 115
177 120 115
178 120 121
179 120 120
174 118 113
173 118 112
176 119 118
176 119 114
176 118 114
174 118 113
175 118 116
172 116 111
179 120 122
176 117 118
138 109 74
132 97 61
136 94 59
138 100 63
145 108 68
146 105 65
153 115 73
154 124 80
153 117 74
154 119 73
162 135 85
164 138 88
166 140 88
165 144 90
166 147 93
173 156 98
173 157 100
174 163 100
176 163 102
175 165 104
174 164 102
176 166 103
176 165 104
179 168 104
178 171 105
179 170 106
180 171 104
178 168 101
179 171 104
178 171 102
177 171 106
180 173 105
177 170 101
177 170 104
179 172 107
179 172 104
177 170 106
181 173 105
179 171 101
176 170 101
176 169 98
180 172 103
176 170 99
177 169 103
174 168 99
175 168 97
174 168 99
175 168 98
178 170 102
176 168 100
174 167 95
175 168 99
176 168 97
175 169 99
172 165 98
173 167 97
167 161 93
166 160 88
176 169 98
170 162 97
172 165 97
166 160 90
168 162 95
173 165 100
159 153 85
166 159 93
164 157 94
165 157 90
165 159 90
163 156 90
162 155 90
159 152 84
192 207 226
193 208 227
192 207 227
192 207 227
193 208 228
193 208 228
191 207 228
192 207 228
193 208 228
192 207 228
191 207 228
191 207 228
191 207 228
191 207 228
191 207 228
191 207 228
191 207 228
190 206 228
190 206 228
190 206 228
190 206 228
190 206 228
190 206 228
189 206 228
190 206 228
189 206 228
189 206 228
189 206 228
189 206 228
189 206 228
189 206 228
189 205 228
188 205 228
188 205 228
188 205 228
188 205 228
188 205 228
187 205 228
187 205 228
187 205 228
187 205 228
188 205 228
187 204 228
186 204 228
187 204 228
187 205 228
186 204 228
186 204 228
186 204 228
186 204 228
186 204 228
186 204 228
185 204 228
185 204 228
185 203 228
185 202 226
181 195 219
180 186 208
175 175 195
170 157 174
165 141 156
157 118 125
156 110 119
155 106 115
150 102 109
149 101 111
146 98 108
143 94 104
142 94 105
133 85 96
129 80 91
141 92 102
173 117 119
176 119 118
173 117 112
173 117 110
174 118 110
175 119 115
175 119 111
179 120 118
176 119 114
176 119 118
174 118 112
172 116 103
174 119 112
176 120 116
176 120 117
179 121 122
178 120 119
175 119 116
177 120 120
172 117 104
179 120 116
176 119 115
176 120 118
179 120 116
175 118 112
178 120 116
178 120 119
174 118 110
177 120 115
179 120 118
173 118 109
177 120 114
175 118 109
180 121 122
176 119 114
176 119 113
174 118 114
174 118 109
179 121 123
177 119 116
175 118 118
176 119 116
177 119 113
179 121 119
175 118 112
177 120 118
177 119 117
179 120 122
176 119 116
175 118 113
178 120 118
176 118 114
176 119 116
172 116 113
175 118 116
168 112 108
141 97 72
123 77 46
137 96 58
131 84 49
140 100 62
146 104 64
153 112 69
153 113 70
153 117 73
162 132 84
157 125 77
162 132 82
166 142 89
166 138 86
167 151 90
169 149 89
173 157 97
174 157 96
177 163 101
175 162 98
173 162 96
177 165 101
177 168 102
179 168 103
178 169 101
180 172 104
177 169 104
178 171 102
176 170 99
179 170 103
176 169 101
180 172 104
180 172 102
175 168 95
176 169 99
172 167 97
180 172 102
176 169 98
177 170 99
178 171 103
174 167 96
176 169 98
177 170 97
179 171 101
173 167 95
177 170 101
173 167 99
178 170 101
174 166 95
176 169 97
169 163 90
175 167 95
173 165 97
177 169 101
173 165 97
172 165 98
175 167 99
169 162 95
173 165 98
174 166 99
168 162 90
174 165 95
170 163 92
166 160 92
169 163 95
168 161 92
168 160 93
158 152 87
161 155 87
166 158 89
153 147 85
159 152 84
192 207 226
193 208 226
193 208 227
192 207 224
193 208 227
192 207 226
193 208 228
191 207 225
193 208 228
193 208 227
193 208 228
192 207 225
192 207 228
192 207 228
192 207 228
192 207 228
192 207 228
191 207 227
192 208 228
192 207 228
191 207 228
191 207 228
191 207 228
191 207 228
191 207 228
191 207 228
191 207 228
191 207 228
190 206 228
190 206 228
191 207 228
190 206 228
190 206 228
190 206 228
190 206 228
190 206 228
190 206 228
189 206 228
190 206 228
189 206 228
190 206 228
189 206 228
188 205 228
189 206 228
188 205 228
189 206 228
189 206 228
189 205 228
188 205 228
189 206 228
188 205 228
188 205 228
187 205 228
187 205 228
186 204 227
186 201 224
185 197 219
178 180 201
174 170 188
169 160 174
158 128 134
157 111 118
153 103 109
152 103 109
150 102 106
146 96 100
145 97 101
143 92 101
138 90 97
133 83 92
124 74 83
148 96 99
173 117 112
173 117 113
173 118 108
173 117 108
172 117 111
172 117 108
175 119 114
176 119 115
174 118 111
175 119 111
173 117 106
176 119 114
173 117 108
177 119 116
176 119 114
177 120 119
174 118 109
175 118 109
176 119 115
177 120 116
178 120 120
175 118 109
176 119 114
175 119 112
171 117 104
176 119 114
177 119 114
174 118 107
171 117 105
180 121 121
175 119 112
173 117 107
174 119 112
173 118 109
178 120 117
173 118 108
171 117 103
176 119 113
173 117 103
177 119 114
178 120 119
175 119 113
177 120 115
174 119 111
175 119 108
176 120 118
175 119 113
175 119 114
178 120 116
176 118 110
176 119 118
172 117 109
176 119 112
175 118 115
172 116 106
170 114 106
149 97 84
122 76 44
123 81 48
134 81 45
137 91 54
140 91 53
148 106 62
149 99 59
157 125 78
151 113 67
160 131 79
160 133 82
167 141 85
168 140 85
169 148 92
174 152 94
170 153 90
171 154 90
175 164 99
172 158 94
177 165 100
174 163 97
175 165 95
177 168 101
177 167 102
177 169 98
176 168 98
176 167 100
177 168 99
177 170 101
175 168 96
176 169 97
177 170 103
176 169 101
177 170 96
177 170 98
179 172 103
176 168 97
175 168 99
179 171 103
176 169 99
179 172 102
175 168 95
177 169 96
179 171 102
175 168 95
174 168 97
172 166 92
176 168 97
175 168 94
174 167 97
175 168 97
173 165 92
172 165 91
176 169 100
173 166 96
172 165 90
171 164 93
168 162 92
171 164 97
165 158 88
174 166 97
166 159 84
171 164 92
169 161 91
161 156 84
163 155 90
169 162 91
166 159 88
158 151 87
156 150 85
159 152 84
194 208 227
193 208 226
191 206 220
191 206 221
192 207 221
190 205 218
193 207 226
192 207 224
192 207 225
192 207 225
193 208 226
194 208 226
191 207 224
192 207 224
193 208 227
191 206 224
191 206 224
192 207 226
192 207 225
192 207 227
192 207 226
192 207 227
192 207 228
192 207 227
193 208 227
192 207 227
192 207 227
192 207 227
192 207 228
191 207 228
192 207 228
191 207 228
192 207 228
192 207 228
192 207 228
192 207 228
191 207 228
191 207 228
191 207 228
190 206 227
191 207 228
192 208 228
191 207 228
190 206 228
191 207 228
190 207 228
191 207 228
191 207 228
190 206 228
190 206 228
190 206 228
190 206 228
189 205 228
191 207 228
190 206 228
189 204 226
184 193 213
179 179 196
169 154 166
166 146 157
163 124 133
155 108 114
150 102 100
147 99 98
146 98 100
146 97 99
142 94 97
139 89 93
135 85 92
130 82 87
122 71 77
155 101 103
175 118 116
173 117 111
173 117 107
177 119 114
176 119 113
175 119 114
175 118 113
176 119 113
174 118 111
177 120 116
176 119 111
175 119 113
177 119 113
173 118 106
175 118 111
172 117 106
175 118 110
175 119 112
176 118 113
172 117 106
174 118 107
171 117 101
172 117 104
171 116 103
173 117 102
176 119 111
174 118 110
181 121 118
175 118 111
178 120 118
177 119 112
172 117 105
175 119 113
177 119 117
176 119 115
173 117 109
173 117 106
176 119 114
177 120 114
176 119 113
174 118 108
174 118 108
176 119 115
176 118 113
175 118 113
176 119 114
177 120 117
175 119 118
173 117 110
179 120 122
170 116 104
174 117 109
172 116 112
173 116 111
172 115 107
170 114 105
146 92 78
111 55 25
115 67 37
127 72 38
134 90 52
140 90 51
146 92 52
143 97 55
149 104 56
154 116 70
156 125 73
164 137 81
160 130 79
164 140 81
167 142 84
169 152 86
170 152 89
166 150 82
169 155 88
173 158 93
175 163 94
175 165 97
176 165 96
178 167 98
179 169 98
173 164 92
173 164 93
177 169 96
179 171 103
178 170 97
177 169 98
176 170 99
175 168 94
176 169 94
175 168 94
177 170 99
176 169 97
176 170 98
179 171 100
176 169 97
181 172 101
173 167 91
178 170 101
175 168 97
175 168 94
173 166 92
174 167 94
169 163 86
171 164 92
177 170 95
173 166 91
173 166 95
174 166 94
175 168 98
173 165 93
173 167 93
177 169 97
170 163 90
173 166 94
164 158 83
167 160 90
168 161 89
173 167 93
166 159 90
169 162 86
163 157 89
167 159 90
166 159 89
160 155 81
163 156 89
158 151 84
151 145 82
192 207 220
191 205 216
191 206 219
191 205 216
194 208 223
191 206 218
191 206 217
189 205 213
191 206 221
191 206 218
191 206 220
192 207 221
192 207 221
191 206 220
191 205 216
191 206 219
191 206 219
192 206 219
192 207 223
191 206 220
192 207 225
191 206 224
192 207 223
191 206 220
193 208 225
193 208 226
192 207 225
193 207 225
192 207 224
191 206 224
192 207 225
193 207 225
192 207 226
192 207 226
192 207 225
192 207 227
191 206 223
191 207 224
192 207 224
192 207 224
192 207 225
191 207 226
191 206 224
192 207 226
191 207 224
193 208 227
193 208 227
192 207 227
192 207 226
192 207 226
192 207 227
192 207 227
191 207 227
191 207 226
192 207 228
189 201 222
187 195 213
179 177 195
174 158 171
163 131 138
160 118 122
153 103 103
148 101 100
143 96 91
148 99 102
139 91 85
142 93 96
137 89 93
130 79 84
122 74 76
119 69 65
157 104 100
173 117 108
173 117 110
171 116 106
175 119 114
173 118 108
176 119 113
176 119 113
174 118 108
175 119 111
174 118 108
176 119 113
176 119 112
171 116 104
174 118 108
178 120 113
176 119 112
175 119 114
176 119 112
175 118 109
170 116 100
173 118 110
175 118 111
173 118 107
176 119 109
177 119 114
174 118 105
177 119 114
174 118 107
170 116 102
175 119 112
175 118 114
175 119 113
172 117 106
178 120 114
176 119 114
172 116 103
174 118 109
178 120 117
178 120 118
177 119 113
173 118 104
177 119 114
172 117 105
172 117 105
176 119 113
175 118 110
175 118 113
173 117 108
175 118 110
176 119 113
172 117 103
175 118 113
176 119 113
173 116 105
174 116 110
171 115 110
153 98 88
109 53 27
120 62 31
127 69 36
127 72 38
137 89 47
144 99 55
143 94 54
149 104 55
155 116 66
154 118 70
160 127 75
155 124 71
164 134 77
165 141 79
172 155 89
169 149 87
168 151 86
172 156 88
174 160 90
172 161 90
171 160 89
175 166 94
176 165 95
175 166 98
174 166 93
175 168 95
173 165 92
174 165 91
174 166 91
177 169 99
177 170 96
177 169 95
177 170 96
178 171 100
176 168 93
179 171 97
177 170 97
175 168 93
174 167 93
179 171 99
175 167 92
176 168 92
176 168 97
174 167 93
173 166 90
172 166 90
173 166 91
172 165 90
173 166 94
170 164 87
171 163 91
170 163 87
169 163 84
170 163 90
170 163 88
175 167 92
171 163 93
164 158 82
163 157 85
172 165 93
168 162 89
166 160 85
167 159 87
156 151 78
161 154 84
159 153 80
158 151 82
160 154 84
159 153 82
158 152 80
154 147 81
188 204 208
190 205 216
188 204 207
190 205 216
188 203 206
189 204 209
190 205 212
190 205 212
187 202 203
188 203 204
191 206 216
190 205 214
191 206 214
190 205 212
191 206 218
189 204 211
190 205 212
190 205 217
190 204 209
189 204 212
190 205 213
191 206 216
190 205 213
194 208 224
191 206 221
189 205 212
190 205 212
191 206 217
191 206 218
188 203 208
191 206 218
190 205 216
192 207 220
190 205 216
190 205 217
192 207 221
188 204 212
193 207 223
190 205 217
191 206 218
191 206 219
192 207 221
190 205 219
191 206 220
190 205 217
192 206 219
193 208 225
192 207 220
191 206 219
190 205 217
191 206 221
190 206 218
192 207 221
192 207 224
192 205 220
188 197 211
181 186 192
178 172 185
171 157 163
162 131 131
157 112 110
152 102 101
152 102 101
146 98 91
147 98 100
141 95 90
137 90 86
137 89 86
129 80 78
127 78 75
119 69 69
160 107 97
171 116 102
171 117 107
174 118 110
175 118 108
172 116 109
172 117 110
178 120 118
172 117 106
172 117 103
173 118 105
178 120 114
172 116 100
174 118 107
176 119 114
174 118 109
177 120 114
177 120 117
175 118 112
175 118 111
174 118 105
172 117 103
174 118 110
176 119 114
174 118 108
175 119 112
176 119 112
173 118 104
173 118 106
175 118 112
172 117 106
179 121 120
176 119 112
175 118 109
173 117 104
173 117 104
172 116 103
178 119 113
174 117 108
176 119 113
173 117 106
176 119 111
177 120 117
179 120 117
175 118 108
175 118 107
175 118 110
175 118 108
174 117 106
175 118 111
177 119 114
175 118 112
174 117 107
174 117 109
168 114 97
168 114 102
165 111 97
160 103 96
104 46 19
117 58 29
122 65 31
131 76 37
138 82 43
140 83 45
142 93 52
149 98 56
151 110 62
152 118 65
161 124 73
161 135 76
161 135 76
162 139 76
167 149 83
168 149 83
171 153 85
171 155 89
171 158 86
169 156 83
173 159 87
175 163 94
173 162 91
174 164 90
168 160 78
173 164 89
175 167 91
173 166 89
175 168 95
175 167 89
178 169 97
175 168 98
176 167 93
175 168 90
177 168 93
176 168 95
174 167 90
177 169 95
174 168 91
174 167 93
171 165 90
173 167 92
177 169 97
175 168 93
177 169 93
172 165 87
174 166 90
175 167 90
174 166 92
178 170 98
175 168 91
175 167 94
172 166 91
169 163 87
170 163 90
170 163 88
163 156 84
174 167 92
172 165 90
167 161 82
167 160 89
175 167 93
166 159 89
167 159 89
166 159 85
164 159 84
153 148 75
159 152 80
158 153 80
158 151 83
160 153 86
187 202 203
189 204 208
186 201 199
188 204 207
185 201 196
189 204 209
187 202 202
188 204 207
190 205 214
186 201 199
188 203 206
190 205 211
187 203 203
189 204 208
190 205 211
189 204 211
187 203 203
185 201 195
185 201 195
189 204 207
190 205 211
185 201 198
190 205 211
187 203 206
189 204 209
187 203 202
187 202 203
186 201 198
189 204 208
188 203 206
188 203 207
186 202 202
188 203 204
186 202 202
186 201 199
191 205 214
188 203 206
187 202 204
189 204 208
187 202 202
189 204 208
190 205 211
188 203 208
190 205 214
190 205 213
188 203 204
188 203 207
188 204 208
187 203 204
186 202 202
187 202 203
188 203 207
186 201 198
186 201 199
183 197 193
182 194 191
182 186 188
172 166 162
167 146 144
159 125 112
152 110 106
150 101 96
146 99 92
143 96 84
143 95 86
138 91 81
138 90 84
134 85 83
131 83 80
120 70 66
116 66 61
166 111 105
171 116 108
173 117 111
172 117 104
172 117 105
172 117 103
176 119 113
173 117 104
175 118 108
177 119 116
174 118 108
175 119 110
174 118 111
172 117 103
176 119 113
176 119 112
176 119 110
170 116 99
172 117 105
175 119 111
176 119 114
168 115 96
173 117 108
178 120 115
173 117 104
176 119 110
175 119 112
176 119 112
176 119 111
173 118 105
174 118 103
169 115 96
175 119 111
169 115 94
173 117 108
175 119 109
172 117 104
178 120 118
174 118 110
175 118 108
177 119 112
175 118 107
176 119 112
172 116 106
170 116 99
173 117 104
175 118 112
176 118 112
172 117 105
172 116 103
175 118 107
173 117 106
172 116 107
171 115 104
171 116 105
173 116 107
170 114 104
159 104 89
106 49 19
111 59 28
123 67 34
122 66 30
131 80 43
135 81 37
139 92 48
147 101 52
152 106 58
151 109 54
155 124 63
154 120 62
156 126 55
165 140 78
160 141 74
162 142 77
168 153 81
172 156 85
169 155 83
171 158 88
171 159 85
173 160 88
172 162 87
172 162 86
171 161 83
175 167 90
169 160 80
174 166 87
172 164 85
173 167 87
171 165 86
175 167 90
171 164 80
176 169 93
173 166 86
172 165 84
174 167 89
171 164 83
175 168 89
170 163 81
179 171 99
175 167 89
173 165 87
173 166 89
174 167 90
174 167 88
174 167 89
173 166 87
173 166 88
173 166 90
173 166 89
169 163 83
171 164 86
167 161 83
169 163 84
168 161 81
172 165 90
171 163 87
167 161 84
166 159 86
173 165 88
174 166 95
170 162 86
161 155 83
164 158 80
159 153 75
164 158 80
159 153 81
153 147 75
160 154 82
154 148 80
182 199 187
186 202 199
186 201 198
185 200 194
185 201 195
187 202 202
183 199 188
188 203 204
182 198 184
182 198 184
186 202 199
185 201 195
187 202 200
184 200 190
184 200 192
187 202 199
186 202 198
182 198 186
185 201 194
184 200 190
182 198 186
186 201 196
186 202 199
184 200 191
183 199 188
182 198 184
182 198 184
183 199 187
182 198 183
186 201 196
186 201 198
184 200 190
185 201 195
185 201 195
182 198 184
180 196 175
183 199 188
183 199 186
184 200 194
182 199 187
181 198 183
183 199 190
184 200 191
181 198 183
182 198 186
182 199 187
181 198 181
180 196 177
181 198 184
181 198 183
182 198 186
182 198 183
183 199 188
182 198 186
178 193 170
179 190 177
173 178 162
171 163 152
162 146 125
156 126 111
152 108 101
146 99 85
145 98 85
140 95 76
141 94 80
136 89 80
136 90 79
129 82 70
120 71 59
120 73 66
108 58 51
160 108 96
174 117 110
173 117 109
168 114 97
173 117 108
176 118 110
173 118 107
175 118 111
170 116 100
173 118 107
172 117 107
171 117 103
176 119 116
173 117 103
174 118 104
176 119 112
174 117 106
174 118 108
173 117 104
175 118 109
170 116 99
178 121 121
175 118 108
172 117 104
176 118 107
174 118 108
172 116 101
172 117 100
175 119 111
172 117 101
172 117 104
171 116 101
172 117 102
171 116 101
172 116 102
174 118 109
175 118 106
173 117 107
174 117 109
172 117 106
173 117 108
174 118 109
174 118 106
171 116 103
172 117 103
172 117 101
173 117 106
172 117 105
170 116 103
170 115 100
174 118 109
174 117 112
170 115 101
173 117 104
176 118 111
173 116 106
173 116 106
156 102 82
95 43 15
121 61 25
117 60 24
126 70 33
133 85 37
134 84 40
142 89 47
146 104 50
144 103 51
150 114 60
149 111 54
153 121 63
157 128 61
159 135 69
161 139 68
163 144 71
171 157 86
166 151 80
168 154 84
168 156 79
167 156 80
165 150 75
172 163 84
170 162 82
169 160 82
168 160 76
170 159 79
173 165 87
175 166 89
169 162 78
172 165 83
170 165 82
172 165 84
169 163 78
174 167 90
172 165 85
176 168 93
167 161 79
174 167 84
172 165 84
169 163 80
171 165 85
168 163 76
172 166 87
170 164 83
173 166 89
171 164 84
169 163 79
173 166 86
171 163 85
163 158 76
176 168 89
168 162 82
165 159 84
169 162 84
171 164 87
170 162 87
170 163 87
165 158 81
167 159 87
166 158 85
165 159 80
163 157 80
158 153 78
166 159 86
162 156 79
155 149 74
161 155 73
161 154 80
161 156 83
156 149 78
185 200 191
182 199 186
184 199 186
184 200 188
181 197 180
182 199 186
182 198 181
183 199 187
181 197 181
178 195 171
179 196 172
181 198 183
181 197 180
178 195 169
179 196 175
181 197 178
177 194 166
180 196 175
177 194 166
180 196 175
178 195 169
182 198 186
182 198 183
181 197 178
179 195 171
178 195 171
179 196 172
178 195 168
179 196 172
178 195 168
178 195 171
175 192 160
178 195 169
180 196 175
175 193 160
176 193 161
179 196 174
177 194 166
176 193 163
175 193 160
174 192 156
176 193 161
177 194 165
175 192 153
178 195 169
179 196 174
178 195 168
177 194 168
178 195 168
172 190 150
174 192 156
176 194 163
179 196 174
177 194 165
177 193 169
174 185 154
170 175 146
163 161 127
162 141 124
152 122 86
149 103 88
143 97 80
143 97 80
142 96 81
141 93 82
133 88 72
133 87 72
129 81 70
126 78 64
122 71 66
114 64 56
157 105 92
169 115 99
166 113 99
172 116 105
175 118 112
176 119 111
172 116 104
170 116 101
172 117 106
169 115 96
171 115 99
174 118 109
170 116 98
176 119 113
173 117 100
174 118 104
175 118 110
176 119 113
171 117 102
171 116 104
169 114 99
173 117 104
174 118 107
171 116 103
172 117 104
173 117 105
172 117 103
172 116 102
174 118 109
171 116 103
172 117 101
175 118 109
173 117 102
169 116 95
174 117 105
174 117 104
174 119 111
173 118 103
177 119 109
171 116 103
171 116 99
174 118 106
172 117 104
172 117 103
175 118 109
175 118 109
173 117 103
174 118 110
174 118 106
172 116 103
173 117 104
171 116 102
170 116 101
168 114 101
169 113 95
165 111 87
170 114 101
154 100 82
98 48 14
107 51 16
114 57 19
120 62 24
126 69 32
132 88 41
140 95 47
140 96 36
143 100 48
149 110 53
147 113 50
158 129 64
160 135 69
153 132 56
158 134 70
160 140 65
165 144 72
167 151 76
169 157 82
165 150 73
167 155 79
167 157 77
164 154 72
173 164 83
172 164 85
168 160 75
173 164 87
174 165 87
173 165 84
171 164 83
176 167 90
169 162 76
172 165 82
170 165 80
168 163 77
172 166 85
174 166 86
166 160 69
167 161 75
167 162 77
171 165 81
170 163 82
171 164 84
173 165 84
173 167 88
170 163 84
170 163 79
169 162 83
170 163 84
170 164 86
170 163 87
169 162 80
168 162 85
166 161 81
167 160 84
165 159 77
168 161 77
169 163 80
167 160 85
163 157 80
161 155 75
165 160 79
166 160 79
164 158 81
166 158 80
159 153 75
166 160 79
162 155 77
157 152 72
160 153 81
159 153 81
179 195 172
180 196 175
182 198 184
180 196 175
180 197 175
179 196 174
177 194 163
178 195 165
180 196 174
176 193 165
177 194 166
182 198 184
181 197 180
176 194 163
175 193 160
177 194 163
181 197 180
176 194 161
176 193 161
177 194 163
170 189 144
176 193 160
171 189 142
180 197 177
174 192 155
171 189 142
176 193 160
170 188 137
175 192 155
176 192 158
175 193 160
171 189 141
171 190 146
172 190 144
172 190 150
174 192 155
173 191 150
171 189 146
171 189 142
171 190 146
168 187 131
172 190 146
170 188 139
169 188 133
170 188 137
170 188 141
169 187 131
172 190 146
168 187 133
170 188 139
166 184 123
165 185 116
166 186 121
169 188 133
165 183 125
165 178 120
163 173 114
158 158 106
152 142 78
152 122 90
147 110 83
140 94 72
141 96 77
137 90 73
136 90 69
135 88 72
134 89 68
122 77 57
120 73 55
113 69 45
110 60 47
148 97 86
167 112 98
170 116 101
168 114 97
172 116 99
172 117 102
170 115 96
170 115 100
172 117 103
171 116 99
170 115 103
170 116 95
172 117 102
171 116 101
175 117 105
170 116 99
176 118 105
176 119 110
175 118 105
170 116 101
170 115 97
170 116 97
170 116 102
172 117 103
173 117 105
170 116 98
173 117 104
173 117 103
171 117 99
174 118 106
172 117 105
173 117 103
173 117 106
173 117 104
177 119 115
174 117 108
174 117 106
173 117 105
174 118 108
175 119 107
171 116 100
172 117 101
172 117 101
173 118 107
173 117 107
172 116 96
172 116 103
168 114 95
167 114 93
167 113 91
169 115 98
174 117 107
170 115 101
170 115 100
169 114 95
173 116 113
167 113 96
145 92 73
101 47 17
109 54 13
112 54 16
116 60 21
127 75 28
135 89 38
134 90 34
141 98 50
138 106 46
147 106 53
147 113 48
152 120 60
147 119 50
153 124 57
154 127 55
159 140 67
160 142 70
157 139 61
164 150 72
166 151 70
167 157 73
169 158 82
173 162 82
164 157 68
166 158 73
165 158 72
168 161 76
171 163 82
163 157 64
168 161 75
170 164 78
171 164 80
174 165 87
167 161 74
172 165 84
170 163 80
169 162 76
176 168 89
171 164 77
169 161 75
169 163 80
169 162 81
170 163 83
170 164 80
170 164 81
168 162 77
169 163 76
166 160 75
166 160 75
169 162 80
173 165 87
168 162 80
165 159 75
168 162 75
162 157 76
167 160 82
170 163 83
168 161 82
169 163 84
171 164 83
166 160 78
160 154 76
162 155 78
165 158 83
161 155 80
160 153 76
164 157 81
160 154 80
153 147 71
153 148 73
158 152 76
179 196 172
172 191 150
174 192 156
175 193 161
178 195 168
175 192 156
174 192 153
178 194 165
173 191 151
170 189 141
175 192 156
177 194 166
172 191 150
168 187 129
174 192 155
175 193 156
175 193 156
179 196 171
170 189 141
171 190 146
172 190 144
172 190 146
166 185 123
169 188 135
168 187 133
168 187 129
167 186 127
166 186 123
166 186 125
171 189 139
165 185 116
168 187 127
167 186 127
162 183 107
168 187 129
164 184 109
166 185 121
169 187 131
165 183 112
161 181 99
163 182 104
160 180 88
163 183 107
165 185 118
163 183 109
159 180 94
164 183 112
163 182 107
156 178 72
162 182 104
163 182 107
159 178 88
164 183 116
158 179 79
156 174 82
161 175 107
154 169 76
153 153 85
153 139 82
147 125 72
145 113 71
141 97 65
140 95 72
140 93 76
139 92 73
133 87 70
128 84 59
122 79 52
119 74 55
112 66 48
104 59 33
144 94 74
168 114 99
168 115 99
171 115 104
168 114 98
172 116 103
171 115 101
169 116 97
172 116 100
171 115 101
168 114 90
168 115 95
171 116 100
173 117 103
174 118 108
174 117 104
172 117 105
174 118 106
167 114 87
166 113 86
172 117 101
174 117 105
171 116 97
173 117 103
173 117 105
172 117 102
170 115 91
174 117 107
171 116 98
171 116 100
171 116 99
173 117 101
172 117 103
171 115 98
174 118 106
172 117 103
174 118 107
170 115 97
173 117 103
170 115 97
172 116 100
169 115 97
170 115 101
171 116 99
175 118 107
167 114 93
170 115 97
173 117 104
170 116 101
174 117 106
170 115 101
171 115 102
167 112 91
171 115 102
172 115 104
175 117 107
170 114 104
131 84 62
99 45 12
106 54 16
112 59 20
116 64 22
127 81 25
125 79 24
128 84 33
138 97 38
150 110 52
138 105 43
145 109 45
142 114 41
155 132 58
156 133 60
159 139 64
156 138 57
156 138 58
160 148 62
166 153 70
162 150 63
164 151 68
166 157 74
163 153 67
168 157 80
164 157 71
166 155 74
169 163 75
172 165 82
166 160 71
168 161 78
167 161 71
168 162 77
166 160 70
170 163 78
167 161 71
167 160 71
164 158 65
170 162 79
168 162 75
169 162 79
171 164 81
169 163 73
169 163 74
169 161 81
169 162 80
168 161 79
166 161 74
165 159 72
167 161 76
168 162 75
162 156 70
168 161 84
170 163 80
167 161 77
168 162 76
166 160 75
165 159 78
163 157 75
165 159 76
162 155 76
166 158 83
162 156 72
165 158 80
161 155 73
161 154 82
153 147 75
164 158 76
162 157 75
153 149 65
159 152 80
151 145 71
173 191 151
174 192 153
175 192 156
175 192 155
174 192 153
170 189 139
171 190 144
171 189 142
169 188 137
169 188 133
170 189 139
167 187 129
171 190 144
174 192 156
174 191 151
168 187 131
167 186 123
165 185 116
167 186 125
167 186 123
164 184 114
165 185 118
165 185 118
165 185 118
164 184 114
164 184 109
163 183 109
161 182 102
160 181 97
160 181 94
165 185 116
163 183 107
160 181 88
163 183 104
160 181 88
159 180 88
158 180 85
161 181 97
156 177 60
154 176 64
158 179 75
156 178 68
158 179 79
156 178 68
158 179 79
157 179 72
154 176 64
157 177 79
158 178 79
158 179 85
151 172 39
152 172 39
154 174 60
151 171 45
152 172 64
150 165 43
151 163 46
150 148 60
146 134 58
145 126 60
143 110 63
136 100 59
140 94 73
135 92 58
137 92 70
133 88 73
131 87 65
125 79 55
116 72 46
109 65 34
103 61 31
131 84 65
161 110 87
168 114 101
169 116 98
174 117 106
171 117 105
171 116 97
171 116 101
170 115 96
172 116 103
171 116 99
170 116 100
169 115 100
170 116 95
169 116 98
171 116 101
174 118 108
169 115 94
173 116 103
172 117 100
173 117 103
169 115 95
177 119 111
172 116 103
174 118 103
172 116 101
176 119 108
171 116 102
171 116 100
172 116 102
174 118 105
168 115 93
177 120 113
172 117 100
172 117 100
169 115 100
171 116 97
171 116 100
170 116 101
170 115 100
174 118 102
172 117 99
171 116 99
174 118 103
169 116 96
172 117 102
171 116 103
172 117 104
170 116 101
169 115 95
171 116 99
169 115 94
167 113 97
168 114 102
170 115 101
169 114 95
163 110 85
124 75 54
98 52 14
107 56 16
116 63 15
115 62 17
122 74 21
126 78 28
125 84 20
133 87 27
138 102 44
140 108 35
142 107 42
146 118 50
150 118 53
146 125 41
156 136 57
149 131 47
157 142 59
162 142 64
161 149 63
163 150 66
162 151 68
160 148 59
165 157 68
164 155 65
166 157 72
167 159 70
167 159 75
168 159 76
168 161 74
169 160 77
166 159 71
164 158 67
168 160 75
165 158 67
162 157 62
169 163 73
167 159 75
169 162 75
164 157 67
167 161 73
163 159 66
168 161 73
164 159 70
168 162 74
167 161 77
169 163 77
167 161 75
167 161 74
161 157 66
169 162 80
169 162 79
166 160 74
163 156 70
168 161 78
168 162 77
157 152 67
163 157 78
161 155 73
160 155 73
160 153 78
168 161 81
163 158 71
163 156 80
157 151 73
155 150 69
157 151 71
160 153 79
156 150 75
157 151 66
157 151 73
156 150 76
171 190 142
169 188 135
169 187 129
171 189 141
167 186 127
171 189 142
167 186 125
165 184 114
166 186 125
164 184 112
165 185 116
165 184 114
165 185 118
165 184 116
165 185 118
167 186 123
163 183 99
162 183 102
161 182 99
162 182 99
158 180 85
157 179 75
158 179 82
159 180 82
155 178 64
160 180 91
160 180 88
155 176 56
156 177 68
157 177 75
160 181 91
159 180 85
158 179 82
156 178 64
154 176 51
155 177 64
156 178 75
156 177 64
157 179 79
154 176 51
154 175 45
153 175 51
153 175 51
151 174 32
154 175 51
152 174 39
151 173 32
150 170 0
151 174 0
149 171 0
151 172 22
150 169 22
150 172 22
148 165 0
147 165 0
148 163 0
149 165 21
145 147 28
146 136 54
141 122 48
143 119 58
136 97 58
136 95 66
128 85 54
131 88 58
120 80 38
126 82 52
121 77 49
117 74 39
111 67 39
102 57 18
120 76 43
171 116 102
165 112 92
171 116 102
170 115 100
170 115 96
171 116 98
170 115 95
164 112 82
169 114 91
172 116 101
172 117 100
166 114 87
171 116 99
170 116 96
171 116 97
168 115 93
171 116 97
171 116 96
169 115 94
177 119 111
173 116 105
172 117 105
170 116 101
168 114 94
173 117 102
174 117 105
168 114 88
174 118 105
173 117 105
172 117 102
171 116 96
170 116 97
170 115 99
172 116 100
171 116 97
172 117 103
174 118 103
174 118 105
173 117 104
172 117 102
173 117 103
172 117 103
170 116 98
170 115 95
171 116 100
171 115 96
170 116 98
171 116 105
172 116 102
172 116 102
171 116 98
168 113 96
165 112 83
169 114 96
167 112 100
164 110 86
126 80 55
101 59 11
102 54 7
112 65 15
114 72 14
113 66 15
121 77 25
127 85 27
129 89 28
134 101 30
142 109 44
144 112 48
145 119 46
149 125 46
142 119 41
149 129 52
158 145 63
152 135 51
152 141 52
158 144 55
162 147 66
156 141 54
164 153 67
157 148 60
161 152 59
163 154 69
159 152 56
166 157 71
163 157 64
166 159 69
165 160 67
168 160 74
161 154 58
164 158 65
164 159 65
162 156 61
164 158 65
168 161 71
169 161 75
164 159 70
164 157 68
165 159 68
165 158 72
169 161 78
162 157 66
166 159 71
164 157 68
165 158 73
168 161 75
170 164 80
163 157 65
167 161 74
163 157 70
165 159 75
162 157 70
167 160 77
163 157 72
159 154 71
162 156 69
157 152 66
163 157 70
166 159 80
159 153 67
155 150 62
156 151 70
155 149 68
154 148 69
157 152 67
158 151 76
154 148 70
156 149 69
154 147 73
170 189 139
166 185 118
171 190 142
165 184 112
169 188 135
165 185 118
165 185 114
161 182 99
167 185 123
164 184 114
163 183 109
162 182 99
160 181 88
160 181 91
164 184 109
162 182 97
160 181 94
155 177 64
157 179 82
158 179 79
158 180 85
156 177 60
155 177 64
153 176 45
158 179 75
154 177 51
157 178 75
154 177 56
153 174 51
153 176 39
155 177 64
152 174 22
153 175 39
154 176 45
152 174 39
153 175 39
151 173 0
150 173 0
152 174 32
153 175 22
151 174 0
150 172 0
151 172 22
150 173 0
151 173 0
152 173 0
150 171 0
149 170 0
149 169 0
149 171 0
149 169 0
148 167 0
147 167 0
149 169 0
143 156 0
146 160 0
143 154 0
142 147 21
139 129 33
138 122 38
145 119 59
135 101 52
132 89 54
130 90 54
130 86 55
128 84 55
122 79 48
119 78 36
115 75 37
109 64 26
104 62 24
109 67 33
161 109 86
165 112 89
166 112 90
171 116 98
168 115 92
170 116 99
173 116 103
167 114 94
167 113 85
171 116 100
173 117 104
173 117 102
171 116 98
172 116 99
168 113 93
173 117 101
164 112 86
169 114 95
167 114 87
171 116 99
169 115 99
171 116 102
169 115 94
172 117 103
168 114 91
170 116 97
173 117 101
167 114 89
167 114 89
171 116 100
168 115 89
171 116 96
167 113 89
174 118 105
171 116 98
174 116 103
171 115 97
170 115 96
169 115 93
171 116 99
169 115 93
171 116 98
173 117 103
166 112 84
170 115 95
171 116 96
172 116 103
167 113 89
169 115 97
172 117 103
172 116 100
172 116 101
171 115 99
166 112 91
165 109 90
159 105 81
106 66 29
97 56 5
110 65 16
108 64 13
112 69 11
119 76 17
123 77 19
127 87 23
135 98 32
134 97 30
131 96 31
140 109 35
141 111 34
150 123 48
142 121 36
150 130 46
149 131 40
148 129 46
155 144 54
146 133 35
152 140 48
152 138 46
159 146 57
157 148 54
155 145 54
161 153 61
163 154 68
160 154 59
165 157 67
166 160 66
162 156 64
165 159 66
165 158 64
167 161 68
160 155 56
161 156 58
169 162 73
162 155 64
163 157 61
161 156 64
165 159 70
159 155 53
161 156 54
159 156 57
165 158 65
163 157 62
167 159 75
162 156 69
160 154 65
160 155 58
165 161 69
164 158 69
161 156 65
164 158 69
163 157 69
160 154 60
160 155 62
162 156 72
160 154 71
157 151 65
157 151 65
155 150 66
162 156 75
159 153 71
161 155 70
162 155 76
153 148 69
157 151 69
159 153 70
149 143 66
160 153 70
150 144 65
165 184 116
164 184 109
161 182 102
166 186 123
163 183 109
163 183 107
164 184 109
161 181 97
162 182 107
162 182 107
159 179 85
159 180 85
159 180 82
158 179 82
157 179 79
156 177 68
158 179 72
155 177 56
155 177 60
156 178 64
155 177 60
152 175 39
153 175 39
154 177 51
152 175 32
151 174 0
151 174 0
150 172 22
153 175 22
150 174 0
150 173 0
151 174 0
149 173 0
151 174 0
151 174 0
150 172 0
150 173 0
152 173 0
150 173 0
150 173 0
150 171 0
151 174 0
151 171 0
150 171 0
149 170 0
150 171 0
149 171 0
149 170 0
149 168 0
149 169 0
148 162 0
148 166 0
149 166 0
148 162 0
144 157 0
147 163 0
143 153 0
143 146 25
138 135 12
133 119 25
135 115 34
132 106 44
128 91 44
119 82 36
121 78 39
123 81 41
122 79 35
117 75 23
110 70 23
107 68 20
109 77 23
108 88 12
155 108 79
165 112 89
167 114 90
165 113 85
164 112 81
166 113 86
165 114 86
172 117 99
171 116 98
169 115 96
169 114 94
169 114 96
171 116 101
165 113 86
168 114 87
166 114 80
172 117 103
174 118 105
167 113 88
172 115 102
172 116 100
172 116 101
169 115 96
171 115 95
171 116 101
167 113 88
167 113 88
169 115 99
172 117 101
171 115 97
171 116 100
168 114 91
167 113 87
168 114 91
171 116 100
168 115 94
172 116 100
174 117 103
167 114 89
168 115 93
170 115 97
170 115 96
169 115 95
161 110 76
173 117 102
169 114 99
168 114 94
171 116 97
171 114 101
167 114 88
166 112 89
170 115 95
169 114 98
165 112 93
163 109 84
150 97 65
100 64 16
102 65 12
104 67 11
108 66 10
109 68 11
113 73 14
129 93 23
115 76 15
134 102 31
133 98 31
132 98 33
136 104 30
131 106 33
142 121 40
139 117 33
147 123 40
149 135 42
153 137 47
146 129 42
151 137 45
148 135 42
159 149 56
152 141 46
160 152 58
156 148 50
156 147 49
160 151 55
163 157 61
160 153 61
159 154 60
164 156 65
162 156 57
165 159 62
161 155 58
161 153 62
162 157 54
160 153 58
160 153 61
161 155 61
167 159 69
165 159 68
166 159 68
158 152 54
161 156 61
160 155 63
162 155 64
164 156 68
161 157 61
160 155 59
164 159 66
166 159 72
166 159 69
159 154 64
160 154 65
162 157 66
162 157 67
155 150 61
158 152 61
163 157 71
161 154 72
151 147 62
153 148 62
153 148 57
157 151 64
156 151 64
154 148 66
154 149 65
149 145 62
150 144 69
154 149 64
156 149 73
145 141 59
162 182 102
159 180 88
162 182 99
166 185 116
158 180 85
160 181 91
158 179 79
157 178 68
158 179 79
158 179 79
156 178 64
158 179 79
156 178 64
153 176 51
155 177 56
152 175 32
152 175 45
151 175 39
153 175 32
151 174 0
152 175 39
153 175 39
152 175 0
151 174 0
151 174 0
152 174 0
150 173 0
150 174 0
150 174 0
151 173 0
151 174 0
151 174 0
151 174 0
151 172 0
150 171 0
150 174 0
151 174 0
151 173 0
150 173 0
149 171 0
150 172 0
150 171 0
149 170 0
150 169 0
149 170 0
148 168 0
148 166 0
149 169 0
149 169 0
147 164 0
149 168 0
148 163 0
146 158 0
143 155 0
141 149 0
141 146 0
141 147 0
137 144 0
136 130 17
130 120 17
131 118 28
125 101 30
122 92 37
123 88 39
117 77 38
116 77 36
115 75 36
110 74 20
103 67 16
104 71 11
111 84 12
116 103 0
150 121 56
160 109 79
167 113 93
165 113 88
169 115 91
170 115 94
167 114 87
170 116 93
162 111 78
169 115 93
169 114 93
167 113 89
170 116 96
169 115 96
173 117 101
168 115 93
167 114 90
171 116 96
171 115 95
171 116 99
167 114 87
166 114 87
167 114 88
166 113 88
171 115 96
168 114 94
170 115 94
172 117 103
165 112 81
164 112 84
168 114 88
171 116 99
172 116 100
173 117 101
168 115 93
170 115 93
169 115 95
170 115 91
170 116 95
171 116 97
170 115 98
170 114 96
167 112 93
167 113 87
166 112 87
172 117 101
171 116 99
164 111 82
165 113 87
169 113 93
172 116 101
166 111 91
168 113 91
167 113 93
165 109 87
140 95 61
113 81 24
110 80 11
106 70 7
106 70 6
113 71 16
114 79 8
118 82 10
122 88 18
123 89 19
128 95 30
129 101 16
133 101 22
135 112 32
135 108 23
143 121 38
142 128 30
149 136 41
148 133 45
149 136 36
154 141 52
151 137 45
150 141 43
155 143 51
151 139 48
156 147 54
154 147 41
154 146 47
156 149 57
154 150 41
159 153 52
153 148 39
157 151 51
160 156 53
157 151 49
156 148 53
157 152 49
160 154 59
161 157 58
158 152 48
163 157 59
163 157 62
162 156 62
158 154 51
160 155 57
158 152 56
162 157 62
157 152 53
161 156 66
161 155 64
165 158 68
162 155 70
156 151 60
161 156 62
157 152 59
163 157 64
156 151 57
162 157 65
152 147 54
157 151 63
157 152 64
159 153 62
159 153 67
149 144 61
163 157 70
155 150 64
152 147 64
158 153 69
150 144 62
148 143 59
151 147 66
153 147 70
151 145 64
159 180 85
159 180 88
159 180 85
153 175 51
157 178 68
156 178 68
156 178 64
154 177 60
156 177 60
154 177 51
154 176 51
152 175 32
154 176 45
151 173 22
151 174 22
151 173 0
152 175 32
151 174 0
152 175 0
150 174 0
151 173 0
150 174 0
152 175 0
150 173 0
151 174 0
150 173 0
149 172 0
150 174 0
152 175 0
150 172 0
150 172 0
150 172 0
150 172 0
150 173 0
151 173 0
150 172 0
151 173 0
150 170 0
149 170 0
150 172 0
148 169 0
148 169 0
149 170 0
148 166 0
148 166 0
148 167 0
148 164 0
148 168 0
147 163 0
147 165 0
146 162 0
145 155 0
146 162 0
143 156 0
142 152 0
139 146 0
139 139 0
133 132 0
134 129 0
126 113 12
124 115 12
121 102 12
115 85 27
117 87 29
111 70 27
106 74 25
111 80 12
107 74 17
104 69 17
113 86 0
119 107 16
131 132 0
146 145 38
160 108 85
164 112 83
165 112 87
166 113 89
168 114 96
165 112 87
170 116 97
171 115 99
169 113 91
171 115 96
170 115 94
167 113 87
168 114 91
167 113 88
169 114 94
166 113 86
171 116 100
167 113 87
169 114 91
169 115 90
166 113 87
170 115 95
166 114 86
170 115 91
165 113 87
168 114 90
172 116 103
166 113 85
170 115 95
167 113 93
169 115 90
171 115 95
168 114 88
169 113 91
170 116 97
169 115 94
168 114 90
167 114 87
166 113 85
164 113 82
172 116 100
168 115 95
167 112 88
171 115 97
166 113 89
167 113 87
168 113 91
168 114 93
170 115 94
164 112 86
167 113 88
168 113 89
165 111 85
164 109 88
136 102 55
111 92 25
108 81 6
98 66 13
107 73 9
107 73 6
113 78 13
109 70 9
115 83 8
120 90 20
122 90 20
128 101 23
127 98 22
131 108 26
134 114 18
135 114 25
142 121 37
146 132 41
143 130 34
146 130 37
152 136 43
149 136 42
153 141 41
151 140 46
156 145 51
154 146 47
154 147 44
157 148 51
149 144 36
156 149 49
158 150 56
154 149 43
154 148 51
155 147 52
156 149 52
154 149 49
156 150 49
157 151 45
157 152 49
153 148 39
163 156 66
157 151 47
162 156 58
155 150 45
160 154 60
158 153 51
160 154 56
164 156 64
157 152 54
159 154 64
159 153 60
156 151 53
156 153 48
161 156 61
160 155 63
157 153 52
160 154 63
157 151 61
160 154 62
155 149 64
159 154 64
158 152 64
156 150 62
158 152 62
152 146 60
154 149 60
153 148 64
155 150 63
148 144 57
152 147 66
152 147 63
152 146 72
146 140 59
155 178 68
158 179 82
156 178 72
157 179 68
153 175 39
152 175 32
155 177 56
151 174 39
151 174 22
153 175 32
154 175 45
152 175 22
150 173 0
151 174 0
151 174 22
151 173 0
150 174 0
151 173 0
150 172 0
151 174 0
150 173 0
150 173 0
150 173 0
150 173 0
149 171 0
150 172 0
150 173 0
151 174 0
151 173 0
151 174 0
149 171 0
149 172 0
150 172 0
151 173 0
151 172 0
151 171 0
149 171 0
149 170 0
147 169 0
149 172 0
150 171 0
149 170 0
149 170 0
147 167 0
148 164 0
149 168 0
148 165 0
149 168 0
146 164 0
146 163 0
147 162 0
144 161 0
145 159 0
143 155 0
142 148 0
137 141 0
141 145 0
133 129 0
133 132 0
125 115 0
121 112 0
115 100 0
104 82 12
107 79 17
106 76 16
96 66 0
102 73 0
99 70 0
116 98 20
117 105 0
124 118 0
134 139 0
140 152 0
158 118 76
162 109 79
163 111 85
164 111 82
166 113 87
163 111 82
165 112 82
164 112 78
170 114 95
161 110 70
169 114 94
170 115 94
166 113 82
170 115 96
164 112 82
163 112 78
166 113 85
169 114 89
172 116 98
164 112 84
164 112 80
167 114 88
167 113 89
166 114 87
171 115 94
167 114 87
171 116 99
169 115 94
170 115 89
167 114 88
169 114 94
170 115 95
173 116 101
168 114 94
167 115 88
170 116 96
161 110 74
168 114 89
168 114 91
172 116 99
170 115 95
167 114 90
169 115 96
165 112 88
166 113 86
168 115 91
168 114 89
168 114 90
165 112 84
165 111 84
163 111 82
166 113 90
158 107 72
152 104 66
119 103 30
110 88 26
110 84 27
110 82 11
106 76 6
101 73 10
110 77 9
117 84 13
115 83 10
120 88 12
123 96 13
121 94 19
130 104 14
131 107 27
137 111 27
141 123 31
140 123 25
139 120 27
138 118 26
139 126 26
145 134 36
142 128 41
147 135 39
146 134 34
151 141 40
152 144 37
148 140 32
149 141 22
154 146 41
156 149 51
153 148 41
156 150 47
154 147 44
150 145 39
151 144 47
157 150 47
155 151 42
161 155 61
152 148 39
156 151 48
161 156 57
154 150 42
154 146 41
154 149 48
160 156 52
156 152 51
156 150 59
155 150 53
157 153 57
153 148 44
157 151 54
149 146 47
160 155 54
160 155 56
160 155 60
154 148 53
153 148 58
159 154 60
150 146 54
157 150 59
149 146 49
151 146 58
156 150 62
145 141 53
149 144 59
155 151 62
153 148 64
158 152 65
155 149 64
151 146 57
151 146 65
146 141 54
146 141 60
159 180 85
156 178 64
155 176 60
156 178 72
155 177 60
154 176 51
152 174 32
152 175 22
150 174 0
151 174 22
151 174 0
151 173 0
151 174 0
150 174 0
150 174 0
150 173 0
150 174 0
152 173 0
150 174 0
149 173 0
150 173 0
151 173 0
150 172 0
150 173 0
151 174 0
150 173 0
151 173 0
151 172 0
150 172 0
150 172 0
150 172 0
151 173 0
151 173 0
149 171 0
150 171 0
151 173 0
149 172 0
149 170 0
150 171 0
149 170 0
149 169 0
149 172 0
148 167 0
148 169 0
147 165 0
147 163 0
145 163 0
145 162 0
146 161 0
145 160 0
145 161 0
140 153 0
144 155 0
140 150 0
140 149 0
140 148 0
137 138 0
134 135 0
135 134 0
126 119 0
127 121 0
112 89 0
117 104 0
105 93 0
103 83 0
104 82 12
103 92 0
114 101 0
117 105 0
126 117 0
130 128 0
137 143 0
144 157 0
150 137 53
163 110 82
168 114 96
164 111 82
160 109 69
161 109 74
163 111 80
164 112 83
170 115 97
163 111 75
169 115 93
166 112 88
162 110 81
167 113 87
168 114 87
166 113 88
169 114 94
166 113 84
164 112 81
168 113 90
167 113 87
166 112 87
167 113 89
169 115 91
170 115 96
166 113 84
168 114 89
163 111 78
167 114 89
171 116 97
166 113 85
166 112 86
167 113 87
167 114 89
164 111 79
170 115 95
169 114 95
171 115 96
167 114 88
169 115 94
166 113 86
168 114 93
169 114 94
162 110 79
166 113 87
165 111 79
170 115 96
164 111 85
163 111 81
162 109 78
162 110 82
166 111 89
156 104 67
143 115 57
111 96 19
123 109 36
106 84 6
115 95 25
105 72 13
105 73 0
113 87 7
114 85 12
116 85 15
123 93 14
115 83 12
125 96 11
121 97 21
126 109 13
131 109 18
138 117 33
129 111 9
138 118 28
138 126 30
141 130 30
144 130 29
150 140 36
143 129 34
145 135 32
146 136 30
153 147 44
150 142 36
151 144 36
151 143 37
157 149 52
150 144 32
153 146 39
153 147 42
154 149 42
148 143 30
151 146 42
153 146 44
152 146 39
152 145 45
154 147 47
155 149 42
155 151 44
156 151 47
152 146 45
157 151 48
156 150 58
153 148 44
154 149 47
153 148 49
155 150 53
153 149 51
155 149 52
155 151 54
161 153 63
154 149 51
154 149 51
151 146 53
148 145 42
152 147 57
158 152 58
157 151 63
153 148 56
149 145 49
156 151 60
157 151 67
150 145 60
147 143 48
146 142 53
151 146 61
149 143 66
142 137 56
146 140 58
148 143 60
155 177 60
154 176 56
153 175 51
154 176 56
154 176 51
153 175 45
151 174 0
150 173 0
150 173 0
150 174 0
150 173 0
149 173 0
151 174 0
150 173 0
150 173 0
151 174 0
150 173 0
150 172 0
152 174 0
149 171 0
150 172 0
150 174 0
150 172 0
150 173 0
150 173 0
150 171 0
150 173 0
151 174 0
151 173 0
151 173 0
150 173 0
150 172 0
150 171 0
149 169 0
149 169 0
148 171 0
148 171 0
149 170 0
147 168 0
147 165 0
148 167 0
147 167 0
146 163 0
147 166 0
146 166 0
144 160 0
146 164 0
146 160 0
146 157 0
142 155 0
142 154 0
141 151 0
141 156 0
140 150 0
137 147 0
138 142 0
137 137 0
133 136 0
132 133 0
131 131 0
119 109 0
119 113 0
115 104 0
121 108 0
110 97 0
109 97 0
109 100 0
112 97 0
121 112 0
126 117 0
137 146 0
138 146 0
133 146 0
161 184 0
162 115 79
162 110 77
161 109 78
164 111 79
162 110 77
164 111 81
163 111 74
168 113 95
165 111 82
168 114 89
169 114 91
167 114 87
163 111 79
168 114 94
168 114 88
164 111 79
170 114 96
171 116 96
166 113 85
166 113 84
163 112 74
166 113 84
167 113 87
168 113 89
168 114 90
165 112 82
165 111 84
167 114 88
166 113 82
164 112 78
170 115 91
167 113 86
165 112 86
163 111 72
166 113 84
168 114 89
168 114 90
168 113 88
166 112 85
164 112 79
162 110 76
166 112 82
167 114 88
161 109 72
164 111 82
164 111 81
169 114 91
163 109 80
167 113 90
166 112 88
157 105 74
153 109 59
157 175 6
116 109 28
122 108 28
106 87 20
105 86 0
107 83 13
94 71 16
105 75 11
113 88 9
108 77 9
113 84 7
120 99 11
121 94 12
125 102 14
128 106 14
125 106 11
135 119 13
134 118 24
137 122 13
132 114 20
141 128 18
135 122 27
141 133 25
140 129 19
145 135 28
141 132 20
146 137 30
145 135 28
150 143 30
150 139 40
151 144 42
147 141 32
152 145 36
151 144 34
152 144 37
148 143 28
150 144 39
151 146 41
150 146 37
154 148 37
153 148 36
158 152 58
157 151 47
154 150 45
154 149 47
152 147 44
155 149 41
154 148 48
155 151 42
153 149 49
149 146 36
156 151 52
159 151 58
153 149 47
157 152 53
153 147 47
150 146 48
159 154 61
152 147 45
153 148 52
149 144 51
151 146 48
146 142 51
144 141 47
145 141 45
147 142 52
149 144 57
150 145 53
145 141 58
146 142 48
137 132 52
136 133 48
151 145 63
143 136 59
153 175 45
153 176 45
153 175 39
154 176 45
151 174 22
151 174 0
151 172 0
150 173 0
150 174 0
151 174 0
149 172 0
152 174 0
149 173 0
152 174 0
151 174 0
151 174 0
151 174 0
150 173 0
149 172 0
151 174 0
149 172 0
151 173 0
151 173 0
150 173 0
149 171 0
149 172 0
149 172 0
150 173 0
150 172 0
149 171 0
149 170 0
148 168 0
148 170 0
146 167 0
148 170 0
150 171 0
148 169 0
148 168 0
145 162 0
149 170 0
146 167 0
147 163 0
145 162 0
148 167 0
146 162 0
144 160 0
146 164 0
144 161 0
144 160 0
143 156 0
142 156 0
139 150 0
141 150 0
140 152 0
136 145 0
138 144 0
131 133 0
134 140 0
127 128 0
126 126 0
121 116 0
116 108 0
115 104 0
115 102 0
109 97 0
115 106 0
120 119 0
117 112 0
125 125 0
124 126 0
134 142 0
134 143 0
155 177 0
167 191 0
161 155 52
157 105 68
162 110 76
164 112 82
167 113 90
162 111 79
165 112 80
166 112 90
163 110 78
165 112 86
156 106 64
166 112 86
166 113 88
167 113 88
166 113 86
166 112 84
165 112 79
163 111 82
162 111 79
168 113 85
168 114 87
163 111 75
165 112 82
163 112 78
166 112 86
165 112 79
164 110 80
164 112 84
167 115 87
167 114 87
166 113 87
169 114 93
165 112 84
163 110 78
166 112 85
167 114 88
164 112 82
169 113 97
167 114 86
164 111 81
167 112 88
166 113 84
165 113 79
166 111 86
164 110 84
165 111 86
165 110 84
163 110 84
155 104 70
160 108 68
158 105 73
155 143 38
167 190 0
153 170 11
114 101 32
113 99 25
112 95 28
111 92 11
108 83 11
111 84 6
99 70 13
111 84 6
111 86 8
115 92 13
116 94 0
117 97 0
126 105 14
116 96 0
126 107 13
133 117 16
128 109 15
137 121 16
140 123 23
140 127 23
140 129 23
137 124 28
140 129 19
142 134 16
143 134 16
146 138 28
145 137 30
145 135 22
148 141 36
145 140 22
144 138 30
148 140 34
146 138 25
148 143 25
150 143 32
152 145 41
155 150 44
152 146 34
153 149 39
154 149 47
152 146 36
150 146 34
151 147 44
150 145 45
153 150 42
151 146 42
151 146 41
155 149 49
149 145 44
154 150 45
155 150 53
155 150 47
149 144 42
153 148 49
153 149 42
150 144 54
145 141 36
149 144 51
149 145 47
147 141 48
149 145 51
150 144 57
154 149 56
139 135 47
151 147 52
144 138 54
143 137 56
150 144 57
151 145 58
144 139 54
149 143 57
143 137 58
152 175 32
154 176 45
153 175 45
150 174 0
151 174 22
150 173 0
150 173 0
150 173 0
151 174 0
151 174 0
150 173 0
150 172 0
150 172 0
149 172 0
150 172 0
149 172 0
150 173 0
150 172 0
150 172 0
151 173 0
151 172 0
149 171 0
150 172 0
149 171 0
148 170 0
149 173 0
149 170 0
150 170 0
150 170 0
150 172 0
150 171 0
149 170 0
148 170 0
150 171 0
147 169 0
149 170 0
147 166 0
149 169 0
148 167 0
147 167 0
144 162 0
147 165 0
147 167 0
146 162 0
146 161 0
145 160 0
144 159 0
140 152 0
145 161 0
145 160 0
140 151 0
142 154 0
140 151 0
138 147 0
138 144 0
129 134 0
133 136 0
130 129 0
127 124 0
123 120 0
127 129 0
115 108 0
118 113 0
115 106 0
113 104 0
117 113 0
116 110 0
123 121 0
123 121 0
127 128 0
130 141 0
147 168 0
167 192 0
166 189 0
166 186 18
160 118 67
160 108 79
161 110 74
164 110 82
160 108 72
165 111 79
164 112 80
164 112 78
163 111 78
162 110 75
160 108 68
167 113 86
165 111 84
159 108 64
165 112 81
166 113 87
169 114 91
165 111 81
164 112 80
164 111 80
161 110 72
163 111 75
165 113 80
163 111 75
162 110 74
168 114 90
165 110 82
162 109 74
164 112 76
167 112 88
163 111 74
162 111 74
167 113 87
164 111 84
164 111 81
164 111 82
163 110 80
165 112 82
164 111 81
164 112 79
163 111 78
162 109 73
161 107 74
157 107 65
165 111 82
163 109 82
163 109 79
159 108 72
158 104 68
153 109 66
165 185 15
164 186 0
166 188 0
146 154 19
103 90 19
113 97 25
115 97 22
113 92 19
108 87 0
104 83 11
108 83 6
113 89 6
110 83 6
111 90 6
113 91 0
116 96 6
112 89 0
126 108 6
127 110 17
134 117 25
129 113 0
136 120 16
132 121 16
131 120 0
138 123 22
137 128 11
143 130 23
142 132 26
140 130 16
143 132 17
143 136 19
141 132 19
150 142 34
148 139 30
150 143 32
147 140 25
143 138 22
151 144 34
147 140 30
148 145 28
151 143 41
145 141 25
145 141 19
151 145 34
146 142 30
147 142 32
154 149 47
147 141 36
145 141 36
144 139 37
148 143 36
145 142 36
148 144 28
146 141 45
150 147 32
145 141 41
145 142 37
150 145 45
150 146 47
141 136 42
142 138 39
154 148 57
151 146 52
146 140 49
146 142 41
150 146 52
146 141 42
147 141 49
142 138 42
138 133 53
148 142 57
144 139 60
137 132 48
140 135 47
140 135 58
152 175 39
153 175 39
150 173 22
151 174 0
152 174 0
152 175 0
151 174 0
150 173 0
150 173 0
150 173 0
151 173 0
150 173 0
152 174 0
150 173 0
151 173 0
149 171 0
151 173 0
149 172 0
149 171 0
149 170 0
149 172 0
150 172 0
149 171 0
149 170 0
149 171 0
149 171 0
149 172 0
149 171 0
150 171 0
146 166 0
150 172 0
147 169 0
148 169 0
148 170 0
147 167 0
148 167 0
147 166 0
149 168 0
145 163 0
143 162 0
146 163 0
145 162 0
146 162 0
145 162 0
144 159 0
144 160 0
140 154 0
139 153 0
143 158 0
139 150 0
138 148 0
138 149 0
139 148 0
133 138 0
135 144 0
136 142 0
131 135 0
132 135 0
127 128 0
128 132 0
124 123 0
116 111 0
120 118 0
118 112 0
118 108 0
110 100 0
117 115 0
117 114 0
125 127 0
131 139 0
148 167 0
165 188 0
167 190 0
165 189 0
164 187 0
163 162 52
161 109 73
157 104 62
159 108 67
161 110 68
165 112 84
160 108 75
158 108 63
167 112 88
164 111 80
164 111 82
162 110 76
161 110 71
166 113 82
164 111 79
165 112 82
167 112 87
158 108 62
165 111 82
165 113 80
159 107 65
168 114 88
166 112 81
163 111 78
163 111 75
163 111 75
164 112 81
163 110 75
163 111 80
161 109 72
166 113 82
164 110 79
164 111 84
162 111 74
167 112 91
161 108 80
163 111 74
160 110 71
162 110 78
162 110 72
162 109 76
164 111 78
163 111 81
161 108 80
161 109 71
158 107 70
163 108 79
160 108 78
155 104 67
154 155 28
160 178 0
163 183 0
162 179 0
159 178 0
144 151 16
116 102 34
109 91 16
104 84 11
110 88 0
104 75 11
105 82 0
107 84 0
105 82 2
115 91 0
106 82 0
118 99 6
125 109 11
117 99 6
118 102 11
125 109 19
130 114 17
134 119 0
128 113 16
138 125 0
137 125 11
136 126 19
133 120 11
144 132 22
138 128 16
139 132 11
141 134 19
138 133 11
147 140 32
142 132 25
146 139 22
144 140 19
146 141 16
146 140 30
150 142 37
146 141 28
145 139 19
150 143 32
146 141 22
142 137 19
142 136 30
144 139 32
151 144 37
150 143 41
151 147 39
150 143 45
154 148 41
147 141 36
146 141 36
152 146 42
148 145 37
150 145 42
148 142 39
152 146 44
151 146 45
145 142 41
142 137 37
146 141 49
148 142 49
146 142 42
149 143 45
145 140 45
153 147 45
142 138 48
144 139 47
140 136 45
143 138 54
139 135 44
132 128 44
138 134 45
140 136 49
149 171 39
150 173 22
151 174 0
150 174 0
150 173 0
150 173 0
150 172 0
151 174 0
150 172 0
150 173 0
150 172 0
150 172 0
150 172 0
150 172 0
149 171 0
149 172 0
150 172 0
150 172 0
150 172 0
147 170 0
149 171 0
149 169 0
148 171 0
148 170 0
150 171 0
149 171 0
148 166 0
147 169 0
149 171 0
147 168 0
149 170 0
147 166 0
148 169 0
145 164 0
148 168 0
149 168 0
145 163 0
147 165 0
144 161 0
146 164 0
146 165 0
142 159 0
145 162 0
144 162 0
142 158 0
142 158 0
144 160 0
140 155 0
140 152 0
141 157 0
138 148 0
136 145 0
141 154 0
136 144 0
135 141 0
129 132 0
128 133 0
135 142 0
128 131 0
120 122 0
121 122 0
119 116 0
115 115 0
111 102 0
108 98 0
109 104 0
121 120 0
130 135 0
124 129 0
137 152 0
163 183 0
163 185 0
160 180 0
161 180 0
165 187 0
161 179 0
151 129 39
158 105 74
158 107 72
155 105 61
162 109 80
162 110 76
160 107 72
162 109 76
162 110 78
166 111 82
168 114 86
163 110 76
159 107 67
164 110 80
165 112 79
165 112 85
166 113 85
165 112 84
167 114 88
163 110 78
163 112 79
168 113 91
165 111 80
161 110 68
163 110 74
160 108 70
167 112 85
163 111 81
162 110 74
163 111 79
167 112 88
162 109 75
163 110 81
165 112 85
161 109 74
163 110 78
166 113 80
161 108 71
159 108 67
166 111 81
161 108 72
166 112 86
159 107 71
160 108 75
158 105 68
162 108 78
149 99 59
145 122 37
160 171 0
160 175 0
158 171 0
154 165 0
157 172 0
160 176 0
134 135 11
96 79 11
103 89 22
104 83 17
103 82 16
105 85 0
105 84 0
112 90 0
117 97 0
118 100 0
117 100 0
119 102 6
121 105 0
118 98 0
125 106 6
119 104 0
127 109 11
126 113 0
131 116 0
133 119 16
133 123 16
133 120 0
140 130 16
136 125 11
142 133 16
140 132 11
140 131 11
141 130 19
142 134 28
145 139 11
142 135 19
144 136 16
147 141 22
142 134 28
147 139 30
146 140 22
144 140 22
146 140 25
146 139 34
144 141 25
146 140 28
143 137 16
145 139 32
151 145 37
137 132 34
148 144 37
144 138 39
139 136 28
147 144 32
143 139 39
144 139 32
148 143 39
145 141 36
146 142 39
146 142 41
142 137 45
144 140 42
138 133 34
149 145 42
143 138 48
142 138 47
140 135 47
145 140 54
135 130 45
142 136 54
134 131 34
144 138 56
134 128 47
132 128 45
130 127 44
151 172 51
150 172 32
149 172 0
150 173 0
151 173 0
150 173 0
150 173 0
149 172 0
150 172 0
151 173 0
151 173 0
150 172 0
149 172 0
150 172 0
149 172 0
149 171 0
149 171 0
149 171 0
150 171 0
149 171 0
149 171 0
148 170 0
149 172 0
149 170 0
147 170 0
148 169 0
149 169 0
145 164 0
146 168 0
148 170 0
145 163 0
146 166 0
146 166 0
147 167 0
147 164 0
148 168 0
149 169 0
142 160 0
145 162 0
146 163 0
142 160 0
145 162 0
142 158 0
143 157 0
142 155 0
143 159 0
144 156 0
139 154 0
142 153 0
137 153 0
135 145 0
132 143 0
135 143 0
135 145 0
135 142 0
131 136 0
131 132 0
133 139 0
124 125 0
124 122 0
122 121 0
119 116 0
112 110 0
109 100 0
111 104 0
118 116 0
120 118 0
118 125 0
148 163 0
155 172 0
158 178 0
157 173 0
159 177 0
156 173 0
160 175 0
156 170 0
162 176 27
153 116 49
159 106 70
162 110 75
160 108 71
160 109 75
160 108 72
160 109 74
161 109 70
163 109 78
161 109 72
159 108 67
163 111 76
163 111 71
161 108 72
166 113 82
163 112 76
158 107 65
163 111 72
162 108 78
161 110 71
163 110 72
161 109 72
165 111 82
161 109 72
166 111 82
161 110 72
164 111 78
163 110 78
163 110 81
163 111 79
161 110 67
161 108 72
163 110 80
163 110 80
163 110 79
163 110 80
164 110 81
161 108 71
165 111 84
163 109 78
158 107 65
162 110 78
158 106 71
157 107 64
155 101 68
155 112 56
151 152 0
158 167 0
151 162 0
151 159 0
151 160 0
158 171 0
158 171 0
153 162 0
131 134 11
96 78 11
98 80 19
104 87 11
93 72 0
97 75 0
108 88 0
107 83 0
115 92 0
116 97 0
117 97 0
114 93 6
109 95 0
121 105 0
124 107 0
127 113 0
130 117 0
132 121 16
126 111 0
135 121 11
130 119 0
135 125 0
143 133 19
136 128 11
138 128 16
137 130 11
137 126 16
140 133 16
143 136 19
148 142 37
140 134 16
138 130 11
140 132 19
143 139 16
142 136 19
134 128 11
140 133 25
139 132 30
139 132 25
145 139 28
142 136 16
141 135 28
146 140 42
145 140 37
148 142 36
139 133 30
139 135 28
148 142 34
141 137 32
138 133 34
149 143 45
140 135 30
148 141 49
143 138 37
142 137 39
146 140 47
142 137 39
140 135 37
139 134 39
137 132 42
130 127 36
133 128 44
139 134 45
139 135 37
132 127 52
130 124 44
126 121 39
137 132 52
129 124 41
141 160 51
145 166 32
149 171 32
149 172 0
148 171 0
150 173 0
148 171 0
149 172 0
150 173 0
149 172 0
149 171 0
149 172 0
148 171 0
148 170 0
147 171 0
150 173 0
149 172 0
147 169 0
149 171 0
148 171 0
150 172 0
148 170 0
149 171 0
145 164 0
147 166 0
149 168 0
146 168 0
147 166 0
147 167 0
148 168 0
148 168 0
148 169 0
145 163 0
147 165 0
144 160 0
146 162 0
145 162 0
143 161 0
145 163 0
146 165 0
142 161 0
143 161 0
138 152 0
142 156 0
145 163 0
142 157 0
140 154 0
139 153 0
138 148 0
137 150 0
132 141 0
134 144 0
130 135 0
131 137 0
125 130 0
125 132 0
125 127 0
128 134 0
121 120 0
118 117 0
116 113 0
111 112 0
119 120 0
109 105 0
113 112 0
122 123 0
117 122 0
139 151 0
158 175 0
157 174 0
152 166 0
153 169 0
153 165 0
160 179 0
157 170 0
150 159 0
154 169 0
150 156 19
148 103 50
151 102 53
151 103 54
156 104 70
156 105 62
159 106 65
164 111 79
156 106 57
160 109 70
160 108 70
162 110 75
163 110 79
162 108 75
162 109 76
162 110 76
158 106 67
159 106 70
162 110 72
160 109 67
157 108 64
161 108 71
161 108 70
164 112 76
162 109 72
165 110 81
162 110 75
157 106 65
163 110 78
161 108 72
162 110 75
161 109 68
160 108 71
161 109 72
158 107 67
161 109 68
157 107 61
161 108 70
158 107 68
158 106 67
157 104 68
163 110 78
159 106 76
153 102 61
152 107 58
148 146 25
150 154 0
150 156 0
148 152 0
150 160 0
144 149 0
150 155 0
143 144 0
150 157 0
144 148 0
132 131 0
107 99 16
92 70 11
105 86 11
95 77 0
102 82 0
110 91 0
111 92 0
110 91 0
115 95 0
113 95 0
123 107 0
112 96 0
130 116 0
128 112 0
128 114 0
124 110 0
131 117 11
133 122 0
131 117 0
131 119 0
128 118 11
132 119 0
135 124 0
135 125 11
135 124 0
136 126 11
137 129 11
135 129 11
142 134 16
139 131 11
140 133 19
141 133 19
140 133 28
142 133 22
133 127 19
137 130 19
142 136 25
141 136 19
142 137 25
141 136 11
146 138 36
140 134 34
137 133 19
143 138 34
140 135 39
148 143 39
146 140 34
141 134 32
141 136 36
146 142 34
146 141 34
146 140 41
139 135 36
145 139 41
146 141 36
144 140 44
142 137 39
136 132 37
141 137 32
145 139 52
140 137 36
142 137 51
132 126 51
123 119 39
128 124 39
122 118 47
117 114 39
159 183 22
140 161 39
144 165 45
147 169 0
146 169 0
150 172 0
149 173 0
150 173 0
147 169 0
150 172 0
150 172 0
148 171 0
150 171 0
150 171 0
150 172 0
149 172 0
147 170 0
147 168 0
148 170 0
148 169 0
149 171 0
146 167 0
145 167 0
149 170 0
148 170 0
148 168 0
144 164 0
145 164 0
146 162 0
145 164 0
147 166 0
146 165 0
144 163 0
148 167 0
146 166 0
146 165 0
145 163 0
144 161 0
143 160 0
141 160 0
144 160 0
140 155 0
140 155 0
144 160 0
142 156 0
142 157 0
139 154 0
137 149 0
135 145 0
135 144 0
135 147 0
133 143 0
132 142 0
133 137 0
128 130 0
133 138 0
118 120 0
124 129 0
114 115 0
114 114 0
111 108 0
112 111 0
115 112 0
116 117 0
118 119 0
114 122 0
137 149 0
148 160 0
144 156 0
146 157 0
152 165 0
150 161 0
148 159 0
146 157 0
151 162 0
152 161 0
151 162 0
145 149 0
152 145 43
148 99 52
152 101 52
152 103 50
158 107 62
157 104 65
158 106 68
160 109 70
161 108 79
158 107 62
163 110 76
157 102 71
163 110 78
161 108 74
159 106 68
160 110 68
161 107 74
159 109 62
159 107 67
157 106 61
163 110 79
161 110 72
162 109 70
162 110 74
162 108 72
157 107 67
156 107 56
160 109 67
161 109 75
158 107 57
162 110 74
161 107 74
157 105 67
160 108 71
156 104 59
157 107 62
163 110 77
155 102 68
156 104 65
153 101 53
153 101 67
157 105 65
145 97 52
142 132 24
149 152 0
146 149 0
141 142 0
143 142 0
141 142 0
145 147 0
141 145 0
146 144 0
141 133 0
142 142 0
135 134 0
142 145 0
100 89 0
91 74 11
90 72 0
97 78 11
103 83 0
107 87 0
104 84 0
107 92 0
111 92 0
120 103 0
110 88 0
116 100 0
123 110 0
112 97 0
127 115 0
123 105 0
127 114 0
130 118 0
126 112 0
133 121 0
127 113 11
130 121 11
139 130 16
135 125 0
132 123 11
137 129 19
134 128 0
137 129 0
135 130 0
140 132 11
139 130 0
139 133 16
142 135 22
140 133 19
140 134 22
135 127 16
142 133 16
140 133 22
141 134 25
136 131 22
136 129 25
143 137 32
140 135 19
137 132 28
141 136 28
139 134 25
141 133 36
139 134 32
134 130 19
145 139 45
136 129 37
137 131 36
128 123 19
137 132 44
135 129 41
140 135 48
135 129 45
139 134 39
139 136 41
130 125 42
130 126 34
126 122 37
123 117 48
117 114 36
116 119 28
155 174 19
170 195 0
164 189 0
149 171 39
141 162 32
143 165 22
144 165 22
149 172 0
148 171 0
148 171 0
149 171 0
149 171 0
147 169 0
148 170 0
146 168 0
147 168 0
149 170 0
149 170 0
149 170 0
147 168 0
148 169 0
148 168 0
149 170 0
148 169 0
148 166 0
147 167 0
146 167 0
146 168 0
147 167 0
145 164 0
147 166 0
146 165 0
145 164 0
146 166 0
144 161 0
144 162 0
144 163 0
144 162 0
140 156 0
145 163 0
140 158 0
142 159 0
141 158 0
144 159 0
138 151 0
139 154 0
135 148 0
135 144 0
135 146 0
138 149 0
129 137 0
133 145 0
129 134 0
126 132 0
125 128 0
128 133 0
121 122 0
114 116 0
115 112 0
113 113 0
119 120 0
102 97 0
108 109 0
110 106 0
102 101 0
116 125 0
140 152 0
141 150 0
138 149 0
137 147 0
138 145 0
145 155 0
142 147 0
142 150 0
141 147 0
147 149 0
143 148 0
146 152 0
147 151 0
142 143 0
148 136 31
153 100 59
154 104 54
153 102 54
155 104 62
154 104 61
157 107 61
155 104 54
159 108 68
155 105 62
158 107 64
161 107 71
161 110 68
161 107 72
157 105 62
157 107 57
162 110 76
157 106 64
156 104 57
159 108 67
157 105 64
155 105 57
157 108 62
157 106 61
161 108 70
161 108 78
160 110 65
158 107 67
157 105 62
158 106 64
161 107 74
156 105 65
161 107 70
156 105 59
153 104 50
156 104 57
157 105 68
161 109 74
152 99 54
153 100 59
147 97 39
142 118 37
141 140 0
146 145 0
143 139 0
139 136 0
141 142 0
139 133 0
134 128 0
137 133 0
139 135 0
135 127 0
133 127 0
127 121 0
132 130 0
129 122 0
111 100 11
87 66 16
89 71 16
97 76 11
93 73 16
110 93 0
108 91 0
106 88 0
112 91 0
108 88 0
116 102 0
110 92 0
117 101 0
117 103 0
117 103 0
124 108 0
122 109 0
127 114 0
129 120 0
125 112 0
131 121 11
130 115 0
135 124 0
133 121 0
135 125 0
127 117 0
134 124 11
133 124 0
136 129 11
136 127 16
136 131 0
133 125 16
142 134 28
140 131 19
134 126 16
135 129 22
134 127 16
142 135 16
132 127 19
139 133 25
144 139 30
140 133 34
138 132 25
135 130 32
140 135 25
135 129 25
132 127 28
138 133 30
133 127 28
136 130 28
141 135 44
141 136 41
128 124 32
137 130 37
136 131 36
139 132 49
126 121 37
137 132 44
135 130 49
134 128 39
124 117 41
136 130 52
145 154 36
167 191 0
169 195 0
168 194 0
168 194 0
169 195 0
157 181 22
137 158 22
141 162 0
145 167 0
149 170 0
146 168 0
148 170 0
149 170 0
148 170 0
147 169 0
147 168 0
148 169 0
148 169 0
146 167 0
149 171 0
147 168 0
146 168 0
146 167 0
147 169 0
145 165 0
146 165 0
144 164 0
147 169 0
146 166 0
147 166 0
147 166 0
144 163 0
143 161 0
141 158 0
143 161 0
146 164 0
143 162 0
142 161 0
140 157 0
142 157 0
143 160 0
137 150 0
143 161 0
135 149 0
141 154 0
132 144 0
137 152 0
139 150 0
135 148 0
136 150 0
131 139 0
129 140 0
127 132 0
125 128 0
121 123 0
119 122 0
118 120 0
117 122 0
116 117 0
114 112 0
115 116 0
112 115 0
102 100 0
98 94 0
99 101 0
126 135 0
132 137 0
121 126 0
129 133 0
130 136 0
129 133 0
131 135 0
146 157 0
141 146 0
141 147 0
138 141 0
138 141 0
142 146 0
139 141 0
134 130 0
137 134 0
133 126 0
139 126 24
146 95 54
153 102 62
155 104 65
154 102 57
155 104 65
156 105 59
158 106 67
156 105 59
156 104 59
158 107 68
157 104 65
160 108 72
163 110 75
156 106 57
161 108 74
158 105 75
159 107 68
156 104 57
156 106 59
157 106 59
158 108 68
156 106 62
156 105 57
161 107 72
157 105 62
158 105 65
161 107 71
159 107 64
152 101 52
157 106 62
154 102 54
157 104 57
157 104 68
155 102 61
153 101 57
150 101 46
146 97 37
144 95 56
142 119 31
136 129 0
136 129 0
132 126 0
133 125 0
135 128 0
136 134 0
139 135 0
138 129 0
131 123 0
133 123 0
130 119 0
120 109 0
120 115 0
123 112 0
117 106 0
117 107 0
117 107 0
92 74 0
84 69 0
84 64 0
93 74 0
94 75 0
106 83 0
109 88 0
107 89 0
110 88 0
116 99 0
118 101 0
114 98 0
116 98 0
114 97 0
121 108 0
122 108 0
120 107 0
121 111 0
127 117 0
131 122 11
129 118 0
129 118 0
133 126 19
130 123 0
126 119 0
136 125 0
136 128 0
133 122 11
134 127 11
139 132 19
133 124 19
138 130 0
133 124 11
133 125 16
135 128 16
136 129 22
137 132 25
137 132 25
137 129 30
137 129 28
141 135 30
138 134 25
135 130 22
135 130 34
133 128 25
133 125 28
131 125 34
132 127 30
128 125 30
133 126 32
135 129 39
135 130 42
130 126 30
126 120 32
127 122 34
120 116 19
125 119 39
116 111 34
133 135 39
164 185 19
169 195 0
169 194 0
168 195 0
168 195 0
169 195 0
169 195 0
169 195 0
168 194 0
153 176 0
131 151 22
134 154 0
146 168 0
143 164 0
146 167 0
147 168 0
149 171 0
148 169 0
147 168 0
148 169 0
149 169 0
147 167 0
146 167 0
149 170 0
146 165 0
145 166 0
147 167 0
146 165 0
146 165 0
146 166 0
143 162 0
142 160 0
144 163 0
143 162 0
144 161 0
144 162 0
142 160 0
141 158 0
145 163 0
144 163 0
138 154 0
139 154 0
139 156 0
143 159 0
144 157 0
139 152 0
140 155 0
136 148 0
138 147 0
134 143 0
137 151 0
127 137 0
134 143 0
125 131 0
131 141 0
122 129 0
120 126 0
115 119 0
115 119 0
111 111 0
113 115 0
107 108 0
96 92 0
96 95 0
86 89 0
104 106 0
110 115 0
112 118 0
121 124 0
126 129 0
125 129 0
130 134 0
137 143 0
127 127 0
130 126 0
136 134 0
129 125 0
136 134 0
131 130 0
136 138 0
134 134 0
127 122 0
133 131 0
134 127 0
132 127 0
136 121 14
143 94 50
149 97 52
154 104 55
155 103 59
148 98 42
156 105 64
158 105 67
155 102 54
154 103 57
158 108 61
154 101 61
154 102 59
155 106 56
154 103 50
155 103 59
156 105 59
159 108 59
156 106 61
157 107 59
156 106 54
157 105 64
158 107 56
153 101 52
154 103 57
157 105 64
151 100 61
155 104 54
156 104 61
152 101 52
152 101 48
151 100 48
156 103 64
154 104 64
148 95 50
149 96 54
143 92 42
131 115 14
131 120 0
126 118 0
140 134 0
131 122 0
126 113 0
132 130 0
132 121 0
122 110 0
122 109 0
125 115 0
122 109 0
123 115 0
127 112 0
124 110 0
121 110 0
114 105 0
115 104 0
106 91 0
112 99 0
101 86 0
79 62 0
87 69 0
94 75 0
94 77 0
91 72 0
100 83 0
101 79 0
107 87 0
105 85 0
114 97 0
110 93 0
117 104 0
115 100 0
122 108 0
115 99 0
120 104 0
128 115 0
119 106 11
125 109 0
125 109 11
130 120 0
124 114 0
129 120 0
132 120 0
128 117 16
124 116 0
125 115 0
135 124 16
127 121 16
127 118 0
131 121 19
125 117 19
136 126 22
133 125 19
127 120 19
132 123 11
136 128 22
127 121 19
132 125 0
138 133 28
134 129 28
131 125 28
135 130 32
132 126 34
131 127 25
129 125 28
134 127 25
127 120 36
128 125 25
122 117 34
126 120 36
123 119 30
122 117 37
113 108 32
131 130 37
148 166 16
167 192 0
170 195 0
169 195 0
169 194 0
168 193 0
169 195 0
169 194 0
169 195 0
168 194 0
169 195 0
168 194 0
167 192 0
151 173 0
128 147 0
135 155 0
139 160 0
146 167 0
147 168 0
146 167 0
147 167 0
143 164 0
147 167 0
149 168 0
147 167 0
147 168 0
146 166 0
145 165 0
146 166 0
143 163 0
146 165 0
144 163 0
140 159 0
147 165 0
143 162 0
139 155 0
142 159 0
143 162 0
144 163 0
142 158 0
143 161 0
143 159 0
138 154 0
139 156 0
138 153 0
139 153 0
137 150 0
134 149 0
133 146 0
135 148 0
129 141 0
133 144 0
129 138 0
128 138 0
127 135 0
121 127 0
129 137 0
119 124 0
120 124 0
116 120 0
115 121 0
101 99 0
99 100 0
87 89 0
76 75 0
86 86 0
100 105 0
100 101 0
105 103 0
118 118 0
112 111 0
124 123 0
119 111 0
127 125 0
127 125 0
124 120 0
123 121 0
129 128 0
128 118 0
134 133 0
128 121 0
135 134 0
124 115 0
131 127 0
123 114 0
128 121 0
128 120 0
136 128 0
127 109 14
145 104 37
150 98 50
147 97 46
152 101 52
153 101 56
149 99 42
153 100 57
157 104 67
155 104 59
149 100 39
151 101 52
154 102 52
149 100 42
157 106 62
152 103 46
152 102 50
153 103 57
153 101 54
153 101 57
151 101 46
154 103 59
157 103 64
157 107 59
154 102 59
154 102 61
153 102 56
151 101 48
154 101 56
152 101 52
156 103 65
152 100 52
147 95 44
145 94 39
140 96 44
122 105 14
117 98 0
131 118 0
120 107 0
128 117 0
120 105 0
128 124 0
122 111 0
124 113 0
125 111 0
131 122 0
130 120 0
120 106 0
121 106 0
125 112 0
119 109 0
118 106 0
110 97 0
115 102 0
111 97 0
108 94 0
109 92 0
98 81 0
82 64 0
73 54 0
80 60 0
89 68 0
91 69 0
93 73 0
103 85 0
95 78 0
107 89 0
106 91 0
115 99 0
116 98 0
117 100 0
120 102 0
122 112 0
117 104 0
124 113 0
122 111 0
124 111 0
124 115 0
116 106 11
133 121 0
116 107 0
122 110 16
127 115 0
127 117 11
125 116 11
132 125 19
137 128 16
123 117 11
134 125 16
138 127 16
133 126 28
127 121 11
136 130 16
126 119 19
129 124 25
128 122 22
122 117 22
133 126 30
131 122 22
129 122 28
122 115 25
128 120 32
123 117 11
135 130 41
123 117 36
123 117 36
128 124 36
128 123 34
114 110 32
134 138 34
149 163 19
168 193 0
168 194 0
169 192 0
168 194 0
169 194 0
168 194 0
170 195 0
168 194 0
169 194 0
168 194 0
167 192 0
168 193 0
169 195 0
170 195 0
167 193 0
167 193 0
156 179 0
144 166 0
133 152 0
140 160 0
142 162 0
144 163 0
147 168 0
146 166 0
143 164 0
144 164 0
145 165 0
145 164 0
145 163 0
144 163 0
141 160 0
143 162 0
144 163 0
142 161 0
145 163 0
144 161 0
142 160 0
139 157 0
143 161 0
140 157 0
136 153 0
136 154 0
136 151 0
134 148 0
134 149 0
136 150 0
134 148 0
132 147 0
130 140 0
130 144 0
127 139 0
128 140 0
129 140 0
125 136 0
121 132 0
126 136 0
119 128 0
114 124 0
113 120 0
116 120 0
101 102 0
95 97 0
80 83 0
70 65 0
77 75 0
83 83 0
100 98 0
108 110 0
102 104 0
110 110 0
114 112 0
121 120 0
125 123 0
126 126 0
128 127 0
125 120 0
137 138 0
127 120 0
132 130 0
124 120 0
127 119 0
132 130 0
132 124 0
123 111 0
126 116 0
124 113 0
129 121 0
135 128 0
119 100 0
119 100 0
117 96 0
135 104 37
145 96 44
145 95 37
148 96 50
147 95 46
151 101 44
150 98 48
155 102 59
155 103 62
151 101 48
151 99 50
151 102 50
157 103 65
152 100 50
149 98 39
155 104 56
154 101 62
155 105 54
154 104 59
158 104 71
155 103 52
150 99 57
147 95 39
151 97 56
149 95 50
150 99 50
149 97 42
147 96 46
147 94 44
146 92 42
141 90 42
129 96 28
113 92 0
114 90 0
122 99 0
115 98 0
127 118 0
122 109 0
128 117 0
119 102 0
117 103 0
119 105 0
123 112 0
129 119 0
123 108 0
120 111 0
124 114 0
120 108 0
119 108 0
122 110 0
118 103 0
120 111 0
109 94 0
106 89 0
109 93 0
102 86 0
90 72 0
82 64 0
79 59 0
79 64 0
69 51 0
78 56 0
94 75 0
91 71 0
102 87 0
108 91 0
108 90 0
107 89 0
97 82 0
112 95 0
113 98 0
121 106 0
125 110 0
115 103 0
118 107 0
106 92 11
122 107 0
125 116 11
126 114 11
120 107 0
121 109 0
130 119 0
127 117 11
121 111 16
125 114 11
126 118 11
123 113 0
130 119 11
124 116 16
128 118 11
128 123 16
128 119 11
131 124 11
125 118 22
126 119 22
129 122 28
126 121 32
126 121 22
129 121 36
118 113 22
116 111 22
119 114 28
122 115 30
109 104 22
109 104 25
136 144 28
152 170 16
170 194 0
168 192 0
170 194 0
167 192 0
167 192 0
168 193 0
167 193 0
168 194 0
168 193 0
168 193 0
169 195 0
169 194 0
168 194 0
167 193 0
168 194 0
170 195 0
169 194 0
166 191 0
167 193 0
167 193 0
163 187 0
148 170 0
142 162 0
127 145 0
140 160 0
137 156 0
141 160 0
143 162 0
143 162 0
145 163 0
144 164 0
142 160 0
144 163 0
139 157 0
140 157 0
142 160 0
142 159 0
141 158 0
137 153 0
140 158 0
140 157 0
136 151 0
135 150 0
139 155 0
134 146 0
137 151 0
131 145 0
132 145 0
128 143 0
131 144 0
130 145 0
127 139 0
126 136 0
124 137 0
121 131 0
116 124 0
119 128 0
115 122 0
109 116 0
100 104 0
91 94 0
87 93 0
74 78 0
65 66 0
79 80 0
84 86 0
83 83 0
102 103 0
100 97 0
105 101 0
114 111 0
119 114 0
115 112 0
127 125 0
125 122 0
124 121 0
119 113 0
125 121 0
124 116 0
133 131 0
122 112 0
131 124 0
132 122 0
122 107 0
132 129 0
133 124 0
125 110 0
121 107 0
129 119 0
127 115 0
121 99 0
122 102 0
115 94 0
106 79 0
107 76 0
125 76 28
143 90 28
145 94 44
147 93 44
145 93 42
146 94 48
153 98 56
152 100 48
151 98 52
150 101 44
146 95 44
149 97 50
154 102 52
151 99 46
152 101 56
149 98 48
146 93 31
152 100 50
148 96 50
150 99 44
152 100 52
148 94 52
144 95 37
147 96 44
147 94 34
147 94 48
143 90 42
125 80 37
115 80 14
109 86 0
118 95 0
119 93 0
110 83 0
124 105 0
122 111 0
127 118 0
115 101 0
125 112 0
121 109 0
123 110 0
123 115 0
125 113 0
123 110 0
122 106 0
126 113 0
124 110 0
119 101 0
115 100 0
114 98 0
113 93 0
116 99 0
113 96 0
107 92 0
104 88 0
100 85 0
96 78 0
88 69 0
86 67 0
72 55 0
66 49 0
82 64 0
79 58 0
82 62 0
87 68 0
101 84 0
97 78 0
98 80 0
113 98 0
104 85 0
105 91 0
116 100 0
109 94 0
112 97 0
111 96 0
113 100 0
118 105 0
116 105 0
111 98 0
114 101 0
122 110 0
119 107 0
118 107 11
126 115 11
123 113 19
124 114 0
112 104 16
122 114 16
126 116 19
112 103 16
126 118 16
124 117 25
124 117 16
128 120 30
116 110 16
120 114 22
121 115 32
116 108 22
120 113 28
120 113 37
117 109 28
129 133 28
138 150 19
165 186 16
168 193 0
168 192 0
167 190 0
169 193 0
166 190 0
167 191 0
167 191 0
166 190 0
168 194 0
168 193 0
167 193 0
168 194 0
168 194 0
166 193 0
168 194 0
167 193 0
168 193 0
168 193 0
167 192 0
167 193 0
166 192 0
166 192 0
164 190 0
169 193 0
167 192 0
161 185 0
143 165 0
141 161 0
136 155 0
135 153 0
133 150 0
141 160 0
140 158 0
140 158 0
136 153 0
140 158 0
135 152 0
143 160 0
136 153 0
136 152 0
139 155 0
134 151 0
133 149 0
131 148 0
135 149 0
130 146 0
128 144 0
133 148 0
124 138 0
128 141 0
125 138 0
123 135 0
127 141 0
120 128 0
120 132 0
115 126 0
115 124 0
100 107 0
108 117 0
88 94 0
89 95 0
76 80 0
66 68 0
63 63 0
71 72 0
88 92 0
86 87 0
102 102 0
109 110 0
107 104 0
116 115 0
107 101 0
123 121 0
126 129 0
122 117 0
129 131 0
127 123 0
128 125 0
127 127 0
131 130 0
127 124 0
125 119 0
129 121 0
124 119 0
132 119 0
130 121 0
125 116 0
128 114 0
125 117 0
132 123 0
124 106 0
114 94 0
122 102 0
116 95 0
118 101 0
104 74 0
114 90 0
103 66 0
115 85 24
122 83 19
135 87 34
141 88 34
141 88 34
148 93 46
153 101 56
146 95 37
150 97 54
147 95 42
146 97 34
149 97 50
148 94 44
147 97 39
149 97 48
146 93 42
144 92 46
148 97 39
142 90 42
146 94 42
142 88 34
144 92 44
146 92 52
131 79 37
119 75 28
107 82 0
104 76 0
107 80 0
115 89 0
118 101 0
121 101 0
117 92 0
125 107 0
117 100 0
129 116 0
129 119 0
127 113 0
119 103 0
126 117 0
122 109 0
132 126 0
130 122 0
130 122 0
132 121 0
128 120 0
126 116 0
130 121 0
118 101 0
119 104 0
119 108 0
122 107 0
108 93 0
110 98 0
101 86 0
104 87 0
107 88 0
93 78 0
93 77 0
81 62 0
72 56 0
60 41 0
66 51 0
69 53 0
80 59 0
85 69 0
89 72 0
83 67 0
99 79 0
101 81 0
94 78 0
97 82 0
110 95 0
96 84 0
107 93 0
114 101 0
113 100 0
117 105 11
116 105 0
108 97 0
113 102 0
122 110 0
119 106 0
117 107 16
116 109 19
115 106 16
116 106 11
114 105 0
115 106 16
112 105 19
115 106 22
113 105 11
117 111 16
109 102 19
120 113 19
105 97 11
117 110 25
135 142 19
145 157 11
160 179 11
165 187 0
166 189 0
167 190 0
165 188 0
165 188 0
163 185 0
163 187 0
167 190 0
167 192 0
166 190 0
168 190 0
168 192 0
166 190 0
167 192 0
168 193 0
167 193 0
168 193 0
168 193 0
166 192 0
164 189 0
168 193 0
166 192 0
167 191 0
166 191 0
166 191 0
166 190 0
166 190 0
167 191 0
168 191 0
166 189 0
166 188 0
164 188 0
157 178 0
144 164 0
137 156 0
123 139 0
125 142 0
129 146 0
138 155 0
132 148 0
132 149 0
133 148 0
128 144 0
132 148 0
130 145 0
129 145 0
130 145 0
127 141 0
126 140 0
124 137 0
125 139 0
119 133 0
124 137 0
116 128 0
116 127 0
106 116 0
109 120 0
95 104 0
88 93 0
92 100 0
78 86 0
61 66 0
67 72 0
75 80 0
82 86 0
83 87 0
95 99 0
103 106 0
112 116 0
108 109 0
108 106 0
116 117 0
124 127 0
119 120 0
118 117 0
129 128 0
124 122 0
126 125 0
128 124 0
129 124 0
128 128 0
130 128 0
129 123 0
130 125 0
134 131 0
127 120 0
129 123 0
127 120 0
121 105 0
137 134 0
131 123 0
124 112 0
126 110 0
124 112 0
124 106 0
125 111 0
125 104 0
120 100 0
113 91 0
113 88 0
114 92 0
109 87 0
99 70 0
103 78 0
102 60 14
113 67 19
131 81 44
138 85 31
145 91 39
141 88 31
145 92 46
142 90 39
143 88 37
141 88 31
144 92 42
150 95 50
143 88 31
144 87 42
143 91 39
136 80 34
138 84 19
132 83 24
115 70 24
101 53 24
92 63 0
96 65 0
98 66 0
109 84 0
105 67 0
108 76 0
110 83 0
122 97 0
116 88 0
117 91 0
125 118 0
132 125 0
123 108 0
130 119 0
126 113 0
135 122 0
131 124 0
123 111 0
122 110 0
122 113 0
128 122 0
130 121 0
118 97 0
128 121 0
126 115 0
124 111 0
122 115 0
123 108 0
117 101 0
127 111 0
114 98 0
108 92 0
106 87 0
109 92 0
110 91 0
103 86 0
98 85 0
96 82 0
82 63 0
80 65 0
69 55 0
68 52 0
66 52 0
72 55 0
75 59 0
74 57 0
84 67 0
87 73 0
97 82 0
96 79 0
93 79 0
98 84 0
97 85 0
99 85 0
109 95 0
101 88 0
110 99 16
104 95 16
98 85 0
106 95 16
112 100 16
106 97 11
108 97 11
118 109 11
105 94 11
108 98 16
105 93 11
116 110 19
130 126 16
121 123 16
133 142 19
153 166 0
155 168 0
160 177 0
161 175 0
162 181 0
163 184 0
161 180 0
162 183 0
165 185 0
168 190 0
164 185 0
167 188 0
167 190 0
166 188 0
164 185 0
169 190 0
166 189 0
166 189 0
166 190 0
168 194 0
167 192 0
170 195 0
166 192 0
166 191 0
166 191 0
166 191 0
166 191 0
167 191 0
165 190 0
165 189 0
163 187 0
164 188 0
164 187 0
166 189 0
166 189 0
164 187 0
164 186 0
162 184 0
160 183 0
163 183 0
160 182 0
159 179 0
151 171 0
143 162 0
134 150 0
141 158 0
121 136 0
127 143 0
123 138 0
114 127 0
119 132 0
115 128 0
116 130 0
112 124 0
115 128 0
111 124 0
106 118 0
100 111 0
102 112 0
96 106 0
91 101 0
89 97 0
85 93 0
82 88 0
80 88 0
86 92 0
93 101 0
94 100 0
100 106 0
105 112 0
109 115 0
109 113 0
116 123 0
116 118 0
119 117 0
117 120 0
116 115 0
116 115 0
128 131 0
130 135 0
132 134 0
129 128 0
129 126 0
133 130 0
131 129 0
131 129 0
129 132 0
133 129 0
137 133 0
136 132 0
135 132 0
133 130 0
129 117 0
133 121 0
125 118 0
140 137 0
127 117 0
129 112 0
134 125 0
131 120 0
128 113 0
117 96 0
116 91 0
117 96 0
118 95 0
119 94 0
109 80 0
105 73 0
103 76 0
87 48 0
87 61 0
79 43 0
83 49 0
92 48 0
108 67 19
114 67 24
125 73 19
126 75 24
132 81 34
123 68 14
124 71 19
123 77 19
113 64 28
101 58 14
97 59 14
86 53 0
78 43 0
80 49 0
92 57 0
89 50 0
100 70 0
114 93 0
119 87 0
105 76 0
117 96 0
115 90 0
113 90 0
124 111 0
120 104 0
121 99 0
128 109 0
132 118 0
129 118 0
128 119 0
129 117 0
129 119 0
133 124 0
133 123 0
125 114 0
130 118 0
133 131 0
135 133 0
128 120 0
129 117 0
129 117 0
137 131 0
129 117 0
128 117 0
126 119 0
133 126 0
120 108 0
125 116 0
114 101 0
112 93 0
112 99 0
109 96 0
106 91 0
96 82 0
99 83 0
98 84 0
96 84 0
89 77 0
90 78 0
63 47 0
93 78 0
80 63 0
83 70 0
84 70 0
86 71 0
84 72 0
90 77 0
99 84 0
97 85 11
91 80 0
95 83 11
108 98 0
95 82 0
107 93 11
103 89 16
107 99 11
108 98 0
117 113 0
127 124 19
130 130 0
140 146 0
143 148 11
152 162 0
154 163 0
158 172 0
157 170 0
158 172 0
162 176 0
160 176 0
159 176 0
161 178 0
161 178 0
161 180 0
161 177 0
164 184 0
163 184 0
166 185 0
164 184 0
168 190 0
167 188 0
162 184 0
167 189 0
162 186 0
167 191 0
166 189 0
167 192 0
168 193 0
167 192 0
166 191 0
169 193 0
164 187 0
167 191 0
165 189 0
167 191 0
164 188 0
164 188 0
166 188 0
163 187 0
164 187 0
163 186 0
165 188 0
164 186 0
162 183 0
159 180 0
159 180 0
160 180 0
161 181 0
154 174 0
151 170 0
152 172 0
154 172 0
150 168 0
145 163 0
146 163 0
143 159 0
141 157 0
134 150 0
139 154 0
131 145 0
124 138 0
121 134 0
118 130 0
115 127 0
112 123 0
106 118 0
106 116 0
105 116 0
104 115 0
103 112 0
99 108 0
110 121 0
108 118 0
104 110 0
111 118 0
114 120 0
120 128 0
118 126 0
126 130 0
124 129 0
132 132 0
124 124 0
120 123 0
133 134 0
129 135 0
132 132 0
136 140 0
136 140 0
135 136 0
124 118 0
136 134 0
133 134 0
133 131 0
139 140 0
135 127 0
141 139 0
139 132 0
134 131 0
138 133 0
133 124 0
132 128 0
136 130 0
134 126 0
131 121 0
132 122 0
125 107 0
127 111 0
125 102 0
128 111 0
124 110 0
126 111 0
114 91 0
119 90 0
111 83 0
106 76 0
105 75 0
106 79 0
95 62 0
90 63 0
95 68 0
90 63 0
83 54 0
74 48 0
73 38 0
57 20 0
75 46 0
84 64 0
75 50 0
76 44 0
88 48 0
82 48 0
80 37 0
88 53 0
91 53 0
99 69 0
103 70 0
106 72 0
112 81 0
113 81 0
113 89 0
116 90 0
116 92 0
124 100 0
121 96 0
120 99 0
117 96 0
124 102 0
123 107 0
129 119 0
121 108 0
132 119 0
136 126 0
130 119 0
137 128 0
128 118 0
139 135 0
128 118 0
129 121 0
135 128 0
132 122 0
122 114 0
127 113 0
128 121 0
129 122 0
126 112 0
124 113 0
131 124 0
126 114 0
118 108 0
133 125 0
116 105 0
126 112 0
119 106 0
119 112 0
121 109 0
114 99 0
108 99 0
112 98 0
104 91 0
102 87 0
100 87 0
90 75 0
96 81 0
96 81 0
101 90 0
95 83 0
108 96 0
107 95 0
103 91 0
110 100 0
115 104 0
112 101 0
120 112 0
121 115 0
125 118 0
137 134 0
140 138 0
143 142 0
133 131 0
141 141 0
144 148 0
149 155 0
150 155 0
150 156 0
150 158 0
157 169 0
155 163 0
151 164 0
160 173 0
154 167 0
158 171 0
159 171 0
156 171 0
164 179 0
162 179 0
159 176 0
163 181 0
165 183 0
161 178 0
164 185 0
167 189 0
167 188 0
164 185 0
166 188 0
166 187 0
165 188 0
167 191 0
166 191 0
165 189 0
167 191 0
165 189 0
167 192 0
166 189 0
165 188 0
165 188 0
165 190 0
163 187 0
164 187 0
165 187 0
162 185 0
165 186 0
159 181 0
159 180 0
157 178 0
157 176 0
159 178 0
161 180 0
152 171 0
155 175 0
149 168 0
150 168 0
149 167 0
153 171 0
145 162 0
144 161 0
139 155 0
135 151 0
136 151 0
127 141 0
129 144 0
118 130 0
123 136 0
122 135 0
114 126 0
118 131 0
113 125 0
116 128 0
112 124 0
117 127 0
115 126 0
117 127 0
123 134 0
125 134 0
122 130 0
126 135 0
130 139 0
131 138 0
129 138 0
126 133 0
134 139 0
134 143 0
132 136 0
134 138 0
127 130 0
133 137 0
141 147 0
134 137 0
139 136 0
135 136 0
141 147 0
140 142 0
141 144 0
140 142 0
140 139 0
144 147 0
141 139 0
138 136 0
135 132 0
134 127 0
140 139 0
137 133 0
135 129 0
133 126 0
136 135 0
135 128 0
131 118 0
135 125 0
126 111 0
124 100 0
128 108 0
122 101 0
119 90 0
123 99 0
117 95 0
119 93 0
109 78 0
109 82 0
108 80 0
97 68 0
96 66 0
92 55 0
100 76 0
87 51 0
89 57 0
96 63 0
83 50 0
85 51 0
83 47 0
85 50 0
89 60 0
97 71 0
100 74 0
96 63 0
101 72 0
105 75 0
121 100 0
114 87 0
115 87 0
115 85 0
124 99 0
121 90 0
121 98 0
124 105 0
122 96 0
126 109 0
128 109 0
128 108 0
131 120 0
135 123 0
131 120 0
133 126 0
140 134 0
130 122 0
132 124 0
132 130 0
133 133 0
134 121 0
135 124 0
125 118 0
138 132 0
135 133 0
133 127 0
133 126 0
128 125 0
134 131 0
127 121 0
139 136 0
131 121 0
135 129 0
130 121 0
127 117 0
125 115 0
121 109 0
126 117 0
120 107 0
121 111 0
127 116 0
119 105 0
119 110 0
119 109 0
112 101 0
105 92 0
114 102 0
115 101 0
109 95 0
110 99 0
109 98 0
106 93 0
112 101 0
111 103 0
115 103 0
115 108 0
122 116 0
124 117 0
126 122 0
128 122 0
138 137 0
137 135 0
139 137 0
142 141 0
142 143 0
148 149 0
149 153 0
155 161 0
153 155 0
152 159 0
147 152 0
156 167 0
154 163 0
155 164 0
156 167 0
162 176 0
159 173 0
156 171 0
159 173 0
160 177 0
162 180 0
163 183 0
161 178 0
162 180 0
164 182 0
163 184 0
165 185 0
167 189 0
165 185 0
162 183 0
165 189 0
167 190 0
165 189 0
164 188 0
164 188 0
164 188 0
165 188 0
163 185 0
164 187 0
162 185 0
163 185 0
164 186 0
163 185 0
162 183 0
161 182 0
158 179 0
161 182 0
159 179 0
158 179 0
156 175 0
156 176 0
153 172 0
155 173 0
151 168 0
151 169 0
140 157 0
145 162 0
142 158 0
139 155 0
137 152 0
134 150 0
136 152 0
129 144 0
125 139 0
121 134 0
122 135 0
129 143 0
126 140 0
130 143 0
125 139 0
123 137 0
128 141 0
128 138 0
123 135 0
124 132 0
128 136 0
136 147 0
132 140 0
139 150 0
132 140 0
137 148 0
134 141 0
140 148 0
139 143 0
134 140 0
139 142 0
139 143 0
134 138 0
134 134 0
139 145 0
140 144 0
140 145 0
140 143 0
150 155 0
143 147 0
143 149 0
137 134 0
141 145 0
144 146 0
139 140 0
138 128 0
138 137 0
142 142 0
135 131 0
146 143 0
135 129 0
139 134 0
136 125 0
130 114 0
133 119 0
133 120 0
131 117 0
135 127 0
120 100 0
130 115 0
129 109 0
125 102 0
122 95 0
124 104 0
123 96 0
122 98 0
116 89 0
114 85 0
110 78 0
109 73 0
110 85 0
105 78 0
96 59 0
96 56 0
102 75 0
107 75 0
96 60 0
104 77 0
96 66 0
110 79 0
104 71 0
114 83 0
106 72 0
113 82 0
112 78 0
115 90 0
117 89 0
121 89 0
130 111 0
125 105 0
129 115 0
131 116 0
126 108 0
125 106 0
135 120 0
128 112 0
130 115 0
135 125 0
134 121 0
129 118 0
144 144 0
134 129 0
137 128 0
134 134 0
140 134 0
134 124 0
133 129 0
140 138 0
136 132 0
142 137 0
137 133 0
140 136 0
138 133 0
138 136 0
137 134 0
136 128 0
131 129 0
138 134 0
136 135 0
130 123 0
131 125 0
137 134 0
128 121 0
128 122 0
124 124 0
134 127 0
120 112 0
124 115 0
122 113 0
125 116 0
129 119 0
115 104 0
116 105 0
119 110 0
123 114 0
121 111 0
122 114 0
125 119 0
114 105 0
121 112 0
123 115 0
118 110 0
125 117 0
128 119 0
135 130 0
135 129 0
133 131 0
138 136 0
143 142 0
139 141 0
144 142 0
143 149 0
145 147 0
151 156 0
148 151 0
153 158 0
152 161 0
147 155 0
154 165 0
152 159 0
152 163 0
156 167 0
160 176 0
157 170 0
159 172 0
157 172 0
162 177 0
161 177 0
161 179 0
160 177 0
165 184 0
164 182 0
163 182 0
165 186 0
166 187 0
166 191 0
165 188 0
164 188 0
167 190 0
168 191 0
163 185 0
165 187 0
163 186 0
160 182 0
162 184 0
161 184 0
160 183 0
162 183 0
160 181 0
161 182 0
157 179 0
160 180 0
156 175 0
156 176 0
155 174 0
155 175 0
154 174 0
146 163 0
150 167 0
146 163 0
146 163 0
145 162 0
144 161 0
146 163 0
136 153 0
142 158 0
138 153 0
131 146 0
133 148 0
127 141 0
134 148 0
128 141 0
127 139 0
133 146 0
133 146 0
127 137 0
127 138 0
128 138 0
136 147 0
129 142 0
133 142 0
134 147 0
139 150 0
133 141 0
134 144 0
135 143 0
139 146 0
140 148 0
139 141 0
142 152 0
148 156 0
137 142 0
141 145 0
141 142 0
142 145 0
145 151 0
143 149 0
146 150 0
144 149 0
145 149 0
140 143 0
144 148 0
144 144 0
143 145 0
145 145 0
140 134 0
135 133 0
138 136 0
135 129 0
136 122 0
141 133 0
133 122 0
144 138 0
141 133 0
139 133 0
139 129 0
137 125 0
135 118 0
131 113 0
125 102 0
129 111 0
131 114 0
125 107 0
122 98 0
123 97 0
128 107 0
123 102 0
126 108 0
120 90 0
114 88 0
113 87 0
114 89 0
111 77 0
119 92 0
103 67 0
107 76 0
115 91 0
117 88 0
110 78 0
121 92 0
116 87 0
116 86 0
116 93 0
118 94 0
127 98 0
118 91 0
123 101 0
130 107 0
129 110 0
132 109 0
128 113 0
136 122 0
133 119 0
131 113 0
129 117 0
135 120 0
138 127 0
137 123 0
145 139 0
140 131 0
142 140 0
148 147 0
134 135 0
140 132 0
138 139 0
147 147 0
138 132 0
138 135 0
144 146 0
140 137 0
140 140 0
141 143 0
136 130 0
141 139 0
134 125 0
137 136 0
135 135 0
134 129 0
130 126 0
133 132 0
137 135 0
136 132 0
138 131 0
130 121 0
137 135 0
141 134 0
133 133 0
128 119 0
132 123 0
127 122 0
128 117 0
131 127 0
127 120 0
130 122 0
132 127 0
125 122 0
124 116 0
124 117 0
127 121 0
127 119 0
125 115 0
135 128 0
124 117 0
124 119 0
129 125 0
129 124 0
135 133 0
134 131 0
131 130 0
139 140 0
145 142 0
143 145 0
138 140 0
151 155 0
146 150 0
146 150 0
145 149 0
153 159 0
156 164 0
157 166 0
153 162 0
157 167 0
157 167 0
150 162 0
159 173 0
160 170 0
158 172 0
160 177 0
160 174 0
162 179 0
159 174 0
162 182 0
162 180 0
163 182 0
165 187 0
167 190 0
165 189 0
166 190 0
161 184 0
164 187 0
161 184 0
165 187 0
161 183 0
162 183 0
162 183 0
163 185 0
161 181 0
160 181 0
159 180 0
156 176 0
158 178 0
157 177 0
157 177 0
153 172 0
154 173 0
148 165 0
149 168 0
149 166 0
153 170 0
147 165 0
139 156 0
141 157 0
137 153 0
140 156 0
136 153 0
139 155 0
136 151 0
140 156 0
131 144 0
137 153 0
134 148 0
140 155 0
136 149 0
140 154 0
136 146 0
144 158 0
143 156 0
142 153 0
143 157 0
142 150 0
143 153 0
139 148 0
143 156 0
146 155 0
139 149 0
140 148 0
147 156 0
137 140 0
148 156 0
148 156 0
144 152 0
143 152 0
141 147 0
141 148 0
146 155 0
146 152 0
143 151 0
147 152 0
143 147 0
144 148 0
144 139 0
145 150 0
148 153 0
144 148 0
145 145 0
141 138 0
146 148 0
141 140 0
142 138 0
136 133 0
135 128 0
136 127 0
143 135 0
134 122 0
141 135 0
136 124 0
141 132 0
141 133 0
137 121 0
130 108 0
135 120 0
130 112 0
130 105 0
125 103 0
131 114 0
121 89 0
128 110 0
132 112 0
123 98 0
119 97 0
126 102 0
121 98 0
120 99 0
125 101 0
120 92 0
114 82 0
122 98 0
118 88 0
122 96 0
122 92 0
126 101 0
114 81 0
121 102 0
128 103 0
127 102 0
129 103 0
134 118 0
128 110 0
129 105 0
127 103 0
130 112 0
133 114 0
130 111 0
139 123 0
139 124 0
145 142 0
135 122 0
142 137 0
141 129 0
140 132 0
139 135 0
138 135 0
146 143 0
144 139 0
140 132 0
138 132 0
148 143 0
139 131 0
147 148 0
144 143 0
138 136 0
144 146 0
143 145 0
138 138 0
137 133 0
148 148 0
140 138 0
139 137 0
141 133 0
143 140 0
140 138 0
142 141 0
136 130 0
139 137 0
140 139 0
132 131 0
142 139 0
137 135 0
137 132 0
130 127 0
140 140 0
128 122 0
129 124 0
128 126 0
132 126 0
138 133 0
132 126 0
134 130 0
126 119 0
127 116 0
129 121 0
135 132 0
131 127 0
131 127 0
132 126 0
130 128 0
130 125 0
134 130 0
138 136 0
141 140 0
139 142 0
142 142 0
144 145 0
146 150 0
144 146 0
149 154 0
144 149 0
154 164 0
151 156 0
151 160 0
149 159 0
152 162 0
155 167 0
155 165 0
150 162 0
157 170 0
159 172 0
160 174 0
160 175 0
159 170 0
165 182 0
164 179 0
160 174 0
160 175 0
161 179 0
165 188 0
165 187 0
164 187 0
164 187 0
164 186 0
164 186 0
163 185 0
160 183 0
161 184 0
162 182 0
160 182 0
160 182 0
158 177 0
156 177 0
156 177 0
152 170 0
151 170 0
153 173 0
155 175 0
152 171 0
151 169 0
153 171 0
151 170 0
146 163 0
149 167 0
147 164 0
143 160 0
145 159 0
137 152 0
138 152 0
139 153 0
151 169 0
143 157 0
145 161 0
143 158 0
142 153 0
147 161 0
139 152 0
149 164 0
141 151 0
142 154 0
148 161 0
140 153 0
146 158 0
149 158 0
144 158 0
145 159 0
145 158 0
145 155 0
147 155 0
147 153 0
148 158 0
148 157 0
150 165 0
147 155 0
148 156 0
151 163 0
150 160 0
148 157 0
147 151 0
147 149 0
153 163 0
148 150 0
147 153 0
149 157 0
149 150 0
145 152 0
146 148 0
149 153 0
145 147 0
143 143 0
143 143 0
146 148 0
145 144 0
142 136 0
139 131 0
138 125 0
142 137 0
145 142 0
142 133 0
140 131 0
146 135 0
137 125 0
139 121 0
132 121 0
139 129 0
137 120 0
136 120 0
140 128 0
135 116 0
131 112 0
129 107 0
124 94 0
130 115 0
126 102 0
121 90 0
129 106 0
132 108 0
127 105 0
128 108 0
119 92 0
127 108 0
127 105 0
127 104 0
125 100 0
125 98 0
130 108 0
126 100 0
131 116 0
130 111 0
128 105 0
131 114 0
132 110 0
139 121 0
136 116 0
134 113 0
137 128 0
136 120 0
134 112 0
142 134 0
137 128 0
136 125 0
143 133 0
145 139 0
140 135 0
142 137 0
142 140 0
145 146 0
139 133 0
147 146 0
146 141 0
143 140 0
143 141 0
139 133 0
145 148 0
148 145 0
143 140 0
136 127 0
143 144 0
138 135 0
141 140 0
147 146 0
143 142 0
140 139 0
141 144 0
141 139 0
146 145 0
139 139 0
139 138 0
143 139 0
138 137 0
135 137 0
148 148 0
144 143 0
139 137 0
133 126 0
137 130 0
139 136 0
131 128 0
132 131 0
134 131 0
139 139 0
133 130 0
132 126 0
131 130 0
134 130 0
137 134 0
133 133 0
136 134 0
138 134 0
134 132 0
134 130 0
141 141 0
138 141 0
138 138 0
143 147 0
140 142 0
141 142 0
139 142 0
149 150 0
148 152 0
152 155 0
147 151 0
149 153 0
152 156 0
149 154 0
149 156 0
157 166 0
153 161 0
156 164 0
159 169 0
154 165 0
157 171 0
153 163 0
159 173 0
160 176 0
162 179 0
164 181 0
163 180 0
162 180 0
163 186 0
163 186 0
162 184 0
163 186 0
164 186 0
162 184 0
162 183 0
161 183 0
159 180 0
158 179 0
160 180 0
157 178 0
158 178 0
154 173 0
159 178 0
155 174 0
154 173 0
154 173 0
153 171 0
152 171 0
151 169 0
147 165 0
152 170 0
147 165 0
151 168 0
143 158 0
146 164 0
146 164 0
144 161 0
150 166 0
146 163 0
142 158 0
146 161 0
146 163 0
143 158 0
149 167 0
148 163 0
148 162 0
144 158 0
148 162 0
148 159 0
146 160 0
148 161 0
145 158 0
146 160 0
151 166 0
145 155 0
149 161 0
146 157 0
147 160 0
145 155 0
148 160 0
154 164 0
151 158 0
150 159 0
148 152 0
145 151 0
146 155 0
149 157 0
148 155 0
147 151 0
150 158 0
150 159 0
153 160 0
154 163 0
149 152 0
146 153 0
151 160 0
150 152 0
152 162 0
143 138 0
150 149 0
145 142 0
144 142 0
151 151 0
145 139 0
150 148 0
141 130 0
145 139 0
135 123 0
138 127 0
140 128 0
143 135 0
139 121 0
144 132 0
137 120 0
139 129 0
138 126 0
140 126 0
138 120 0
143 132 0
132 109 0
131 108 0
135 107 0
141 130 0
132 112 0
131 110 0
127 109 0
126 98 0
134 112 0
134 119 0
133 115 0
135 116 0
128 109 0
129 112 0
130 101 0
135 115 0
136 122 0
132 109 0
134 113 0
133 113 0
143 127 0
138 124 0
137 122 0
144 135 0
141 131 0
140 127 0
141 128 0
138 129 0
142 134 0
135 121 0
142 129 0
141 130 0
141 140 0
136 130 0
147 147 0
144 129 0
144 144 0
140 137 0
154 155 0
143 144 0
147 147 0
148 149 0
145 141 0
147 146 0
147 146 0
140 142 0
147 149 0
151 156 0
145 149 0
145 147 0
150 156 0
140 139 0
143 146 0
140 135 0
151 152 0
138 138 0
149 154 0
136 131 0
145 146 0
142 143 0
145 149 0
145 143 0
143 142 0
141 144 0
144 142 0
143 144 0
138 139 0
139 137 0
142 144 0
144 141 0
141 140 0
140 140 0
136 135 0
142 140 0
145 143 0
135 132 0
140 138 0
137 135 0
142 144 0
141 140 0
140 142 0
137 137 0
143 145 0
144 142 0
141 142 0
145 144 0
142 143 0
137 138 0
144 148 0
149 154 0
135 137 0
135 135 0
148 154 0
148 152 0
153 158 0
156 166 0
155 163 0
152 161 0
155 165 0
155 164 0
155 167 0
151 162 0
153 161 0
159 170 0
160 173 0
155 167 0
156 170 0
161 175 0
159 171 0
165 187 0
161 183 0
161 184 0
164 186 0
163 185 0
159 179 0
160 180 0
158 178 0
160 181 0
161 181 0
155 175 0
160 180 0
158 179 0
159 178 0
154 173 0
158 178 0
155 174 0
148 166 0
151 171 0
154 172 0
152 170 0
151 168 0
149 168 0
152 169 0
146 164 0
148 165 0
144 162 0
148 166 0
149 167 0
143 159 0
147 163 0
145 163 0
153 170 0
148 165 0
147 163 0
151 165 0
147 163 0
146 160 0
153 167 0
153 167 0
149 160 0
146 158 0
152 168 0
150 164 0
158 171 0
147 161 0
154 167 0
148 158 0
146 156 0
144 153 0
156 170 0
148 159 0
156 170 0
149 160 0
150 158 0
153 166 0
151 163 0
150 160 0
155 167 0
150 160 0
151 160 0
152 161 0
154 164 0
152 159 0
151 156 0
149 158 0
151 160 0
146 154 0
153 157 0
147 144 0
150 153 0
147 149 0
146 146 0
150 146 0
148 150 0
148 149 0
145 146 0
147 146 0
144 143 0
146 143 0
146 137 0
142 131 0
146 137 0
141 129 0
146 138 0
141 131 0
139 122 0
140 128 0
139 120 0
134 117 0
136 120 0
136 121 0
136 121 0
140 129 0
143 128 0
138 122 0
138 121 0
134 117 0
136 116 0
135 114 0
136 121 0
135 114 0
140 125 0
136 118 0
133 108 0
142 129 0
139 118 0
135 117 0
138 123 0
140 126 0
138 120 0
137 117 0
143 130 0
143 130 0
141 133 0
139 119 0
147 141 0
146 141 0
139 124 0
145 139 0
143 138 0
149 150 0
143 137 0
145 140 0
146 143 0
141 134 0
146 144 0
148 145 0
147 142 0
145 142 0
147 144 0
146 145 0
148 152 0
147 146 0
143 143 0
148 150 0
153 158 0
143 145 0
144 146 0
143 145 0
152 158 0
144 147 0
142 145 0
154 158 0
151 158 0
146 145 0
144 145 0
150 149 0
151 158 0
146 150 0
143 144 0
148 150 0
146 148 0
145 147 0
147 151 0
140 139 0
144 149 0
142 143 0
144 146 0
142 141 0
139 137 0
146 146 0
139 141 0
142 144 0
141 141 0
144 146 0
145 150 0
146 150 0
137 140 0
145 148 0
146 145 0
146 148 0
146 148 0
143 143 0
138 138 0
143 145 0
145 145 0
137 139 0
149 152 0
146 150 0
150 155 0
143 147 0
149 155 0
151 159 0
155 158 0
149 151 0
150 156 0
146 153 0
143 148 0
150 159 0
154 163 0
155 165 0
154 163 0
155 165 0
158 171 0
154 168 0
157 170 0
158 170 0
157 172 0
160 178 0
159 182 0
163 184 0
158 180 0
163 184 0
161 181 0
160 182 0
160 181 0
159 179 0
157 176 0
160 179 0
155 175 0
159 180 0
152 172 0
152 171 0
156 176 0
155 175 0
154 173 0
157 175 0
154 173 0
150 169 0
153 171 0
152 169 0
153 169 0
154 171 0
153 170 0
150 169 0
151 168 0
152 168 0
146 162 0
152 169 0
151 167 0
151 168 0
148 164 0
152 168 0
152 168 0
150 166 0
151 167 0
153 170 0
154 168 0
149 163 0
154 168 0
151 164 0
148 162 0
146 160 0
152 166 0
147 158 0
156 172 0
158 173 0
153 168 0
152 168 0
153 166 0
150 161 0
152 163 0
155 169 0
151 165 0
153 164 0
151 160 0
152 159 0
154 168 0
151 163 0
151 157 0
153 163 0
149 158 0
151 161 0
150 156 0
156 169 0
150 157 0
150 149 0
149 156 0
151 157 0
144 142 0
149 149 0
146 146 0
146 141 0
145 143 0
147 146 0
147 144 0
147 145 0
145 135 0
144 142 0
144 133 0
148 147 0
142 133 0
145 134 0
142 133 0
143 133 0
137 120 0
143 126 0
145 134 0
142 128 0
141 128 0
134 113 0
137 122 0
143 122 0
138 118 0
136 123 0
139 129 0
143 135 0
139 119 0
143 136 0
135 118 0
142 133 0
136 113 0
141 121 0
139 128 0
139 118 0
141 120 0
137 123 0
142 130 0
144 132 0
139 127 0
134 112 0
142 128 0
145 135 0
147 137 0
147 132 0
147 140 0
145 136 0
147 144 0
145 135 0
152 147 0
146 139 0
142 127 0
152 153 0
143 137 0
153 156 0
153 148 0
147 145 0
145 145 0
151 150 0
144 146 0
144 139 0
145 146 0
151 154 0
148 146 0
144 141 0
147 145 0
155 163 0
146 148 0
148 155 0
147 150 0
148 151 0
151 153 0
148 149 0
147 153 0
138 143 0
149 151 0
150 158 0
148 149 0
150 159 0
143 147 0
143 144 0
141 146 0
144 150 0
142 147 0
147 150 0
141 145 0
154 159 0
151 157 0
145 149 0
153 159 0
149 152 0
147 153 0
146 150 0
146 149 0
150 152 0
147 149 0
143 147 0
149 150 0
145 149 0
144 146 0
143 144 0
148 148 0
149 153 0
143 144 0
141 141 0
145 148 0
146 149 0
146 152 0
145 147 0
144 145 0
151 154 0
149 155 0
153 160 0
149 154 0
151 160 0
150 156 0
151 159 0
152 164 0
154 161 0
149 158 0
154 164 0
151 162 0
156 167 0
156 167 0
159 170 0
159 170 0
159 171 0
158 173 0
161 177 0
159 181 0
161 183 0
160 181 0
162 185 0
161 181 0
157 179 0
160 181 0
162 183 0
158 179 0
160 181 0
158 178 0
158 178 0
158 176 0
157 177 0
154 172 0
159 178 0
156 176 0
152 170 0
153 170 0
151 169 0
152 169 0
156 174 0
151 169 0
153 172 0
152 169 0
156 174 0
148 165 0
149 166 0
146 163 0
151 168 0
154 172 0
150 166 0
154 171 0
152 167 0
150 165 0
151 167 0
156 173 0
154 171 0
148 160 0
149 161 0
155 173 0
150 163 0
155 170 0
153 167 0
152 164 0
160 175 0
156 171 0
155 168 0
154 168 0
152 165 0
154 166 0
154 166 0
153 161 0
154 165 0
151 158 0
150 156 0
154 165 0
154 164 0
149 156 0
150 158 0
156 167 0
151 160 0
156 167 0
149 157 0
150 154 0
148 153 0
155 162 0
154 163 0
150 156 0
151 154 0
150 153 0
149 145 0
150 150 0
146 147 0
149 148 0
151 150 0
146 144 0
146 142 0
147 146 0
145 138 0
146 143 0
149 147 0
149 145 0
148 140 0
143 130 0
148 141 0
140 126 0
147 137 0
139 124 0
141 127 0
144 128 0
143 135 0
147 138 0
144 134 0
142 128 0
141 127 0
148 141 0
142 129 0
144 131 0
137 123 0
145 134 0
137 121 0
142 134 0
140 124 0
145 129 0
141 128 0
142 125 0
152 149 0
146 133 0
142 128 0
143 129 0
150 141 0
147 143 0
137 129 0
141 131 0
148 139 0
145 143 0
143 136 0
146 143 0
141 129 0
146 141 0
147 142 0
147 143 0
147 143 0
147 146 0
145 142 0
141 137 0
145 138 0
146 141 0
148 146 0
146 147 0
141 139 0
145 145 0
146 145 0
145 144 0
149 150 0
153 157 0
151 156 0
151 161 0
146 148 0
149 153 0
152 156 0
147 151 0
145 147 0
150 155 0
154 164 0
148 152 0
149 160 0
147 147 0
150 156 0
146 151 0
148 154 0
148 153 0
151 155 0
152 158 0
147 155 0
148 151 0
146 147 0
149 157 0
153 159 0
144 148 0
144 149 0
147 152 0
139 138 0
149 153 0
145 148 0
147 150 0
147 149 0
142 146 0
150 155 0
155 162 0
146 151 0
150 153 0
150 155 0
147 149 0
145 148 0
148 153 0
149 154 0
150 152 0
151 156 0
148 152 0
149 155 0
152 158 0
154 159 0
147 151 0
149 158 0
149 155 0
153 159 0
153 159 0
154 164 0
153 160 0
153 164 0
155 162 0
155 163 0
155 164 0
155 167 0
159 170 0
152 166 0
162 176 0
160 175 0
162 183 0
162 183 0
160 183 0
162 182 0
160 181 0
162 184 0
158 179 0
159 179 0
156 176 0
160 180 0
157 177 0
159 179 0
157 177 0
154 173 0
154 174 0
157 177 0
157 176 0
160 178 0
158 176 0
152 170 0
154 173 0
152 169 0
155 172 0
154 171 0
157 174 0
152 169 0
154 171 0
152 169 0
156 173 0
154 172 0
155 171 0
155 171 0
154 172 0
153 168 0
152 169 0
159 175 0
151 166 0
153 169 0
157 172 0
155 169 0
154 168 0
153 168 0
157 170 0
153 168 0
153 166 0
155 171 0
157 173 0
156 171 0
153 165 0
152 165 0
156 173 0
156 168 0
155 169 0
154 164 0
153 163 0
155 167 0
150 158 0
155 168 0
154 163 0
149 156 0
155 166 0
152 160 0
155 160 0
156 163 0
149 150 0
150 153 0
155 162 0
152 160 0
152 159 0
153 158 0
150 156 0
152 157 0
152 157 0
153 157 0
152 159 0
156 162 0
152 154 0
148 145 0
147 137 0
148 149 0
150 154 0
151 148 0
148 139 0
149 141 0
151 145 0
147 144 0
142 131 0
148 142 0
146 131 0
142 132 0
141 126 0
143 131 0
145 137 0
144 131 0
144 131 0
148 140 0
144 130 0
148 137 0
149 138 0
146 135 0
136 118 0
140 125 0
143 132 0
145 133 0
143 130 0
148 140 0
146 141 0
143 131 0
144 138 0
141 129 0
149 143 0
141 130 0
146 138 0
145 141 0
149 143 0
150 148 0
145 137 0
144 137 0
151 148 0
147 139 0
150 147 0
156 155 0
152 155 0
154 154 0
150 146 0
149 149 0
154 159 0
149 146 0
153 155 0
148 153 0
150 152 0
150 151 0
150 150 0
152 160 0
154 158 0
151 156 0
156 164 0
150 155 0
153 161 0
152 161 0
154 162 0
147 157 0
149 152 0
151 158 0
150 157 0
156 167 0
156 165 0
148 151 0
160 169 0
149 155 0
153 156 0
156 164 0
151 152 0
148 152 0
151 159 0
148 155 0
149 151 0
151 157 0
153 161 0
147 153 0
152 157 0
152 156 0
145 150 0
149 152 0
147 148 0
152 156 0
148 155 0
148 155 0
149 153 0
149 157 0
148 151 0
150 152 0
153 159 0
151 159 0
147 150 0
152 159 0
148 150 0
147 151 0
149 152 0
153 158 0
148 152 0
146 150 0
143 146 0
146 152 0
149 155 0
151 158 0
149 156 0
157 165 0
151 157 0
150 159 0
147 153 0
150 157 0
159 170 0
154 165 0
152 159 0
158 169 0
156 167 0
155 167 0
159 171 0
157 171 0
160 182 0
161 182 0
161 182 0
160 181 0
157 177 0
159 179 0
161 181 0
160 180 0
159 180 0
159 179 0
158 178 0
158 178 0
157 178 0
158 179 0
157 176 0
155 175 0
153 172 0
157 177 0
157 176 0
156 176 0
153 171 0
154 172 0
155 173 0
154 173 0
157 175 0
153 172 0
156 171 0
153 170 0
156 174 0
150 165 0
151 167 0
154 172 0
154 171 0
154 172 0
157 174 0
155 174 0
155 169 0
157 173 0
156 171 0
153 167 0
159 174 0
158 173 0
156 173 0
156 172 0
159 172 0
154 169 0
154 169 0
155 169 0
156 169 0
156 170 0
153 168 0
156 170 0
155 169 0
151 161 0
151 163 0
153 162 0
156 167 0
155 164 0
156 166 0
156 163 0
161 174 0
152 161 0
149 157 0
153 161 0
153 158 0
151 158 0
158 166 0
149 155 0
152 154 0
151 157 0
157 162 0
154 157 0
153 156 0
152 155 0
149 145 0
150 152 0
149 147 0
152 153 0
150 151 0
150 151 0
149 149 0
150 147 0
146 146 0
150 148 0
145 139 0
150 143 0
149 141 0
147 140 0
150 141 0
149 143 0
147 142 0
148 142 0
141 129 0
147 138 0
145 137 0
146 135 0
148 142 0
148 141 0
143 132 0
145 132 0
149 143 0
147 141 0
142 125 0
147 142 0
145 137 0
148 142 0
148 139 0
150 145 0
151 148 0
149 144 0
147 130 0
144 132 0
144 136 0
147 138 0
147 142 0
151 146 0
145 137 0
152 143 0
147 146 0
145 135 0
152 146 0
153 153 0
152 149 0
151 147 0
152 155 0
150 146 0
151 151 0
152 155 0
149 148 0
154 159 0
153 157 0
147 148 0
150 149 0
151 154 0
155 158 0
154 161 0
148 150 0
153 161 0
153 157 0
158 159 0
153 155 0
151 154 0
150 157 0
151 159 0
153 163 0
153 153 0
152 156 0
152 161 0
153 157 0
154 162 0
154 164 0
150 158 0
159 165 0
149 156 0
150 159 0
156 164 0
147 151 0
157 168 0
148 154 0
147 154 0
150 156 0
152 161 0
154 158 0
148 157 0
149 155 0
151 156 0
153 158 0
150 156 0
153 160 0
154 159 0
149 158 0
148 153 0
152 159 0
146 149 0
155 158 0
148 154 0
150 155 0
149 158 0
151 159 0
148 153 0
146 152 0
150 158 0
147 152 0
157 166 0
152 158 0
151 155 0
151 158 0
155 163 0
153 163 0
153 161 0
155 167 0
152 160 0
160 168 0
154 163 0
158 172 0
155 164 0
148 157 0
146 154 0
155 167 0
160 172 0
161 183 0
163 184 0
160 181 0
160 182 0
161 182 0
159 181 0
161 181 0
158 178 0
159 180 0
162 183 0
159 179 0
156 176 0
155 175 0
158 178 0
161 181 0
156 175 0
156 175 0
157 176 0
159 178 0
154 173 0
155 174 0
159 179 0
157 177 0
160 180 0
156 172 0
158 177 0
158 176 0
156 172 0
156 173 0
159 176 0
155 173 0
153 170 0
159 177 0
155 171 0
157 177 0
156 170 0
154 170 0
156 171 0
155 169 0
154 169 0
151 164 0
158 174 0
155 169 0
156 172 0
157 172 0
160 176 0
157 171 0
152 164 0
152 165 0
157 171 0
156 173 0
156 167 0
157 171 0
155 166 0
152 161 0
154 167 0
151 156 0
155 164 0
155 165 0
155 165 0
155 164 0
156 168 0
153 158 0
156 165 0
155 164 0
157 164 0
156 164 0
158 167 0
155 160 0
154 162 0
149 149 0
152 156 0
153 159 0
151 151 0
148 147 0
153 157 0
150 147 0
151 153 0
153 156 0
148 149 0
155 155 0
154 155 0
154 154 0
150 141 0
151 146 0
150 147 0
152 146 0
149 143 0
151 149 0
149 143 0
151 148 0
148 137 0
146 139 0
146 142 0
149 141 0
144 136 0
144 132 0
149 136 0
150 144 0
147 140 0
147 143 0
147 140 0
147 143 0
153 145 0
151 148 0
150 144 0
147 136 0
149 146 0
150 145 0
149 145 0
148 144 0
149 148 0
145 140 0
149 141 0
150 143 0
151 145 0
152 153 0
151 152 0
152 149 0
154 156 0
150 147 0
149 142 0
150 151 0
155 162 0
148 150 0
147 144 0
150 153 0
154 162 0
155 157 0
153 155 0
156 162 0
152 157 0
152 154 0
151 150 0
152 156 0
151 160 0
149 156 0
157 165 0
148 154 0
153 162 0
151 158 0
155 163 0
150 158 0
151 159 0
154 157 0
154 163 0
153 157 0
153 155 0
156 163 0
154 159 0
151 156 0
153 163 0
150 155 0
155 167 0
154 163 0
153 159 0
151 157 0
152 158 0
152 161 0
153 162 0
152 157 0
155 161 0
150 152 0
149 151 0
152 159 0
153 160 0
153 162 0
152 161 0
153 165 0
153 160 0
154 159 0
148 156 0
148 154 0
154 161 0
152 159 0
148 155 0
148 151 0
155 162 0
150 157 0
154 160 0
154 161 0
153 157 0
153 161 0
154 156 0
148 153 0
152 161 0
144 148 0
152 161 0
147 155 0
149 158 0
150 158 0
152 159 0
153 164 0
157 171 0
158 171 0
161 173 0
157 167 0
158 169 0
156 169 0
158 172 0
159 182 0
163 184 0
163 184 0
161 182 0
164 185 0
158 179 0
159 180 0
159 180 0
159 179 0
159 180 0
161 182 0
161 183 0
157 179 0
157 176 0
162 181 0
161 181 0
158 178 0
153 172 0
159 180 0
155 175 0
154 174 0
159 179 0
150 167 0
154 172 0
155 173 0
155 173 0
156 174 0
158 175 0
156 171 0
155 173 0
158 176 0
160 179 0
156 173 0
156 174 0
156 174 0
158 176 0
160 178 0
158 177 0
160 177 0
160 177 0
158 175 0
156 170 0
158 171 0
155 170 0
158 176 0
157 174 0
157 173 0
157 172 0
159 177 0
155 171 0
156 167 0
157 169 0
156 170 0
156 170 0
157 171 0
158 173 0
156 169 0
151 164 0
156 169 0
159 171 0
157 166 0
155 164 0
156 165 0
149 154 0
156 166 0
157 162 0
154 163 0
158 169 0
153 162 0
154 160 0
155 162 0
155 160 0
152 156 0
155 162 0
148 145 0
152 152 0
153 157 0
155 156 0
152 156 0
155 159 0
149 150 0
151 154 0
148 154 0
154 155 0
151 144 0
154 149 0
150 145 0
150 147 0
150 150 0
152 151 0
149 141 0
151 149 0
151 148 0
147 139 0
150 142 0
146 142 0
150 145 0
147 136 0
152 150 0
150 149 0
152 149 0
151 147 0
149 147 0
147 142 0
146 131 0
148 140 0
145 138 0
151 146 0
150 146 0
150 142 0
153 151 0
150 147 0
146 139 0
148 143 0
150 142 0
153 151 0
149 147 0
153 156 0
151 151 0
150 149 0
147 146 0
153 152 0
149 149 0
154 155 0
157 160 0
155 156 0
152 153 0
154 161 0
151 159 0
154 156 0
152 154 0
155 159 0
150 156 0
153 162 0
151 155 0
155 159 0
154 160 0
152 157 0
152 159 0
155 168 0
149 156 0
152 160 0
151 158 0
156 167 0
151 159 0
153 160 0
150 152 0
153 165 0
153 157 0
151 163 0
155 166 0
152 162 0
156 165 0
156 163 0
154 162 0
152 167 0
151 161 0
153 159 0
150 156 0
154 161 0
152 159 0
156 163 0
151 161 0
154 164 0
153 161 0
152 159 0
154 164 0
150 159 0
154 162 0
149 160 0
157 164 0
151 153 0
151 159 0
152 157 0
151 159 0
151 157 0
147 155 0
154 162 0
157 168 0
150 155 0
147 156 0
151 161 0
153 162 0
153 156 0
151 162 0
153 160 0
150 156 0
157 170 0
152 161 0
152 161 0
153 163 0
154 161 0
158 170 0
156 167 0
153 164 0
154 163 0
148 155 0
156 168 0
156 168 0
155 167 0
161 182 0
163 183 0
157 178 0
160 181 0
162 180 0
160 179 0
155 174 0
155 176 0
160 181 0
158 179 0
155 175 0
158 179 0
161 184 0
160 180 0
159 179 0
161 181 0
156 177 0
162 181 0
156 174 0
158 177 0
154 171 0
157 177 0
158 177 0
157 174 0
163 185 0
155 174 0
159 177 0
159 176 0
158 176 0
157 173 0
159 177 0
155 170 0
158 172 0
159 178 0
159 176 0
161 178 0
154 171 0
159 178 0
158 177 0
163 182 0
161 177 0
156 168 0
157 173 0
159 174 0
156 168 0
153 167 0
158 174 0
161 177 0
157 171 0
158 173 0
158 173 0
158 174 0
158 175 0
159 173 0
152 161 0
154 168 0
156 164 0
157 169 0
156 169 0
156 166 0
155 160 0
154 161 0
156 166 0
160 171 0
155 164 0
158 169 0
152 161 0
155 166 0
158 167 0
155 165 0
156 164 0
157 160 0
156 161 0
153 155 0
155 157 0
154 156 0
151 153 0
153 155 0
151 149 0
152 153 0
153 155 0
153 151 0
154 155 0
154 159 0
151 147 0
153 155 0
152 151 0
156 158 0
153 152 0
152 154 0
151 150 0
155 156 0
152 147 0
149 145 0
152 148 0
152 147 0
147 140 0
148 140 0
154 158 0
155 159 0
149 144 0
150 144 0
153 149 0
148 141 0
152 152 0
151 148 0
150 145 0
153 150 0
152 147 0
153 153 0
153 153 0
154 151 0
148 147 0
154 150 0
150 143 0
149 145 0
151 149 0
155 155 0
153 147 0
152 158 0
154 157 0
153 153 0
149 148 0
154 156 0
152 156 0
150 149 0
154 159 0
153 160 0
152 154 0
153 157 0
155 158 0
154 162 0
151 156 0
157 164 0
154 156 0
150 155 0
148 153 0
148 152 0
154 162 0
153 161 0
153 158 0
154 163 0
159 168 0
156 165 0
157 167 0
155 160 0
154 165 0
151 162 0
156 170 0
152 162 0
154 164 0
154 167 0
156 167 0
153 163 0
153 167 0
156 164 0
156 164 0
154 165 0
157 166 0
154 164 0
155 163 0
156 165 0
152 165 0
156 169 0
154 164 0
155 170 0
150 158 0
156 166 0
151 155 0
148 157 0
148 154 0
151 157 0
154 162 0
158 170 0
157 167 0
153 161 0
148 155 0
152 158 0
151 160 0
155 163 0
152 159 0
151 163 0
156 167 0
155 166 0
153 162 0
154 164 0
157 170 0
161 171 0
159 170 0
155 163 0
155 170 0
151 162 0
153 161 0
154 163 0
151 163 0
158 170 0
152 161 0
156 167 0
160 172 0
158 170 0
161 182 0
161 182 0
165 185 0
159 181 0
160 181 0
160 179 0
159 180 0
161 183 0
159 179 0
163 184 0
157 176 0
161 179 0
156 177 0
159 179 0
159 178 0
157 175 0
156 175 0
159 179 0
160 179 0
160 181 0
163 183 0
158 178 0
161 181 0
160 177 0
163 184 0
156 174 0
159 179 0
161 179 0
160 179 0
158 176 0
158 176 0
156 174 0
154 168 0
160 180 0
161 179 0
152 165 0
158 175 0
157 172 0
160 176 0
157 172 0
159 173 0
161 179 0
156 170 0
158 176 0
159 174 0
157 168 0
159 171 0
157 173 0
160 177 0
154 168 0
159 172 0
157 172 0
158 172 0
155 166 0
159 170 0
154 163 0
156 168 0
157 166 0
156 171 0
157 169 0
159 175 0
153 158 0
157 168 0
158 172 0
159 167 0
158 171 0
156 162 0
154 159 0
159 169 0
152 155 0
158 165 0
156 160 0
158 171 0
154 159 0
154 159 0
153 157 0
161 166 0
155 159 0
154 157 0
147 145 0
155 160 0
157 162 0
151 152 0
156 163 0
154 158 0
151 149 0
151 153 0
153 156 0
156 157 0
157 164 0
150 148 0
153 152 0
154 157 0
152 148 0
152 151 0
153 155 0
155 154 0
152 148 0
154 154 0
153 150 0
151 150 0
155 151 0
152 147 0
152 147 0
147 142 0
148 144 0
155 152 0
150 144 0
147 140 0
155 155 0
153 153 0
151 153 0
152 151 0
149 145 0
152 149 0
157 161 0
154 157 0
154 153 0
154 154 0
151 150 0
155 155 0
154 157 0
155 159 0
154 158 0
147 141 0
159 165 0
155 159 0
152 156 0
150 155 0
153 161 0
151 154 0
154 160 0
154 155 0
154 162 0
151 153 0
156 163 0
158 168 0
156 161 0
155 162 0
158 166 0
154 160 0
157 163 0
155 163 0
156 165 0
152 159 0
158 169 0
153 162 0
153 160 0
153 160 0
155 166 0
156 169 0
154 160 0
153 160 0
158 167 0
155 165 0
155 165 0
156 168 0
150 155 0
158 166 0
156 165 0
154 162 0
156 167 0
156 163 0
158 166 0
151 159 0
154 161 0
154 164 0
152 165 0
156 161 0
153 162 0
153 163 0
158 174 0
153 159 0
152 159 0
149 161 0
156 165 0
152 161 0
149 158 0
154 166 0
152 160 0
157 165 0
157 166 0
153 165 0
155 165 0
154 163 0
157 168 0
154 166 0
156 166 0
157 168 0
152 165 0
153 162 0
154 166 0
157 166 0
153 162 0
157 167 0
154 165 0
150 161 0
156 170 0
157 167 0
157 170 0
164 185 0
160 180 0
163 183 0
162 183 0
159 180 0
159 179 0
160 181 0
160 180 0
159 180 0
160 181 0
157 179 0
160 181 0
161 180 0
157 175 0
160 178 0
155 175 0
159 178 0
160 179 0
160 180 0
158 176 0
160 180 0
161 180 0
158 177 0
160 180 0
159 178 0
161 179 0
164 185 0
161 178 0
157 175 0
162 182 0
157 178 0
157 175 0
156 175 0
157 174 0
158 176 0
157 174 0
159 177 0
159 176 0
158 172 0
160 176 0
159 174 0
159 172 0
158 173 0
159 176 0
158 172 0
163 177 0
161 179 0
157 174 0
158 173 0
157 168 0
157 169 0
155 166 0
157 170 0
158 172 0
159 172 0
157 168 0
158 169 0
157 169 0
153 164 0
155 163 0
157 164 0
155 166 0
158 168 0
156 164 0
159 170 0
158 167 0
159 169 0
155 163 0
158 163 0
157 168 0
156 160 0
156 162 0
157 164 0
158 166 0
157 166 0
155 160 0
158 165 0
158 161 0
157 163 0
152 153 0
152 153 0
155 160 0
154 160 0
152 154 0
149 144 0
156 161 0
158 169 0
152 149 0
153 153 0
155 153 0
156 159 0
157 162 0
152 153 0
152 152 0
154 150 0
153 154 0
149 140 0
154 153 0
154 153 0
152 150 0
155 156 0
153 154 0
151 149 0
153 150 0
153 152 0
155 156 0
148 145 0
152 149 0
152 152 0
152 152 0
155 160 0
157 158 0
157 154 0
153 154 0
154 154 0
153 151 0
156 163 0
155 155 0
152 156 0
151 148 0
151 156 0
152 160 0
157 160 0
158 163 0
153 152 0
158 166 0
157 160 0
155 160 0
153 160 0
151 152 0
155 161 0
156 161 0
157 165 0
158 161 0
156 161 0
156 162 0
156 164 0
161 173 0
154 165 0
155 162 0
159 170 0
155 166 0
158 164 0
157 168 0
153 157 0
154 163 0
153 155 0
157 168 0
158 167 0
153 164 0
157 169 0
155 167 0
156 168 0
156 167 0
156 168 0
155 162 0
152 159 0
156 167 0
157 169 0
155 169 0
153 162 0
150 157 0
153 164 0
159 169 0
154 166 0
156 169 0
159 173 0
158 166 0
156 164 0
154 162 0
156 170 0
152 166 0
152 160 0
156 167 0
158 171 0
154 161 0
161 174 0
153 164 0
154 166 0
151 164 0
154 164 0
156 167 0
153 163 0
159 168 0
158 164 0
153 162 0
154 166 0
157 169 0
154 164 0
153 162 0
155 166 0
156 167 0
156 168 0
154 165 0
163 178 0
158 169 0
156 166 0
159 172 0
155 167 0
159 171 0
162 184 0
160 180 0
164 184 0
163 184 0
160 182 0
158 178 0
160 182 0
164 184 0
161 183 0
162 182 0
161 180 0
158 178 0
161 180 0
160 179 0
163 183 0
159 179 0
160 180 0
159 179 0
160 178 0
158 180 0
160 180 0
156 173 0
161 180 0
159 180 0
156 171 0
159 176 0
158 178 0
159 177 0
162 180 0
158 175 0
158 176 0
163 183 0
159 176 0
158 175 0
161 178 0
158 172 0
160 175 0
156 175 0
161 179 0
158 178 0
162 181 0
159 177 0
158 174 0
159 177 0
157 173 0
157 171 0
161 178 0
157 173 0
158 170 0
158 172 0
157 170 0
155 168 0
157 170 0
156 170 0
159 175 0
156 169 0
158 169 0
160 175 0
159 171 0
161 175 0
158 171 0
155 166 0
156 166 0
160 170 0
160 171 0
159 170 0
158 170 0
157 163 0
155 160 0
157 166 0
157 162 0
156 162 0
157 164 0
156 160 0
153 162 0
153 160 0
159 169 0
157 167 0
158 170 0
155 161 0
158 164 0
153 156 0
156 155 0
155 155 0
155 156 0
154 152 0
157 160 0
153 153 0
155 162 0
157 159 0
154 152 0
154 161 0
152 151 0
153 154 0
154 157 0
154 158 0
154 153 0
153 156 0
156 159 0
156 156 0
155 151 0
153 151 0
151 149 0
153 150 0
155 154 0
151 148 0
154 157 0
156 159 0
157 164 0
155 154 0
157 158 0
158 158 0
158 156 0
154 159 0
156 157 0
154 156 0
151 154 0
153 159 0
158 164 0
156 159 0
156 160 0
155 159 0
160 166 0
158 165 0
157 160 0
155 160 0
157 164 0
153 159 0
157 164 0
155 162 0
154 160 0
153 158 0
157 163 0
158 160 0
154 162 0
157 165 0
157 166 0
162 172 0
157 164 0
154 159 0
155 163 0
156 162 0
153 165 0
156 164 0
158 165 0
158 171 0
157 170 0
154 169 0
157 169 0
157 169 0
154 158 0
157 167 0
155 161 0
160 170 0
151 162 0
157 170 0
159 173 0
158 171 0
159 173 0
156 166 0
156 170 0
160 170 0
160 172 0
155 165 0
153 162 0
156 169 0
155 169 0
154 166 0
151 159 0
156 167 0
160 174 0
150 161 0
158 169 0
154 163 0
157 169 0
158 171 0
157 169 0
155 165 0
158 173 0
158 167 0
157 166 0
152 161 0
159 171 0
152 158 0
158 172 0
157 165 0
158 170 0
161 173 0
158 167 0
155 166 0
156 168 0
152 162 0
155 165 0
157 168 0
154 164 0
158 169 0
159 171 0
155 168 0
158 170 0
157 169 0
162 184 0
160 181 0
159 179 0
160 182 0
161 181 0
157 178 0
160 181 0
160 180 0
161 183 0
161 182 0
157 175 0
161 181 0
161 182 0
160 181 0
161 181 0
158 176 0
160 181 0
159 180 0
159 178 0
162 182 0
159 177 0
158 178 0
162 180 0
161 179 0
160 180 0
159 178 0
159 175 0
164 185 0
159 179 0
159 176 0
161 179 0
157 173 0
162 180 0
162 181 0
157 174 0
160 180 0
159 175 0
157 173 0
161 175 0
159 172 0
160 174 0
160 175 0
156 168 0
156 170 0
160 176 0
158 173 0
159 171 0
163 180 0
156 170 0
159 172 0
158 172 0
160 178 0
160 176 0
160 177 0
159 172 0
159 171 0
156 168 0
157 169 0
160 173 0
157 172 0
158 167 0
156 158 0
159 173 0
159 166 0
157 167 0
161 177 0
157 161 0
156 165 0
157 169 0
158 165 0
156 167 0
158 164 0
156 163 0
155 163 0
157 162 0
159 168 0
158 166 0
155 164 0
157 164 0
156 161 0
153 153 0
159 166 0
159 169 0
155 158 0
155 162 0
154 156 0
154 154 0
149 149 0
154 152 0
150 148 0
153 158 0
153 159 0
154 155 0
157 159 0
157 158 0
152 153 0
150 144 0
154 154 0
153 154 0
155 156 0
155 158 0
155 150 0
158 163 0
152 149 0
153 154 0
153 151 0
153 156 0
155 155 0
152 149 0
156 157 0
156 158 0
155 154 0
156 159 0
153 155 0
157 163 0
158 162 0
155 160 0
154 153 0
151 157 0
156 157 0
156 160 0
159 165 0
153 155 0
154 159 0
160 164 0
153 160 0
155 164 0
155 165 0
154 160 0
153 160 0
156 160 0
159 165 0
153 161 0
159 165 0
158 163 0
160 170 0
157 168 0
156 162 0
158 163 0
159 167 0
159 169 0
159 171 0
156 167 0
153 160 0
159 171 0
158 167 0
155 161 0
158 163 0
160 176 0
152 159 0
157 167 0
155 167 0
159 173 0
158 170 0
154 164 0
156 168 0
156 170 0
162 179 0
157 171 0
159 170 0
157 168 0
159 174 0
153 161 0
157 171 0
157 165 0
154 163 0
158 171 0
158 170 0
154 166 0
155 165 0
150 157 0
160 171 0
157 167 0
158 172 0
158 168 0
156 169 0
158 172 0
159 173 0
158 170 0
155 169 0
156 169 0
157 167 0
159 170 0
160 174 0
156 167 0
149 159 0
156 168 0
155 166 0
156 169 0
156 170 0
155 166 0
159 170 0
152 161 0
161 174 0
159 171 0
156 167 0
158 169 0
158 170 0
157 168 0
156 166 0
161 182 0
159 181 0
163 185 0
160 181 0
159 180 0
163 184 0
161 181 0
162 182 0
159 178 0
161 180 0
163 184 0
161 182 0
162 181 0
161 183 0
160 179 0
165 184 0
157 176 0
162 181 0
158 178 0
163 183 0
160 179 0
163 183 0
158 176 0
160 178 0
163 183 0
160 174 0
161 179 0
158 179 0
159 177 0
158 178 0
159 175 0
162 180 0
162 180 0
162 181 0
161 178 0
160 179 0
158 175 0
157 171 0
160 175 0
159 176 0
159 173 0
157 177 0
157 174 0
157 173 0
159 172 0
162 177 0
157 174 0
161 177 0
159 172 0
159 175 0
157 171 0
161 174 0
161 175 0
160 174 0
153 163 0
159 171 0
157 171 0
156 168 0
162 178 0
160 173 0
158 168 0
159 169 0
157 167 0
158 169 0
159 171 0
158 170 0
162 173 0
158 169 0
161 174 0
156 167 0
155 159 0
152 156 0
154 159 0
158 168 0
151 149 0
156 161 0
164 178 0
160 165 0
160 167 0
155 159 0
155 159 0
157 166 0
156 163 0
154 160 0
158 162 0
155 158 0
151 151 0
154 161 0
157 161 0
159 163 0
158 168 0
155 158 0
153 146 0
157 163 0
157 161 0
156 161 0
152 148 0
159 168 0
156 161 0
155 159 0
155 156 0
156 159 0
153 159 0
153 154 0
155 155 0
157 159 0
160 169 0
157 159 0
158 155 0
154 156 0
159 160 0
160 169 0
160 165 0
161 166 0
154 155 0
152 156 0
157 161 0
156 154 0
157 160 0
157 161 0
154 158 0
155 162 0
158 161 0
156 159 0
158 165 0
155 162 0
159 162 0
156 162 0
156 159 0
157 159 0
159 166 0
158 166 0
161 168 0
158 165 0
157 168 0
157 166 0
155 162 0
157 172 0
157 165 0
158 167 0
158 169 0
156 162 0
159 171 0
159 172 0
156 169 0
155 162 0
155 167 0
159 170 0
156 167 0
161 175 0
155 164 0
157 168 0
161 172 0
156 165 0
160 171 0
159 173 0
154 167 0
162 181 0
158 173 0
155 167 0
152 162 0
155 165 0
156 168 0
156 169 0
158 170 0
154 169 0
158 167 0
150 159 0
156 166 0
157 171 0
160 169 0
158 171 0
158 170 0
157 171 0
160 171 0
159 173 0
155 167 0
154 164 0
156 169 0
154 166 0
157 167 0
160 173 0
160 171 0
157 168 0
156 167 0
156 168 0
161 175 0
159 170 0
153 163 0
153 167 0
157 173 0
157 167 0
157 171 0
157 171 0
156 168 0
163 176 0
154 167 0
156 166 0
156 167 0
158 172 0
162 183 0
160 181 0
161 180 0
162 181 0
162 183 0
161 181 0
162 184 0
158 178 0
163 183 0
162 184 0
158 175 0
161 179 0
161 183 0
159 179 0
163 183 0
155 174 0
160 178 0
163 185 0
162 183 0
163 182 0
158 179 0
161 179 0
162 180 0
159 178 0
160 179 0
161 178 0
161 179 0
163 184 0
158 175 0
158 174 0
163 184 0
157 174 0
160 177 0
158 175 0
162 180 0
163 181 0
155 172 0
161 181 0
157 174 0
157 170 0
162 177 0
160 178 0
161 180 0
161 176 0
161 175 0
158 173 0
159 174 0
160 176 0
161 178 0
162 179 0
161 177 0
161 174 0
161 175 0
160 172 0
157 169 0
159 174 0
159 167 0
158 170 0
159 173 0
157 167 0
160 175 0
163 178 0
158 162 0
159 168 0
160 171 0
159 171 0
160 169 0
161 175 0
159 167 0
158 168 0
160 174 0
157 166 0
157 165 0
154 163 0
155 162 0
157 165 0
156 162 0
156 166 0
158 168 0
157 169 0
152 155 0
156 160 0
158 168 0
157 163 0
159 170 0
155 157 0
156 159 0
154 155 0
159 168 0
159 167 0
157 160 0
152 154 0
157 162 0
158 161 0
156 160 0
158 160 0
159 161 0
159 166 0
155 153 0
153 155 0
156 159 0
159 172 0
156 159 0
157 163 0
156 163 0
155 162 0
156 159 0
155 153 0
154 160 0
156 160 0
159 167 0
154 156 0
157 162 0
151 151 0
157 163 0
156 159 0
157 162 0
155 151 0
153 152 0
159 166 0
153 154 0
156 159 0
157 159 0
158 163 0
160 170 0
157 162 0
158 166 0
155 160 0
161 171 0
157 163 0
159 169 0
158 166 0
157 167 0
160 165 0
154 161 0
159 167 0
159 172 0
155 167 0
162 170 0
157 164 0
161 175 0
158 165 0
159 169 0
154 163 0
153 160 0
158 172 0
155 166 0
159 164 0
160 168 0
159 166 0
159 175 0
156 168 0
156 170 0
158 171 0
159 172 0
159 166 0
155 166 0
160 173 0
158 172 0
155 169 0
158 172 0
159 173 0
156 162 0
158 170 0
160 175 0
158 172 0
159 171 0
158 172 0
160 172 0
160 172 0
159 177 0
149 160 0
159 170 0
154 167 0
161 171 0
158 171 0
155 167 0
159 169 0
154 166 0
155 167 0
156 167 0
157 169 0
158 169 0
157 169 0
156 170 0
156 169 0
157 172 0
156 167 0
156 167 0
155 168 0
159 172 0
159 174 0
156 166 0
159 168 0
157 170 0
160 173 0
158 172 0
157 173 0
157 169 0
155 168 0
