P3
200 100
255
170 196 0
169 195 0
169 195 0
169 195 0
169 195 0
168 195 0
168 195 0
169 195 0
170 196 0
170 195 0
170 195 0
170 195 0
169 195 0
169 195 0
171 196 0
170 196 0
169 195 0
169 195 0
169 195 0
168 194 0
169 195 0
170 195 0
169 195 0
171 196 0
169 195 0
169 195 0
170 195 0
169 195 0
169 195 0
171 196 0
170 195 0
168 195 0
169 195 0
169 195 0
169 195 0
170 195 0
170 196 0
170 195 0
171 196 0
170 195 0
170 195 0
168 195 0
169 195 0
169 195 0
169 195 0
170 195 0
171 196 0
169 195 0
169 195 0
169 195 0
169 195 0
169 195 0
170 196 0
170 196 0
169 195 0
169 195 0
168 195 0
170 196 0
169 195 0
168 195 0
171 196 0
169 195 0
170 195 0
169 195 0
170 196 0
170 196 0
169 195 0
169 195 0
169 195 0
169 195 0
169 195 0
169 195 0
170 195 0
171 196 0
168 195 0
169 195 0
170 195 0
170 195 0
168 195 0
170 196 0
170 195 0
169 195 0
169 195 0
169 195 0
169 195 0
169 195 0
168 195 0
169 195 0
169 195 0
170 196 0
170 195 0
169 195 0
169 195 0
170 196 0
170 195 0
169 195 0
169 195 0
169 195 0
169 195 0
170 196 0
169 195 0
169 195 0
169 195 0
169 195 0
169 195 0
169 195 0
170 195 0
169 195 0
170 195 0
169 195 0
169 195 0
169 195 0
169 195 0
170 196 0
170 196 0
169 195 0
169 195 0
169 195 0
168 194 0
170 195 0
169 195 0
170 195 0
169 194 0
170 195 0
169 195 0
170 195 0
170 195 0
168 195 0
169 195 0
168 194 0
169 195 0
168 195 0
169 194 0
169 195 0
168 194 0
168 195 0
169 195 0
169 195 0
170 195 0
169 195 0
170 196 0
169 195 0
170 195 0
169 195 0
170 195 0
169 195 0
169 195 0
170 196 0
169 195 0
169 195 0
169 195 0
168 194 0
170 195 0
169 195 0
169 195 0
170 195 0
170 195 0
169 195 0
169 195 0
169 195 0
169 195 0
169 195 0
169 195 0
169 195 0
169 195 0
169 195 0
170 196 0
170 195 0
169 195 0
169 195 0
170 196 0
169 195 0
169 195 0
170 195 0
170 195 0
169 195 0
168 194 0
169 195 0
169 195 0
169 195 0
170 196 0
169 195 0
169 195 0
170 196 0
169 195 0
169 195 0
168 195 0
169 195 0
170 196 0
169 195 0
169 195 0
170 195 0
170 195 0
170 195 0
170 195 0
169 195 0
169 195 0
170 195 0
168 194 0
167 194 0
169 195 0
169 195 0
168 194 0
169 195 0
170 195 0
169 195 0
169 195 0
169 195 0
169 195 0
168 195 0
169 195 0
169 195 0
170 195 0
169 195 0
169 195 0
170 195 0
169 195 0
169 195 0
169 195 0
169 195 0
169 195 0
169 195 0
169 195 0
168 195 0
169 195 0
169 195 0
169 195 0
168 195 0
169 195 0
169 195 0
169 195 0
169 195 0
170 195 0
169 195 0
168 194 0
169 195 0
170 195 0
169 195 0
170 196 0
169 195 0
169 195 0
169 195 0
169 194 0
170 196 0
169 195 0
169 195 0
169 195 0
171 196 0
169 195 0
169 195 0
170 195 0
169 195 0
169 195 0
170 195 0
169 195 0
169 195 0
169 195 0
169 195 0
170 196 0
170 196 0
169 195 0
169 195 25
169 195 25
171 196 36
170 196 36
170 196 25
171 196 44
171 196 44
168 195 0
170 195 25
171 196 36
169 195 0
169 195 0
169 195 0
169 195 0
169 195 0
170 195 0
170 196 0
169 195 0
169 195 0
169 195 0
169 195 0
170 195 0
168 195 0
170 195 0
170 195 0
170 195 0
169 195 0
170 195 0
170 195 0
170 196 0
168 195 0
170 195 0
170 195 0
169 195 0
169 195 0
169 195 0
169 195 0
169 195 0
170 196 0
170 195 0
169 195 0
169 195 0
169 195 0
168 194 0
169 195 0
169 195 0
169 195 0
169 195 0
169 195 0
169 195 0
168 195 0
169 195 0
168 195 0
169 195 0
168 194 0
171 196 0
171 196 0
170 195 0
169 195 0
169 195 0
169 195 0
169 195 0
170 195 0
169 195 0
169 195 0
169 195 0
170 195 0
168 195 0
170 196 0
170 196 0
168 195 0
169 195 0
170 195 0
168 195 0
170 195 0
169 195 0
170 195 0
170 196 0
169 195 0
169 195 0
171 196 0
170 195 0
169 195 0
168 195 0
169 195 0
169 195 0
169 195 0
170 195 0
170 195 0
169 195 0
170 195 0
170 195 0
169 195 0
168 195 0
169 195 0
168 195 0
169 195 0
170 195 0
171 196 0
170 195 0
169 195 0
170 195 0
169 195 0
169 195 0
169 195 0
169 195 0
170 196 0
169 195 0
169 195 0
169 195 0
169 195 0
169 195 0
170 196 0
169 195 0
168 195 0
169 195 0
170 195 0
170 195 0
168 195 0
169 195 0
170 196 0
171 196 0
169 195 0
169 195 0
170 195 0
168 195 0
170 195 0
169 195 0
169 195 0
169 195 0
169 195 0
169 195 0
170 196 0
170 195 0
169 195 0
168 195 0
170 195 0
170 195 0
169 195 0
170 196 0
169 195 0
169 195 0
169 195 0
169 195 0
169 195 0
170 195 0
170 195 0
170 196 0
169 195 0
169 195 0
169 195 0
170 195 0
169 195 0
169 195 0
168 195 0
169 195 0
170 195 0
170 195 0
171 196 0
169 195 0
169 195 0
168 195 0
169 195 0
169 195 0
170 196 0
169 195 0
170 195 0
169 195 0
171 196 0
169 195 0
170 195 0
169 195 0
169 195 0
169 195 0
170 195 0
170 196 0
169 195 0
170 195 0
169 195 0
170 195 0
169 195 0
169 195 0
169 195 0
170 195 0
169 195 0
169 195 0
169 195 0
169 195 0
169 195 0
169 195 0
169 195 0
169 195 0
170 196 0
168 195 0
170 195 0
170 195 0
172 197 36
172 197 57
172 197 51
172 197 57
173 198 67
175 199 76
178 202 95
174 199 80
172 197 57
173 198 57
173 198 62
173 198 62
171 197 44
170 195 44
171 196 25
170 195 25
170 196 25
171 196 0
171 196 25
168 195 0
170 195 0
169 195 0
169 195 0
169 195 0
169 195 0
169 195 0
170 195 0
169 195 0
170 196 0
168 194 0
169 195 0
170 195 0
169 195 0
168 195 0
168 195 0
171 196 0
169 195 0
169 195 0
170 196 0
169 195 0
168 194 0
169 195 0
169 195 0
170 195 0
170 195 0
170 195 0
168 195 0
169 195 0
169 195 0
169 195 0
169 195 0
169 195 0
170 195 0
169 195 0
170 195 0
170 195 0
170 195 0
169 195 0
169 195 0
169 195 0
169 195 0
169 195 0
169 195 0
169 195 0
170 196 0
169 195 0
169 195 0
170 195 0
169 195 0
169 195 0
169 195 0
169 195 0
169 195 0
170 195 0
170 195 0
170 196 0
169 195 0
171 196 0
169 195 0
169 195 0
170 196 0
169 195 0
169 195 0
169 195 0
170 195 0
169 195 0
169 195 0
170 195 0
168 195 0
169 195 0
169 195 0
170 195 0
168 195 0
169 195 0
169 195 0
169 195 0
169 195 0
169 195 0
170 195 0
169 195 0
170 195 0
169 195 0
169 195 0
172 196 0
170 195 0
169 195 0
170 195 0
169 195 0
169 195 0
169 195 0
170 195 0
169 195 0
168 194 0
169 195 0
169 194 0
169 195 0
169 195 0
169 195 0
168 195 0
170 195 0
170 195 0
169 195 0
170 195 0
170 195 0
169 195 0
168 195 0
170 195 0
168 195 0
169 195 0
170 195 0
170 195 0
169 195 0
169 195 0
170 195 0
170 196 0
170 196 0
169 195 0
170 196 0
169 195 0
169 195 0
169 195 0
170 195 0
169 195 0
170 195 0
169 195 0
169 195 0
170 195 0
170 195 0
170 195 0
168 194 0
168 195 0
169 195 0
170 195 0
169 195 0
169 195 0
169 195 0
169 195 0
170 195 0
169 195 0
170 196 0
170 196 0
169 195 0
169 195 0
169 195 0
170 195 0
169 195 0
169 195 0
169 195 0
169 195 0
170 195 0
170 195 0
169 195 0
169 195 0
168 194 0
170 196 0
169 195 0
170 195 0
168 194 0
170 195 0
170 196 0
170 195 0
170 195 0
168 195 0
169 195 0
169 195 0
169 195 0
168 195 0
170 196 0
170 195 0
170 195 0
168 194 0
169 195 0
169 195 0
169 195 0
169 195 0
168 194 0
170 195 0
170 196 25
170 196 44
173 198 67
174 198 62
177 201 95
174 198 72
175 199 84
174 199 76
180 203 105
175 199 76
177 201 88
175 199 80
176 200 84
178 202 99
173 198 67
177 201 95
174 199 72
173 198 67
171 196 44
171 196 51
170 196 51
170 195 44
170 195 0
169 195 0
169 195 0
170 195 0
170 195 0
170 195 0
170 196 0
169 195 0
170 196 0
168 195 0
168 194 0
169 195 0
169 195 0
169 195 0
170 195 0
169 195 0
169 195 0
169 195 0
170 195 0
168 194 0
168 195 0
167 194 0
169 195 0
169 195 0
169 195 0
170 195 0
170 195 0
169 195 0
169 195 0
169 195 0
170 196 0
169 195 0
170 195 0
170 196 0
169 195 0
168 194 0
170 195 0
169 195 0
168 194 0
170 195 0
170 195 0
167 194 0
170 196 0
170 195 0
169 195 0
169 195 0
170 196 0
169 195 0
169 195 0
169 195 0
169 195 0
170 195 0
169 195 0
169 195 0
170 196 0
168 194 0
169 195 0
170 195 0
171 196 0
170 195 0
170 195 0
170 195 0
169 195 0
170 195 0
168 195 0
169 195 0
168 195 0
169 195 0
169 195 0
169 195 0
169 195 0
169 195 0
169 195 0
168 194 0
170 195 0
169 195 0
170 195 0
170 196 0
168 195 0
169 195 0
170 196 0
170 195 0
169 195 0
168 195 0
170 195 0
170 196 0
169 195 0
169 195 0
169 195 0
169 195 0
170 195 0
169 195 0
170 195 0
169 195 0
169 195 0
169 195 0
168 195 0
170 196 0
168 195 0
169 195 0
169 195 0
170 196 0
169 195 0
169 195 0
169 195 0
169 195 0
170 195 0
169 195 0
170 196 0
169 195 0
169 195 0
169 195 0
169 195 0
170 195 0
169 195 0
170 195 0
170 195 0
169 195 0
169 195 0
171 196 0
170 195 0
170 195 0
170 195 0
169 195 0
169 195 0
169 195 0
168 195 0
169 195 0
171 196 0
169 195 0
169 195 0
169 195 0
169 195 0
169 195 0
169 195 0
168 195 0
171 196 0
170 196 0
169 195 0
170 195 0
170 196 0
170 196 0
169 195 0
170 195 0
169 195 0
169 195 0
170 196 0
170 196 0
169 195 0
171 196 0
169 195 0
169 195 0
171 196 0
168 195 0
169 195 0
169 195 0
170 195 0
170 196 0
170 196 0
170 195 0
170 195 0
169 195 0
169 195 0
170 196 0
169 195 0
170 196 0
169 195 0
169 195 0
170 195 0
169 195 0
169 195 0
169 195 0
169 195 0
169 195 0
169 195 0
170 195 0
172 197 36
172 197 51
171 196 36
174 199 76
178 202 99
180 203 105
176 200 80
177 201 99
178 201 95
186 208 140
180 203 108
177 201 88
183 205 122
180 203 114
180 203 105
182 205 120
179 202 105
180 203 114
181 204 111
175 199 80
177 201 95
176 200 88
175 199 76
173 198 67
174 199 72
169 195 25
169 195 0
169 194 0
169 195 0
168 195 0
169 195 0
169 195 0
170 195 0
171 196 0
170 195 0
170 195 0
170 195 0
170 195 0
170 195 0
169 195 0
169 195 0
170 195 0
169 195 0
169 194 0
170 195 0
169 195 0
169 195 0
170 195 0
169 195 0
169 195 0
169 195 0
169 195 0
168 194 0
170 195 0
169 195 0
169 195 0
170 195 0
170 195 0
170 195 0
169 195 0
169 195 0
169 195 0
170 195 0
170 195 0
170 196 0
170 196 0
168 194 0
168 195 0
170 195 0
170 196 0
168 195 0
168 195 0
168 195 0
169 195 0
170 195 0
169 195 0
169 195 0
169 195 0
169 195 0
169 195 0
168 194 0
169 195 0
169 195 0
168 194 0
170 196 0
169 195 0
170 195 0
170 195 0
170 195 0
169 195 0
169 195 0
169 195 0
170 196 0
169 195 0
170 195 0
169 195 0
170 195 0
170 195 0
170 195 0
168 195 0
169 195 0
169 195 0
167 194 0
170 195 0
170 195 0
169 195 0
170 195 0
170 195 0
169 195 0
169 195 0
170 195 0
170 195 0
169 195 0
170 195 0
170 195 0
169 195 0
169 195 0
170 196 0
168 194 0
170 195 0
170 195 0
169 195 0
170 196 0
170 196 0
169 195 0
169 195 0
169 195 0
170 195 0
170 195 0
169 195 0
169 195 0
169 195 0
169 195 0
169 195 0
169 195 0
169 195 0
169 195 0
169 195 0
170 195 0
169 195 0
168 195 0
169 195 0
168 194 0
169 195 0
171 196 0
168 195 0
168 195 0
169 195 0
168 195 0
169 195 0
169 195 0
170 195 0
169 195 0
171 196 0
169 195 0
169 195 0
169 195 0
170 196 0
169 195 0
170 195 0
170 195 0
169 195 0
169 195 0
170 195 0
169 195 0
169 195 0
168 195 0
169 195 0
170 196 0
170 196 0
169 195 0
169 195 0
168 195 0
168 195 0
169 195 0
170 196 0
169 195 0
169 195 0
170 195 0
169 195 0
169 195 0
170 196 0
170 195 0
169 195 0
170 196 0
168 195 0
169 195 0
169 195 0
169 195 0
168 194 0
169 195 0
170 195 0
170 195 0
171 196 0
169 195 0
170 195 0
168 195 0
170 195 0
168 195 0
170 196 36
174 199 76
176 200 84
173 198 72
181 204 114
180 203 108
179 202 105
179 203 105
180 203 111
180 204 117
182 205 125
188 210 153
185 208 144
186 208 142
184 207 135
185 207 140
184 206 133
189 210 151
189 210 149
180 203 111
183 206 125
180 204 117
174 199 76
175 200 80
172 197 44
174 199 72
169 196 44
171 197 44
170 196 0
169 195 0
170 195 0
169 195 0
169 195 0
169 195 0
169 195 0
168 194 0
169 195 0
168 194 0
169 195 0
168 195 0
168 195 0
169 195 0
169 195 0
169 195 0
169 195 0
168 194 0
169 195 0
169 195 0
170 195 0
168 195 0
169 195 0
169 195 0
169 195 0
169 195 0
170 195 0
169 195 0
169 195 0
170 195 0
169 195 0
167 194 0
169 195 0
169 195 0
171 196 0
168 194 0
169 195 0
169 195 0
169 195 0
169 195 0
169 195 0
169 195 0
168 195 0
170 195 0
170 195 0
170 195 0
170 195 0
170 196 0
169 195 0
169 195 0
170 195 0
170 196 0
171 196 0
168 195 0
169 195 0
168 194 0
168 194 0
170 195 0
169 195 0
169 195 0
169 195 0
169 195 0
169 195 0
169 195 0
170 196 0
169 195 0
169 195 0
169 195 0
169 195 0
169 195 0
169 195 0
168 195 0
169 195 0
169 195 0
169 195 0
168 194 0
168 194 0
170 195 0
169 195 0
169 195 0
169 195 0
170 195 0
169 195 0
169 195 0
169 195 0
169 195 0
168 194 0
170 195 0
170 195 0
170 196 0
170 196 0
169 194 0
169 195 0
170 196 0
170 195 0
169 195 0
169 195 0
169 195 0
170 196 0
169 195 0
168 195 0
169 195 0
169 195 0
169 195 0
169 195 0
170 195 0
170 195 0
170 196 0
168 195 0
169 195 0
170 195 0
170 195 0
169 195 0
170 195 0
168 195 0
168 195 0
168 195 0
169 195 0
170 196 0
169 195 0
169 195 0
171 196 0
168 194 0
170 195 0
169 195 0
169 195 0
170 195 0
170 195 0
168 194 0
169 195 0
169 195 0
170 195 0
170 195 0
169 195 0
170 195 0
168 195 0
169 195 0
170 196 0
168 195 0
169 195 0
169 195 0
169 195 0
169 195 0
170 196 0
171 196 0
169 195 0
169 195 0
169 195 0
169 195 0
170 196 0
170 195 0
170 195 0
169 195 0
168 195 0
170 195 0
169 195 0
168 195 0
169 195 0
168 194 0
169 195 0
168 195 0
170 195 0
169 195 0
169 195 0
169 195 0
169 195 0
171 196 0
169 195 0
168 195 0
169 195 0
170 196 36
172 197 44
175 200 84
177 200 84
176 200 84
178 201 95
186 208 144
183 206 130
185 207 140
185 207 137
183 206 133
185 207 140
190 211 163
184 206 135
184 206 133
185 207 135
182 205 130
188 210 153
183 206 127
185 207 135
185 207 142
187 209 147
182 204 117
180 203 111
180 203 111
182 205 120
177 201 92
181 204 114
174 198 67
175 200 84
174 199 72
169 195 0
169 195 0
170 195 0
170 195 0
168 195 0
170 195 0
169 195 0
169 195 0
170 195 0
170 196 0
169 195 0
169 195 0
170 196 0
169 195 0
169 195 0
170 195 0
169 195 0
169 195 0
169 195 0
169 195 0
169 195 0
168 195 0
169 195 0
169 195 0
169 195 0
169 195 0
168 194 0
169 195 0
169 195 0
169 194 0
169 195 0
170 196 0
168 195 0
169 195 0
169 195 0
170 196 0
168 195 0
169 195 0
169 195 0
169 195 0
169 195 0
168 194 0
168 195 0
167 194 0
168 195 0
169 195 0
171 196 0
170 195 0
169 195 0
170 196 0
170 195 0
169 195 0
170 195 0
170 196 0
168 195 0
169 195 0
169 195 0
170 195 0
168 195 0
170 195 0
170 195 0
169 195 0
170 195 0
170 196 0
170 196 0
169 195 0
170 195 0
169 195 0
169 195 0
170 195 0
171 196 0
169 195 0
169 195 0
170 195 0
169 195 0
169 195 0
169 195 0
170 195 0
168 194 0
168 195 0
170 196 0
169 195 0
170 196 0
169 195 0
169 195 0
169 195 0
169 195 0
169 195 0
170 196 0
169 195 0
170 195 0
169 195 0
170 196 0
169 195 0
169 195 0
170 196 0
169 195 0
170 195 0
169 195 0
169 195 0
170 195 0
169 195 0
171 196 0
169 195 0
169 195 0
168 194 0
169 195 0
169 195 0
169 195 0
168 195 0
170 195 0
170 196 0
169 195 0
169 195 0
169 195 0
170 196 0
168 195 0
169 195 0
170 195 0
170 195 0
169 195 0
170 196 0
169 195 0
169 195 0
169 195 0
169 195 0
170 195 0
170 195 0
169 195 0
170 195 0
170 196 0
169 195 0
169 195 0
170 196 0
170 196 0
169 195 0
169 195 0
170 195 0
169 195 0
169 195 0
169 195 0
168 195 0
168 195 0
169 195 0
168 195 0
169 195 0
169 195 0
169 195 0
170 196 0
170 195 0
169 195 0
169 195 0
169 195 0
170 195 0
169 195 0
169 195 0
169 195 0
171 196 0
169 195 0
168 195 0
169 195 0
170 195 0
170 195 0
170 195 0
170 195 0
170 196 0
169 195 0
170 195 0
172 197 51
173 198 67
177 201 88
175 199 88
177 201 95
182 204 120
179 203 108
183 206 127
183 206 125
184 206 135
184 207 135
189 210 155
190 211 161
188 210 165
186 208 147
189 211 159
188 210 159
189 210 157
189 211 159
189 210 157
191 212 165
188 210 153
184 206 133
186 208 137
183 205 125
181 204 114
183 205 122
184 206 130
181 204 120
176 200 80
175 199 76
173 198 57
172 197 57
173 198 62
169 195 25
169 195 0
168 194 0
169 195 0
168 194 0
168 194 0
169 195 0
169 195 0
170 195 0
169 195 0
170 195 0
169 195 0
168 195 0
170 195 0
169 195 0
169 195 0
169 195 0
171 196 0
169 195 0
169 195 0
171 196 0
169 194 0
170 196 0
168 194 0
169 195 0
170 195 0
170 195 0
170 196 0
169 195 0
170 195 0
169 195 0
170 195 0
170 195 0
169 195 0
169 195 0
169 195 0
169 195 0
169 195 0
169 195 0
170 195 0
169 195 0
168 195 0
169 195 0
169 195 0
169 195 0
169 195 0
169 195 0
169 195 0
170 196 0
169 195 0
169 195 0
169 195 0
169 195 0
169 195 0
169 195 0
169 195 0
170 195 0
169 195 0
168 195 0
169 195 0
169 195 0
169 195 0
169 195 0
169 195 0
169 195 0
168 195 0
170 195 0
169 194 0
169 195 0
169 195 0
170 196 0
169 195 0
170 195 0
169 195 0
169 195 0
168 195 0
170 195 0
169 195 0
168 195 0
169 195 0
169 195 0
169 195 0
169 195 0
169 195 0
170 195 0
168 194 0
170 195 0
168 194 0
170 195 0
169 195 0
168 195 0
169 195 0
170 195 0
169 195 0
168 195 0
170 195 0
169 195 0
169 195 0
169 195 0
169 195 0
169 195 0
169 195 0
169 195 0
170 195 0
170 195 0
170 195 0
169 195 0
169 195 0
169 195 0
170 195 0
169 195 0
170 195 0
169 195 0
170 195 0
170 195 0
169 195 0
168 194 0
169 195 0
170 196 0
169 195 0
170 196 0
169 195 0
169 195 0
169 195 0
170 195 0
169 195 0
169 195 0
169 195 0
170 196 0
170 195 0
169 195 0
168 195 0
169 195 0
171 196 0
169 195 0
170 195 0
170 195 0
169 195 0
170 195 0
170 195 0
169 195 0
170 195 0
170 195 0
169 195 0
169 195 0
169 195 0
171 196 0
170 195 0
169 195 0
170 195 0
170 196 0
168 195 0
169 195 0
169 195 0
168 195 0
169 195 0
170 195 0
169 195 0
169 195 0
169 195 0
168 195 0
170 195 0
169 195 0
170 195 0
169 195 0
172 197 44
171 197 44
179 202 102
178 202 99
178 202 108
182 205 122
185 207 137
188 210 151
185 207 137
181 204 120
190 211 159
186 208 147
185 208 147
189 210 159
188 210 153
187 209 151
191 212 173
187 209 153
188 210 153
193 214 175
187 209 151
187 209 153
191 212 163
189 210 155
190 211 161
183 206 140
183 206 133
182 205 120
182 205 125
185 207 137
180 203 111
176 200 84
176 200 84
172 197 57
172 198 62
171 197 51
170 195 0
171 196 0
169 195 0
170 195 0
169 195 0
170 195 0
170 195 0
169 195 0
169 195 0
169 195 0
169 195 0
170 196 0
169 195 0
169 195 0
170 195 0
170 195 0
170 195 0
169 195 0
170 196 0
170 195 0
170 195 0
169 194 0
170 196 0
169 195 0
168 195 0
170 195 0
170 195 0
168 194 0
169 195 0
169 195 0
170 196 0
169 195 0
169 195 0
169 195 0
170 196 0
170 196 0
169 195 0
169 195 0
170 195 0
169 195 0
168 194 0
169 195 0
169 195 0
169 195 0
169 195 0
169 195 0
170 196 0
170 196 0
169 195 0
169 195 0
170 195 0
169 195 0
170 195 0
170 195 0
169 195 0
169 195 0
169 195 0
170 195 0
169 195 0
169 195 0
170 195 0
169 195 0
168 195 0
169 195 0
169 195 0
170 195 0
169 195 0
169 195 0
169 195 0
170 196 0
169 195 0
169 195 0
170 196 0
169 195 0
170 195 0
170 195 0
170 195 0
169 195 0
169 195 0
169 195 0
168 195 0
168 194 0
169 195 0
169 195 0
170 196 0
168 194 0
169 195 0
169 195 0
171 196 0
170 195 0
169 195 0
169 195 0
170 196 0
169 195 0
168 195 0
169 195 0
169 195 0
170 196 0
169 195 0
170 195 0
169 195 0
169 195 0
170 196 0
169 195 0
169 195 0
169 195 0
170 196 0
169 195 0
170 196 0
169 195 0
169 195 0
170 195 0
169 195 0
169 195 0
170 195 0
170 196 0
168 194 0
169 195 0
169 195 0
169 195 0
170 195 0
170 195 0
169 195 0
169 195 0
170 195 0
169 195 0
170 195 0
170 195 0
169 195 0
170 195 0
170 196 0
169 195 0
169 195 0
170 195 0
170 196 0
170 195 0
169 195 0
171 196 0
170 195 0
168 195 0
170 195 0
169 195 0
169 195 0
169 195 0
168 195 0
170 196 0
170 195 0
169 195 0
169 195 0
170 196 0
169 195 0
169 195 0
168 195 0
170 195 0
169 195 0
169 195 0
170 195 0
170 195 0
169 195 0
168 195 0
169 195 0
169 195 0
170 196 0
171 196 25
175 199 76
178 201 99
178 202 105
181 204 114
181 204 120
178 202 99
183 206 133
184 206 130
193 213 169
185 208 144
192 214 177
188 210 157
191 213 173
188 210 157
188 210 157
191 213 173
190 212 171
188 210 163
189 211 165
194 215 184
191 213 177
188 210 163
188 210 159
190 211 163
190 211 163
190 211 163
183 206 137
184 207 142
184 207 140
182 205 127
181 204 117
179 202 105
179 203 108
176 200 80
170 196 51
176 200 88
172 197 51
170 196 25
170 196 25
169 195 0
170 195 0
170 196 0
170 196 0
169 195 0
168 194 0
169 195 0
168 195 0
168 195 0
169 195 0
168 195 0
169 195 0
168 194 0
169 195 0
170 195 0
169 195 0
169 195 0
169 195 0
169 195 0
168 194 0
169 195 0
170 196 0
169 195 0
170 195 0
169 195 0
169 195 0
169 195 0
169 195 0
169 195 0
169 195 0
168 195 0
169 195 0
168 195 0
169 195 0
169 195 0
169 195 0
168 194 0
169 195 0
170 195 0
168 194 0
168 194 0
170 195 0
170 195 0
170 196 0
168 195 0
169 195 0
169 195 0
169 195 0
169 195 0
169 195 0
169 195 0
169 195 0
170 195 0
169 195 0
169 195 0
170 196 0
168 195 0
170 195 0
169 195 0
169 195 0
168 194 0
170 195 0
168 194 0
169 195 0
169 195 0
169 195 0
169 195 0
169 195 0
169 195 0
169 194 0
169 195 0
170 196 0
169 195 0
168 195 0
170 195 0
169 195 0
169 195 0
169 195 0
169 195 0
170 195 0
169 195 0
169 195 0
169 195 0
170 195 0
169 195 0
169 195 0
170 196 0
169 195 0
169 195 0
169 195 0
170 196 0
170 196 0
170 196 0
169 195 0
169 195 0
170 196 0
170 195 0
170 195 0
169 195 0
170 195 0
169 195 0
169 195 0
170 195 0
170 195 0
168 195 0
169 195 0
169 195 0
169 195 0
170 196 0
169 195 0
168 195 0
169 195 0
169 195 0
170 195 0
169 195 0
170 196 0
169 195 0
169 195 0
168 195 0
169 195 0
170 196 0
169 195 0
170 196 0
169 195 0
169 195 0
170 195 0
170 195 0
170 195 0
168 195 0
169 195 0
169 195 0
169 195 0
170 195 0
170 195 0
171 196 0
169 195 0
169 195 0
169 195 0
169 195 0
169 195 0
170 195 0
170 195 0
168 195 0
169 195 0
169 195 0
170 195 0
169 195 0
170 195 0
169 195 0
169 195 0
169 195 0
169 195 0
170 195 0
168 194 0
168 195 0
169 195 0
170 196 0
170 195 0
170 195 25
172 197 51
175 199 84
177 201 92
177 200 84
181 204 114
185 207 133
188 209 149
183 206 130
191 212 163
186 208 144
186 208 151
187 209 157
189 211 163
184 207 142
191 212 171
185 208 151
185 208 153
183 206 140
182 206 144
182 206 144
186 208 155
184 207 149
186 208 151
183 206 147
186 208 149
188 210 155
190 212 167
190 212 169
188 210 155
186 208 147
187 209 155
184 206 127
182 205 127
183 205 120
178 202 99
181 204 117
176 200 84
176 201 92
172 197 57
173 197 51
168 195 0
169 195 0
170 195 0
170 195 0
168 195 0
170 195 0
168 195 0
169 195 0
169 195 0
169 195 0
170 195 0
169 195 0
169 195 0
169 195 0
170 195 0
170 195 0
169 195 0
169 195 0
170 195 0
170 195 0
169 194 0
170 195 0
169 195 0
169 195 0
170 195 0
167 194 0
170 195 0
170 195 0
170 195 0
170 196 0
168 194 0
168 195 0
169 195 0
169 195 0
170 195 0
169 195 0
168 194 0
169 195 0
169 195 0
170 195 0
170 196 0
170 196 0
168 194 0
170 195 0
169 195 0
171 196 0
169 195 0
169 195 0
169 195 0
169 195 0
169 195 0
169 195 0
170 195 0
170 196 0
169 195 0
170 196 0
170 196 0
170 196 0
169 195 0
169 195 0
169 195 0
170 195 0
169 195 0
169 195 0
170 196 0
170 196 0
170 196 0
170 195 0
168 195 0
169 195 0
170 195 0
170 195 0
169 195 0
169 195 0
169 195 0
169 195 0
170 195 0
169 195 0
169 195 0
169 195 0
169 195 0
169 195 0
169 195 0
169 195 0
169 195 0
169 195 0
170 195 0
169 195 0
168 195 0
170 195 0
169 195 0
169 195 0
170 195 0
171 196 0
170 196 0
168 194 0
168 195 0
170 195 0
169 195 0
168 195 0
169 195 0
170 195 0
170 195 0
170 195 0
168 194 0
169 195 0
169 195 0
168 195 0
168 194 0
170 195 0
169 195 0
169 195 0
170 195 0
169 195 0
168 195 0
169 195 0
170 195 0
169 195 0
170 195 0
171 196 0
169 195 0
169 195 0
169 195 0
168 194 0
169 195 0
169 195 0
169 195 0
169 195 0
168 194 0
170 196 0
170 195 0
169 195 0
169 195 0
169 195 0
169 195 0
169 195 0
169 195 0
169 195 0
170 195 0
170 195 0
168 195 0
170 195 0
168 194 0
168 194 0
169 195 0
168 195 0
170 196 0
170 195 0
169 195 0
168 195 0
169 195 0
169 195 0
169 195 0
170 195 0
169 195 0
170 195 0
168 195 0
169 195 0
169 195 0
170 196 36
173 198 62
180 203 102
181 204 114
184 206 125
184 206 125
186 208 140
187 208 144
187 209 153
185 207 144
188 210 155
185 207 144
188 210 157
184 207 137
182 206 140
183 206 148
181 205 133
180 204 135
179 203 125
185 207 147
180 204 125
180 204 130
184 208 153
181 205 133
182 206 140
183 206 137
182 206 142
184 207 137
188 210 161
185 207 142
192 213 169
187 209 147
188 210 153
186 208 140
181 204 122
182 205 130
184 207 135
173 198 62
174 198 67
175 199 80
173 198 67
171 197 51
169 195 0
168 195 0
169 195 0
170 196 0
169 195 0
170 195 0
170 195 0
170 196 0
169 195 0
169 195 0
169 195 0
169 195 0
169 195 0
169 195 0
169 195 0
170 195 0
170 196 0
169 195 0
170 195 0
170 195 0
169 195 0
170 196 0
169 195 0
168 194 0
168 195 0
169 195 0
169 195 0
169 195 0
170 196 0
169 195 0
171 196 0
170 195 0
169 195 0
169 195 0
169 195 0
170 196 0
170 196 0
170 195 0
169 195 0
169 195 0
169 195 0
170 195 0
169 195 0
168 194 0
170 195 0
169 195 0
170 196 0
169 195 0
169 195 0
169 195 0
168 195 0
168 195 0
169 195 0
169 195 0
170 195 0
169 195 0
170 195 0
169 195 0
169 195 0
169 195 0
170 195 0
169 195 0
168 195 0
170 195 0
170 196 0
169 195 0
169 195 0
170 195 0
169 195 0
169 195 0
169 195 0
169 195 0
170 195 0
170 196 0
169 195 0
169 195 0
168 194 0
169 195 0
169 195 0
169 195 0
169 195 0
169 195 0
170 196 0
169 195 0
169 195 0
170 195 0
169 195 0
168 195 0
170 195 0
170 195 0
169 195 0
169 195 0
170 196 0
169 195 0
169 195 0
168 194 0
169 195 0
168 195 0
168 194 0
170 195 0
170 195 0
170 195 0
170 195 0
170 195 0
170 196 0
170 196 0
169 195 0
168 195 0
170 195 0
169 195 0
168 195 0
170 195 0
168 195 0
169 195 0
169 195 0
170 196 0
170 195 0
169 195 0
170 195 0
169 195 0
170 196 0
170 195 0
170 196 0
169 195 0
169 195 0
170 196 0
169 195 0
170 196 0
169 195 0
169 195 0
168 194 0
169 195 0
169 195 0
169 195 0
169 194 0
170 195 0
169 195 0
169 195 0
170 196 0
168 195 0
169 195 0
170 195 0
169 195 0
169 195 0
169 195 0
170 195 0
170 195 0
168 195 0
170 195 0
170 196 0
169 195 0
169 195 0
169 195 0
170 195 0
169 195 0
169 195 0
170 195 25
171 196 0
173 198 62
175 199 76
179 202 102
182 205 125
182 205 125
188 210 151
187 208 149
188 210 155
193 214 177
189 211 159
182 204 120
185 208 149
185 207 144
180 204 122
181 205 133
178 203 120
180 203 120
176 201 114
177 202 114
176 201 114
180 204 125
178 202 114
177 201 102
172 198 76
180 204 133
179 203 114
181 204 125
182 205 130
180 204 125
179 203 120
186 208 144
190 211 161
191 211 159
183 205 127
184 206 130
185 207 130
182 205 120
178 201 95
176 200 88
175 199 72
176 200 80
172 197 44
171 197 51
169 195 0
170 195 0
169 195 0
169 195 0
170 196 0
169 195 0
169 195 0
169 195 0
169 195 0
169 195 0
169 195 0
168 195 0
170 195 0
169 195 0
169 195 0
170 195 0
168 194 0
169 195 0
169 195 0
170 195 0
169 195 0
168 195 0
168 194 0
169 195 0
169 195 0
169 195 0
169 195 0
170 195 0
169 195 0
169 195 0
169 195 0
169 195 0
168 194 0
170 195 0
170 195 0
169 195 0
170 195 0
168 194 0
169 195 0
169 195 0
169 195 0
170 196 0
170 195 0
168 194 0
169 195 0
169 195 0
168 195 0
170 195 0
170 195 0
169 195 0
168 194 0
169 195 0
170 195 0
170 196 0
169 195 0
170 196 0
169 195 0
169 195 0
169 195 0
170 195 0
170 196 0
170 195 0
169 195 0
169 195 0
170 195 0
169 195 0
169 195 0
170 195 0
169 195 0
168 194 0
169 195 0
169 195 0
170 196 0
169 195 0
169 195 0
169 195 0
170 195 0
169 195 0
169 195 0
169 195 0
168 195 0
169 195 0
169 195 0
169 195 0
171 196 0
169 195 0
169 195 0
169 195 0
170 195 0
170 195 0
170 195 0
169 195 0
169 195 0
169 195 0
170 195 0
170 196 0
169 195 0
170 196 0
170 196 0
170 195 0
169 195 0
169 195 0
170 196 0
169 195 0
169 195 0
169 195 0
169 195 0
169 195 0
169 195 0
169 195 0
170 196 0
169 195 0
169 195 0
168 195 0
170 196 0
169 195 0
169 195 0
168 195 0
169 195 0
169 195 0
170 196 0
169 195 0
169 195 0
169 194 0
170 195 0
170 195 0
171 196 0
170 196 0
169 195 0
170 196 0
169 195 0
170 195 0
169 195 0
169 195 0
168 194 0
168 195 0
170 195 0
170 196 0
169 195 0
169 195 0
168 194 0
170 195 0
169 195 0
169 195 0
170 195 0
170 196 0
169 195 0
169 195 0
168 194 0
170 196 0
168 194 0
168 195 0
168 195 0
169 195 0
169 195 0
169 195 0
172 197 44
179 202 95
173 198 72
179 202 105
181 204 122
180 203 114
187 209 144
191 212 163
190 211 153
185 207 140
183 206 142
183 206 135
181 205 127
178 202 114
179 203 111
178 202 111
177 201 111
175 199 95
176 201 102
177 201 105
175 200 108
175 199 92
174 199 88
173 199 95
174 199 88
174 199 92
176 201 95
176 200 114
175 200 95
176 200 102
179 203 117
182 205 127
189 211 167
186 208 140
183 206 133
186 208 147
181 204 120
183 205 130
180 203 114
177 200 84
179 202 105
175 199 72
173 198 57
171 196 36
169 195 0
169 195 0
168 194 0
169 195 0
170 195 0
170 195 0
168 195 0
167 193 0
169 195 0
170 195 0
169 195 0
169 195 0
169 195 0
169 195 0
169 195 0
170 196 0
170 195 0
169 195 0
168 194 0
169 195 0
168 194 0
168 194 0
169 195 0
169 195 0
169 195 0
169 195 0
168 194 0
170 196 0
169 195 0
168 194 0
167 194 0
170 195 0
168 194 0
168 194 0
170 195 0
169 195 0
169 194 0
169 195 0
169 195 0
168 194 0
169 195 0
169 195 0
169 195 0
170 195 0
169 195 0
169 195 0
169 195 0
169 195 0
168 194 0
168 194 0
169 195 0
168 195 0
169 195 0
169 195 0
169 195 0
169 195 0
170 195 0
170 196 0
169 195 0
170 195 0
169 195 0
169 194 0
169 195 0
170 195 0
169 195 0
170 196 0
168 195 0
169 195 0
169 195 0
170 196 0
170 195 0
170 196 0
169 195 0
168 195 0
170 195 0
169 195 0
168 195 0
169 195 0
169 195 0
170 195 0
169 195 0
169 195 0
169 195 0
169 195 0
169 195 0
169 195 0
170 196 0
170 195 0
169 195 0
169 195 0
169 195 0
169 195 0
168 195 0
170 195 0
168 195 0
169 195 0
171 196 0
169 195 0
170 195 0
170 195 0
168 194 0
168 195 0
170 195 0
169 195 0
169 195 0
169 195 0
169 195 0
169 195 0
169 195 0
168 195 0
169 195 0
169 195 0
169 195 0
168 195 0
170 195 0
170 195 0
169 195 0
170 195 0
169 195 0
169 195 0
169 195 0
168 195 0
169 195 0
169 195 0
170 195 0
168 195 0
169 195 0
168 195 0
170 195 0
170 195 0
170 195 0
169 195 0
168 195 0
170 196 0
170 195 0
168 195 0
169 195 0
169 195 0
169 195 0
169 195 0
169 195 0
169 195 0
169 195 0
169 195 0
170 195 0
169 195 0
169 195 0
169 195 0
169 194 0
169 195 0
169 195 0
168 195 0
169 195 0
170 195 0
169 195 0
172 197 51
173 198 51
174 199 80
176 200 84
181 204 111
182 205 122
182 204 117
185 207 142
188 210 155
189 211 163
182 205 140
177 201 105
180 203 120
178 202 111
174 199 92
175 200 99
175 199 92
175 200 102
174 199 92
174 200 102
170 196 62
171 196 76
172 198 80
170 196 67
172 197 76
172 198 80
174 199 92
172 198 84
175 200 105
172 197 76
177 201 102
175 200 114
175 200 88
180 204 122
183 206 133
184 207 147
181 204 125
183 205 130
185 207 133
180 203 114
174 199 76
176 201 92
174 199 80
172 197 44
173 198 57
171 196 36
169 195 0
169 195 0
170 195 0
169 195 0
169 195 0
169 195 0
170 195 0
169 195 0
169 195 0
170 195 0
170 196 0
170 195 0
168 194 0
169 195 0
169 195 0
169 195 0
169 195 0
169 195 0
169 195 0
169 195 0
170 196 0
170 196 0
169 195 0
169 195 0
168 194 0
169 195 0
169 195 0
169 195 0
170 195 0
170 195 0
170 195 0
169 195 0
168 195 0
169 195 0
171 196 0
169 195 0
169 195 0
168 195 0
169 195 0
170 195 0
168 194 0
169 195 0
170 195 0
169 195 0
169 195 0
167 193 0
169 195 0
170 195 0
169 195 0
169 195 0
169 195 0
169 195 0
168 194 0
168 195 0
169 195 0
169 195 0
169 195 0
169 195 0
170 195 0
169 195 0
168 195 0
169 195 0
169 195 0
169 195 0
169 195 0
170 196 0
169 195 0
169 195 0
170 195 0
169 195 0
170 195 0
169 195 0
170 196 0
170 195 0
169 195 0
170 196 0
169 195 0
169 195 0
170 195 0
169 195 0
170 195 0
169 195 0
170 195 0
168 195 0
170 196 0
169 195 0
169 195 0
169 195 0
169 195 0
169 195 0
169 195 0
169 195 0
170 195 0
168 194 0
168 194 0
169 195 0
170 196 0
169 195 0
170 195 0
169 195 0
169 195 0
170 195 0
170 195 0
169 195 0
169 195 0
170 195 0
169 195 0
169 195 0
169 195 0
170 196 0
168 194 0
170 195 0
169 195 0
169 195 0
169 195 0
169 195 0
170 195 0
169 195 0
170 195 0
170 195 0
170 195 0
169 195 0
169 195 0
170 196 0
169 195 0
169 195 0
169 195 0
170 196 0
170 195 0
169 195 0
170 195 0
169 195 0
169 195 0
168 195 0
170 195 0
169 195 0
169 195 0
168 195 0
169 195 0
169 195 0
169 195 0
170 196 0
168 195 0
171 196 0
170 195 0
168 195 0
169 195 0
169 195 0
169 195 0
169 195 0
170 196 0
169 195 0
169 195 0
170 196 0
173 197 51
175 199 80
175 199 76
180 203 108
180 203 114
185 207 135
186 208 142
189 211 161
189 210 159
183 207 147
180 203 114
181 204 120
177 202 120
176 201 108
173 199 92
172 197 62
172 198 80
170 196 72
170 196 57
171 197 72
170 195 70
171 197 62
170 196 76
171 197 80
170 196 80
170 196 62
171 197 76
171 198 80
172 197 67
172 198 80
170 196 72
172 198 80
176 201 105
178 203 120
177 202 108
181 204 117
187 209 149
184 206 130
186 208 142
182 205 122
182 205 120
177 201 92
176 200 88
172 197 51
172 197 57
172 197 44
170 195 25
169 195 0
168 194 0
168 194 0
169 195 0
169 195 0
170 196 0
170 195 0
168 194 0
171 196 0
169 194 0
170 195 0
169 195 0
169 195 0
168 194 0
169 195 0
169 195 0
169 194 0
168 194 0
166 193 0
168 194 0
169 195 0
170 195 0
170 195 0
169 195 0
168 194 0
169 195 0
170 195 0
170 196 0
170 195 0
169 195 0
168 194 0
169 195 0
169 195 0
168 194 0
168 195 0
170 196 0
169 195 0
169 195 0
170 195 0
170 195 0
169 195 0
170 195 0
169 195 0
169 195 0
170 196 0
170 195 0
170 195 0
170 196 0
169 195 0
169 195 0
169 195 0
168 194 0
169 195 0
169 195 0
168 194 0
169 195 0
170 195 0
170 196 0
168 194 0
170 195 0
169 195 0
169 195 0
170 196 0
169 195 0
169 195 0
169 195 0
169 195 0
169 195 0
169 195 0
170 195 0
169 195 0
170 196 0
169 195 0
169 194 0
171 196 0
168 194 0
168 194 0
169 195 0
169 195 0
169 195 0
170 195 0
168 194 0
169 195 0
170 195 0
169 195 0
171 196 0
168 195 0
168 194 0
169 195 0
168 195 0
170 195 0
170 195 0
169 195 0
170 195 0
169 195 0
169 195 0
170 195 0
169 195 0
169 195 0
169 195 0
170 196 0
169 195 0
168 195 0
169 195 0
168 194 0
169 195 0
169 195 0
169 195 0
169 195 0
170 196 0
168 195 0
168 194 0
170 196 0
170 195 0
169 195 0
169 195 0
169 195 0
169 195 0
170 196 0
169 195 0
169 195 0
169 195 0
169 195 0
170 195 0
168 194 0
168 194 0
169 195 0
170 196 0
169 195 0
170 196 0
169 195 0
169 195 0
170 196 0
169 195 0
170 196 0
169 195 0
170 195 0
169 195 0
170 195 0
169 195 0
169 194 0
169 195 0
169 195 0
169 195 0
168 195 0
169 195 0
168 195 0
170 195 0
169 195 0
168 195 0
169 195 0
169 195 0
173 197 57
171 196 44
178 201 95
181 204 111
183 206 127
182 205 122
185 207 135
183 206 137
182 205 130
183 206 137
178 202 105
174 199 88
172 197 84
172 198 72
171 197 67
170 196 84
169 195 57
169 195 62
170 196 72
169 195 57
165 191 62
169 196 57
169 195 44
170 196 72
171 197 67
170 195 57
170 197 80
172 197 76
170 196 67
169 196 44
172 198 88
171 197 67
170 196 80
173 198 80
177 202 108
178 202 111
176 201 108
183 206 130
184 207 137
184 207 137
188 209 147
182 205 117
181 204 114
175 200 84
172 197 62
173 198 72
168 194 25
172 197 57
168 195 0
168 194 0
169 195 0
170 195 0
170 195 0
169 195 0
167 193 0
169 195 0
169 195 0
169 195 0
169 195 0
169 195 0
169 195 0
169 195 0
169 195 0
169 195 0
168 195 0
168 195 0
170 196 0
170 195 0
169 195 0
169 195 0
169 195 0
169 195 0
169 195 0
169 195 0
169 195 0
170 195 0
169 194 0
169 195 0
168 194 0
169 195 0
170 195 0
169 195 0
168 194 0
170 195 0
168 194 0
170 195 0
168 195 0
168 194 0
169 195 0
169 195 0
169 195 0
169 195 0
169 195 0
168 195 0
169 195 0
169 195 0
170 195 0
169 195 0
169 195 0
169 195 0
169 195 0
170 195 0
171 196 0
169 194 0
170 195 0
169 195 0
169 195 0
170 195 0
168 195 0
170 195 0
169 195 0
169 195 0
169 195 0
168 194 0
169 195 0
169 195 0
170 195 0
168 194 0
170 195 0
168 195 0
169 195 0
169 195 0
170 195 0
170 195 0
168 194 0
169 194 0
169 195 0
169 195 0
168 195 0
170 195 0
169 195 0
169 195 0
169 195 0
170 195 0
169 195 0
169 195 0
169 195 0
169 195 0
170 196 0
169 195 0
170 195 0
169 195 0
169 195 0
169 195 0
169 195 0
169 195 0
169 195 0
168 194 0
169 195 0
170 195 0
168 195 0
170 195 0
168 195 0
170 196 0
169 195 0
169 195 0
170 195 0
169 195 0
168 195 0
168 194 0
170 195 0
168 195 0
170 195 0
169 195 0
168 195 0
170 195 0
170 195 0
169 195 0
170 195 0
168 195 0
170 196 0
168 194 0
169 195 0
170 195 0
167 194 0
169 195 0
169 195 0
169 195 0
170 195 0
169 195 0
170 196 0
169 195 0
170 195 0
170 196 0
169 195 0
169 195 0
170 196 0
170 195 0
169 195 0
170 196 0
169 195 0
169 195 0
170 195 0
170 195 0
168 195 0
169 195 0
170 195 0
170 195 0
169 195 0
169 195 0
170 196 25
173 197 51
178 201 95
182 204 114
180 203 111
184 206 127
184 207 135
181 204 126
185 208 144
179 202 105
174 199 84
176 200 99
172 197 88
170 196 67
172 198 80
169 195 74
171 197 72
171 197 76
168 194 62
169 195 80
169 196 80
170 197 84
170 196 72
170 196 62
170 197 76
170 195 62
169 196 84
171 197 80
170 196 57
172 197 67
172 198 80
170 195 57
172 197 62
172 198 80
173 199 88
173 198 72
176 201 108
177 201 99
181 204 120
183 205 127
181 204 120
183 206 130
176 200 88
172 197 57
174 199 76
174 199 72
171 196 44
171 197 51
171 196 25
169 194 0
168 194 0
169 195 0
169 195 0
169 195 0
169 195 0
168 194 0
170 195 0
169 194 0
170 196 0
169 195 0
169 195 0
168 194 0
169 195 0
169 195 0
168 194 0
170 195 0
170 196 0
170 195 0
169 195 0
169 195 0
169 195 0
169 195 0
170 195 0
169 195 0
170 195 0
169 195 0
169 194 0
168 194 0
169 195 0
169 195 0
169 195 0
169 195 0
169 195 0
170 195 0
170 196 0
169 194 0
170 195 0
169 195 0
169 195 0
168 194 0
169 195 0
169 195 0
168 194 0
169 195 0
169 195 0
170 195 0
169 194 0
169 195 0
169 195 0
169 195 0
169 195 0
169 195 0
168 194 0
169 195 0
168 194 0
169 195 0
168 194 0
168 195 0
169 195 0
168 195 0
171 196 0
170 195 0
169 195 0
169 195 0
168 194 0
170 195 0
168 194 0
170 195 0
170 195 0
168 195 0
168 194 0
170 195 0
169 195 0
169 195 0
169 195 0
170 196 0
168 194 0
169 195 0
170 196 0
169 195 0
168 195 0
169 195 0
169 195 0
171 196 0
169 195 0
170 195 0
170 195 0
170 195 0
170 195 0
169 195 0
170 195 0
170 195 0
168 194 0
170 195 0
169 195 0
169 195 0
170 195 0
170 195 0
169 195 0
169 195 0
170 195 0
169 195 0
170 195 0
169 195 0
170 195 0
169 195 0
169 195 0
169 195 0
169 195 0
170 196 0
169 195 0
169 195 0
169 195 0
169 195 0
169 195 0
170 195 0
170 195 0
169 195 0
169 195 0
170 195 0
170 195 0
168 195 0
169 195 0
168 194 0
170 195 0
169 195 0
170 195 0
169 194 0
168 195 0
168 194 0
169 195 0
169 195 0
170 196 0
170 195 0
170 196 0
169 195 0
169 195 0
169 195 0
170 195 0
169 195 0
170 196 0
170 195 0
169 195 0
168 194 0
169 195 0
168 195 0
169 195 0
170 196 0
170 195 0
171 196 44
170 195 36
171 197 57
179 203 105
179 202 102
177 201 95
183 206 127
190 211 157
187 209 149
185 207 147
177 201 99
173 198 80
175 200 88
170 196 72
168 194 51
168 194 67
170 196 72
171 197 80
170 196 72
170 196 67
169 195 72
171 197 72
168 194 67
170 196 72
170 196 72
171 197 72
170 196 67
169 195 51
170 196 57
168 194 62
170 196 57
173 198 92
171 197 76
172 198 88
170 196 51
170 196 51
172 198 76
173 198 76
173 198 84
184 206 130
179 203 117
181 204 120
185 207 135
176 200 80
179 202 102
181 204 108
172 198 62
172 197 57
170 196 25
170 196 25
169 195 0
169 195 0
169 195 0
168 194 0
168 195 0
169 195 0
169 195 0
169 195 0
167 193 0
168 194 0
168 194 0
170 195 0
168 195 0
168 194 0
170 195 0
169 195 0
169 195 0
168 195 0
168 194 0
168 194 0
169 195 0
167 194 0
170 195 0
171 196 0
168 194 0
169 195 0
170 195 0
169 195 0
170 195 0
170 195 0
169 195 0
169 195 0
170 195 0
169 195 0
169 195 0
169 195 0
169 195 0
169 194 0
169 195 0
169 195 0
169 195 0
169 194 0
169 195 0
169 195 0
170 195 0
169 195 0
168 194 0
169 195 0
169 195 0
170 196 0
169 195 0
170 195 0
169 195 0
169 195 0
170 195 0
170 195 0
169 195 0
170 195 0
170 195 0
169 195 0
170 195 0
169 195 0
169 195 0
169 195 0
169 195 0
169 195 0
168 194 0
170 195 0
169 195 0
169 195 0
170 195 0
168 195 0
169 195 0
168 194 0
169 195 0
169 195 0
170 196 0
170 195 0
170 196 0
171 196 0
170 195 0
169 195 0
169 195 0
171 196 0
168 194 0
170 195 0
170 196 0
169 195 0
169 195 0
170 195 0
170 195 0
168 194 0
169 195 0
169 195 0
169 195 0
170 196 0
169 195 0
170 195 0
170 196 0
170 195 0
169 195 0
169 195 0
169 195 0
168 195 0
168 194 0
170 195 0
169 195 0
170 195 0
170 195 0
170 196 0
169 195 0
169 195 0
169 195 0
168 195 0
169 195 0
170 195 0
169 195 0
169 195 0
170 196 0
169 195 0
170 196 0
169 195 0
169 195 0
170 195 0
168 194 0
169 195 0
169 195 0
169 195 0
171 196 0
169 195 0
168 195 0
170 195 0
169 195 0
169 195 0
169 195 0
168 195 0
169 195 0
170 195 0
170 195 0
170 195 0
169 195 0
169 195 0
170 196 0
170 195 0
170 196 0
169 195 0
169 195 0
170 195 0
170 195 0
170 196 25
171 196 36
171 197 51
176 200 88
174 199 80
178 202 102
180 203 108
179 202 114
182 205 122
178 202 114
175 199 88
173 198 72
173 198 72
172 197 67
171 196 84
168 194 57
167 193 80
170 196 80
168 194 62
166 192 54
169 195 62
169 196 72
167 193 47
168 194 62
168 194 51
170 196 57
169 195 72
171 197 76
170 196 76
170 197 76
172 198 80
172 198 76
170 196 62
173 198 80
170 196 62
171 197 62
171 197 62
171 197 72
172 198 80
173 198 88
174 199 80
177 201 102
179 203 108
180 203 117
176 201 99
175 200 80
176 200 92
175 199 80
172 197 57
172 197 57
168 194 0
169 195 0
169 195 0
168 194 0
168 194 0
169 195 0
169 195 0
169 195 0
169 195 0
169 194 0
169 195 0
168 194 0
170 196 0
169 195 0
169 195 0
168 194 0
169 195 0
168 194 0
168 194 0
169 195 0
169 195 0
169 195 0
170 195 0
169 195 0
169 194 0
169 195 0
169 195 0
170 195 0
169 194 0
168 195 0
169 195 0
170 195 0
170 196 0
169 195 0
169 195 0
168 195 0
167 194 0
170 195 0
170 195 0
168 194 0
170 196 0
166 193 0
169 195 0
168 194 0
170 195 0
170 196 0
169 195 0
168 195 0
170 195 0
170 195 0
170 196 0
170 196 0
169 195 0
170 195 0
169 195 0
169 195 0
170 195 0
169 195 0
169 195 0
169 195 0
169 195 0
168 195 0
171 196 0
169 195 0
170 195 0
169 195 0
169 195 0
170 195 0
170 196 0
170 195 0
169 195 0
169 195 0
170 195 0
170 196 0
168 194 0
170 195 0
169 195 0
169 195 0
169 195 0
170 195 0
169 195 0
170 195 0
170 196 0
169 195 0
169 195 0
169 195 0
168 194 0
170 196 0
171 196 0
171 196 0
169 195 0
170 196 0
170 195 0
169 195 0
169 195 0
170 195 0
169 195 0
170 196 0
170 195 0
169 195 0
170 195 0
169 195 0
169 195 0
169 195 0
170 196 0
169 195 0
170 195 0
169 195 0
170 195 0
169 195 0
169 195 0
170 195 0
170 195 0
170 196 0
170 195 0
168 195 0
170 195 0
169 195 0
169 195 0
170 195 0
169 195 0
169 195 0
169 195 0
169 195 0
170 195 0
169 195 0
170 195 0
169 195 0
170 195 0
169 195 0
168 194 0
169 195 0
169 195 0
169 195 0
169 195 0
168 195 0
168 195 0
169 195 0
169 195 0
170 196 0
168 195 0
169 195 0
168 194 0
170 195 0
169 195 0
170 195 0
169 195 0
170 195 0
169 195 0
169 195 0
170 196 25
172 197 57
173 198 62
179 202 99
178 201 95
178 202 102
179 202 120
178 202 105
184 207 140
175 200 99
176 200 92
172 197 88
169 194 62
173 199 88
167 193 67
170 196 76
170 196 62
170 195 67
168 194 78
167 193 67
167 193 76
168 195 67
168 194 57
171 196 74
171 197 84
171 197 80
168 194 76
169 195 51
170 197 72
171 197 67
172 197 88
170 197 72
170 196 51
172 198 84
171 197 57
172 198 80
170 196 67
172 198 72
172 197 51
173 199 92
173 198 67
182 205 127
177 201 92
179 203 108
180 203 111
177 201 95
175 199 76
172 197 51
170 196 25
171 197 44
170 196 36
169 195 0
168 194 0
168 194 0
171 196 0
168 194 0
169 195 0
169 195 0
169 195 0
169 194 0
168 194 0
170 195 0
169 195 0
169 195 0
170 195 0
169 195 0
170 195 0
169 195 0
169 195 0
168 195 0
170 195 0
169 194 0
168 194 0
170 195 0
168 194 0
169 195 0
168 195 0
170 195 0
167 194 0
170 195 0
167 193 0
169 195 0
170 195 0
167 193 0
169 195 0
169 195 0
169 195 0
168 194 0
169 195 0
169 194 0
169 195 0
169 195 0
169 195 0
169 194 0
168 194 0
169 195 0
169 195 0
169 195 0
169 195 0
169 195 0
170 195 0
170 195 0
169 195 0
168 194 0
170 195 0
169 195 0
170 195 0
168 194 0
169 195 0
169 195 0
170 195 0
169 195 0
169 195 0
169 195 0
168 194 0
169 195 0
169 195 0
170 195 0
169 195 0
169 195 0
169 195 0
169 195 0
169 194 0
170 195 0
168 195 0
170 195 0
169 195 0
169 195 0
169 195 0
169 195 0
169 195 0
168 194 0
169 195 0
169 195 0
169 195 0
169 195 0
169 195 0
169 195 0
169 195 0
169 195 0
169 195 0
170 195 0
170 195 0
169 195 0
170 196 0
169 195 0
170 195 0
170 196 0
170 195 0
170 195 0
170 195 0
169 195 0
169 195 0
169 195 0
168 194 0
168 195 0
171 196 0
169 195 0
169 195 0
168 195 0
169 195 0
169 195 0
169 195 0
170 196 0
170 195 0
169 195 0
170 195 0
168 195 0
169 195 0
169 195 0
169 195 0
170 196 0
169 195 0
169 195 0
169 195 0
171 196 0
169 194 0
169 195 0
168 194 0
169 195 0
170 195 0
169 194 0
170 196 0
169 195 0
169 195 0
169 195 0
170 196 0
169 195 0
169 195 0
168 194 0
170 195 0
170 196 0
169 195 0
168 194 0
169 195 0
168 194 0
169 195 0
169 195 0
170 195 0
169 195 0
169 195 0
173 198 62
174 198 67
178 201 99
176 200 84
180 203 105
178 202 108
183 205 130
178 202 114
175 200 88
171 197 72
173 198 76
172 197 78
173 199 88
171 197 88
169 195 57
167 193 70
169 196 76
169 195 76
168 194 72
167 193 70
171 197 57
171 198 92
170 197 72
170 196 72
168 194 67
171 197 76
168 195 72
171 197 72
171 198 88
171 197 72
171 197 76
171 197 67
172 197 62
173 198 80
172 198 88
174 199 84
170 196 57
170 196 67
171 196 67
173 199 88
170 196 67
178 201 99
179 202 105
180 203 111
175 199 88
174 199 80
171 196 57
171 196 44
173 198 62
169 194 25
170 195 25
169 195 0
168 195 0
169 195 0
169 195 0
169 195 0
167 194 18
169 195 0
168 194 18
169 195 18
170 195 0
168 194 18
169 195 0
169 195 0
170 195 0
170 195 0
169 195 0
169 195 0
169 195 0
169 195 0
169 195 0
168 194 0
170 195 0
170 195 0
169 194 0
169 195 0
168 195 0
169 195 0
169 195 0
170 195 0
169 195 0
170 195 0
169 195 0
169 195 0
169 195 0
169 194 0
169 194 0
169 195 0
169 195 0
169 195 0
168 195 0
169 195 0
169 195 0
170 195 0
169 195 0
170 195 0
170 195 0
170 195 0
169 195 0
169 195 0
168 195 0
171 196 0
168 194 0
169 195 0
170 195 0
169 195 0
167 193 0
169 195 0
168 195 0
167 193 0
170 195 0
169 195 0
169 195 0
169 195 0
170 196 0
169 195 0
170 195 0
168 195 0
168 195 0
169 195 0
169 195 0
169 194 0
170 195 0
169 195 0
170 195 0
169 195 0
169 195 0
169 195 0
169 195 0
168 194 0
169 195 0
170 195 0
170 195 0
170 195 0
170 195 0
168 194 0
169 195 0
169 195 0
170 195 0
170 195 0
169 195 0
169 195 0
168 195 0
169 195 0
170 195 0
169 195 0
169 195 0
169 195 0
169 195 0
170 195 0
168 195 0
170 195 0
170 195 0
170 196 0
169 195 0
169 195 0
168 195 0
170 196 0
170 195 0
168 195 0
170 195 0
171 196 0
171 196 0
169 195 0
170 196 0
169 195 0
169 195 0
169 195 0
169 195 0
170 195 0
170 195 0
169 195 0
169 195 0
169 195 0
170 195 0
169 195 0
170 195 0
169 195 0
170 195 0
170 195 0
169 195 0
170 195 0
171 196 0
170 195 0
168 195 0
170 195 0
170 195 0
169 195 0
169 195 0
169 195 0
170 196 0
170 195 0
169 195 0
168 195 0
170 195 0
170 196 0
169 195 0
168 194 0
168 194 0
169 195 0
170 196 25
172 197 57
174 199 72
176 200 88
181 204 114
183 206 122
183 206 130
175 200 88
174 199 86
172 198 76
172 197 76
174 199 80
171 196 86
170 195 67
168 194 78
168 194 72
170 196 67
171 196 74
169 195 57
167 193 57
169 195 74
168 194 67
169 195 74
170 196 72
167 194 62
170 195 76
170 196 80
172 197 76
171 197 57
173 199 88
171 197 76
171 196 62
173 198 76
173 199 99
174 198 72
173 199 92
172 197 51
176 201 105
174 199 84
174 199 92
172 197 67
177 201 92
177 202 105
174 198 84
178 202 99
175 200 80
175 200 84
174 198 62
170 196 36
170 196 25
170 195 25
169 195 0
167 193 31
168 193 25
159 185 62
151 177 88
141 168 105
127 154 127
127 154 126
123 151 130
121 149 134
128 155 126
122 149 133
146 172 99
152 179 80
162 188 54
167 192 31
169 194 18
167 193 0
169 195 0
169 194 0
169 195 0
170 195 0
169 195 0
169 194 0
170 195 0
169 194 0
170 195 0
170 195 0
168 195 0
168 194 0
169 195 0
169 195 0
167 194 0
168 195 0
169 195 0
170 195 0
170 195 0
170 196 0
170 195 0
169 195 0
169 195 0
167 193 0
169 195 0
170 196 0
169 194 0
168 194 0
170 195 0
169 195 0
169 195 0
170 195 0
170 196 0
170 195 0
169 195 0
168 195 0
169 195 0
169 195 0
169 195 0
169 195 0
169 195 0
170 195 0
170 195 0
170 196 0
167 193 0
170 195 0
169 195 0
169 195 0
169 194 0
169 195 0
169 195 0
170 195 0
169 195 0
169 195 0
170 196 0
169 195 0
167 194 0
170 195 0
169 195 0
169 195 0
169 195 0
169 195 0
169 195 0
169 195 0
170 195 0
169 195 0
169 195 0
170 195 0
169 195 0
169 195 0
171 196 0
169 195 0
170 196 0
169 195 0
168 194 0
169 195 0
170 196 0
169 195 0
169 195 0
168 195 0
169 195 0
170 195 0
170 195 0
170 195 0
169 195 0
170 196 0
169 195 0
169 195 0
169 195 0
169 195 0
170 195 0
170 195 0
170 195 0
168 194 0
169 195 0
168 195 0
169 195 0
170 195 0
169 195 0
170 196 0
169 195 0
171 196 0
170 195 0
169 195 0
170 195 0
169 195 0
170 195 0
168 194 0
170 195 0
168 195 0
169 195 0
169 195 0
169 195 0
169 195 0
169 195 0
170 195 0
170 195 0
169 195 0
169 195 0
168 195 0
169 195 0
170 195 0
171 196 0
170 195 0
168 195 0
170 196 0
170 195 0
169 195 0
169 195 0
169 195 0
171 196 36
172 197 57
172 197 51
177 200 84
181 204 114
174 199 76
180 203 111
182 205 122
173 198 90
172 197 62
172 198 67
169 194 65
169 195 57
171 197 57
169 195 60
166 192 51
171 197 80
170 196 76
170 196 67
169 195 76
168 194 60
168 194 60
172 197 80
166 192 80
170 196 76
165 191 57
173 198 84
169 195 44
171 197 72
173 199 92
174 200 114
172 198 72
171 197 62
173 198 84
172 198 80
172 197 80
172 198 80
173 198 80
172 198 76
172 198 67
173 198 76
173 199 80
173 198 72
175 200 84
176 200 95
172 197 57
174 198 72
172 197 67
173 198 67
171 197 44
170 195 51
159 186 62
153 180 78
130 157 124
109 138 148
76 110 172
68 103 176
60 98 181
60 98 181
60 98 181
60 97 181
60 97 181
60 98 181
60 98 181
60 98 181
73 107 173
87 119 165
99 128 157
130 157 124
153 179 80
163 190 47
169 194 0
169 195 0
169 195 0
167 193 0
168 195 0
169 195 0
168 194 0
168 194 0
169 195 0
168 194 0
169 195 0
168 194 0
168 194 0
169 195 0
169 195 0
165 192 0
167 194 0
170 196 0
169 195 0
168 194 0
167 194 0
170 195 0
168 194 0
169 195 0
169 194 0
169 195 0
169 195 0
169 195 0
168 194 0
170 195 0
169 195 0
169 195 0
168 195 0
169 195 0
169 195 0
169 195 0
168 194 0
170 195 0
169 194 0
169 195 0
170 195 0
169 195 0
169 195 0
167 194 0
170 195 0
169 195 0
169 195 0
169 195 0
169 195 0
170 195 0
170 196 0
169 195 0
170 195 0
168 194 0
169 195 0
169 195 0
170 195 0
170 195 0
169 195 0
169 195 0
169 195 0
170 195 0
170 195 0
169 195 0
170 195 0
169 195 0
170 195 0
170 195 0
169 195 0
169 195 0
169 195 0
169 195 0
169 195 0
169 194 0
169 195 0
169 195 0
169 195 0
170 196 0
170 195 0
169 195 0
171 196 0
168 194 0
170 195 0
169 195 0
169 195 0
169 195 0
169 195 0
170 195 0
169 195 0
170 195 0
169 195 0
170 195 0
170 196 0
169 195 0
170 196 0
169 195 0
169 195 0
170 195 0
169 195 0
169 195 0
169 195 0
169 195 0
169 195 0
169 195 0
169 195 0
169 195 0
169 195 0
168 195 0
170 195 0
169 195 0
169 195 0
169 195 0
168 194 0
169 195 0
170 195 0
169 195 0
170 195 0
169 195 0
169 195 0
169 195 0
170 195 0
169 195 0
168 195 0
169 194 0
170 195 0
169 195 0
169 195 0
169 195 0
169 195 0
168 194 0
171 196 44
172 197 57
177 201 88
174 198 62
176 200 84
179 202 105
178 201 102
169 194 51
171 197 51
170 195 57
170 195 57
173 199 88
171 197 88
169 195 62
171 196 78
168 194 65
171 196 76
170 195 62
167 193 72
171 197 80
169 194 84
168 194 36
170 197 76
170 196 67
172 198 76
170 196 65
171 197 82
169 195 47
168 194 57
172 198 84
172 197 76
173 199 88
173 199 84
173 198 76
173 198 72
171 196 76
171 196 65
173 198 84
172 197 57
171 197 67
171 196 76
177 201 99
172 197 72
170 195 57
174 198 72
173 198 72
171 197 62
173 198 57
149 175 95
133 160 117
93 123 161
66 102 178
61 98 181
60 98 180
61 98 181
60 98 181
60 97 181
60 97 180
60 98 181
59 97 181
60 98 181
60 97 181
60 97 181
60 97 181
60 98 181
60 97 181
60 97 181
60 98 181
67 103 178
99 129 154
137 164 113
158 185 65
166 192 36
167 193 0
169 195 0
169 194 0
168 195 0
169 195 0
169 195 0
169 195 0
168 194 0
168 194 0
169 195 0
169 195 0
169 194 0
169 195 0
170 195 0
168 194 0
170 195 0
167 194 0
169 195 0
169 195 0
170 195 0
168 194 0
168 194 0
168 195 0
170 196 0
168 194 0
169 195 0
170 196 0
170 195 0
167 194 0
169 194 0
169 195 0
169 194 0
168 194 0
169 195 0
169 195 0
169 195 0
169 195 0
169 195 0
169 195 0
169 195 0
168 195 0
169 195 0
168 195 0
169 195 0
168 195 0
171 196 0
168 194 0
169 195 0
170 195 0
169 195 0
169 195 0
169 195 0
170 195 0
169 195 0
169 195 0
168 194 0
168 194 0
168 194 0
170 195 0
168 194 0
170 195 0
169 195 0
169 195 0
170 195 0
170 195 0
169 195 0
170 195 0
169 195 0
170 195 0
170 195 0
170 195 0
170 195 0
169 195 0
169 195 0
170 195 0
170 195 0
169 195 0
170 196 0
169 195 0
168 194 0
169 195 0
170 196 0
169 195 0
169 195 0
170 195 0
170 195 0
170 196 0
170 196 0
169 195 0
169 195 0
169 195 0
169 195 0
170 195 0
170 195 0
169 195 0
169 195 0
168 195 0
170 195 0
170 195 0
169 195 0
169 195 0
170 195 0
171 196 0
169 195 0
168 195 0
170 196 0
170 195 0
169 195 0
170 195 0
169 195 0
169 195 0
169 195 0
170 195 0
169 195 0
168 195 0
170 196 0
168 194 0
169 195 0
169 195 0
168 194 0
170 195 0
168 195 0
170 195 0
170 195 0
168 195 0
168 194 0
170 196 25
171 196 36
172 197 57
175 200 76
174 198 67
176 200 84
172 197 57
176 201 95
173 197 84
172 197 62
169 195 62
173 198 99
172 198 80
174 199 92
169 194 76
169 195 78
168 194 70
169 194 70
170 196 62
169 195 70
169 195 80
168 193 78
170 196 88
167 193 60
172 198 84
170 196 57
169 195 57
169 195 88
170 196 65
172 197 80
174 199 88
173 199 88
171 197 76
171 196 51
173 198 76
173 199 84
169 195 62
174 199 88
175 199 103
174 198 78
172 197 57
174 198 88
174 199 86
171 196 51
172 197 65
169 194 67
173 198 74
159 185 76
125 153 130
85 117 167
60 98 181
60 98 181
60 98 181
60 98 181
60 98 181
60 98 181
60 98 181
60 98 181
60 97 181
59 97 181
59 97 181
60 97 181
60 98 181
60 98 181
59 97 181
60 97 181
60 98 181
60 97 181
60 98 181
60 98 181
61 98 181
60 98 181
85 117 166
129 156 126
156 182 72
166 191 40
168 194 0
169 194 0
170 195 0
169 194 0
170 195 0
167 193 0
167 193 0
169 195 0
169 195 0
169 194 0
168 194 0
170 195 0
169 195 0
169 195 0
170 195 0
170 195 0
170 195 0
169 195 0
170 195 0
169 195 0
168 195 0
169 195 0
168 195 0
169 195 0
169 195 0
167 194 0
169 195 0
170 196 0
170 196 0
169 195 0
168 194 0
169 195 0
169 195 0
169 195 0
169 195 0
169 195 0
170 195 0
171 196 0
170 195 0
169 195 0
169 195 0
168 194 0
169 195 0
169 195 0
169 195 0
169 195 0
169 195 0
169 195 0
169 195 0
170 195 0
169 195 0
169 195 0
171 196 0
169 195 0
171 196 0
170 196 0
170 195 0
168 195 0
169 195 0
169 195 0
169 195 0
169 195 0
171 196 0
169 195 0
169 195 0
169 195 0
168 195 0
168 195 0
170 195 0
170 195 0
168 195 0
170 195 0
169 195 0
169 195 0
169 195 0
170 195 0
169 195 0
170 196 0
169 195 0
169 195 0
169 195 0
169 195 0
170 195 0
169 195 0
169 195 0
170 195 0
170 196 0
170 195 0
169 195 0
170 195 0
170 196 0
170 195 0
168 194 0
169 195 0
169 194 0
169 195 0
169 195 0
169 195 0
169 195 0
170 195 0
170 195 0
168 195 0
169 194 0
169 195 0
169 195 0
170 195 0
170 196 0
169 195 0
169 195 0
170 195 0
168 195 0
169 195 0
169 195 0
168 194 0
170 195 0
170 195 0
170 195 0
169 195 0
168 195 0
169 195 0
169 195 0
169 195 0
169 195 0
168 195 0
171 196 36
171 197 44
171 196 36
174 198 62
176 200 84
175 199 86
176 200 88
176 200 92
175 199 88
173 198 72
172 197 72
169 195 47
170 195 60
175 200 95
173 198 86
171 196 74
169 194 51
168 194 80
168 194 67
167 192 78
166 191 54
172 198 88
170 196 78
169 195 67
172 198 76
170 196 62
170 196 86
171 196 76
169 196 60
171 197 57
172 198 76
172 197 76
171 197 76
171 197 67
170 195 72
172 197 82
170 195 70
174 199 80
171 196 82
167 193 54
172 196 76
171 197 78
169 195 57
174 198 67
172 197 60
159 185 72
140 166 121
94 125 163
60 98 181
61 98 181
61 98 181
61 98 181
60 98 181
60 98 181
60 98 181
60 98 181
60 98 181
60 97 181
60 97 181
59 97 181
60 98 181
60 97 181
59 97 181
60 98 181
60 97 181
60 98 181
60 97 181
60 98 181
60 98 181
60 98 181
61 98 180
60 98 181
61 98 181
61 98 180
85 117 167
135 162 114
158 184 67
168 194 0
169 195 0
169 195 0
169 194 0
169 195 0
169 195 0
169 194 0
170 196 0
168 194 0
168 194 0
169 195 0
169 195 0
167 194 0
168 194 0
168 194 0
166 192 0
171 196 0
170 195 0
169 195 0
169 195 0
168 194 0
168 194 0
169 195 0
169 195 0
169 195 0
170 195 0
170 195 0
169 195 0
168 194 0
171 196 0
168 195 0
169 195 0
169 195 0
170 196 0
169 195 0
168 194 0
169 195 0
167 193 0
167 194 0
169 195 0
169 194 0
168 195 0
169 195 0
169 195 0
169 195 0
169 195 0
169 195 0
169 195 0
170 195 0
169 195 0
169 195 0
169 195 0
169 195 0
170 195 0
170 195 0
169 195 0
170 195 0
169 195 0
170 195 0
170 195 0
169 195 0
168 194 0
169 195 0
169 195 0
169 195 0
170 195 0
169 195 0
169 195 0
170 196 0
170 196 0
170 195 0
170 195 0
167 194 0
170 195 0
169 195 0
170 195 0
170 195 0
170 196 0
169 195 0
169 195 0
170 195 0
170 196 0
170 196 0
169 195 0
168 194 0
170 196 0
168 195 0
170 196 0
169 195 0
169 195 0
170 195 0
170 195 0
170 195 0
169 195 0
170 195 0
170 195 0
169 195 0
168 195 0
170 196 0
171 196 0
170 196 0
169 195 0
169 195 0
170 195 0
170 196 0
169 195 0
169 195 0
170 195 0
169 195 0
169 195 0
169 195 0
170 196 0
170 195 0
169 195 0
169 195 0
169 195 0
169 195 0
170 195 0
169 195 0
169 195 0
170 195 0
170 196 0
169 195 0
170 195 25
172 197 51
171 196 44
174 198 72
174 199 76
174 199 72
172 197 51
175 200 88
173 198 62
172 197 62
173 198 80
176 200 88
171 196 80
171 196 72
170 196 70
169 195 65
171 196 70
169 195 67
170 195 70
169 193 78
169 195 78
172 198 80
169 195 78
171 196 88
167 193 65
169 195 54
170 196 80
171 197 67
173 198 76
172 197 67
173 198 94
175 200 92
176 200 102
172 197 76
171 196 90
177 202 108
165 191 84
168 194 67
170 196 86
165 190 74
170 196 57
172 197 72
171 195 86
170 196 62
163 187 97
106 135 153
63 100 178
61 98 181
61 98 180
61 98 181
60 98 181
60 98 181
60 98 181
60 97 181
60 97 181
60 98 181
60 97 181
59 97 181
60 97 181
59 97 181
60 97 181
60 98 181
59 97 181
59 97 181
59 97 181
60 98 181
60 98 181
60 98 181
60 98 181
60 97 181
60 98 181
61 98 181
61 98 181
61 98 180
61 98 180
62 99 180
110 139 143
158 185 65
168 193 25
169 195 0
169 194 0
168 194 0
170 195 0
169 195 0
169 195 0
169 195 0
170 195 0
170 196 0
169 195 0
169 195 0
169 194 0
169 195 0
170 195 0
170 195 0
170 195 0
169 194 0
169 195 0
169 195 0
169 195 0
169 195 0
169 195 0
170 195 0
169 195 0
169 195 0
170 195 0
168 194 0
168 195 0
169 194 0
169 195 0
169 195 0
170 195 0
170 195 0
170 195 0
168 195 0
169 195 0
169 195 0
170 195 0
169 195 0
169 195 0
169 195 0
168 194 0
170 196 0
169 195 0
168 194 0
168 195 0
170 195 0
169 195 0
169 195 0
168 195 0
169 195 0
169 195 0
170 195 0
169 195 0
169 195 0
170 195 0
169 195 0
170 195 0
169 195 0
170 196 0
168 195 0
169 194 0
169 195 0
169 195 0
169 195 0
170 196 0
169 195 0
169 195 0
169 195 0
169 195 0
170 196 0
168 194 0
170 195 0
170 196 0
169 195 0
169 195 0
171 196 0
170 195 0
170 195 0
169 195 0
168 195 0
168 195 0
169 195 0
169 195 0
169 195 0
169 195 0
169 195 0
169 195 0
169 195 0
170 195 0
168 194 0
169 195 0
169 195 0
170 195 0
168 195 0
169 195 0
169 195 0
170 195 0
169 195 0
170 196 0
169 195 0
171 196 0
170 196 0
170 195 0
169 195 0
169 195 0
170 195 0
170 196 0
170 195 0
170 195 0
170 195 0
170 195 0
169 195 0
169 195 0
168 193 0
169 195 0
169 195 0
169 195 0
169 195 0
169 195 0
169 195 0
168 194 0
170 196 25
170 195 44
172 198 62
173 198 67
176 200 84
176 200 80
176 201 95
174 199 84
174 199 84
171 196 44
176 201 95
176 200 99
171 196 67
173 198 76
174 199 103
172 198 76
170 196 84
171 197 82
170 196 76
171 196 92
169 195 67
169 195 51
170 196 74
170 196 54
170 195 60
172 197 67
172 198 86
169 195 60
171 197 72
172 197 90
171 197 57
172 198 82
170 196 70
168 194 80
166 191 62
168 193 60
169 195 76
167 193 76
166 191 88
168 194 57
169 194 60
165 191 65
133 160 114
90 121 167
62 99 180
61 98 180
61 98 181
61 98 181
60 98 181
61 98 181
60 98 181
61 98 181
60 98 181
59 97 181
60 98 181
60 98 181
60 98 181
59 97 181
60 97 181
60 97 181
60 97 181
59 97 181
60 97 181
60 98 181
60 98 181
60 97 181
60 97 181
60 97 181
60 98 181
60 98 181
60 98 181
61 98 181
60 98 181
62 99 181
61 98 181
61 98 179
87 118 165
145 171 99
165 192 31
168 194 0
167 192 0
168 194 0
169 195 0
167 193 0
168 194 0
169 195 0
169 194 0
169 195 0
168 194 0
170 195 0
169 195 0
169 195 0
170 195 0
170 195 0
168 194 0
169 195 0
165 191 0
169 195 0
168 195 0
169 194 0
170 196 0
168 194 0
170 196 0
170 195 0
168 194 0
168 193 0
170 195 0
169 195 0
167 194 0
168 194 0
169 195 0
169 194 0
169 195 0
169 194 0
170 195 0
169 195 0
170 196 0
169 195 0
167 193 0
169 194 0
169 195 0
169 194 0
168 193 0
170 196 0
169 195 0
169 195 0
169 195 0
168 194 0
169 195 0
170 195 0
170 196 0
169 195 0
169 195 0
169 195 0
169 195 0
169 195 0
170 196 0
169 195 0
168 194 0
170 195 0
169 195 0
169 195 0
169 195 0
168 195 0
169 195 0
170 195 0
169 195 0
169 195 0
169 195 0
169 195 0
168 195 0
169 195 0
170 195 0
169 195 0
170 195 0
170 195 0
170 195 0
169 195 0
170 195 0
169 195 0
170 196 0
169 195 0
170 195 0
169 195 0
169 195 0
170 195 0
169 195 0
170 195 0
168 195 0
169 195 0
170 196 0
169 195 0
168 194 0
170 196 0
169 195 0
170 195 0
169 195 0
170 195 0
169 195 0
169 195 0
170 195 0
169 195 0
169 195 0
168 195 0
170 196 0
169 195 0
168 194 0
169 195 0
169 195 0
171 196 0
170 195 0
170 195 0
169 195 0
170 195 0
170 195 0
168 194 0
170 195 0
169 195 0
168 194 0
170 196 25
169 195 0
171 196 36
173 198 62
171 196 51
174 198 67
172 197 67
172 197 65
173 198 72
173 197 57
175 199 80
177 200 95
175 199 97
171 196 80
172 197 57
171 196 76
168 194 70
174 199 97
172 198 80
171 196 102
170 195 67
170 196 88
172 197 86
170 196 70
170 195 79
173 198 76
172 197 62
171 197 72
171 197 67
170 196 74
171 197 90
170 196 82
172 197 88
168 194 44
168 194 82
167 193 74
165 191 82
168 194 67
167 192 72
164 189 76
165 191 54
165 190 76
132 158 129
76 109 173
62 99 181
62 99 180
61 98 181
61 98 181
61 99 181
60 98 181
61 98 181
60 98 181
60 97 181
60 97 181
60 98 181
60 97 181
60 98 181
59 97 181
60 98 181
60 97 181
60 97 181
60 98 181
60 98 181
60 97 181
60 98 180
60 97 181
60 98 181
60 98 181
61 98 181
60 98 181
60 97 181
60 98 180
61 98 181
60 98 181
61 98 180
61 99 181
61 99 181
62 99 181
71 106 176
131 158 121
165 191 36
169 195 0
168 194 0
168 195 0
169 194 0
168 194 0
169 195 0
168 194 0
170 195 0
168 194 0
169 195 0
169 195 0
169 195 0
169 195 0
169 194 0
168 194 0
168 194 0
169 195 0
170 195 0
169 195 0
170 195 0
170 196 0
168 194 0
169 195 0
169 195 0
168 194 0
170 195 0
169 195 0
169 195 0
169 195 0
170 196 0
168 194 0
169 195 0
168 195 0
169 195 0
167 194 0
169 194 0
169 195 0
169 195 0
167 194 0
168 195 0
170 196 0
168 195 0
168 195 0
171 196 0
169 195 0
170 195 0
169 195 0
169 194 0
169 195 0
169 195 0
167 193 0
169 195 0
168 194 0
169 195 0
169 194 0
170 195 0
169 195 0
169 195 0
169 195 0
170 195 0
170 195 0
169 194 0
169 195 0
170 195 0
169 195 0
170 196 0
169 195 0
169 195 0
169 195 0
169 195 0
170 195 0
169 195 0
170 195 0
169 195 0
169 195 0
169 195 0
169 195 0
170 195 0
169 195 0
170 195 0
169 195 0
170 195 0
170 195 0
169 195 0
170 196 0
170 195 0
170 196 0
170 195 0
169 194 0
168 195 0
169 195 0
169 195 0
169 195 0
170 195 0
169 195 0
170 195 0
169 195 0
168 195 0
169 195 0
169 194 0
169 195 0
169 195 0
170 195 0
170 195 0
169 195 0
170 195 0
169 195 0
169 195 0
169 195 0
169 195 0
169 195 0
169 195 0
169 195 0
169 195 0
170 195 0
170 196 0
170 195 0
169 195 0
169 195 0
169 195 0
170 195 0
170 195 0
173 198 57
171 196 47
171 197 62
173 198 74
172 197 67
175 199 72
175 199 84
175 200 88
173 198 76
174 199 88
173 198 80
174 199 88
173 198 78
175 200 84
174 199 97
171 197 62
170 196 79
168 193 90
171 196 100
171 196 72
172 197 97
172 197 78
168 194 74
170 196 76
173 198 80
173 199 84
172 198 80
171 196 84
169 195 92
169 194 82
170 195 80
164 190 65
167 192 76
170 196 86
165 190 67
167 192 78
161 186 76
165 190 67
136 163 115
71 106 176
62 99 179
62 99 181
62 99 181
60 98 179
61 98 181
61 98 181
61 98 181
61 98 181
60 98 181
60 98 181
60 98 181
60 98 181
60 98 181
60 98 181
60 97 181
60 98 181
59 97 181
60 98 181
60 97 181
60 98 181
59 97 180
60 97 181
60 98 181
60 98 181
60 98 181
61 98 181
60 97 181
60 98 180
60 98 181
60 98 180
61 98 181
61 98 180
62 99 181
61 98 180
61 99 179
61 99 180
68 103 176
135 162 114
166 192 31
169 195 0
168 194 0
169 195 0
168 194 0
168 194 0
167 193 0
170 195 0
170 195 0
167 193 0
168 194 0
169 195 0
169 195 0
169 194 0
168 194 0
169 194 0
167 193 0
170 195 0
170 195 0
170 195 0
169 195 0
168 194 0
169 195 0
169 195 0
168 194 0
170 195 0
170 195 0
169 195 0
170 196 0
170 195 0
168 194 0
170 196 0
171 196 0
170 196 0
169 195 0
169 195 0
168 194 0
168 195 0
169 195 0
168 195 0
169 195 0
169 195 0
170 195 0
169 195 0
170 195 0
168 194 0
169 195 0
168 195 0
169 195 0
168 195 0
170 195 0
169 195 0
169 194 0
170 196 0
170 195 0
168 195 0
169 195 0
169 195 0
169 195 0
170 195 0
171 196 0
170 195 0
170 196 0
168 194 0
169 195 0
169 195 0
168 195 0
169 195 0
170 195 0
169 195 0
169 194 0
168 194 0
169 195 0
168 194 0
169 195 0
169 195 0
169 194 0
169 195 0
169 195 0
168 195 0
169 195 0
169 195 0
167 194 0
170 196 0
169 195 0
169 195 0
168 194 0
169 195 0
170 195 0
168 195 0
168 195 0
168 194 0
169 195 0
167 194 0
168 195 0
170 195 0
170 195 0
168 195 0
169 195 0
169 195 0
170 195 0
169 195 0
169 195 0
169 195 0
170 195 0
169 195 0
169 195 0
169 195 0
167 194 0
169 195 0
169 195 0
168 195 0
169 195 0
169 195 0
170 195 0
168 194 0
169 195 0
169 195 0
169 195 0
168 194 0
168 195 0
169 195 0
171 197 51
171 196 25
171 196 51
172 197 62
172 197 62
172 197 57
175 199 76
174 198 76
173 198 78
174 199 76
175 200 100
173 199 80
175 199 97
173 198 90
172 197 82
174 199 80
172 197 70
171 197 82
171 196 80
173 198 95
168 193 65
174 199 88
173 198 92
171 197 67
173 198 88
171 196 67
172 197 72
170 196 94
171 196 67
166 192 76
169 195 74
164 189 80
165 190 74
167 192 74
163 189 70
161 187 54
164 189 78
134 161 122
65 101 175
62 99 180
61 99 180
62 99 179
61 98 181
61 98 180
61 98 181
61 98 181
61 98 181
60 98 181
60 98 180
60 97 180
60 98 181
60 98 181
60 98 181
60 98 181
60 97 181
60 98 181
60 98 181
59 97 181
60 97 181
59 97 181
60 98 181
60 98 181
61 98 181
60 97 181
61 98 181
60 98 179
61 98 181
61 98 181
60 98 181
60 98 180
61 98 179
60 98 180
60 98 180
61 99 181
61 98 181
61 98 178
62 99 180
70 105 176
134 161 113
167 193 25
167 194 0
169 195 0
169 195 0
167 193 0
170 195 0
168 194 0
168 194 0
167 194 0
169 195 0
169 195 0
167 194 0
169 195 0
169 195 0
170 195 0
169 194 0
170 195 0
167 193 0
168 195 0
170 195 0
167 194 0
168 194 0
168 194 0
170 195 0
169 195 0
169 195 0
168 195 0
169 195 0
168 194 0
169 195 0
170 196 0
169 195 0
168 195 0
168 194 0
169 195 0
169 194 0
168 194 0
169 195 0
169 195 0
169 195 0
169 195 0
170 195 0
169 194 0
169 195 0
170 195 0
168 194 0
170 195 0
170 195 0
169 195 0
169 195 0
169 195 0
169 195 0
170 195 0
169 195 0
168 195 0
169 195 0
170 195 0
169 195 0
169 195 0
170 195 0
169 195 0
169 195 0
169 194 0
169 195 0
169 195 0
169 195 0
168 195 0
169 195 0
170 195 0
170 195 0
170 195 0
170 195 0
169 195 0
169 195 0
169 195 0
169 195 0
168 194 0
169 195 0
169 195 0
170 195 0
171 196 0
169 195 0
169 195 0
168 194 0
168 194 0
168 195 0
170 195 0
169 195 0
169 195 0
169 195 0
170 196 0
169 195 0
168 194 0
169 195 0
170 195 0
169 195 0
168 195 0
168 194 0
169 195 0
170 195 0
170 195 0
170 195 0
170 195 0
169 195 0
169 195 0
169 195 0
169 195 0
169 195 0
168 195 0
170 196 0
170 196 0
170 195 0
169 195 0
169 195 0
169 195 0
169 194 0
169 195 0
170 195 0
168 194 0
168 194 0
171 196 36
170 195 36
171 196 44
171 196 36
170 196 36
170 196 51
170 196 51
171 196 76
171 196 70
176 200 102
174 199 92
174 199 80
176 200 95
172 197 70
175 200 99
172 196 80
175 199 103
173 198 62
173 198 84
172 198 72
170 195 70
172 197 82
172 197 80
171 196 70
174 199 99
172 197 92
170 195 74
170 195 72
169 195 94
168 193 67
167 193 67
169 194 47
168 194 60
166 191 74
166 192 74
166 191 90
165 190 95
143 169 124
70 105 174
62 99 179
62 99 180
62 99 179
61 98 179
61 99 180
61 99 181
62 99 181
61 98 181
61 99 181
61 98 181
60 98 181
61 98 181
61 98 181
60 98 181
60 98 181
60 98 181
60 98 181
60 98 181
60 98 181
60 97 181
60 98 181
60 97 181
60 98 181
60 98 181
61 98 181
60 98 180
60 98 181
60 98 181
60 98 181
60 98 181
60 98 181
61 98 181
60 98 181
61 98 178
61 98 180
61 99 180
61 99 180
62 98 178
61 99 179
62 99 178
75 108 171
143 170 99
168 194 0
169 195 0
168 195 0
169 195 0
168 195 0
168 194 0
170 195 0
169 195 0
170 195 0
170 195 0
169 194 0
169 194 0
169 195 0
169 195 0
168 195 0
170 195 0
167 194 0
169 195 0
169 195 0
166 192 0
169 195 0
170 195 0
169 195 0
168 194 0
169 195 0
168 194 0
169 195 0
167 194 0
169 194 0
169 195 0
169 195 0
170 195 0
169 195 0
169 194 0
169 194 0
169 195 0
170 195 0
170 196 0
169 195 0
168 194 0
169 195 0
169 195 0
168 194 0
169 195 0
169 194 0
168 195 0
169 195 0
169 195 0
169 195 0
167 193 0
169 195 0
168 195 0
169 195 0
169 195 0
171 196 0
169 195 0
169 195 0
170 195 0
168 194 0
169 195 0
169 195 0
170 195 0
169 195 0
169 195 0
169 195 0
169 195 0
170 195 0
169 195 0
169 195 0
168 194 0
169 195 0
169 194 0
169 195 0
169 195 0
169 195 0
168 194 0
168 194 0
170 195 0
169 195 0
168 194 0
168 194 0
169 195 0
170 195 0
169 195 0
170 195 0
168 194 0
169 195 0
169 195 0
168 195 0
169 195 0
170 196 0
170 195 0
170 196 0
169 195 0
168 195 0
169 195 0
169 195 0
169 195 0
167 194 0
169 195 0
169 195 0
168 194 0
168 195 0
170 195 0
170 195 0
166 193 0
169 194 0
168 194 0
169 195 0
169 195 0
169 195 0
170 196 0
169 195 0
169 195 0
168 194 0
169 195 0
168 194 0
169 194 0
171 196 0
169 195 0
170 196 25
169 195 25
171 196 40
174 198 62
171 196 57
173 198 76
172 197 65
174 199 80
171 196 57
175 200 94
172 197 67
172 197 62
170 196 44
175 199 95
173 198 82
172 197 62
170 196 60
175 200 100
170 196 65
173 198 84
173 198 72
173 198 88
175 199 94
173 198 76
174 198 88
171 197 90
173 198 84
170 196 80
166 192 57
164 190 74
169 195 92
169 195 78
168 193 72
168 193 77
168 193 93
151 177 97
84 116 170
63 100 178
62 99 178
62 99 178
61 99 179
62 99 180
61 98 180
61 98 181
62 99 181
61 98 180
61 98 180
61 99 181
61 98 181
60 98 180
60 98 181
60 98 181
61 98 180
60 98 181
60 98 180
61 98 181
60 98 181
60 98 181
61 98 181
61 98 180
60 97 180
60 98 181
60 98 181
60 98 180
61 98 181
61 98 181
60 98 181
60 97 179
60 98 180
60 98 179
61 98 181
60 98 179
61 98 180
61 98 179
61 98 177
61 98 179
62 99 178
62 99 180
62 99 176
79 112 171
153 179 79
166 193 0
169 194 0
169 194 0
168 194 0
167 194 0
167 193 0
169 195 0
169 195 0
169 195 0
168 194 0
168 194 0
168 194 0
168 193 0
168 193 0
168 193 0
167 192 0
168 194 0
171 196 0
169 194 0
170 196 0
170 195 0
168 194 0
169 194 0
170 195 0
169 194 0
169 195 0
168 194 0
169 195 0
169 195 0
169 194 0
169 195 0
171 196 0
169 195 0
169 195 0
168 195 0
169 195 0
169 195 0
168 194 0
168 194 0
169 195 0
168 194 0
169 195 0
170 195 0
168 194 0
170 196 0
167 193 0
169 195 0
167 193 0
169 195 0
169 195 0
170 195 0
170 196 0
168 194 0
171 196 0
170 195 0
169 195 0
169 194 0
169 195 0
169 195 0
169 195 0
170 195 0
170 195 0
169 195 0
170 195 0
169 195 0
169 194 0
169 195 0
170 196 0
168 195 0
170 195 0
168 194 0
169 195 0
169 195 0
168 194 0
169 195 0
168 195 0
169 195 0
169 195 0
170 195 0
169 194 0
168 194 0
169 195 0
169 195 0
170 196 0
169 195 0
169 195 0
168 195 0
170 195 0
171 196 0
169 195 0
170 195 0
169 195 0
170 196 0
169 195 0
170 195 0
169 195 0
170 195 0
168 194 0
170 195 0
168 194 0
169 195 0
169 195 0
169 195 0
168 194 0
169 195 0
169 195 0
168 195 0
169 195 0
169 195 0
169 195 0
169 195 0
170 195 0
169 195 0
168 194 0
169 194 0
168 194 0
169 195 0
169 195 0
168 194 0
169 195 0
168 194 0
170 196 44
171 197 57
172 197 62
173 198 57
174 199 88
174 198 67
170 195 44
176 200 95
175 200 92
174 199 80
178 202 99
174 198 84
172 196 86
175 200 92
174 199 72
174 199 94
172 197 78
176 200 95
172 196 74
173 198 76
172 198 84
171 196 62
172 197 82
172 197 78
173 198 86
169 195 72
164 190 72
167 193 47
165 191 84
165 189 70
164 190 86
169 194 82
161 186 90
115 143 142
62 99 177
62 99 180
61 99 180
62 99 177
62 99 181
61 98 178
61 98 180
61 99 181
61 98 179
61 98 180
61 98 181
61 98 180
61 99 180
61 98 181
61 98 181
61 98 181
61 98 181
60 98 181
60 98 181
61 98 180
60 97 180
61 98 180
61 98 180
60 98 180
60 98 181
61 98 180
61 98 181
60 98 180
60 98 181
61 98 180
60 97 180
60 98 181
61 98 181
60 98 179
61 98 180
60 97 178
61 98 178
61 99 181
61 98 178
61 98 178
61 98 178
62 98 176
62 99 179
63 99 176
106 134 148
159 186 60
168 193 0
168 194 0
169 194 0
168 194 0
167 193 0
168 194 0
169 195 0
167 193 0
168 194 0
169 195 0
168 194 0
168 194 0
169 195 0
167 193 0
168 194 0
167 193 0
168 194 0
168 193 0
169 195 0
168 194 0
168 194 0
169 194 0
168 194 0
169 194 0
169 195 0
168 194 0
170 195 0
168 194 0
168 194 0
169 195 0
169 195 0
168 194 0
171 196 0
170 196 0
170 195 0
169 195 0
170 195 0
169 195 0
168 194 0
168 194 0
168 195 0
168 194 0
169 194 0
168 195 0
168 194 0
169 195 0
169 195 0
168 194 0
169 195 0
168 195 0
169 195 0
169 195 0
169 195 0
168 195 0
168 194 0
169 195 0
170 195 0
169 195 0
168 194 0
168 195 0
169 195 0
170 195 0
168 194 0
169 195 0
170 195 0
168 194 0
170 195 0
169 195 0
169 195 0
169 195 0
170 195 0
170 196 0
170 195 0
170 195 0
170 195 0
170 195 0
169 195 0
170 195 0
169 195 0
170 195 0
169 195 0
169 195 0
169 195 0
170 195 0
168 194 0
168 194 0
169 195 0
169 195 0
169 195 0
169 195 0
169 195 0
169 195 0
169 195 0
169 195 0
170 195 0
169 195 0
168 195 0
168 195 0
169 195 0
170 195 0
170 195 0
169 195 0
168 195 0
169 195 0
168 194 0
168 194 0
169 195 0
169 195 0
169 195 0
169 195 0
169 195 0
168 195 0
169 195 0
168 195 0
169 195 0
169 195 0
169 195 0
169 195 25
169 195 36
170 196 25
169 195 25
170 196 0
172 197 51
175 199 84
170 196 44
177 200 88
172 197 62
172 197 57
174 198 76
173 198 80
175 199 88
175 200 88
176 200 80
173 199 88
172 197 76
173 198 90
174 198 92
170 195 51
174 197 72
170 195 57
172 196 94
172 197 84
171 197 80
170 195 67
168 194 72
166 192 57
166 191 80
164 190 72
159 184 74
166 193 88
167 193 70
163 188 103
131 157 124
67 102 170
62 99 177
63 99 178
62 99 177
62 99 179
62 99 177
62 99 180
61 98 180
61 99 181
62 99 181
61 98 181
61 98 181
61 98 181
61 98 181
62 99 180
60 98 181
60 98 181
61 98 181
61 99 181
60 98 181
61 98 181
61 98 181
61 98 181
60 98 181
61 98 181
60 98 181
61 99 181
61 98 180
61 98 181
61 98 180
60 98 179
60 98 179
61 98 181
61 98 178
61 98 178
61 98 180
61 98 179
61 98 179
61 98 177
61 97 176
61 98 178
61 98 176
61 98 175
62 98 172
63 99 178
66 101 168
138 165 111
166 192 36
167 193 0
170 196 0
169 194 0
167 193 0
168 193 0
167 193 0
169 195 0
168 194 0
168 194 0
171 196 0
169 195 0
169 195 0
167 193 0
170 195 0
169 195 0
170 196 0
167 193 0
168 194 0
168 194 0
168 194 0
169 195 0
169 195 0
169 195 0
167 193 0
169 195 0
170 195 0
167 193 0
168 194 0
168 194 0
169 194 0
168 194 0
170 195 0
168 195 0
168 194 0
168 195 0
170 195 0
170 195 0
169 195 0
168 195 0
169 195 0
169 195 0
169 195 0
169 195 0
170 195 0
169 195 0
170 195 0
168 195 0
170 195 0
169 195 0
169 195 0
168 195 0
168 193 0
168 194 0
169 195 0
169 195 0
169 195 0
169 195 0
169 195 0
167 193 0
170 195 0
170 195 0
170 195 0
168 195 0
169 195 0
168 195 0
169 195 0
169 195 0
169 195 0
169 195 0
168 194 0
170 195 0
170 195 0
170 195 0
170 195 0
169 195 0
169 195 0
171 196 0
169 195 0
170 196 0
169 195 0
170 196 0
169 195 0
169 195 0
169 195 0
169 195 0
170 196 0
169 195 0
170 195 0
169 195 0
169 195 0
168 195 0
168 194 0
170 195 0
168 195 0
170 195 0
168 194 0
167 193 0
170 195 0
169 195 0
169 195 0
169 195 0
170 195 0
170 195 0
169 195 0
170 196 0
170 195 0
169 195 0
169 195 0
168 195 0
169 195 0
169 195 0
169 195 0
169 195 0
169 195 0
170 195 25
169 195 25
168 194 0
170 195 25
171 197 44
170 196 25
170 195 44
170 195 44
171 197 57
170 195 44
173 198 76
175 199 88
173 198 72
173 197 62
175 200 88
172 197 80
173 198 88
174 198 72
174 199 84
172 197 65
172 197 72
171 197 80
174 199 80
172 197 76
173 198 72
173 197 88
174 199 84
174 199 88
165 191 76
165 190 54
166 192 78
165 191 72
165 191 84
166 192 67
165 190 78
165 190 72
151 177 97
92 122 160
62 98 174
63 100 176
62 99 177
63 100 177
62 99 179
62 99 180
62 99 178
61 99 181
62 99 181
61 98 179
61 99 179
61 98 179
61 99 181
61 99 181
61 99 181
61 99 181
61 99 181
60 98 180
61 98 181
61 99 181
60 98 181
61 98 181
61 98 181
61 98 181
61 99 181
61 98 179
60 97 178
60 97 177
61 98 179
61 98 180
61 98 180
61 98 180
60 97 178
62 99 180
61 98 180
60 97 178
61 98 176
60 97 178
61 98 179
61 97 176
62 98 176
61 98 178
62 99 178
61 97 176
61 98 174
62 99 175
87 118 156
156 182 68
167 194 0
168 194 0
168 194 0
167 193 0
169 195 0
168 194 0
168 194 0
168 194 0
168 194 0
168 194 0
168 194 0
169 195 0
169 195 0
170 196 0
168 194 0
168 194 0
170 195 0
169 195 0
169 195 0
169 195 0
170 195 0
169 195 0
168 194 0
168 195 0
169 195 0
169 195 0
168 194 0
169 195 0
169 195 0
168 194 0
170 195 0
169 195 0
169 195 0
168 194 0
168 194 0
169 195 0
169 195 0
171 196 0
171 196 0
169 195 0
169 195 0
168 194 0
170 195 0
168 195 0
170 196 0
169 195 0
169 195 0
169 195 0
170 195 0
169 195 0
167 194 0
168 195 0
168 194 0
169 195 0
169 195 0
169 195 0
169 195 0
168 194 0
170 195 0
168 194 0
169 195 0
169 195 0
169 195 0
170 195 0
169 195 0
170 195 0
169 195 0
169 195 0
169 195 0
168 195 0
168 195 0
169 195 0
169 195 0
170 195 0
168 195 0
169 195 0
169 195 0
170 195 0
169 195 0
169 195 0
169 195 0
171 196 0
168 194 0
169 195 0
169 195 0
170 195 0
169 194 0
169 195 0
169 195 0
170 196 0
169 195 0
168 195 0
169 195 0
169 195 0
169 195 0
169 195 0
170 196 0
170 196 0
170 196 0
170 195 0
169 194 0
168 195 0
169 195 0
169 195 0
170 195 0
169 195 0
170 195 0
168 194 0
170 196 0
169 195 0
169 195 0
169 195 0
168 195 0
169 195 0
169 194 0
169 194 0
169 195 0
168 194 0
168 194 0
169 195 25
169 195 25
170 195 25
171 196 44
173 198 67
172 196 67
175 199 76
174 199 76
172 197 62
172 197 62
175 199 80
175 199 88
175 200 99
171 195 82
171 196 57
172 198 72
173 197 51
173 198 80
171 196 67
170 195 51
171 195 80
172 197 62
171 196 76
169 194 60
169 193 51
166 192 94
163 188 62
166 191 70
163 188 54
158 183 74
161 187 67
125 152 141
63 99 173
62 99 175
63 99 176
62 99 178
62 99 176
63 100 179
62 99 180
62 99 179
62 99 180
62 99 180
62 99 178
62 99 181
61 98 181
61 98 179
61 99 179
61 98 180
61 99 179
61 98 181
61 98 181
61 98 179
61 98 181
61 98 180
61 98 181
61 98 181
60 98 180
61 98 179
61 98 180
60 98 180
61 98 181
61 98 179
61 98 179
61 98 179
61 98 180
61 99 181
61 98 177
61 98 179
61 97 176
61 98 181
61 98 175
61 97 174
61 98 178
61 97 175
61 97 175
61 98 177
62 98 174
62 99 177
62 98 174
63 98 169
123 151 125
161 186 41
168 194 0
166 192 0
168 194 0
168 193 0
166 192 0
169 194 0
167 193 0
167 193 0
167 193 0
168 194 0
169 195 0
169 195 0
167 193 0
170 195 0
168 193 19
165 191 0
170 195 11
170 195 11
168 194 0
168 193 16
169 194 11
167 192 19
168 194 0
169 194 0
168 194 0
167 193 0
169 194 0
170 194 11
169 195 0
169 195 0
168 194 0
168 194 0
168 194 0
170 195 0
168 194 0
169 195 0
170 196 0
169 195 0
170 195 0
169 195 0
170 195 0
169 195 0
169 194 0
170 195 0
169 195 0
168 194 0
168 194 0
168 194 0
169 195 0
169 195 0
169 195 0
168 194 0
168 194 0
169 195 0
170 195 0
169 195 0
169 195 0
169 195 0
171 196 0
169 195 0
169 195 0
168 194 0
169 195 0
169 195 0
169 195 0
169 195 0
168 194 0
170 195 0
169 195 0
169 195 0
170 195 0
170 195 0
171 196 0
170 196 0
169 195 0
169 195 0
170 195 0
169 195 0
170 195 0
169 195 0
169 195 0
170 195 0
169 195 0
170 195 0
169 195 0
170 196 0
169 195 0
168 194 0
170 195 0
169 195 0
169 195 0
169 195 0
169 195 0
170 196 0
170 196 0
169 195 0
169 195 0
168 195 0
169 195 0
170 195 0
170 196 0
170 195 0
170 196 0
169 195 0
169 195 0
169 195 0
169 195 0
169 195 0
169 195 0
170 196 0
168 194 0
169 195 0
170 195 0
168 194 0
169 195 0
169 194 0
170 196 25
169 195 0
169 195 44
171 196 25
169 195 44
173 198 67
172 197 57
172 197 57
172 197 44
172 198 80
170 196 62
169 194 51
174 199 76
173 198 80
173 198 80
176 200 92
173 198 67
170 195 57
172 197 80
172 197 72
172 197 62
172 197 62
174 199 95
173 197 76
172 196 65
172 197 84
170 195 65
164 189 47
166 191 80
162 188 72
169 194 80
164 189 72
150 176 85
81 114 164
62 98 170
63 100 178
63 100 177
62 99 177
62 99 175
62 99 179
62 99 180
62 99 178
62 99 179
61 98 179
62 99 178
61 99 181
61 99 178
62 99 181
62 99 181
62 99 180
61 99 179
61 99 181
62 99 179
62 99 178
61 99 180
61 98 179
61 98 181
61 98 180
61 98 181
62 99 181
60 97 178
60 98 180
61 99 181
62 99 181
61 98 180
61 99 180
61 98 178
61 97 176
60 97 176
60 96 176
61 98 178
60 96 174
60 95 172
61 98 176
61 98 177
61 98 177
61 97 172
61 97 173
62 98 176
62 97 171
62 97 171
63 99 176
78 111 165
152 178 79
165 191 0
169 195 0
169 194 0
167 193 0
168 194 0
166 193 0
169 195 0
168 194 0
169 194 11
168 193 11
168 194 0
167 192 19
169 195 11
165 189 22
169 194 22
165 191 11
168 193 16
169 193 22
169 193 22
169 194 11
168 192 22
167 191 19
168 192 19
171 195 19
167 192 11
166 192 16
170 193 22
166 192 0
169 194 11
168 194 0
169 195 0
168 195 0
170 195 0
168 195 0
169 195 0
170 195 0
169 195 0
168 194 0
171 196 0
170 195 0
169 195 0
171 196 0
168 195 0
169 195 0
169 195 0
170 195 0
169 195 0
169 194 0
170 196 0
168 194 0
169 195 0
168 194 0
170 195 0
169 195 0
168 194 0
169 195 0
169 195 0
169 195 0
169 195 0
169 195 0
169 195 0
169 195 0
168 194 0
169 195 0
169 195 0
170 196 0
168 195 0
169 195 0
168 195 0
169 195 0
169 195 0
169 195 0
169 195 0
170 195 0
169 195 0
168 195 0
169 195 0
171 196 0
170 195 0
170 196 0
168 195 0
169 195 0
169 195 0
169 195 0
169 195 0
168 195 0
171 196 0
167 193 0
168 195 0
169 195 0
170 196 0
169 194 0
170 195 0
168 194 0
169 195 0
169 195 0
168 194 0
168 194 0
169 195 0
169 195 0
169 195 0
170 195 0
170 195 0
168 195 0
169 195 0
169 194 0
169 195 0
170 196 0
168 194 0
170 196 0
168 194 0
168 194 0
168 195 0
167 194 0
169 194 0
169 194 0
168 194 0
172 197 36
171 197 44
172 197 57
170 196 44
168 194 47
169 194 44
172 197 62
170 195 62
172 197 57
171 197 51
172 197 84
171 196 36
172 197 62
170 195 62
172 197 67
172 197 67
173 198 88
173 198 67
175 199 84
168 193 62
171 196 57
172 196 80
171 197 57
173 196 57
171 196 54
165 190 47
171 196 90
162 187 67
171 196 88
165 189 54
163 188 72
125 152 133
63 99 165
63 100 178
63 99 175
62 99 178
63 100 178
62 99 176
62 99 178
62 99 176
62 99 178
62 99 180
61 99 179
61 99 178
63 100 181
62 99 179
62 99 179
61 98 177
62 99 181
62 99 180
61 99 179
62 99 179
61 98 180
61 98 179
61 98 179
61 99 179
61 98 179
61 97 178
61 98 180
61 98 180
62 99 180
61 98 177
61 98 179
62 99 181
61 98 179
61 98 176
61 98 180
62 99 179
61 97 175
61 98 178
61 97 175
61 98 175
61 98 177
60 96 172
60 95 169
61 96 169
61 97 173
61 96 169
61 97 172
62 98 172
62 98 169
63 98 166
134 161 102
165 192 25
165 191 0
164 190 0
168 194 0
168 193 8
167 192 16
165 190 14
168 193 19
165 189 19
164 189 22
168 191 25
168 192 32
167 191 26
169 191 36
166 190 16
166 188 35
167 189 34
165 190 16
164 188 22
166 191 19
167 191 28
168 193 19
163 186 30
165 189 22
169 191 32
167 190 28
169 192 22
167 192 16
167 193 11
167 192 16
168 193 16
169 195 0
169 195 11
169 195 0
169 194 0
169 194 0
170 195 0
169 195 0
169 195 0
169 195 0
170 195 0
169 195 0
170 195 0
169 194 0
168 195 0
169 195 0
168 194 0
168 194 0
169 195 0
169 195 0
170 196 0
169 195 0
170 196 0
169 195 0
170 196 0
169 195 0
170 196 0
169 195 0
169 195 0
169 194 0
169 195 0
169 195 0
170 196 0
169 194 0
168 194 0
169 195 0
169 195 0
168 195 0
168 194 0
169 195 0
170 195 0
170 195 0
169 195 0
170 196 0
169 195 0
170 195 0
169 195 0
169 195 0
170 195 0
169 195 0
167 194 0
169 195 0
169 195 0
169 195 0
169 195 0
169 195 0
169 195 0
169 195 0
170 196 0
169 195 0
169 195 0
169 195 0
169 195 0
166 193 0
170 195 0
168 194 0
169 195 0
169 195 0
169 195 0
170 195 0
170 195 0
168 195 0
168 194 0
169 195 0
169 195 0
170 196 0
170 195 0
168 194 0
169 195 0
169 195 0
170 195 0
169 194 0
167 192 0
168 193 0
170 196 0
169 195 0
168 194 25
169 194 25
170 195 25
170 196 36
171 196 36
171 196 51
173 198 72
173 197 51
172 198 67
171 195 57
175 200 92
172 198 62
168 193 44
173 197 80
172 197 57
172 196 44
171 196 76
170 195 51
170 195 36
172 197 51
170 195 57
171 196 57
170 195 67
170 195 76
171 197 67
167 192 40
167 192 60
167 192 62
165 189 60
165 190 62
165 191 86
161 186 62
84 115 162
63 99 167
63 100 174
63 100 178
63 100 179
63 99 175
62 99 176
62 99 176
62 99 179
62 99 178
63 100 181
62 99 177
62 99 176
62 99 178
62 99 180
61 99 179
62 99 178
61 99 180
62 99 179
62 99 178
61 99 181
61 98 177
61 98 179
62 99 180
62 99 180
62 99 181
61 98 178
61 98 179
62 99 179
61 98 179
61 99 181
61 98 178
61 98 177
62 99 181
61 98 179
62 99 179
61 98 179
61 97 176
61 98 178
60 96 171
61 97 173
61 97 173
61 97 174
61 97 174
59 94 167
60 94 167
61 95 167
61 97 172
62 98 173
62 98 174
61 96 162
102 130 134
162 188 44
166 191 0
166 192 0
167 193 0
166 191 18
163 188 16
169 194 16
166 191 21
164 188 19
166 188 35
165 188 35
163 186 33
167 190 28
165 187 32
165 185 41
169 191 32
167 188 39
168 189 39
164 188 22
168 189 40
168 189 34
165 187 36
168 190 36
166 190 25
169 194 22
165 188 28
167 190 25
167 189 34
168 191 32
169 193 19
167 191 22
169 193 22
169 194 11
168 194 11
170 195 11
169 194 0
170 195 0
169 195 0
169 195 0
169 195 0
168 195 0
169 195 0
169 195 0
169 195 0
171 196 0
169 195 0
168 194 0
170 195 0
169 195 0
168 193 0
168 195 0
169 195 0
169 195 0
169 195 0
169 195 0
169 195 0
168 194 0
169 195 0
170 195 0
169 195 0
169 195 0
169 195 0
169 195 0
168 194 0
170 195 0
169 195 0
167 194 0
170 195 0
171 196 0
169 195 0
169 195 0
169 195 0
169 195 0
168 195 0
169 195 0
169 195 0
169 195 0
168 194 0
169 195 0
169 195 0
169 194 0
169 195 0
170 195 0
168 194 0
169 195 0
169 195 0
169 195 0
169 195 0
169 195 0
169 195 0
168 194 0
169 195 0
168 195 0
169 195 0
168 195 0
169 194 0
169 195 0
167 194 0
170 195 0
169 195 0
169 195 0
170 196 0
169 195 0
168 194 0
169 195 0
170 195 0
169 194 0
168 194 0
169 195 0
170 196 0
168 195 0
168 194 0
170 195 0
169 195 0
168 195 0
169 195 0
170 195 25
169 195 0
170 196 25
171 197 57
171 196 36
171 196 62
170 195 44
172 197 72
170 196 51
170 195 57
172 197 72
171 196 62
172 197 76
172 196 57
171 196 80
168 193 51
171 196 84
168 193 57
172 198 76
168 194 51
167 193 57
168 193 36
169 194 76
168 193 62
164 189 51
170 196 76
169 194 78
166 191 67
164 189 51
168 192 54
168 193 82
155 179 72
71 105 167
63 99 166
63 100 173
63 100 174
63 99 174
62 99 175
63 100 178
63 100 180
62 99 174
62 99 177
62 99 175
62 99 177
63 100 178
62 99 176
62 99 181
62 99 180
62 99 179
62 99 179
62 99 181
61 99 179
62 99 180
61 98 180
62 99 178
62 99 181
62 99 180
61 98 179
61 99 180
61 98 176
61 98 179
62 98 177
62 99 181
61 98 178
61 98 177
61 98 177
61 97 174
61 97 176
61 97 176
61 97 174
61 98 179
61 97 173
60 95 167
60 96 169
60 96 173
61 97 173
61 97 175
61 95 165
59 94 165
60 95 166
61 96 166
62 97 167
63 98 172
66 99 153
156 182 70
166 191 16
167 192 16
165 190 19
166 191 18
169 194 19
163 186 25
167 188 37
162 185 24
167 189 36
161 185 22
165 185 37
167 186 40
165 185 42
155 177 29
164 183 49
162 179 49
163 182 44
167 189 34
164 183 44
161 180 44
165 184 47
163 183 41
168 187 45
166 186 39
167 186 47
165 186 37
167 189 41
165 188 25
165 190 16
165 189 22
169 194 16
164 187 25
169 195 11
167 192 19
166 192 11
168 194 0
168 195 0
170 195 0
167 193 0
169 195 0
169 195 0
168 194 0
170 195 0
168 194 0
169 195 0
169 195 0
169 194 0
170 196 0
169 195 0
170 195 0
168 194 0
168 195 0
168 194 0
169 195 0
170 195 0
168 194 0
169 195 0
170 195 0
169 195 0
169 195 0
170 195 0
168 194 0
170 195 0
168 194 0
169 195 0
169 195 0
169 195 0
169 195 0
169 195 0
167 193 0
171 196 0
170 195 0
169 195 0
170 195 0
169 195 0
169 195 0
169 194 0
168 194 0
170 196 0
168 194 0
169 195 0
169 195 0
169 195 0
168 194 0
169 195 0
169 195 0
169 195 0
170 195 0
169 195 0
169 195 0
168 195 0
169 195 0
169 195 0
170 195 0
169 195 0
168 194 0
168 194 0
169 195 0
169 195 0
168 194 0
170 195 0
170 195 0
168 194 0
168 194 0
169 195 0
168 193 0
169 195 0
169 194 0
169 195 0
168 195 0
169 195 0
169 194 0
169 195 0
169 195 0
170 195 0
169 194 0
169 195 36
171 196 44
170 195 0
173 198 76
169 195 44
172 197 57
173 198 67
172 197 67
172 197 62
174 198 80
172 196 67
171 196 36
172 197 67
170 195 62
170 195 36
169 194 51
172 196 76
170 195 57
170 195 80
166 192 57
170 195 72
169 193 51
168 194 62
169 195 80
167 192 51
165 190 70
163 189 70
164 188 57
159 184 70
167 191 72
121 147 134
63 100 173
64 100 177
62 99 169
63 99 170
63 99 174
62 99 173
62 99 176
63 99 177
63 100 176
63 100 177
62 99 174
63 99 176
62 99 178
62 99 176
62 99 179
62 99 178
62 99 178
62 99 178
62 99 181
62 99 178
62 99 180
62 99 181
62 99 180
62 99 177
61 98 179
62 99 179
61 99 177
62 99 179
62 99 181
61 98 178
61 98 176
62 98 178
62 98 177
62 98 176
61 97 174
61 97 176
61 97 175
60 96 171
59 93 166
61 97 173
60 96 172
60 94 164
60 93 159
59 92 163
60 95 167
60 94 165
59 93 161
60 93 160
59 92 158
61 95 163
60 94 159
63 96 160
114 140 119
164 190 28
163 187 22
164 187 25
165 189 22
161 184 32
166 189 33
164 185 39
164 184 45
162 180 47
165 184 47
165 182 51
158 177 45
165 182 56
167 184 52
167 182 61
168 185 53
165 183 50
164 179 62
164 180 61
168 185 49
167 184 51
165 182 53
167 182 59
163 178 56
165 183 47
164 184 39
162 185 30
167 186 44
164 185 41
169 191 34
164 187 32
167 189 32
170 194 22
168 191 28
169 193 25
167 193 0
170 195 11
169 194 0
168 195 0
168 195 0
168 194 0
169 195 0
169 195 0
169 195 0
168 194 0
170 195 0
167 193 0
169 195 0
169 195 0
169 195 0
169 195 0
169 195 0
169 195 0
169 195 0
170 195 0
170 195 0
169 195 0
171 196 0
169 195 0
169 195 0
170 195 0
170 195 0
169 195 0
169 195 0
168 194 0
169 195 0
169 195 0
169 195 0
169 195 0
170 195 0
169 195 0
169 195 0
169 195 0
169 195 0
170 196 0
168 194 0
169 195 0
171 196 0
168 194 0
169 195 0
169 195 0
169 195 0
169 195 0
169 195 0
168 195 0
169 195 0
169 195 0
168 194 0
169 194 0
169 195 0
169 195 0
171 196 0
168 194 0
169 194 0
167 194 0
168 194 0
168 195 0
170 196 0
169 195 0
170 195 0
169 195 0
169 195 0
169 195 0
169 195 0
170 195 0
168 194 0
169 195 0
169 195 0
169 195 0
169 194 0
169 195 0
169 194 0
170 195 0
168 194 0
168 194 0
170 196 25
168 194 0
168 194 0
169 195 36
169 195 36
173 198 57
172 197 44
169 195 36
171 196 57
172 196 80
172 197 62
173 197 57
170 194 57
172 197 72
169 194 62
171 196 72
174 198 72
166 192 36
169 194 57
170 195 51
168 193 80
168 193 67
170 195 67
167 192 62
168 194 67
170 195 80
163 188 40
162 187 82
168 193 78
169 194 70
163 188 90
101 130 141
62 99 163
63 99 168
63 100 172
63 100 174
63 99 176
62 99 171
63 99 177
63 100 177
62 99 174
63 100 178
62 99 176
62 99 174
63 99 176
63 99 179
63 100 181
62 99 176
63 100 177
62 99 180
62 99 180
62 99 179
62 99 178
62 99 180
62 99 179
62 99 181
62 99 180
62 99 181
62 99 178
61 98 178
62 99 177
61 98 175
61 97 176
62 98 176
61 97 174
62 98 176
61 97 175
61 97 176
61 97 172
61 96 172
60 95 169
61 97 173
61 96 170
59 93 163
61 95 167
60 95 166
59 94 165
59 92 156
60 93 159
59 91 152
59 92 159
61 96 165
62 95 159
67 96 147
108 133 131
162 186 39
163 184 37
162 184 36
158 182 26
160 179 44
162 184 34
158 177 42
162 180 52
161 180 49
166 183 56
161 174 61
162 176 60
164 177 61
163 177 63
156 171 57
161 178 51
162 179 52
163 176 62
165 180 60
157 172 56
161 177 59
161 178 49
166 180 62
166 180 60
163 180 53
162 179 49
161 180 42
160 178 48
166 185 49
160 181 34
169 192 30
165 186 39
164 186 32
169 193 25
170 192 30
167 190 25
166 192 0
168 194 0
165 190 0
168 194 0
169 194 0
169 195 0
170 196 0
166 192 0
169 194 0
167 193 0
170 195 0
169 195 0
169 195 0
169 195 0
169 195 0
168 194 0
169 195 0
169 195 0
169 195 0
169 195 0
169 195 0
169 195 0
170 195 0
169 195 0
170 195 0
169 195 0
170 195 0
169 195 0
169 195 0
169 195 0
170 195 0
170 195 0
169 195 0
169 195 0
169 195 0
170 195 0
169 194 0
170 195 0
169 195 0
169 195 0
170 195 0
169 195 0
169 194 0
169 195 0
168 194 0
170 196 0
169 195 0
169 195 0
168 194 0
170 196 0
169 195 0
170 195 0
170 196 0
169 195 0
170 195 0
169 195 0
170 195 0
169 195 0
168 194 0
169 195 0
168 194 0
169 195 0
169 195 0
169 195 0
168 193 0
169 195 0
170 196 0
169 195 0
170 195 0
166 192 0
170 195 0
169 195 0
168 193 0
169 195 0
168 194 0
167 194 0
170 196 0
169 194 0
168 194 0
168 194 0
167 193 36
169 194 0
172 197 36
172 197 57
172 197 57
172 197 57
171 196 25
171 196 36
170 195 67
172 196 76
173 198 72
168 193 57
170 195 62
172 197 80
174 198 72
172 197 67
170 195 62
172 196 72
168 193 62
168 193 62
168 193 44
172 197 62
168 193 67
165 190 57
166 191 67
168 193 76
166 190 60
163 187 82
164 188 72
158 182 94
79 111 155
64 100 170
63 99 170
63 100 172
63 99 169
63 99 171
63 100 174
62 99 169
63 100 176
62 99 171
64 100 179
62 99 173
63 100 179
62 99 175
62 99 176
62 99 178
62 99 177
62 99 178
62 99 176
62 99 178
62 99 176
62 99 180
62 99 176
62 99 178
62 99 179
61 98 177
62 98 174
63 99 179
62 99 177
61 98 176
61 98 177
62 98 176
62 98 178
62 98 176
61 97 172
61 97 174
61 96 169
61 97 171
60 95 167
60 95 170
60 96 172
59 94 165
59 93 162
61 95 167
59 92 158
58 91 160
58 91 155
59 92 157
57 89 153
59 91 153
63 92 146
65 94 145
62 93 151
88 113 126
157 180 53
157 177 38
162 180 52
165 182 50
163 183 44
156 174 44
159 174 58
162 178 56
163 177 62
160 177 50
165 177 68
159 173 60
161 176 61
156 171 58
160 173 64
166 176 76
160 168 73
167 177 72
161 171 72
163 176 66
165 172 76
159 171 65
169 180 69
162 175 60
164 177 61
166 179 61
165 178 62
169 185 56
163 182 47
164 181 51
167 186 48
166 186 42
166 184 44
168 189 41
168 190 32
162 184 25
167 192 11
170 193 22
168 193 11
170 195 0
168 194 0
169 195 0
170 195 0
169 194 0
169 195 0
169 195 0
169 195 0
169 194 0
169 195 0
168 194 0
168 193 0
170 195 0
169 195 0
169 195 0
169 195 0
169 195 0
168 195 0
167 193 0
169 195 0
168 194 0
170 195 0
168 195 0
169 195 0
169 195 0
169 195 0
169 195 0
170 195 0
169 194 0
169 195 0
169 195 0
169 195 0
169 195 0
169 195 0
169 195 0
169 195 0
169 195 0
169 195 0
169 195 0
169 195 0
169 195 0
168 195 0
169 195 0
170 195 0
169 195 0
169 195 0
168 195 0
169 195 0
169 195 0
169 195 0
169 195 0
170 195 0
169 195 0
169 195 0
170 195 0
170 195 0
170 196 0
167 193 0
169 195 0
169 195 0
169 195 0
169 195 0
170 196 0
170 195 0
169 194 0
169 195 0
168 194 0
167 193 0
168 194 0
168 194 0
169 194 0
167 194 0
168 194 0
169 195 0
169 195 0
169 195 0
168 194 0
170 195 0
169 194 0
169 194 0
169 195 36
169 195 0
169 195 25
171 196 51
174 198 76
169 194 25
169 195 51
172 197 57
168 193 51
170 195 51
171 195 62
169 194 57
170 195 57
171 196 57
169 194 84
170 194 51
171 196 76
171 195 76
172 197 92
165 190 62
170 195 92
167 191 67
167 191 72
165 190 72
159 184 47
161 185 47
150 175 82
64 100 160
63 99 161
63 99 164
62 99 166
63 100 171
63 99 169
62 99 167
62 99 169
64 100 176
61 98 167
62 99 173
63 99 174
63 100 178
62 98 173
63 99 178
62 99 178
63 99 178
62 99 177
62 99 175
63 99 177
62 99 173
62 99 176
62 99 178
62 99 179
63 99 177
62 98 173
62 99 178
61 97 173
62 99 179
62 99 176
62 98 170
62 99 176
61 97 173
61 97 172
61 97 173
60 95 169
62 98 173
60 94 164
59 94 169
61 96 169
60 94 167
59 93 162
60 94 163
60 94 160
58 92 159
58 91 154
58 90 151
56 86 143
61 90 145
74 97 144
59 89 147
78 100 146
78 101 146
81 102 139
150 169 79
163 184 42
164 184 47
163 178 58
157 174 51
160 178 53
164 177 65
158 173 60
157 167 73
157 169 66
166 173 75
167 177 73
159 169 71
158 169 67
164 173 75
165 176 71
167 176 75
164 172 74
169 175 84
165 175 73
160 170 72
160 172 63
158 171 66
162 173 68
157 170 64
163 177 62
164 175 66
167 183 58
164 181 52
163 178 57
164 181 49
169 188 48
169 187 47
170 189 48
165 184 42
168 189 37
168 191 32
166 190 25
168 191 25
168 190 30
168 193 11
169 195 0
170 195 0
169 194 0
169 195 0
169 194 0
169 194 0
168 195 0
168 194 0
169 195 0
168 194 0
168 194 0
168 194 0
169 195 0
170 196 0
167 193 0
169 195 0
168 194 0
168 193 0
170 195 0
170 195 0
170 195 0
170 195 0
170 196 0
169 195 0
169 195 0
169 195 0
170 195 0
169 195 0
169 194 0
168 194 0
168 194 0
169 195 0
169 195 0
169 195 0
169 195 0
169 195 0
169 195 0
168 195 0
170 196 0
169 195 0
169 195 0
169 195 0
170 196 0
170 195 0
170 195 0
168 194 0
169 195 0
169 195 0
168 195 0
169 195 0
169 195 0
168 195 0
169 195 0
170 195 0
168 194 0
169 194 0
170 195 0
169 195 0
169 195 0
170 195 0
168 194 0
169 195 0
170 195 0
168 195 0
169 194 0
169 195 0
169 195 0
168 194 0
168 194 0
169 194 0
169 194 0
167 193 0
168 194 0
169 194 0
169 194 0
168 194 0
170 195 0
170 195 36
171 196 36
168 193 0
170 195 44
169 194 51
169 194 25
171 196 36
172 196 62
169 194 72
171 196 57
170 194 44
169 194 44
170 195 72
169 194 57
167 193 62
172 196 88
167 192 44
170 194 62
170 195 72
164 188 72
167 191 62
168 192 72
168 192 67
168 192 72
163 187 76
165 190 76
162 185 76
143 169 102
64 100 170
63 99 167
63 99 167
64 100 171
63 99 169
63 99 171
63 99 172
62 99 171
64 100 176
63 100 175
62 99 178
63 99 172
63 99 176
63 100 177
62 99 173
63 100 175
63 100 179
63 100 177
62 99 176
62 99 180
62 98 175
62 99 174
62 98 170
62 99 176
62 98 176
62 98 175
61 97 168
61 97 174
62 98 177
62 99 176
62 99 177
62 98 175
61 97 172
61 97 173
62 98 174
61 97 171
59 93 163
61 96 171
60 94 166
61 95 167
59 92 159
59 93 160
58 90 151
58 91 158
58 91 155
58 90 152
60 90 147
60 90 148
55 85 142
68 92 143
66 93 146
90 104 130
88 102 125
81 101 138
132 148 82
161 178 55
161 177 59
163 176 64
159 171 63
158 170 66
160 169 74
165 179 65
163 170 78
165 172 78
157 166 74
158 166 75
159 167 75
168 174 81
153 157 75
164 168 87
160 169 73
166 172 82
160 165 81
164 171 78
159 164 79
159 167 74
166 174 78
157 161 75
158 165 73
167 176 75
168 176 79
162 175 64
164 174 69
161 175 60
167 183 57
163 176 62
166 184 51
166 183 53
164 184 42
166 183 51
167 186 44
165 186 37
168 189 37
168 191 25
167 191 16
170 195 11
168 193 11
167 193 0
170 195 0
168 194 0
169 195 0
169 194 0
170 195 0
167 193 0
169 195 0
170 195 0
168 195 0
168 194 0
170 195 0
169 194 0
169 194 0
170 195 0
170 195 0
167 194 0
170 196 0
168 194 0
169 194 0
169 195 0
168 194 0
169 195 0
169 195 0
169 195 0
168 194 0
170 195 0
169 195 0
170 195 0
168 195 0
169 195 0
169 195 0
168 194 0
169 195 0
169 195 0
169 195 0
169 195 0
169 195 0
168 194 0
169 194 0
168 194 0
171 196 0
168 195 0
169 195 0
168 194 0
169 195 0
169 195 0
168 195 0
169 195 0
169 195 0
170 195 0
169 195 0
169 195 0
170 195 0
169 194 0
170 195 0
169 195 0
169 195 0
167 193 0
169 195 0
169 195 0
170 195 0
167 193 0
169 195 0
169 195 0
169 195 0
169 194 0
168 194 0
169 195 0
168 193 0
167 193 0
169 195 0
168 193 0
169 194 0
168 193 0
169 195 0
168 194 36
168 194 0
169 195 36
171 196 36
169 194 0
172 196 44
169 194 36
172 196 57
172 196 57
169 194 72
172 196 76
173 197 84
170 195 80
168 193 72
171 194 44
168 192 80
171 195 36
171 195 67
170 194 67
167 192 57
167 192 51
166 190 51
168 192 80
159 182 40
163 188 44
155 180 47
127 154 129
64 99 165
62 98 160
61 97 154
62 98 161
63 99 167
63 100 172
62 99 164
62 99 169
63 99 174
63 99 173
63 100 176
63 100 171
62 99 170
63 99 172
63 99 174
63 100 176
63 100 179
62 99 174
63 100 176
64 100 180
62 99 171
63 99 175
63 99 174
63 100 179
63 99 175
62 99 177
62 99 175
62 98 170
62 97 169
62 98 172
61 97 171
62 99 175
62 99 177
61 97 174
61 97 173
61 96 164
62 97 171
59 94 164
60 93 158
60 94 162
57 89 150
57 90 155
58 91 155
59 93 161
60 91 152
58 88 145
61 89 145
58 86 139
65 90 139
74 94 136
78 98 134
73 94 135
86 103 137
86 104 138
129 141 95
155 166 67
155 165 70
150 161 65
160 169 78
156 166 71
160 169 75
156 163 79
159 162 84
155 159 80
167 170 89
155 158 88
161 165 88
159 164 85
165 169 87
164 163 93
163 165 89
160 162 86
164 166 87
160 160 89
169 172 90
164 168 84
161 167 85
164 166 86
161 165 85
161 169 75
166 174 78
161 168 78
163 173 68
165 176 68
163 175 63
168 178 72
163 175 63
165 180 59
167 184 54
166 184 49
163 182 48
164 187 25
167 189 30
167 189 30
166 189 28
166 191 16
169 193 25
168 193 0
167 193 0
169 195 0
169 194 0
170 195 0
169 195 0
168 195 0
169 195 0
170 195 0
169 195 0
169 194 0
170 195 0
169 195 0
168 194 0
169 195 0
170 195 0
170 195 0
168 194 0
168 194 0
169 195 0
169 195 0
170 195 0
169 195 0
168 195 0
170 195 0
170 195 0
169 195 0
170 196 0
169 195 0
169 195 0
169 195 0
169 195 0
170 195 0
169 195 0
170 195 0
169 195 0
170 195 0
168 194 0
169 195 0
171 196 0
169 195 0
168 195 0
169 195 0
169 195 0
168 194 0
168 194 0
169 194 0
171 196 0
169 195 0
170 196 0
169 195 0
170 195 0
169 195 0
169 195 0
169 195 0
169 195 0
170 195 0
168 195 0
168 194 0
169 195 0
169 194 0
169 195 0
169 195 0
169 195 0
169 195 0
169 195 0
169 195 0
170 196 0
169 194 0
171 196 0
169 194 0
168 193 0
168 194 0
169 195 0
169 195 0
170 195 0
169 194 25
170 195 0
169 194 0
171 195 44
167 193 25
171 195 36
168 193 36
170 195 44
167 191 36
171 195 51
171 195 67
170 194 44
168 193 62
166 191 57
169 194 62
169 194 72
167 192 67
166 191 67
167 192 57
167 190 76
163 187 72
167 191 67
165 189 88
166 189 62
157 181 76
159 183 72
114 139 127
63 99 164
63 98 160
62 98 158
62 98 159
63 99 168
62 98 164
63 99 161
63 99 165
63 99 166
63 99 173
63 99 169
63 99 170
63 99 174
63 99 173
62 99 172
63 100 179
62 99 172
62 98 171
62 99 173
62 99 173
63 100 176
63 99 175
62 99 175
62 98 171
62 99 176
62 99 176
62 98 170
63 99 176
62 98 174
62 98 173
62 98 173
62 98 172
60 96 169
62 97 172
61 96 166
61 97 171
60 94 165
60 94 162
60 93 157
59 92 161
58 91 155
59 92 161
58 92 159
57 89 154
56 88 149
57 89 151
54 84 139
64 89 138
71 91 131
72 92 127
79 94 119
95 107 126
99 108 117
92 107 130
134 144 105
149 162 66
156 166 65
153 161 77
151 157 80
151 157 75
154 160 80
154 158 82
151 153 87
154 158 86
157 159 89
159 160 89
161 162 91
162 161 96
161 161 90
162 161 97
166 166 94
164 163 94
163 161 94
171 170 98
164 164 92
155 156 87
165 166 92
164 167 91
166 169 87
163 166 85
164 170 80
162 169 75
162 167 79
168 177 73
168 174 80
162 174 64
162 176 60
166 180 60
165 181 56
163 180 54
165 181 51
169 186 49
162 181 42
167 186 48
164 185 36
169 193 22
169 192 22
167 192 16
169 194 0
168 194 0
168 194 0
169 194 0
167 193 0
168 194 0
168 194 0
169 195 0
169 195 0
169 195 0
170 195 0
169 195 0
168 194 0
169 194 0
170 195 0
169 195 0
170 195 0
170 196 0
168 194 0
169 195 0
168 194 0
170 195 0
169 195 0
168 195 0
169 195 0
168 194 0
170 195 0
168 195 0
168 195 0
170 195 0
169 195 0
168 195 0
168 194 0
169 195 0
170 196 0
169 195 0
169 195 0
169 195 0
169 195 0
169 195 0
170 196 0
170 195 0
169 195 0
169 195 0
169 195 0
168 194 0
169 195 0
169 195 0
170 195 0
169 195 0
168 194 0
169 195 0
169 195 0
169 195 0
170 195 0
169 195 0
169 194 0
168 195 0
168 195 0
169 195 0
169 195 0
168 194 0
168 194 0
169 195 0
168 194 0
167 193 0
167 193 0
168 193 0
168 193 0
170 195 0
169 195 0
169 195 0
169 194 0
169 194 0
170 195 0
169 194 0
169 195 0
170 195 25
168 193 44
169 194 44
170 194 44
170 194 44
169 193 44
168 193 44
168 193 36
171 195 62
171 195 67
168 193 44
171 195 67
164 188 44
170 194 57
167 191 36
165 189 76
169 193 72
170 194 76
164 188 51
163 186 44
163 188 51
161 185 57
159 183 51
159 184 57
119 145 120
62 98 156
63 98 158
63 99 158
63 99 160
63 99 166
63 99 161
63 99 166
64 100 172
62 98 168
63 99 166
63 99 169
63 100 174
63 99 173
62 99 171
63 99 173
63 99 173
62 99 172
63 100 174
63 99 174
63 100 175
63 100 174
63 99 176
63 99 177
63 99 174
63 99 176
62 98 172
62 99 171
62 98 175
62 99 173
63 98 171
61 97 171
62 98 172
62 98 173
60 95 167
61 97 171
61 95 167
60 93 158
59 93 162
60 95 165
60 93 157
58 90 152
58 89 147
56 85 138
56 87 146
53 82 135
63 89 138
68 90 130
68 88 123
77 95 123
80 94 117
78 94 122
101 111 121
90 101 113
104 111 118
141 148 98
147 153 76
158 163 80
163 168 84
155 158 85
168 171 92
160 161 89
151 153 87
155 156 89
158 155 95
160 158 96
158 157 91
163 159 100
168 164 102
157 153 96
162 161 97
166 163 102
169 166 103
166 163 98
160 159 99
162 159 96
163 162 95
161 162 91
162 161 93
157 160 83
162 162 90
156 158 84
159 167 77
158 163 82
164 169 81
154 164 67
166 175 74
165 174 73
167 179 64
165 178 65
161 177 52
165 180 54
170 186 53
169 187 48
167 183 57
166 187 39
166 188 28
168 191 32
169 193 19
167 189 22
170 195 0
170 195 0
168 194 0
168 195 0
169 195 0
169 195 0
170 195 0
169 195 0
168 195 0
168 194 0
168 194 0
169 195 0
170 195 0
168 194 0
169 195 0
168 194 0
170 195 0
169 195 0
168 195 0
169 195 0
168 194 0
169 195 0
169 195 0
169 194 0
169 195 0
169 195 0
169 195 0
168 195 0
169 195 0
169 195 0
168 195 0
169 195 0
168 194 0
169 195 0
170 195 0
168 194 0
169 195 0
169 195 0
169 195 0
169 195 0
168 194 0
169 195 0
169 195 0
169 195 0
169 195 0
170 195 0
169 195 0
168 194 0
168 194 0
170 195 0
169 195 0
169 195 0
167 194 0
170 196 0
169 195 0
168 194 0
168 194 0
169 195 0
168 194 0
170 195 0
168 194 0
169 194 0
169 195 0
170 196 0
167 193 0
169 194 0
169 195 0
167 193 0
169 194 0
168 193 0
169 195 0
170 195 0
171 196 0
169 194 0
168 194 0
166 191 0
170 195 25
168 193 0
171 195 25
165 190 25
172 196 25
173 197 62
170 194 44
172 196 62
171 195 51
169 193 51
169 194 25
171 195 67
166 190 36
169 193 62
163 188 44
168 192 51
165 189 44
162 186 36
169 194 57
158 182 51
161 186 44
165 189 67
163 186 67
157 182 36
124 149 114
62 97 147
62 97 154
63 98 161
63 99 158
64 100 167
63 99 165
63 99 170
63 99 166
63 99 167
62 99 171
64 100 177
62 99 167
63 99 170
62 99 171
63 100 173
62 99 172
63 100 169
62 99 169
63 99 171
63 99 171
62 99 172
63 100 175
62 99 175
63 99 174
62 98 169
62 98 171
62 98 170
63 99 173
62 97 167
62 98 176
62 98 171
61 97 168
62 97 166
60 95 164
62 97 170
59 93 158
60 94 162
59 93 159
57 88 147
58 90 153
56 87 148
57 89 149
63 91 143
56 86 145
71 93 138
66 89 128
68 88 122
80 96 123
70 86 110
97 106 115
96 104 108
106 113 110
115 120 113
106 112 110
131 139 100
145 156 71
148 154 75
154 155 91
157 159 91
158 156 94
164 161 98
159 155 99
155 153 98
164 161 98
165 162 103
166 161 105
168 164 104
160 156 101
159 156 103
166 161 105
163 159 103
163 159 102
171 166 105
167 162 103
164 160 101
172 168 106
167 164 101
167 165 98
155 156 92
164 164 95
163 164 90
169 169 95
163 165 87
169 173 88
168 170 87
156 163 73
160 170 72
165 175 74
168 174 80
165 178 62
156 170 53
160 176 49
165 185 47
162 182 41
169 188 47
164 185 34
166 189 30
167 190 22
169 194 16
170 194 25
168 192 11
170 195 0
170 195 0
169 195 0
169 194 0
168 194 0
169 194 0
169 195 0
167 194 0
169 195 0
169 195 0
167 193 0
169 195 0
169 195 0
169 195 0
168 194 0
168 193 0
169 195 0
168 194 0
170 195 0
169 195 0
170 195 0
168 194 0
169 194 0
169 195 0
168 194 0
169 195 0
169 195 0
169 195 0
170 195 0
169 195 0
169 195 0
170 195 0
171 196 0
169 195 0
169 195 0
170 195 0
170 195 0
168 195 0
169 194 0
170 195 0
169 195 0
168 195 0
168 194 0
168 194 0
170 195 0
170 195 0
169 195 0
168 194 0
170 195 0
170 195 0
168 194 0
169 195 0
169 195 0
170 196 0
168 194 0
170 195 0
168 194 0
169 194 0
168 194 0
167 193 0
167 193 0
169 194 0
170 195 0
171 196 0
171 196 0
168 194 0
169 194 0
170 196 0
169 194 0
169 194 0
169 194 0
168 194 0
168 194 0
168 193 0
168 193 25
169 194 0
168 193 0
171 195 36
169 194 0
166 191 0
170 194 51
169 193 36
171 196 44
166 190 44
166 190 36
164 189 44
169 193 57
170 194 62
169 193 51
169 193 57
163 187 51
162 186 57
162 186 44
163 187 62
167 191 51
160 184 44
156 181 51
156 180 54
124 150 110
63 99 156
64 99 165
62 98 153
62 98 154
63 99 164
63 99 164
63 99 167
62 98 160
62 99 165
62 98 164
62 99 165
63 100 168
63 99 170
63 99 169
63 99 163
63 99 169
62 98 165
63 99 172
62 98 166
63 99 175
62 98 164
62 98 168
63 99 169
63 99 172
62 99 175
63 99 174
63 99 174
62 98 168
62 98 170
62 98 173
61 96 160
62 98 170
62 97 169
61 96 168
61 94 161
60 94 162
60 94 164
59 92 154
58 92 158
58 90 151
57 89 149
55 84 134
54 82 134
54 83 133
60 84 127
72 90 122
76 91 112
78 92 115
93 102 104
77 89 98
97 106 110
115 119 112
121 123 101
125 126 102
140 139 95
152 156 86
149 150 85
159 160 88
157 153 96
159 158 98
157 153 96
160 155 99
161 157 102
165 160 104
167 162 105
158 154 102
169 164 109
163 159 105
166 162 105
163 159 105
170 166 110
172 167 110
169 165 109
162 157 102
163 160 101
164 159 103
161 157 101
164 159 100
165 162 100
162 158 98
170 166 100
163 163 93
166 167 90
167 166 95
166 168 87
163 167 84
163 167 84
159 164 78
159 165 76
163 174 66
164 178 60
162 174 59
156 173 44
165 182 51
162 181 37
162 180 45
164 184 37
163 184 34
165 190 0
168 193 11
167 191 16
168 193 11
170 195 0
169 195 0
169 195 0
169 195 0
169 194 0
169 195 0
168 194 0
169 195 0
167 193 0
170 195 0
170 195 0
170 195 0
168 195 0
170 196 0
168 194 0
169 194 0
169 195 0
168 195 0
167 194 0
169 195 0
170 196 0
170 195 0
170 195 0
169 195 0
168 194 0
168 194 0
168 195 0
169 195 0
169 195 0
170 195 0
168 194 0
169 195 0
169 195 0
169 195 0
168 195 0
169 195 0
169 195 0
168 194 0
169 195 0
169 195 0
169 195 0
169 195 0
170 196 0
170 196 0
169 195 0
169 195 0
169 195 0
168 194 0
169 195 0
168 194 0
170 195 0
168 195 0
169 195 0
167 193 0
170 195 0
167 193 0
168 194 0
167 193 0
169 195 0
170 195 0
168 194 0
167 193 0
168 194 0
167 193 0
170 195 0
170 195 0
167 193 0
169 194 0
170 195 0
166 191 0
167 192 0
170 195 0
167 193 0
168 193 0
167 192 0
169 194 0
168 193 0
170 194 25
168 193 0
169 193 0
168 192 25
168 192 0
171 195 36
168 192 62
168 193 62
163 188 44
165 189 44
169 192 44
164 187 51
169 193 62
165 190 44
166 190 36
164 187 36
162 186 44
161 185 36
158 182 25
160 184 36
124 150 114
62 97 143
63 98 157
64 99 159
62 98 158
62 98 158
63 99 161
63 99 163
63 99 165
63 99 164
62 98 161
62 98 164
63 100 173
62 99 164
62 99 167
63 99 166
64 100 173
64 100 172
64 100 173
62 99 170
63 99 172
61 98 168
62 99 170
62 98 167
63 99 166
61 97 163
62 99 173
63 99 173
62 97 169
62 98 168
62 97 170
62 97 167
61 96 164
61 96 165
61 94 161
60 94 158
59 91 155
60 92 154
59 91 154
60 91 149
57 89 149
58 88 141
58 87 142
60 85 129
63 89 136
68 88 122
61 80 109
93 102 112
82 94 106
104 109 105
100 107 110
112 115 100
108 112 91
121 123 99
133 133 110
140 140 93
139 141 80
150 150 90
162 161 100
156 152 99
157 154 97
155 151 100
159 155 101
161 157 104
165 161 105
164 160 104
171 166 110
166 162 107
170 164 108
166 161 105
171 166 108
169 165 108
172 168 110
168 165 109
172 169 110
172 169 112
165 161 104
165 162 103
163 159 105
167 162 104
170 165 105
164 161 101
166 160 103
165 163 93
163 162 95
162 162 91
164 167 88
160 164 84
170 174 83
166 173 80
160 167 75
164 173 68
158 166 69
155 167 58
167 178 65
165 181 56
165 183 51
163 182 39
165 185 44
164 186 32
169 191 32
170 194 22
168 192 19
170 195 16
170 195 0
169 194 0
168 193 0
168 193 0
168 194 0
169 195 0
169 195 0
167 194 0
168 193 0
168 194 0
169 194 0
168 193 0
169 194 0
169 195 0
170 196 0
170 195 0
169 195 0
169 195 0
171 195 0
169 195 0
170 195 0
169 195 0
168 194 0
169 195 0
170 195 0
168 194 0
169 195 0
170 196 0
168 194 0
170 195 0
170 196 0
169 195 0
169 194 0
169 195 0
169 195 0
169 195 0
169 195 0
169 195 0
170 195 0
168 194 0
169 195 0
169 195 0
170 196 0
168 194 0
169 195 0
168 195 0
170 195 0
169 195 0
171 196 0
169 195 0
169 194 0
169 195 0
171 196 0
169 194 0
167 194 0
169 195 0
169 195 0
169 195 0
169 194 0
168 194 0
168 194 0
167 192 0
169 194 0
169 195 0
170 195 0
169 194 0
169 195 0
169 194 0
168 194 0
171 196 0
166 192 0
169 194 0
169 195 0
169 194 0
167 191 0
168 192 0
170 194 0
166 191 0
167 192 0
169 193 0
170 195 0
168 193 36
166 191 0
164 188 25
166 190 36
165 189 36
167 191 25
164 188 51
164 188 25
156 180 0
163 187 51
160 184 44
158 182 44
157 181 36
157 182 36
154 178 25
126 150 84
62 97 144
61 97 144
61 96 147
64 100 165
62 98 155
63 99 160
62 98 162
62 98 161
62 98 163
63 99 165
62 98 163
63 99 165
64 100 170
63 99 168
62 99 167
63 99 166
63 100 173
63 99 169
63 99 169
62 98 163
62 99 170
63 99 169
62 98 161
63 99 172
62 98 164
62 98 169
63 99 171
63 99 168
63 98 170
61 96 165
62 97 163
61 95 159
60 94 154
61 96 167
60 94 159
59 92 158
59 92 154
57 89 151
58 89 147
58 90 148
58 86 136
61 87 134
66 89 130
62 83 120
60 80 109
83 95 109
88 98 107
103 110 112
88 98 112
110 114 101
105 110 100
127 127 97
123 123 98
124 125 99
145 145 94
152 149 95
160 156 99
156 152 100
157 154 102
152 148 99
166 161 106
166 162 107
162 158 105
165 161 106
168 164 109
169 165 109
161 158 106
165 162 108
168 165 110
169 165 109
170 166 110
164 160 106
167 164 108
168 165 108
169 165 109
166 162 107
167 164 108
173 168 111
166 161 105
167 163 105
168 163 107
162 157 101
161 157 99
166 163 100
166 162 97
167 167 94
157 161 83
164 168 84
166 168 87
164 167 84
163 173 72
163 172 68
159 169 66
170 182 66
155 169 57
166 182 49
164 183 41
164 183 42
161 182 28
168 190 32
166 190 25
165 190 11
167 191 16
169 194 11
168 195 0
167 193 0
167 193 0
168 194 0
168 194 0
168 194 0
169 195 0
168 194 0
167 192 0
169 195 0
170 195 0
169 195 0
169 195 0
168 195 0
169 195 0
169 195 0
169 195 0
168 193 0
169 195 0
171 196 0
169 195 0
169 195 0
169 195 0
168 194 0
170 195 0
170 195 0
170 195 0
168 194 0
169 195 0
170 196 0
170 196 0
170 195 0
167 193 0
170 195 0
168 194 0
168 195 0
169 195 0
169 195 0
168 194 0
168 194 0
170 195 0
168 195 0
168 194 0
168 194 0
169 194 0
169 195 0
167 193 0
169 195 0
169 195 0
169 195 0
168 195 0
170 195 0
169 195 0
166 192 0
166 192 0
167 193 0
169 195 0
166 192 0
168 194 0
170 196 0
169 194 0
170 195 0
169 194 0
166 192 0
168 194 0
168 194 0
170 195 0
171 195 0
171 196 0
168 194 0
167 192 0
169 194 0
170 195 0
170 195 0
168 192 0
169 194 0
165 190 0
162 187 25
170 194 0
170 193 36
164 188 25
169 194 25
164 188 25
167 191 25
168 191 57
164 188 25
161 185 0
161 185 25
159 184 25
163 186 36
161 185 36
159 182 25
162 186 36
163 186 44
150 175 0
146 171 60
64 98 139
62 97 147
62 98 153
62 98 159
62 98 158
63 99 165
63 99 164
63 99 165
63 99 160
64 100 167
62 98 152
63 99 165
63 99 165
63 99 166
64 100 175
64 100 173
63 100 167
63 99 166
63 99 169
63 99 166
62 98 159
63 99 171
63 99 169
63 98 167
62 98 168
62 98 164
62 98 167
61 97 160
63 98 166
61 96 161
62 97 165
62 97 167
59 91 147
61 94 157
61 95 160
58 90 151
58 90 148
56 87 143
59 92 153
57 84 129
57 85 133
66 91 137
62 89 137
62 81 113
61 80 109
79 90 99
88 97 95
97 104 104
105 109 98
113 116 97
121 120 95
127 126 94
138 135 94
138 136 94
151 147 98
149 145 95
154 149 100
155 151 100
165 160 105
168 164 109
159 155 103
164 160 106
171 167 111
168 164 109
163 161 108
167 164 109
174 170 113
171 168 112
171 167 111
173 169 112
167 164 109
175 171 112
169 166 110
171 166 110
172 168 110
168 165 109
165 162 108
168 165 109
170 166 110
171 166 109
173 168 109
171 165 108
164 161 103
166 162 104
160 157 97
167 166 95
168 164 97
166 165 90
163 163 86
167 170 86
161 163 84
164 173 69
168 176 74
167 177 70
165 176 61
165 182 52
164 181 47
170 188 49
166 184 42
164 187 22
169 193 22
169 193 19
166 189 25
167 193 11
169 194 11
166 192 0
169 194 0
170 195 0
170 195 0
168 195 0
168 193 0
169 195 0
169 195 0
169 194 0
170 195 0
168 194 0
168 194 0
168 194 0
167 193 0
169 195 0
170 195 0
168 194 0
169 194 0
168 193 0
170 195 0
169 195 0
169 195 0
170 195 0
168 195 0
169 195 0
170 195 0
169 195 0
170 195 0
168 195 0
170 196 0
169 195 0
170 195 0
169 195 0
170 195 0
168 194 0
168 193 0
170 195 0
169 194 0
169 194 0
168 194 0
169 194 0
169 194 0
168 195 0
168 194 0
169 195 0
167 193 0
169 195 0
169 195 0
169 195 0
167 193 0
168 194 0
170 196 0
167 193 0
169 195 0
168 194 0
168 194 0
167 193 0
168 194 0
168 194 0
171 196 0
167 193 0
169 195 0
169 195 0
168 193 0
167 193 0
168 193 0
168 193 0
169 194 0
169 194 0
166 191 0
166 191 0
170 194 0
171 195 0
168 192 0
166 192 0
172 196 0
167 192 0
166 191 0
164 189 0
167 191 0
169 193 36
167 192 0
163 187 36
164 188 0
164 187 25
163 186 36
162 186 0
155 180 0
163 188 25
157 182 0
162 185 0
158 182 0
154 178 0
152 176 0
148 172 40
81 112 124
62 98 153
61 96 145
63 98 155
62 98 154
63 99 157
64 100 166
64 100 170
63 98 159
64 100 167
63 99 157
62 98 158
64 100 167
63 99 164
62 98 161
63 100 167
63 99 169
64 100 171
63 99 168
63 99 169
63 99 167
62 98 162
62 97 162
63 99 169
62 97 160
62 98 166
62 98 162
62 98 167
61 97 161
61 96 161
62 97 167
62 97 162
61 95 157
60 92 152
61 95 158
60 93 156
59 92 157
56 86 137
55 85 136
56 85 133
64 90 138
60 83 117
68 89 127
73 88 114
86 94 97
95 102 100
100 106 102
104 110 97
106 109 90
119 119 84
122 122 95
126 125 90
140 138 95
146 144 100
156 152 98
157 154 103
157 153 103
161 157 104
156 153 104
159 156 104
164 160 107
163 159 106
171 168 112
172 168 112
169 166 111
169 166 110
170 166 110
168 166 111
172 168 112
171 167 111
171 168 112
164 162 108
171 168 112
171 168 112
169 165 110
174 170 113
166 163 108
169 166 110
175 171 113
169 166 109
175 170 112
166 161 106
166 161 104
163 158 101
168 162 104
163 160 99
165 162 99
166 164 94
165 164 93
161 164 82
169 169 87
166 170 82
166 169 82
163 172 71
164 176 56
162 176 54
158 176 45
167 185 47
162 180 42
167 188 34
166 188 30
166 188 34
166 190 22
167 192 11
167 191 0
167 193 0
168 194 0
168 194 0
169 195 0
169 195 0
166 192 0
169 195 0
169 195 0
169 195 0
170 195 0
170 194 0
168 195 0
168 194 0
168 194 0
169 195 0
167 194 0
169 194 0
170 195 0
169 195 0
170 195 0
169 195 0
169 195 0
169 195 0
169 195 0
168 194 0
169 195 0
170 196 0
168 195 0
170 195 0
169 195 0
168 194 0
168 194 0
169 194 0
168 194 0
170 195 0
169 194 0
169 195 0
168 194 0
169 195 0
166 192 0
168 193 0
168 194 0
168 194 0
170 195 0
169 195 0
169 195 0
170 195 0
169 195 0
169 194 0
169 195 0
169 195 0
169 195 0
170 196 0
168 194 0
166 192 0
169 195 0
166 192 0
168 194 0
169 195 0
168 194 0
168 194 0
168 194 0
168 194 0
167 193 0
168 194 0
170 195 0
166 192 0
168 193 0
170 195 0
169 194 0
166 191 0
168 193 0
170 194 0
168 192 0
165 191 0
169 194 0
172 196 0
166 191 0
167 192 0
165 190 0
165 188 0
163 188 0
164 189 25
169 193 0
163 187 0
165 189 0
163 186 0
161 185 25
157 181 25
159 183 25
153 178 0
156 179 0
156 180 0
155 179 0
155 180 31
90 118 113
61 96 142
62 97 148
63 99 153
62 98 150
63 99 157
64 99 162
63 98 154
62 98 153
62 98 160
63 98 156
63 99 167
62 98 162
63 99 162
62 98 158
62 98 163
63 99 165
62 98 159
62 98 163
63 99 164
63 99 162
61 97 156
63 98 168
62 97 160
63 99 169
62 98 163
62 97 159
62 97 160
61 96 156
62 96 165
62 96 157
59 92 147
59 92 152
59 92 150
60 91 148
59 90 137
57 87 133
58 88 139
56 83 123
61 85 125
69 89 121
58 81 112
79 93 111
75 88 104
75 86 89
100 104 92
102 106 86
117 117 89
125 124 86
108 110 78
133 131 89
135 133 89
142 140 95
151 147 98
150 147 97
157 153 102
158 153 101
160 156 103
162 158 105
165 160 105
170 166 110
167 163 108
169 166 110
174 169 112
171 168 112
170 166 111
169 167 112
169 166 111
171 168 112
171 168 112
167 166 111
166 165 111
172 169 113
169 167 112
171 169 113
170 167 112
170 167 111
171 168 111
170 165 108
169 165 109
171 167 109
165 161 106
171 166 108
172 167 108
168 163 106
166 161 104
166 160 98
161 156 97
167 165 97
164 165 85
161 164 82
166 169 85
165 170 79
161 169 68
168 178 65
166 177 65
168 178 68
163 179 51
165 180 52
165 186 34
164 184 34
163 185 22
166 190 19
167 190 19
168 193 11
170 195 0
170 195 0
167 193 0
169 195 0
169 195 0
169 194 0
169 194 0
169 194 0
170 196 0
169 195 0
169 195 0
168 194 0
169 195 0
169 195 0
168 194 0
169 194 0
170 196 0
169 195 0
168 194 0
170 195 0
169 195 0
168 194 0
170 195 0
169 194 0
170 196 0
169 195 0
169 195 0
168 195 0
168 194 0
170 195 0
170 195 0
169 195 0
168 194 0
170 195 0
169 195 0
168 194 0
169 195 0
169 195 0
170 195 0
169 195 0
170 195 0
168 195 0
170 195 0
169 195 0
169 194 0
168 194 0
168 194 0
169 194 0
168 194 0
169 195 0
168 194 0
169 195 0
168 194 0
170 195 0
168 194 0
169 194 0
169 195 0
168 194 0
169 195 0
170 195 0
168 194 0
167 193 0
168 193 0
171 196 0
169 194 0
166 191 0
170 195 0
168 193 0
167 193 0
169 194 0
167 192 0
168 193 0
165 190 0
167 192 0
166 191 0
164 189 0
167 192 0
169 194 0
164 189 0
168 193 0
168 192 0
165 189 0
163 187 0
166 191 0
165 190 0
161 185 0
163 188 0
158 182 0
162 185 0
155 179 0
156 181 25
155 179 0
155 179 0
154 178 0
147 170 18
115 140 97
60 94 127
61 96 140
62 98 148
61 96 136
63 98 157
63 99 158
62 98 154
62 98 154
63 99 159
63 99 162
62 98 154
62 98 155
63 99 161
62 98 159
63 99 163
63 99 166
62 98 159
63 100 170
63 99 163
63 99 166
62 98 163
62 98 161
62 97 165
63 99 166
63 99 169
63 98 164
62 98 160
61 96 158
61 95 157
60 94 153
60 93 154
59 90 143
60 92 147
56 87 138
57 87 136
58 90 147
57 86 136
59 86 129
62 86 123
65 85 118
64 82 107
74 87 97
86 95 96
87 94 97
101 105 87
101 102 77
103 104 77
123 123 92
125 125 92
131 129 89
134 133 89
151 146 95
144 141 92
158 153 101
152 149 101
164 159 104
168 164 107
165 161 106
165 161 106
165 162 108
172 168 111
167 164 108
170 167 111
166 164 109
170 168 113
169 166 112
173 170 113
170 168 113
170 168 112
172 169 113
170 168 112
172 169 113
169 167 112
170 168 113
175 171 113
171 168 112
169 168 113
171 168 112
173 169 112
172 169 112
171 167 110
170 166 110
166 163 105
167 162 104
167 163 105
170 164 102
166 161 101
163 161 93
163 161 90
161 163 85
158 159 83
158 163 77
167 171 75
162 170 73
159 170 62
170 181 66
161 175 57
168 182 56
163 181 45
167 187 37
165 187 36
168 190 25
167 190 25
168 193 11
167 192 0
169 195 0
167 193 0
168 194 0
168 195 0
169 194 0
167 194 0
168 194 0
168 194 0
169 195 0
169 194 0
168 193 0
169 195 0
170 195 0
170 195 0
170 195 0
169 195 0
168 194 0
168 194 0
169 194 0
169 195 0
170 196 0
170 195 0
169 195 0
169 195 0
168 195 0
169 194 0
169 195 0
169 195 0
167 193 0
170 195 0
170 196 0
168 194 0
170 195 0
170 195 0
168 194 0
169 195 0
170 196 0
169 195 0
169 195 0
167 194 0
168 194 0
168 194 0
170 196 0
168 194 0
169 195 0
167 193 0
170 195 0
169 195 0
167 193 0
169 195 0
169 195 0
167 193 0
169 195 0
168 194 0
165 191 0
168 193 0
169 195 0
167 193 0
166 192 0
168 194 0
168 194 0
170 195 0
168 193 0
167 193 0
166 191 0
167 192 0
165 191 0
167 193 0
170 195 0
168 193 0
164 189 0
168 193 0
169 193 0
168 193 0
169 195 0
164 188 0
165 190 0
167 192 0
166 190 0
163 189 0
161 186 0
164 188 0
163 188 0
166 190 0
162 186 0
158 182 0
162 185 0
156 180 0
159 184 0
158 182 0
153 177 0
153 177 0
150 175 0
148 172 18
124 148 65
64 98 133
60 94 127
62 97 145
61 96 140
62 97 144
62 97 150
63 98 155
62 98 148
62 98 152
63 99 162
62 98 160
63 98 159
62 98 152
62 98 159
63 99 158
62 98 156
62 98 158
62 98 160
63 99 163
62 98 159
63 99 165
62 98 161
61 96 156
63 98 161
62 97 163
61 95 156
61 96 158
62 96 156
62 96 159
60 93 151
60 93 155
60 93 151
60 92 147
58 90 143
57 88 138
56 85 130
59 87 136
56 85 129
58 79 109
79 92 105
69 85 102
75 88 102
83 94 96
99 104 94
95 100 86
106 107 79
128 125 88
126 124 85
134 131 88
136 133 89
147 143 94
154 149 97
157 153 101
170 164 107
165 162 106
163 159 106
167 162 108
171 166 109
169 166 109
169 165 110
171 167 110
170 167 111
171 168 111
170 166 110
171 168 112
169 166 111
166 164 110
169 167 112
170 168 113
172 170 113
168 166 112
171 169 113
170 168 113
171 169 113
171 169 113
168 166 112
171 169 113
173 169 112
171 168 112
172 169 112
176 170 112
166 163 107
170 165 108
172 168 109
170 165 105
166 161 102
172 165 101
169 164 102
163 158 93
163 163 85
160 159 89
161 164 80
166 170 77
164 169 75
161 172 65
165 173 70
164 175 62
169 186 48
162 176 53
162 184 30
169 187 47
169 189 39
162 187 16
168 191 28
166 192 0
165 190 0
168 195 0
169 195 0
170 195 0
168 193 0
168 194 0
169 195 0
167 193 0
168 194 0
170 195 0
169 195 0
168 195 0
168 195 0
167 194 0
167 192 0
168 194 0
168 194 0
170 195 0
168 194 0
170 196 0
169 195 0
168 194 0
170 195 0
168 194 0
168 194 0
168 194 0
167 193 0
168 194 0
168 195 0
169 195 0
170 195 0
168 194 0
169 195 0
167 194 0
170 196 0
168 195 0
170 195 0
170 195 0
169 195 0
169 195 0
168 194 0
168 194 0
167 193 0
168 194 0
169 195 0
169 195 0
169 195 0
169 194 0
168 194 0
169 195 0
170 195 0
168 194 0
168 194 0
168 193 0
167 193 0
168 194 0
167 193 0
167 193 0
167 192 0
169 195 0
169 194 0
169 194 0
167 193 0
167 193 0
167 193 0
167 192 0
167 192 0
167 192 0
166 192 0
168 192 0
167 192 0
165 190 0
166 190 0
164 190 0
164 189 0
168 193 0
165 191 0
166 191 0
162 187 0
164 189 0
164 188 0
165 189 0
161 185 0
160 184 0
162 186 0
156 181 0
159 183 0
157 181 0
155 179 0
158 182 0
150 174 0
153 177 0
151 175 0
154 178 0
142 167 31
84 113 118
60 95 135
62 97 144
62 97 147
61 97 142
61 96 143
61 97 145
63 98 156
63 98 156
62 98 155
62 98 154
62 97 152
62 98 154
63 99 164
62 98 151
63 99 163
63 99 158
62 98 156
62 98 165
61 97 148
62 97 155
62 98 158
62 98 159
63 99 163
62 97 157
61 97 160
62 97 157
62 97 160
61 95 149
59 91 144
62 95 157
60 91 140
57 88 141
59 90 144
56 86 131
57 84 123
55 83 126
56 82 124
64 85 118
81 95 109
77 88 96
71 84 96
85 92 82
107 109 80
111 113 83
109 110 77
121 120 84
136 132 88
129 127 86
145 141 93
155 150 97
168 163 104
162 158 103
163 159 106
167 162 106
163 160 107
165 161 108
170 166 109
167 163 108
170 166 108
170 167 112
171 168 110
174 171 114
174 171 113
171 168 112
171 169 113
173 171 114
170 168 112
171 168 112
173 170 114
168 166 112
170 168 113
167 166 112
168 167 112
170 168 113
169 167 112
174 171 113
173 170 113
168 166 110
170 167 111
172 169 112
169 165 107
172 167 109
171 165 108
173 169 109
172 166 107
166 161 102
168 163 100
160 155 94
167 165 97
164 162 90
162 162 84
162 165 79
166 169 82
163 170 74
161 171 64
168 179 66
166 180 56
166 184 49
163 181 39
163 182 36
163 184 34
164 186 28
163 184 28
166 190 19
167 192 0
168 195 0
168 194 0
169 195 0
170 195 0
168 194 0
170 195 0
169 194 0
169 195 0
169 195 0
169 194 0
169 195 0
169 194 0
169 194 0
168 195 0
168 194 0
169 195 0
169 195 0
170 195 0
169 195 0
170 195 0
169 195 0
169 195 0
168 194 0
168 194 0
170 196 0
168 194 0
170 195 0
169 195 0
168 193 0
170 195 0
168 195 0
167 193 0
168 194 0
169 195 0
169 195 0
168 194 0
167 194 0
168 194 0
170 195 0
169 195 0
169 195 0
168 195 0
168 195 0
170 195 0
168 194 0
167 194 0
167 194 0
169 195 0
168 194 0
167 193 0
170 195 0
167 193 0
171 196 0
168 194 0
168 193 0
168 194 0
167 192 0
167 193 0
166 191 0
168 193 0
167 193 0
167 193 0
170 196 0
167 193 0
164 189 0
166 191 0
168 193 0
169 193 0
165 190 0
168 194 0
166 192 0
166 191 0
167 193 0
168 192 0
164 189 0
163 188 0
162 186 0
167 192 0
166 191 0
160 185 0
159 183 0
165 189 0
164 189 0
161 185 0
156 181 0
160 184 0
155 178 0
157 181 0
154 177 0
160 184 0
153 177 0
155 178 0
153 176 0
140 164 25
121 145 88
59 94 122
61 96 137
60 95 135
61 96 141
61 96 141
62 97 150
62 97 149
62 98 148
63 98 154
62 97 151
62 98 154
63 98 158
62 98 151
62 98 155
63 99 160
63 99 159
62 97 154
63 99 159
63 99 163
62 97 160
62 97 159
60 95 153
62 97 158
62 98 159
61 96 156
61 95 157
61 96 154
62 96 157
61 93 151
60 93 144
61 94 145
58 89 142
59 90 141
58 87 131
58 84 124
56 84 128
59 84 124
68 85 100
68 83 96
79 91 97
84 92 87
92 99 89
93 98 83
112 112 80
106 106 74
124 122 84
139 137 92
149 144 95
142 139 91
156 152 98
156 152 101
159 154 100
162 158 104
166 161 105
167 162 106
168 163 108
174 169 111
170 167 109
172 168 112
172 167 111
175 171 113
172 169 112
171 168 111
172 169 113
174 171 114
171 169 113
169 168 112
168 167 112
170 168 113
172 170 114
170 168 113
168 167 112
170 168 113
169 167 112
173 170 113
167 165 110
172 170 113
173 169 112
171 168 111
174 169 112
170 167 110
174 170 112
176 171 112
170 165 105
173 167 108
170 164 103
167 162 99
168 162 99
161 157 94
161 158 90
169 167 93
162 165 78
164 167 77
167 170 80
164 172 70
169 177 69
160 172 57
160 173 53
164 180 53
164 179 48
167 189 32
167 189 28
165 189 16
165 189 16
169 193 11
167 193 11
169 194 0
169 195 0
168 194 0
167 193 0
168 194 0
169 194 0
168 193 0
168 193 0
167 193 0
168 194 0
169 195 0
169 194 0
168 194 0
169 195 0
168 194 0
168 195 0
168 194 0
170 195 0
168 193 0
170 195 0
168 194 0
168 194 0
169 195 0
168 194 0
167 193 0
170 195 0
169 195 0
168 194 0
169 195 0
171 196 0
169 195 0
169 195 0
168 194 0
169 194 0
168 194 0
169 195 0
170 195 0
168 194 0
170 195 0
169 195 0
169 194 0
168 194 0
167 193 0
169 194 0
167 193 0
169 195 0
168 195 0
168 195 0
169 195 0
167 194 0
168 194 0
169 194 0
167 192 0
169 195 0
166 192 0
168 194 0
167 192 0
168 193 0
166 191 0
167 193 0
165 191 0
168 193 0
168 194 0
167 193 0
168 193 0
167 193 0
169 194 0
169 195 0
165 191 0
167 192 0
166 191 0
165 190 0
169 193 0
166 191 0
168 193 0
168 192 0
161 186 0
162 187 0
160 184 0
161 185 0
159 184 0
161 186 0
152 176 0
157 182 0
157 181 0
152 177 0
153 178 0
153 177 0
151 175 0
155 178 0
147 171 0
144 168 0
149 173 0
141 165 44
73 104 117
60 94 122
60 95 134
59 93 115
61 96 139
62 97 141
62 96 144
62 97 148
61 96 140
62 97 145
61 97 150
62 97 150
62 97 149
62 97 148
62 98 154
62 97 145
62 98 156
62 97 148
62 98 150
61 97 153
62 97 154
62 97 157
62 98 160
61 96 148
60 94 142
60 94 142
62 96 156
60 94 147
59 91 135
60 94 145
57 89 127
59 90 138
56 85 120
55 82 119
57 83 119
57 84 123
66 85 104
77 93 112
70 84 90
86 96 90
93 100 81
110 113 93
102 104 83
114 115 83
122 121 80
122 121 82
144 141 90
141 138 89
148 145 92
152 148 97
157 153 99
162 157 103
164 159 104
171 166 108
169 164 109
172 167 109
170 166 109
174 169 111
172 168 111
175 171 113
173 170 113
171 168 112
171 169 112
173 170 113
172 170 114
171 170 113
170 168 113
169 169 113
169 168 113
170 169 113
172 170 114
170 168 113
171 169 113
171 169 113
173 170 113
172 169 112
169 167 111
170 167 109
173 170 113
175 172 114
172 168 110
171 167 110
176 170 109
172 167 108
173 169 108
174 168 108
171 165 104
169 164 102
167 161 97
164 161 93
165 161 90
162 163 83
167 168 83
167 171 81
164 170 72
163 172 65
166 174 69
163 177 56
162 175 54
160 176 45
166 182 45
166 186 36
165 187 22
168 191 28
166 190 0
170 195 0
169 194 0
168 194 0
169 195 0
169 195 0
168 193 0
167 192 0
168 194 0
168 194 0
168 194 0
168 194 0
167 193 0
168 195 0
169 194 0
170 195 0
170 195 0
167 193 0
170 195 0
167 193 0
169 195 0
169 195 0
169 195 0
169 195 0
170 196 0
169 194 0
168 194 0
169 195 0
168 195 0
170 195 0
169 195 0
170 195 0
168 194 0
169 194 0
169 195 0
168 194 0
168 195 0
169 195 0
167 194 0
170 196 0
168 194 0
169 194 0
168 194 0
169 194 0
169 195 0
168 194 0
168 193 0
170 195 0
169 195 0
167 193 0
168 193 0
168 194 0
167 193 0
168 194 0
168 193 0
168 194 0
167 193 0
165 191 0
167 192 0
167 194 0
169 194 0
166 192 0
168 193 0
169 195 0
167 193 0
169 194 0
169 195 0
166 192 0
165 190 0
167 193 0
165 190 0
167 192 0
166 191 0
166 192 0
167 192 0
167 193 0
161 186 0
163 188 0
167 192 0
161 187 0
163 189 0
154 179 0
162 186 0
159 184 0
161 186 0
159 184 0
154 179 0
156 182 0
148 173 0
151 176 0
157 182 0
145 169 0
136 160 0
150 174 0
139 162 0
140 164 0
106 132 82
59 93 121
60 95 129
60 94 129
60 95 129
62 98 149
61 95 136
62 97 143
62 97 145
63 99 161
61 96 143
60 96 137
62 97 150
62 98 155
61 95 141
62 97 150
62 97 152
61 96 145
61 96 147
62 97 152
61 96 153
62 97 153
61 95 144
61 95 150
61 94 145
60 94 139
59 92 146
61 95 147
60 93 145
58 89 131
60 93 143
58 89 132
54 83 118
54 83 119
58 83 115
58 79 99
68 84 96
69 87 101
79 89 88
79 90 89
101 105 83
95 99 76
119 119 80
123 122 79
128 127 83
131 129 83
140 137 85
152 148 95
152 149 95
155 151 99
161 157 102
170 164 105
170 165 105
161 156 101
173 167 107
172 167 108
170 166 110
171 167 109
177 172 113
170 167 111
171 168 112
169 166 110
173 170 113
173 171 114
174 171 114
170 168 113
171 169 113
170 169 113
171 170 114
172 170 114
172 170 114
171 169 114
172 170 114
171 170 114
170 169 112
173 170 113
174 171 113
171 169 112
172 169 111
175 171 112
174 170 111
172 168 110
172 167 110
173 168 108
172 167 110
172 167 106
169 163 102
167 162 99
168 162 98
164 159 94
164 159 95
155 153 80
165 165 86
167 168 84
158 163 72
169 177 69
162 174 62
159 171 54
167 179 61
166 182 48
161 181 34
165 185 37
164 184 36
169 189 36
163 186 19
165 191 0
169 194 0
169 195 0
168 193 0
170 195 0
167 193 0
169 195 0
169 195 0
168 194 0
169 194 0
167 193 0
169 194 0
169 194 0
169 194 0
167 194 0
168 194 0
168 194 0
169 195 0
168 194 0
169 195 0
170 195 0
169 195 0
169 195 0
168 194 0
169 195 0
168 193 0
169 195 0
168 194 0
168 194 0
168 194 0
168 194 0
169 195 0
169 195 0
169 195 0
169 195 0
169 195 0
170 195 0
170 195 0
169 195 0
169 194 0
170 195 0
169 195 0
168 194 0
167 193 0
166 192 0
169 195 0
168 194 0
168 194 0
169 195 0
168 195 0
169 195 0
168 194 0
168 194 0
167 193 0
169 195 0
168 194 0
168 194 0
167 193 0
168 194 0
166 192 0
170 195 0
169 195 0
170 195 0
165 192 0
166 192 0
167 193 0
164 190 0
166 191 0
164 190 0
167 192 0
166 191 0
165 191 0
163 188 0
157 182 0
164 189 0
163 188 0
165 190 0
162 187 0
165 190 0
160 185 0
164 189 0
160 186 0
155 180 0
157 181 0
153 177 0
159 184 0
154 178 0
144 169 0
148 172 0
144 167 0
150 174 0
147 172 0
155 180 0
146 170 0
141 165 0
132 156 40
72 103 111
59 94 120
60 95 137
60 94 131
61 96 140
61 96 140
61 96 140
60 94 130
61 96 139
61 97 144
61 96 147
62 97 150
61 96 143
61 95 139
61 96 143
60 95 143
61 95 145
62 96 147
62 98 151
62 97 151
61 96 142
60 94 140
61 95 143
61 95 149
59 93 137
59 93 140
59 91 135
60 92 140
58 90 126
57 88 137
57 87 124
56 86 123
57 83 118
57 85 122
58 80 109
54 75 95
64 80 86
88 94 81
98 104 84
95 99 72
107 110 88
112 113 78
130 128 80
131 128 83
140 136 84
139 136 83
147 144 91
151 147 93
156 152 98
158 153 97
168 163 102
171 165 105
163 159 105
168 163 107
174 170 111
172 167 109
171 168 111
172 168 110
177 172 113
172 169 112
174 171 113
173 170 114
171 169 112
174 171 113
171 169 112
171 169 113
174 171 114
170 169 113
171 170 114
172 170 114
171 169 113
173 170 113
170 169 113
171 169 112
170 168 112
171 169 113
171 168 112
172 169 112
175 170 112
175 171 113
173 169 110
177 172 112
175 170 109
175 169 109
170 165 106
172 166 103
177 170 109
168 162 97
169 164 99
160 156 90
158 158 80
168 167 87
162 165 78
165 168 79
166 172 74
167 173 73
165 173 65
163 173 60
165 179 49
164 183 32
166 185 34
167 187 36
164 188 22
168 192 25
164 189 11
166 191 0
168 194 0
169 194 0
169 195 0
169 194 0
168 194 0
169 195 0
169 195 0
170 195 0
168 193 0
169 195 0
168 195 0
168 194 0
168 194 0
171 195 0
170 195 0
169 195 0
169 194 0
169 195 0
169 195 0
168 194 0
167 193 0
168 195 0
169 195 0
170 195 0
168 195 0
170 196 0
168 195 0
169 195 0
169 195 0
170 195 0
168 194 0
169 195 0
169 194 0
167 194 0
167 193 0
168 194 0
170 195 0
168 195 0
168 194 0
169 195 0
168 194 0
168 194 0
169 194 0
167 194 0
166 192 0
168 194 0
169 194 0
170 195 0
170 196 0
169 195 0
168 195 0
168 194 0
168 194 0
167 193 0
167 193 0
168 194 0
167 193 0
169 195 0
164 190 0
167 192 0
169 195 0
168 193 0
166 191 0
166 192 0
166 192 0
164 189 0
164 190 0
166 192 0
163 188 0
164 189 0
168 193 0
163 189 0
163 189 0
166 191 0
165 191 0
160 185 0
162 187 0
159 184 0
165 190 0
158 183 0
158 182 0
156 181 0
155 179 0
152 177 0
157 182 0
157 182 0
152 176 0
146 170 0
134 158 0
148 172 0
149 174 0
139 162 0
141 164 0
144 167 18
110 136 84
57 91 103
58 93 114
60 95 129
60 95 131
61 96 141
61 96 136
61 96 140
60 95 134
61 96 134
61 96 143
62 98 150
61 96 139
60 95 133
62 97 150
62 97 146
62 97 147
61 97 148
60 95 135
60 95 138
61 95 141
62 97 147
60 94 140
61 94 143
61 94 145
59 91 135
60 92 136
59 91 128
59 91 129
57 88 121
57 86 129
56 85 122
54 80 103
54 82 112
60 81 96
70 85 93
78 92 94
77 88 87
103 106 83
91 95 65
113 112 74
115 115 76
126 124 75
136 132 83
143 140 87
148 144 92
149 145 92
161 156 100
159 154 98
162 158 100
173 167 108
167 162 104
177 170 110
174 168 109
171 166 109
170 166 108
169 165 110
174 170 113
174 170 110
174 171 112
174 171 112
175 171 113
174 171 113
174 171 113
173 170 113
171 168 111
173 170 112
172 170 114
171 170 114
172 170 114
171 169 114
171 169 113
171 169 113
172 169 113
173 170 113
172 170 113
173 169 111
172 169 112
175 171 111
175 170 112
174 170 112
175 170 111
174 168 108
174 170 109
175 169 105
171 166 103
170 165 99
167 161 97
169 163 99
166 159 96
163 157 92
161 161 84
159 159 77
165 168 75
167 171 78
170 178 75
163 173 60
162 173 56
165 177 56
159 177 36
163 180 44
167 189 22
161 183 25
168 191 25
168 193 0
168 193 11
169 195 0
167 193 0
168 194 0
168 194 0
168 194 0
168 194 0
167 193 0
170 195 0
169 194 0
167 193 0
169 195 0
168 194 0
170 195 0
169 195 0
169 195 0
169 194 0
169 195 0
169 194 0
169 195 0
169 195 0
169 195 0
169 195 0
169 195 0
170 195 0
170 196 0
167 193 0
169 195 0
170 195 0
170 195 0
169 195 0
168 195 0
168 195 0
168 194 0
167 193 0
169 195 0
167 194 0
169 195 0
169 194 0
167 193 0
167 193 0
168 194 0
168 194 0
168 195 0
167 194 0
169 195 0
168 194 0
167 193 0
169 194 0
169 195 0
168 194 0
168 194 0
169 195 0
168 194 0
166 192 0
168 194 0
169 195 0
166 192 0
168 193 0
165 191 0
170 195 0
165 190 0
166 191 0
165 191 0
165 190 0
165 191 0
167 193 0
169 194 0
166 191 0
163 188 0
164 189 0
166 192 0
163 188 0
162 187 0
162 187 0
165 190 0
162 187 0
160 185 0
159 184 0
159 184 0
159 183 0
159 184 0
163 188 0
151 176 0
156 181 0
154 179 0
151 176 0
147 172 0
149 173 0
154 178 0
144 168 0
138 163 0
148 173 0
150 174 0
134 158 0
125 149 25
100 126 88
57 90 99
59 93 121
61 96 135
61 96 137
59 94 124
61 96 135
60 94 122
60 95 133
60 95 129
61 96 137
62 97 147
61 96 140
61 96 139
61 96 135
59 94 129
61 95 144
61 96 145
61 96 140
61 95 140
60 94 133
60 94 136
61 95 149
60 94 142
58 91 131
58 90 132
60 93 140
56 87 119
55 85 120
57 87 129
56 85 113
54 82 107
68 88 106
61 80 88
60 81 93
82 92 82
89 95 80
97 100 74
94 97 66
107 108 71
119 118 72
128 127 76
135 131 79
143 139 85
155 151 96
153 148 89
162 156 99
167 161 101
163 158 99
167 162 105
169 164 103
173 168 107
168 163 101
175 170 109
172 167 107
176 171 111
176 171 112
175 171 111
174 170 111
176 172 114
173 170 113
173 170 113
173 170 113
173 170 113
171 169 113
173 170 114
172 170 113
172 169 111
173 171 114
169 168 112
171 169 113
172 169 113
173 170 113
174 171 113
174 171 113
174 171 114
174 170 113
176 171 113
170 166 109
174 169 109
175 171 112
175 170 109
173 167 105
174 168 108
172 166 104
172 166 101
169 164 99
162 155 91
167 161 93
170 164 91
165 161 92
156 156 77
165 165 80
159 165 64
170 175 74
157 168 57
162 175 49
163 176 54
163 178 45
164 181 47
167 185 36
166 188 28
165 189 11
167 191 16
167 191 16
170 194 0
168 193 0
168 194 0
169 195 0
170 195 0
169 195 0
167 193 0
168 194 0
168 193 0
167 193 0
169 194 0
168 194 0
169 195 0
170 195 0
167 192 0
168 194 0
168 194 0
169 195 0
168 194 0
170 195 0
169 195 0
170 195 0
168 195 0
169 195 0
168 194 0
170 196 0
170 195 0
169 194 0
170 195 0
169 194 0
168 195 0
168 194 0
170 195 0
170 196 0
167 194 0
168 194 0
169 195 0
167 194 0
168 194 0
167 193 0
170 195 0
170 195 0
170 195 0
169 194 0
169 194 0
166 192 0
168 194 0
169 194 0
168 194 0
168 194 0
168 194 0
168 193 0
168 193 0
166 192 0
167 194 0
167 192 0
167 193 0
165 191 0
169 194 0
167 194 0
166 192 0
167 193 0
166 192 0
164 189 0
168 194 0
165 190 0
160 185 0
163 188 0
165 190 0
165 191 0
163 189 0
165 190 0
162 188 0
162 188 0
157 182 0
162 187 0
158 183 0
159 184 0
165 190 0
156 182 0
157 182 0
161 186 0
152 178 0
154 178 0
159 184 0
154 178 0
153 178 0
148 172 0
143 167 0
145 168 0
149 173 0
141 166 0
135 159 0
147 171 0
128 151 0
115 138 54
77 107 100
58 92 124
59 93 120
60 94 126
59 94 122
57 91 100
59 93 117
61 96 140
61 96 133
61 96 139
60 95 133
61 96 133
61 96 145
60 94 127
62 97 141
58 92 130
61 96 143
60 95 132
59 93 133
61 95 147
58 91 129
60 94 132
59 91 134
58 91 129
59 91 138
58 91 130
57 88 120
58 90 129
54 81 100
55 82 97
56 80 101
62 83 99
73 89 91
73 88 92
84 93 77
93 99 85
91 98 73
102 105 69
111 112 67
137 132 78
131 128 77
142 139 81
139 136 83
145 142 87
160 154 93
163 158 94
164 158 98
172 166 104
166 160 101
173 168 105
171 166 106
174 168 108
176 170 110
174 169 108
174 170 110
172 168 108
174 170 111
174 170 113
174 171 113
175 171 113
173 170 113
172 170 112
175 171 113
175 171 113
173 170 113
173 170 113
172 170 114
173 171 113
172 169 113
174 171 114
174 170 113
174 171 112
174 171 112
173 170 113
173 170 112
175 171 113
175 171 113
174 170 112
173 169 109
178 172 112
174 169 109
172 168 106
173 167 106
175 168 106
173 166 104
173 167 104
169 162 99
165 160 97
163 159 90
163 160 83
170 167 88
155 157 74
157 160 70
164 172 68
163 172 63
163 173 60
167 178 58
164 179 45
162 180 37
166 182 45
166 187 28
164 187 11
166 190 16
168 193 0
167 191 0
168 194 0
169 195 0
169 194 0
168 194 0
169 193 0
170 195 0
169 195 0
168 194 0
168 194 0
168 194 0
169 194 0
169 195 0
169 195 0
168 194 0
171 195 0
168 194 0
170 195 0
170 195 0
170 195 0
170 196 0
169 195 0
169 194 0
170 196 0
170 195 0
167 193 0
167 193 0
168 194 0
169 195 0
169 195 0
169 195 0
168 194 0
170 195 0
168 194 0
170 195 0
167 193 0
169 195 0
168 195 0
169 195 0
168 195 0
169 195 0
167 194 0
169 195 0
169 194 0
166 192 0
169 194 0
166 192 0
169 195 0
169 194 0
169 194 0
168 195 0
166 192 0
167 193 0
170 195 0
166 192 0
168 194 0
169 194 0
165 191 0
168 195 0
169 195 0
165 192 0
165 191 0
167 193 0
167 193 0
160 185 0
166 192 0
164 190 0
165 190 0
164 189 0
164 190 0
165 191 0
161 187 0
161 187 0
163 189 0
157 183 0
157 182 0
163 189 0
160 187 0
160 186 0
158 184 0
161 186 0
157 183 0
153 178 0
154 180 0
154 179 0
151 176 0
147 172 0
141 165 0
148 172 0
146 170 0
148 173 0
138 162 0
137 160 0
133 157 0
133 157 0
138 160 18
107 131 67
62 94 102
58 92 108
58 92 111
60 94 126
60 94 131
61 96 136
59 93 126
59 94 121
61 96 135
61 96 139
62 97 142
61 96 142
60 95 131
60 94 129
58 92 117
60 95 141
60 94 135
60 94 132
60 94 139
61 96 143
60 94 131
58 90 126
57 88 120
58 91 134
58 90 123
58 89 125
57 87 116
55 85 99
56 83 109
56 78 97
68 83 85
60 81 94
83 92 81
82 91 82
99 102 70
102 108 84
113 114 77
114 114 70
128 126 72
132 130 71
149 145 84
148 144 82
156 151 90
156 152 91
163 157 93
170 164 103
165 160 96
173 167 105
174 169 105
168 163 103
174 169 106
174 168 106
176 171 111
176 171 109
173 169 110
174 169 110
174 170 110
174 171 112
175 171 113
175 171 113
173 170 112
174 171 113
175 171 113
172 170 113
174 171 114
174 171 113
174 171 113
170 169 113
173 171 113
173 170 112
173 171 114
173 170 113
174 171 112
174 171 112
173 169 112
174 170 112
177 172 113
174 170 110
176 170 110
177 171 109
176 171 110
174 169 108
171 166 102
172 166 106
174 167 103
169 163 97
164 158 90
170 164 93
158 153 80
170 166 87
163 164 77
162 163 76
159 164 65
168 174 69
160 170 60
164 176 58
164 181 49
163 180 42
166 186 41
167 187 34
162 182 30
163 184 30
164 187 16
166 192 0
168 194 0
169 194 0
168 194 0
167 192 0
168 193 0
167 192 0
168 194 0
169 195 0
170 195 0
169 195 0
170 195 0
169 195 0
169 195 0
167 192 0
169 195 0
167 192 0
169 195 0
170 196 0
169 194 0
169 195 0
168 195 0
168 194 0
170 195 0
168 194 0
170 195 0
169 195 0
168 194 0
170 196 0
169 194 0
169 195 0
169 195 0
167 194 0
169 195 0
168 194 0
169 195 0
168 194 0
168 194 0
169 195 0
168 194 0
167 194 0
168 194 0
168 193 0
170 195 0
168 194 0
168 194 0
167 193 0
169 195 0
167 193 0
169 194 0
166 193 0
165 191 0
166 192 0
166 193 0
168 193 0
167 193 0
169 195 0
165 191 0
166 192 0
166 192 0
166 192 0
166 192 0
167 194 0
166 192 0
165 191 0
168 193 0
166 192 0
164 190 0
164 190 0
163 188 0
164 189 0
166 191 0
165 191 0
162 188 0
160 185 0
165 191 0
161 186 0
162 187 0
161 186 0
157 183 0
160 186 0
159 184 0
161 187 0
152 177 0
146 170 0
144 168 0
143 168 0
142 166 0
145 170 0
144 168 0
136 160 0
132 156 0
135 159 0
137 161 0
136 159 0
133 156 0
126 149 18
107 131 62
56 89 97
57 91 105
58 93 118
57 91 111
59 94 117
59 93 118
58 92 117
60 94 129
59 93 126
59 93 118
61 95 134
60 95 130
60 94 129
59 93 129
60 94 131
59 93 125
61 95 137
59 93 128
59 92 123
57 89 113
59 92 133
59 91 124
58 91 122
60 93 131
59 91 123
55 85 114
54 82 103
59 84 102
61 84 102
61 83 100
76 91 85
84 94 76
93 101 73
91 95 63
106 107 65
95 98 55
120 119 68
130 127 72
146 141 80
147 142 85
150 145 89
156 150 91
162 157 93
167 161 94
172 165 98
168 161 98
174 168 104
172 167 104
173 167 103
173 168 106
179 173 110
175 170 108
174 169 108
177 171 110
175 170 111
176 171 113
175 171 110
173 170 110
175 171 113
172 170 112
175 171 114
173 170 113
174 171 113
174 171 113
175 171 114
174 171 113
175 172 113
174 171 113
174 171 113
173 171 113
176 172 113
173 170 111
178 173 113
175 171 112
175 170 111
176 171 112
177 173 114
176 171 111
174 169 108
174 169 106
175 169 105
174 169 106
172 165 103
171 165 103
167 161 92
167 161 98
161 155 88
166 161 90
166 162 88
164 162 77
163 164 78
166 169 74
161 170 63
162 173 57
161 174 54
157 172 47
160 178 36
160 181 34
166 187 30
164 185 22
167 191 22
167 192 11
167 191 22
167 192 0
170 195 0
168 193 0
169 195 0
168 194 0
168 194 0
167 193 0
170 195 0
169 194 0
166 191 0
169 195 0
169 195 0
169 194 0
169 195 0
169 195 0
170 195 0
169 195 0
169 195 0
170 195 0
170 195 0
169 195 0
170 195 0
170 195 0
168 194 0
169 195 0
168 195 0
168 195 0
167 193 0
168 193 0
168 194 0
167 193 0
168 194 0
169 194 0
168 194 0
168 195 0
170 196 0
167 193 0
168 194 0
169 195 0
167 193 0
168 194 0
168 194 0
168 194 0
167 194 0
168 194 0
169 195 0
169 195 0
166 191 0
167 193 0
167 193 0
165 191 0
164 190 0
166 192 0
166 192 0
166 192 0
165 191 0
166 192 0
166 192 0
167 193 0
169 194 0
168 193 0
168 194 0
167 193 0
166 192 0
166 192 0
164 191 0
167 193 0
166 191 0
162 188 0
159 184 0
164 190 0
163 189 0
162 187 0
164 189 0
161 187 0
161 187 0
160 186 0
153 179 0
159 185 0
159 184 0
153 179 0
154 180 0
151 177 0
150 175 0
148 173 0
150 174 0
147 171 0
140 164 0
139 164 0
132 156 0
136 160 0
142 166 0
128 151 0
127 149 0
130 152 0
124 146 0
110 133 31
81 106 70
57 90 84
58 91 115
58 92 115
58 93 118
57 91 107
59 93 111
58 92 121
58 92 114
59 93 118
58 92 118
60 94 126
59 93 124
59 93 124
59 94 124
59 93 130
59 93 128
58 91 114
59 92 124
58 91 125
58 90 120
58 90 126
56 87 110
58 90 126
55 85 101
54 84 116
56 85 108
52 79 89
62 85 93
75 90 98
70 87 88
74 84 71
83 92 68
87 95 60
104 105 73
106 106 63
128 126 74
130 127 75
139 135 77
147 143 82
158 153 88
162 155 93
162 156 94
167 161 97
165 160 97
167 162 99
170 163 99
176 170 107
175 169 108
176 170 107
174 169 107
173 169 108
177 171 108
179 173 111
175 171 112
175 171 112
175 171 113
173 170 110
176 172 113
173 170 109
175 171 113
174 171 112
174 171 112
173 171 113
174 171 113
173 171 112
174 171 113
175 171 113
175 171 113
174 171 112
175 171 112
176 172 113
174 170 111
174 170 110
176 171 113
177 172 109
178 173 112
176 171 109
174 168 104
172 167 105
177 171 107
177 170 108
170 164 104
173 166 101
175 168 100
172 166 99
169 163 94
171 165 90
160 158 84
166 164 88
164 163 80
162 166 68
163 168 65
165 172 71
158 168 53
155 171 41
161 176 44
161 178 41
164 183 36
164 182 36
164 186 28
167 189 19
167 192 11
167 193 0
167 193 0
170 194 0
169 193 0
169 194 0
168 194 0
169 195 0
169 195 0
169 194 0
166 192 0
168 193 0
168 194 0
169 194 0
169 195 0
169 195 0
169 195 0
169 195 0
168 194 0
167 193 0
169 195 0
170 195 0
168 194 0
169 195 0
169 194 0
168 194 0
169 195 0
169 195 0
168 195 0
169 195 0
168 194 0
167 193 0
169 195 0
167 193 0
170 196 0
169 195 0
169 195 0
170 195 0
169 195 0
168 195 0
169 195 0
169 195 0
167 193 0
166 193 0
168 194 0
168 194 0
169 194 0
169 195 0
169 195 0
169 194 0
164 191 0
170 195 0
169 195 0
168 192 0
166 192 0
169 195 0
166 192 0
167 193 0
166 192 0
166 192 0
166 192 0
167 193 0
167 192 0
167 193 0
168 194 0
160 186 0
163 189 0
164 190 0
160 185 0
162 187 0
159 185 0
164 190 0
163 188 0
159 185 0
157 182 0
162 188 0
161 186 0
159 184 0
158 184 0
158 183 0
157 182 0
160 185 0
156 181 0
152 178 0
144 169 0
149 175 0
151 176 0
139 164 0
143 167 0
149 174 0
140 165 0
127 151 0
134 158 0
127 150 0
126 149 0
126 148 0
115 137 0
121 143 0
115 138 18
88 113 47
56 87 86
57 91 105
58 92 113
57 90 102
57 91 110
58 92 120
58 93 110
60 95 124
59 93 121
59 93 121
59 93 121
60 94 122
56 89 103
58 91 120
56 88 97
59 92 125
58 91 110
58 91 120
57 89 114
57 89 118
54 83 96
55 86 117
55 85 113
54 83 108
53 80 95
56 82 86
60 81 93
60 80 76
75 89 64
76 88 69
92 96 51
93 98 66
112 112 64
107 110 59
122 121 68
127 125 72
143 140 78
150 146 78
156 151 87
157 152 89
158 154 86
172 165 100
173 165 96
172 166 100
174 168 103
174 167 104
178 171 109
178 172 108
174 169 107
176 171 109
179 173 109
173 168 105
176 171 108
174 170 110
176 171 112
176 172 112
175 171 111
176 171 111
174 171 110
174 170 110
174 171 112
176 171 112
176 172 113
175 171 113
172 170 110
176 172 112
174 170 111
175 172 113
177 172 110
174 169 110
175 171 110
175 171 112
178 173 112
176 172 112
176 170 107
176 171 109
177 171 110
177 171 105
174 168 103
173 166 102
171 165 100
175 168 103
166 160 92
172 166 99
167 161 93
170 164 93
167 163 89
164 161 84
163 161 82
167 170 74
166 172 70
163 173 59
154 165 47
160 174 48
163 180 44
161 179 36
164 183 37
161 183 11
165 187 19
169 193 11
167 191 11
166 192 0
168 193 0
166 192 0
169 194 0
169 194 0
169 194 0
168 193 0
169 195 0
169 194 0
168 193 0
168 194 0
170 196 0
169 195 0
168 194 0
169 195 0
168 193 0
170 195 0
167 194 0
169 195 0
168 195 0
169 195 0
168 194 0
170 195 0
169 195 0
170 196 0
167 193 0
169 195 0
170 195 0
170 195 0
167 193 0
168 194 0
169 195 0
169 194 0
168 194 0
169 195 0
167 193 0
169 195 0
170 195 0
170 196 0
167 194 0
168 194 0
169 195 0
168 195 0
169 194 0
170 195 0
167 193 0
167 193 0
168 194 0
168 194 0
169 195 0
169 195 0
167 193 0
167 193 0
169 194 0
167 192 0
168 194 0
168 194 0
167 193 0
165 190 0
165 192 0
166 192 0
166 192 0
165 191 0
164 190 0
167 193 0
169 195 0
164 190 0
167 192 0
165 191 0
163 188 0
162 188 0
162 189 0
157 183 0
161 186 0
160 186 0
159 186 0
158 184 0
158 183 0
157 182 0
158 183 0
159 184 0
157 182 0
153 179 0
148 174 0
146 171 0
151 176 0
150 175 0
148 172 0
149 173 0
134 158 0
137 160 0
137 160 0
136 160 0
132 155 0
127 150 0
122 146 0
114 135 0
110 132 0
103 123 0
97 120 54
58 89 86
55 88 88
57 90 113
58 92 110
56 89 101
59 93 118
57 91 113
57 91 102
57 91 107
58 91 114
59 92 124
59 94 123
59 92 117
59 92 126
57 89 116
58 91 113
56 88 107
58 90 114
56 87 111
55 86 94
56 86 109
53 82 88
53 81 86
54 81 99
55 79 84
58 80 79
61 80 73
70 81 52
80 91 62
94 98 60
92 96 59
113 113 63
112 112 55
120 119 65
137 135 66
145 141 75
149 145 76
150 144 80
164 157 89
160 155 92
163 158 89
171 165 92
176 169 97
175 168 102
176 169 103
175 168 103
174 169 100
177 170 105
175 170 107
174 169 104
174 169 104
180 173 110
177 172 110
175 171 110
176 171 110
177 172 111
176 171 109
176 171 110
176 172 111
176 171 112
177 172 113
177 172 112
176 172 111
176 171 110
175 171 111
176 172 113
176 171 110
175 171 112
174 170 112
177 172 111
176 172 111
178 172 111
177 170 107
175 169 105
175 169 108
177 171 108
178 172 107
179 172 108
175 169 102
176 170 101
175 168 102
168 161 96
168 162 94
166 159 93
164 158 88
169 165 87
157 154 82
162 163 69
166 168 72
153 159 61
159 168 56
159 169 57
161 176 44
164 178 48
165 182 42
160 178 34
167 188 28
166 187 30
164 188 16
168 193 0
170 195 11
168 194 0
168 193 0
168 193 0
168 193 0
167 193 0
168 194 0
167 193 0
168 193 0
169 195 0
169 195 0
168 194 0
169 195 0
169 195 0
168 193 0
168 193 0
169 195 0
169 194 0
169 195 0
169 195 0
170 195 0
169 195 0
169 194 0
169 195 0
170 195 0
169 195 0
169 195 0
168 193 0
169 195 0
170 195 0
169 194 0
170 195 0
169 195 0
168 193 0
169 195 0
169 194 0
170 195 0
165 192 0
168 194 0
168 194 0
170 195 0
169 195 0
167 193 0
168 194 0
168 194 0
168 194 0
167 194 0
167 193 0
169 194 0
167 193 0
165 191 0
165 191 0
167 193 0
166 192 0
168 194 0
169 195 0
166 192 0
166 191 0
165 191 0
164 190 0
165 191 0
163 189 0
164 190 0
162 189 0
164 189 0
169 194 0
164 190 0
160 186 0
159 185 0
163 188 0
163 188 0
162 188 0
163 189 0
161 187 0
163 189 0
158 183 0
158 184 0
158 183 0
159 185 0
152 178 0
150 175 0
155 180 0
153 179 0
159 185 0
145 170 0
148 173 0
144 169 0
145 169 0
134 158 0
139 164 0
138 162 0
132 157 0
125 147 0
133 157 0
123 145 0
122 145 0
116 138 0
115 137 0
108 129 0
103 123 25
86 106 36
71 97 67
54 86 80
54 87 90
56 90 103
56 89 97
56 89 99
57 90 99
58 92 107
56 89 103
58 92 114
58 92 107
58 91 108
56 89 101
57 90 111
57 90 104
56 88 111
54 86 90
53 83 95
55 86 103
52 81 85
53 82 99
49 76 71
59 82 81
52 76 79
56 80 73
61 81 69
70 83 64
80 89 54
94 98 61
91 94 63
116 114 66
97 100 44
137 133 74
139 135 67
146 142 78
156 151 81
154 148 82
160 154 84
162 156 88
167 161 92
167 161 92
170 163 96
177 170 102
176 169 103
171 166 95
178 171 106
172 167 100
179 172 108
179 172 109
177 171 105
177 172 110
177 172 109
177 171 108
176 172 110
175 170 108
177 172 110
179 173 113
178 173 113
175 170 108
175 171 110
176 172 112
177 172 112
176 171 112
176 172 110
177 172 112
177 172 111
177 172 110
177 172 109
177 172 111
178 172 110
177 172 111
175 170 106
175 169 106
179 172 108
178 171 108
176 170 106
175 168 104
178 172 108
176 168 100
168 162 95
168 161 98
166 159 87
173 167 96
170 164 97
161 157 82
162 159 76
162 162 79
162 163 72
164 168 70
155 163 57
156 166 56
161 174 49
159 174 37
161 178 39
160 180 30
162 182 28
164 185 22
167 189 22
167 191 0
166 192 0
169 195 0
169 195 0
168 193 0
166 192 0
169 194 0
167 192 0
169 194 0
169 194 0
169 195 0
169 194 0
169 194 0
169 195 0
170 195 0
168 195 0
168 194 0
168 194 0
169 195 0
169 195 0
169 195 0
169 195 0
167 193 0
168 194 0
170 195 0
170 195 0
168 194 0
169 194 0
168 195 0
169 195 0
168 195 0
169 194 0
169 195 0
168 194 0
169 195 0
167 193 0
168 194 0
167 193 0
169 195 0
168 194 0
168 195 0
169 195 0
169 195 0
169 195 0
167 193 0
167 193 0
167 193 0
169 195 0
168 194 0
167 193 0
168 194 0
169 194 0
167 193 0
169 195 0
166 192 0
167 194 0
166 192 0
166 192 0
166 191 0
168 195 0
166 192 0
165 191 0
165 191 0
167 193 0
163 190 0
165 191 0
165 190 0
162 188 0
164 190 0
167 193 0
163 189 0
160 186 0
160 186 0
161 187 0
159 185 0
164 190 0
160 186 0
162 187 0
161 187 0
156 181 0
152 177 0
157 183 0
158 183 0
150 175 0
152 177 0
155 180 0
152 178 0
148 173 0
135 160 0
140 164 0
138 162 0
139 163 0
125 150 0
126 150 0
127 150 0
132 154 0
125 147 0
122 143 0
110 132 0
112 133 0
102 122 0
86 106 0
98 118 18
79 100 31
61 90 80
54 86 92
56 89 92
52 84 72
54 86 97
55 88 92
56 89 97
56 89 92
54 87 92
56 89 98
56 88 94
56 88 90
54 86 96
56 88 99
55 86 96
52 82 86
54 83 89
52 81 88
52 81 99
52 80 84
49 76 72
51 75 72
56 77 68
65 78 55
77 88 62
80 88 55
102 106 61
113 115 53
116 114 60
109 112 51
129 129 62
132 129 64
145 140 73
155 149 76
156 150 81
162 157 87
162 157 87
171 165 91
168 163 93
166 160 91
174 168 97
174 167 99
176 169 102
175 168 101
175 170 104
176 170 102
177 171 106
176 171 106
176 170 106
177 171 104
179 173 111
176 170 105
177 172 111
176 171 109
177 172 111
178 172 111
178 173 111
175 170 109
177 172 110
174 170 107
176 171 110
175 171 109
176 171 110
177 172 112
177 172 114
177 171 109
179 173 112
174 169 105
177 171 108
173 168 106
175 170 103
175 169 106
178 171 106
178 171 106
174 167 103
175 168 104
173 166 98
174 167 98
175 168 100
166 160 91
170 163 92
166 159 90
168 164 84
163 161 75
155 155 75
163 165 71
162 166 71
157 166 54
160 167 61
162 173 49
159 176 42
166 184 39
167 184 42
169 190 32
164 185 19
164 188 0
166 191 0
169 194 0
168 194 0
166 192 0
167 192 0
169 194 0
168 194 0
169 194 0
168 193 0
169 194 0
169 194 0
168 194 0
167 193 0
168 193 0
170 195 0
169 195 0
170 194 0
169 195 0
170 195 0
169 195 0
169 195 0
169 194 0
168 195 0
171 196 0
168 195 0
168 194 0
169 195 0
170 195 0
168 194 0
169 195 0
169 195 0
168 194 0
168 194 0
169 194 0
169 195 0
168 195 0
167 193 0
168 194 0
167 193 0
168 193 0
168 194 0
167 193 0
169 194 0
167 193 0
168 194 0
168 195 0
165 191 0
169 194 0
168 194 0
169 195 0
167 193 0
168 193 0
165 192 0
168 194 0
167 194 0
167 193 0
168 194 0
165 191 0
167 193 0
167 193 0
167 192 0
167 194 0
167 192 0
163 189 0
164 190 0
162 188 0
161 186 0
163 189 0
165 191 0
166 192 0
162 187 0
164 189 0
159 185 0
160 186 0
157 183 0
166 192 0
159 185 0
162 188 0
161 187 0
156 182 0
157 183 0
156 182 0
156 181 0
152 176 0
154 180 0
145 169 0
155 180 0
144 169 0
145 170 0
136 161 0
143 167 0
137 161 0
138 161 0
139 163 0
131 154 0
121 144 0
126 149 0
126 148 0
114 135 0
117 138 0
114 134 0
103 122 0
100 118 0
85 104 18
70 88 36
68 91 51
53 83 74
53 86 80
54 87 90
54 86 90
55 88 86
54 86 94
57 90 102
53 85 94
57 89 108
56 89 101
52 82 73
53 84 87
53 84 85
52 82 90
52 82 87
52 82 91
50 79 75
47 75 58
51 79 87
54 73 53
60 75 46
69 85 59
70 80 58
75 86 47
109 112 44
113 115 53
120 122 44
133 131 60
137 133 64
137 133 67
146 141 71
148 144 71
162 156 87
158 152 85
165 157 90
171 164 95
174 167 99
170 163 94
172 166 95
174 167 95
180 172 104
176 169 103
175 169 100
173 167 93
177 171 106
177 171 104
175 170 104
178 172 108
178 172 108
176 171 108
179 173 110
176 171 109
176 171 108
178 172 109
178 173 111
177 172 109
176 171 110
177 172 112
177 172 111
176 171 110
176 171 109
178 172 110
177 171 108
179 173 109
177 172 110
176 170 105
177 171 106
177 171 108
175 169 103
177 172 109
175 169 106
176 169 99
176 170 103
173 166 98
173 166 96
173 167 100
174 166 99
173 165 99
170 164 89
164 157 83
160 154 84
168 167 80
159 157 75
164 163 79
159 163 61
155 162 58
162 171 53
161 173 49
160 174 45
161 178 32
165 182 34
164 184 30
164 185 25
167 189 30
167 192 11
168 193 0
169 194 11
168 193 0
167 193 0
167 193 0
168 194 0
169 193 0
167 192 0
169 194 0
167 193 0
168 194 0
167 192 0
167 193 0
169 194 0
167 193 0
167 192 0
168 193 0
168 194 0
169 195 0
169 195 0
170 195 0
169 195 0
169 195 0
169 195 0
170 195 0
169 195 0
167 193 0
170 195 0
170 195 0
169 194 0
169 195 0
169 194 0
169 195 0
170 195 0
169 194 0
168 194 0
169 195 0
167 193 0
168 194 0
168 194 0
167 193 0
168 194 0
168 194 0
168 194 0
169 194 0
166 192 0
169 195 0
168 194 0
168 194 0
168 193 0
167 193 0
170 195 0
166 193 0
167 193 0
166 192 0
169 194 0
164 190 0
166 193 0
165 191 0
164 191 0
164 189 0
167 193 0
167 193 0
165 191 0
160 187 0
165 191 0
158 184 0
163 189 0
162 187 0
161 187 0
163 188 0
162 188 0
161 187 0
159 185 0
157 183 0
162 187 0
163 189 0
157 183 0
155 180 0
155 181 0
157 182 0
155 180 0
149 174 0
150 174 0
153 178 0
152 177 0
148 173 0
148 174 0
144 169 0
136 160 0
135 159 0
137 160 0
123 147 0
132 155 0
124 147 0
126 149 0
119 141 0
115 137 0
114 135 0
115 136 0
104 124 0
94 113 0
96 114 0
80 97 0
87 105 0
69 86 31
62 82 0
48 76 62
47 76 57
52 83 87
50 80 63
54 85 90
53 85 81
50 81 72
53 84 88
53 84 93
53 84 80
51 81 74
50 79 74
47 74 63
49 77 66
50 78 66
47 74 69
52 78 64
52 74 38
54 69 46
65 76 42
76 81 38
99 102 44
94 97 39
101 103 35
110 113 51
118 120 49
129 129 61
130 127 61
141 137 67
154 148 75
154 148 73
158 153 78
165 158 87
167 160 92
166 160 88
166 161 88
174 167 93
173 166 92
177 170 98
178 171 104
175 169 100
174 168 97
178 171 107
178 171 103
177 171 104
175 169 103
176 170 105
178 171 104
177 171 107
176 171 108
176 171 106
178 172 110
179 173 110
179 173 112
175 171 110
177 171 108
179 172 110
176 171 108
176 171 106
180 173 109
176 171 107
177 172 108
175 170 106
177 171 107
176 171 106
177 171 107
176 171 106
178 171 102
174 168 101
177 170 102
170 164 96
176 168 97
172 165 97
168 162 93
176 168 95
169 163 92
171 164 95
163 157 85
155 150 75
160 158 76
157 156 66
158 159 69
167 169 68
159 167 52
163 172 56
160 173 54
159 173 36
165 183 41
164 180 47
161 181 25
164 187 11
164 187 11
163 187 11
167 191 16
167 192 0
168 193 0
168 194 0
169 194 0
167 193 0
168 193 0
168 192 0
167 192 0
169 195 0
169 194 0
169 195 0
167 192 0
169 194 0
169 195 0
168 193 0
168 195 0
169 195 0
169 195 0
168 194 0
169 195 0
170 195 0
167 194 0
169 194 0
169 195 0
169 195 0
170 195 0
169 195 0
169 195 0
169 195 0
169 195 0
169 195 0
169 195 0
167 193 0
168 194 0
170 195 0
166 192 0
169 195 0
169 194 0
164 190 0
168 194 0
168 195 0
169 195 0
168 194 0
169 195 0
165 191 0
167 194 0
169 194 0
166 192 0
170 195 0
169 195 0
167 193 0
167 192 0
164 190 0
167 193 0
164 190 0
166 192 0
166 192 0
168 194 0
168 194 0
168 193 0
167 193 0
161 187 0
166 192 0
162 188 0
166 192 0
164 190 0
160 186 0
163 189 0
164 190 0
164 189 0
161 186 0
160 186 0
158 184 0
157 183 0
164 189 0
158 184 0
152 178 0
161 186 0
152 177 0
153 179 0
150 175 0
152 178 0
153 179 0
146 172 0
150 176 0
147 173 0
148 173 0
149 175 0
148 172 0
140 165 0
136 159 0
143 166 0
131 153 0
133 156 0
119 142 0
126 148 0
106 128 0
109 130 0
109 129 0
108 127 0
101 122 0
77 94 0
83 100 0
85 102 0
76 88 0
65 80 18
76 91 0
60 75 18
55 76 40
47 73 57
47 76 67
53 85 77
50 81 70
49 76 70
48 77 70
47 75 71
50 79 67
46 72 58
47 74 65
45 70 49
49 77 72
41 65 47
46 65 55
57 67 33
64 73 31
60 69 18
88 92 25
87 92 35
91 93 34
110 112 43
112 115 44
119 118 50
128 127 58
138 135 65
148 143 75
146 143 71
158 153 77
162 156 79
160 154 80
168 162 84
169 161 84
171 164 91
176 169 96
174 167 92
174 168 96
176 169 99
178 171 99
176 169 101
177 170 101
174 168 99
179 172 106
180 173 109
178 171 103
176 171 106
176 171 104
177 171 103
174 170 104
176 171 109
177 171 107
177 171 106
175 170 104
174 169 103
176 171 109
178 173 112
176 171 106
179 172 107
177 171 106
173 167 103
175 169 104
177 170 104
177 171 106
178 171 107
177 171 107
175 167 103
176 170 104
178 171 106
173 167 97
172 165 95
172 166 92
174 167 99
170 163 90
166 160 86
165 159 87
162 157 78
156 152 79
160 158 72
162 163 71
157 158 64
161 164 70
158 164 54
165 173 53
159 171 47
162 176 48
154 169 25
165 185 28
163 184 25
163 184 25
166 190 19
165 189 11
168 192 11
168 194 0
167 192 0
166 190 0
167 193 0
169 194 0
166 192 0
167 193 0
168 193 0
169 194 0
168 194 0
167 192 0
167 192 0
168 193 0
169 195 0
167 193 0
169 194 0
170 195 0
170 195 0
169 195 0
168 194 0
168 194 0
169 195 0
167 194 0
169 195 0
167 193 0
168 194 0
168 194 0
170 196 0
168 194 0
170 195 0
170 196 0
168 194 0
168 194 0
167 193 0
170 195 0
168 194 0
168 195 0
168 194 0
168 194 0
167 193 0
167 194 0
168 194 0
169 195 0
168 194 0
168 194 0
169 195 0
167 193 0
167 194 0
169 194 0
169 194 0
164 190 0
167 193 0
166 192 0
166 192 0
168 194 0
166 192 0
169 194 0
165 191 0
167 193 0
167 192 0
167 193 0
166 191 0
165 191 0
163 189 0
165 191 0
165 191 0
162 189 0
162 188 0
164 190 0
164 189 0
160 185 0
160 186 0
161 187 0
160 185 0
160 185 0
160 186 0
156 182 0
150 176 0
157 183 0
158 183 0
155 180 0
151 177 0
149 175 0
150 175 0
146 171 0
151 177 0
146 171 0
133 158 0
141 165 0
142 168 0
135 160 0
142 166 0
129 153 0
135 159 0
126 149 0
126 148 0
108 130 0
110 131 0
114 134 0
113 133 0
115 135 0
101 121 0
93 112 0
101 118 0
75 92 0
80 97 0
69 85 0
76 91 0
72 85 0
53 65 18
67 79 25
44 58 31
48 61 18
44 62 44
51 72 47
51 68 32
41 59 40
38 57 25
44 61 44
48 62 36
49 61 0
47 58 0
35 46 18
53 60 0
51 59 8
67 73 11
90 92 31
89 92 26
107 108 38
126 126 51
124 122 56
123 121 53
136 135 56
137 135 61
139 136 58
150 146 68
157 151 80
166 160 87
163 156 82
166 161 82
164 159 83
171 165 86
172 166 90
171 165 91
171 166 91
174 168 99
177 169 98
174 168 99
176 169 97
178 171 104
177 171 104
175 170 101
178 171 105
176 170 101
177 171 107
177 171 106
177 171 104
177 171 103
177 171 104
175 170 104
177 171 105
178 172 108
177 171 106
179 172 106
177 171 106
180 173 108
179 172 108
178 172 106
179 173 108
177 171 103
175 169 103
176 170 101
178 171 104
177 170 103
177 169 103
172 166 95
169 164 88
172 165 91
176 169 97
171 165 89
169 163 90
167 160 90
164 158 85
170 164 92
159 155 73
164 160 75
155 155 65
158 160 64
152 158 49
159 168 49
155 167 39
163 175 54
160 175 41
167 184 41
163 183 22
160 181 19
158 180 16
167 190 16
166 190 16
167 191 0
168 193 0
167 192 0
168 193 0
169 193 0
169 195 0
169 194 0
169 195 0
167 192 0
168 194 0
166 192 0
167 191 0
168 193 0
170 195 0
168 193 0
168 195 0
168 194 0
170 195 0
169 195 0
170 195 0
167 193 0
169 195 0
169 195 0
170 195 0
170 196 0
169 194 0
169 195 0
170 195 0
169 195 0
167 194 0
168 193 0
169 195 0
168 195 0
170 195 0
168 194 0
167 194 0
168 194 0
167 193 0
168 193 0
169 195 0
167 193 0
169 194 0
169 194 0
169 194 0
169 194 0
167 194 0
168 194 0
169 194 0
167 193 0
168 194 0
167 194 0
167 193 0
168 194 0
166 191 0
168 194 0
167 193 0
168 194 0
166 192 0
167 193 0
167 193 0
166 192 0
165 191 0
166 192 0
164 190 0
159 185 0
162 187 0
163 190 0
158 184 0
163 188 0
161 187 0
163 188 0
162 188 0
162 187 0
161 187 0
161 187 0
158 184 0
156 181 0
157 183 0
159 185 0
157 182 0
148 173 0
158 183 0
152 178 0
152 178 0
153 178 0
149 174 0
148 173 0
147 172 0
140 164 0
137 161 0
137 161 0
135 160 0
135 158 0
132 156 0
131 154 0
130 153 0
122 145 0
119 142 0
124 147 0
120 141 0
110 130 0
104 125 0
102 121 0
103 123 0
88 107 0
85 101 0
96 113 0
76 91 0
92 109 0
74 88 0
71 87 0
54 67 0
65 79 0
44 55 18
61 71 0
51 61 0
60 71 0
65 73 0
61 72 0
48 57 0
55 64 0
55 67 0
43 52 0
57 65 0
56 64 0
72 81 0
67 74 14
77 82 16
90 93 25
114 116 42
113 116 42
111 112 33
130 128 57
131 130 48
128 124 54
130 128 41
155 150 71
153 149 68
152 148 69
158 153 77
168 162 86
165 158 85
173 166 89
173 166 93
173 166 89
178 170 99
177 169 99
177 170 99
175 168 95
176 169 97
173 167 98
176 169 99
176 170 103
178 171 104
177 170 99
177 171 105
178 171 106
176 170 102
176 170 102
176 170 97
174 169 101
176 170 104
179 172 106
175 170 104
177 171 106
180 173 106
175 170 103
176 170 103
176 169 99
175 169 100
179 171 104
178 171 101
176 170 102
176 169 101
176 169 98
176 168 99
178 171 103
173 167 97
175 168 97
175 168 92
167 161 84
169 163 85
171 164 87
167 161 88
165 159 80
162 157 75
162 157 78
166 165 74
162 164 65
157 160 64
155 162 49
154 164 45
161 173 45
162 177 42
163 177 42
160 180 30
158 178 19
158 180 19
163 185 16
168 191 16
169 194 0
167 192 0
167 192 0
167 193 0
169 194 0
167 192 0
167 193 0
168 193 0
168 194 0
168 194 0
168 194 0
169 194 0
169 195 0
168 195 0
169 193 0
168 193 0
170 195 0
168 194 0
169 195 0
169 195 0
170 195 0
168 193 0
169 195 0
170 195 0
169 195 0
169 195 0
168 194 0
168 194 0
169 195 0
169 195 0
168 194 0
167 193 0
169 194 0
169 195 0
167 193 0
170 195 0
169 194 0
168 194 0
169 195 0
168 194 0
168 194 0
168 194 0
169 195 0
168 194 0
167 193 0
166 192 0
169 195 0
168 194 0
169 195 0
166 193 0
170 195 0
166 192 0
167 193 0
167 193 0
169 194 0
167 193 0
167 193 0
167 192 0
169 195 0
167 193 0
168 194 0
168 194 0
167 193 0
160 185 0
167 193 0
163 189 0
164 189 0
164 191 0
165 191 0
163 189 0
166 191 0
162 188 0
158 184 0
161 186 0
157 183 0
164 190 0
157 183 0
154 180 0
159 185 0
159 185 0
159 184 0
154 180 0
154 180 0
142 167 0
152 177 0
144 169 0
152 177 0
154 178 0
139 164 0
140 165 0
138 163 0
141 165 0
139 163 0
133 156 0
137 161 0
136 160 0
124 147 0
127 150 0
126 148 0
124 146 0
108 127 0
110 130 0
103 122 0
106 126 0
117 138 0
101 121 0
94 113 0
92 109 0
70 87 0
81 97 0
82 98 0
63 78 0
78 92 0
74 88 0
79 91 0
69 80 0
67 79 0
57 69 0
66 78 0
54 64 0
76 88 0
62 72 0
57 67 0
73 86 0
52 60 14
77 88 8
88 98 16
98 102 30
98 102 32
107 112 37
108 111 41
113 112 45
119 120 41
132 131 51
134 131 55
145 141 62
148 143 69
152 147 70
161 155 76
165 159 82
164 158 82
171 164 91
166 160 80
168 162 86
167 161 82
173 166 87
173 166 90
175 168 93
179 171 101
172 165 90
176 169 96
178 171 104
172 167 93
175 168 99
177 170 98
177 170 98
177 171 101
176 170 101
177 170 101
175 169 100
176 169 101
178 171 104
178 171 104
179 172 106
176 170 103
177 170 101
175 169 98
177 170 97
176 170 103
176 170 102
173 167 99
178 171 103
173 168 96
177 170 102
175 168 99
171 166 93
172 165 93
174 167 97
175 168 94
170 164 88
168 161 84
169 162 87
168 162 85
164 158 76
159 154 72
156 152 75
154 153 69
160 160 63
163 166 64
157 161 62
152 160 44
154 164 44
152 165 39
161 177 41
164 179 41
161 181 28
164 184 25
167 189 19
165 187 11
164 189 11
167 191 0
165 189 0
168 194 0
167 192 0
167 192 0
168 193 0
168 194 0
167 192 0
167 192 0
169 194 0
168 192 0
167 192 0
169 194 0
168 193 0
167 193 0
169 194 0
168 193 0
170 196 0
168 195 0
168 194 0
168 194 0
169 195 0
168 195 0
168 194 0
169 195 0
169 195 0
170 195 0
170 195 0
169 194 0
168 194 0
170 195 0
169 195 0
168 194 0
168 194 0
167 193 0
169 195 0
166 192 0
170 195 0
170 195 0
167 193 0
169 195 0
168 194 0
166 192 0
169 194 0
166 192 0
168 194 0
167 192 0
168 194 0
167 193 0
169 195 0
168 193 0
167 194 0
166 192 0
169 195 0
167 194 0
166 192 0
163 189 0
166 192 0
167 194 0
163 189 0
166 192 0
166 191 0
169 194 0
165 190 0
164 189 0
165 191 0
165 191 0
164 190 0
166 192 0
168 193 0
165 190 0
159 185 0
163 189 0
161 186 0
160 186 0
158 183 0
161 186 0
162 187 0
161 186 0
156 181 0
157 183 0
161 187 0
155 180 0
157 181 0
155 180 0
144 169 0
146 171 0
143 168 0
146 171 0
147 172 0
143 167 0
145 170 0
143 168 0
133 157 0
133 156 0
125 147 0
126 149 0
130 153 0
122 145 0
119 141 0
122 143 0
128 150 0
112 133 0
115 135 0
91 110 0
102 122 0
92 110 0
95 113 0
101 119 0
85 100 0
84 101 0
77 92 0
62 77 0
73 88 0
71 87 0
79 94 0
71 84 0
80 92 0
65 80 0
76 87 0
73 86 0
65 74 0
74 86 0
65 75 0
79 88 0
93 104 16
102 110 19
80 88 11
102 106 37
106 108 26
122 123 38
116 118 44
118 117 46
122 122 42
143 142 54
136 134 51
148 142 68
151 147 67
159 154 75
160 155 75
160 154 78
160 155 73
167 161 81
171 164 91
174 166 89
175 168 94
172 166 89
176 169 93
174 168 96
174 168 90
176 168 96
180 172 101
177 170 99
177 170 100
175 169 99
175 169 98
176 170 101
174 169 97
176 169 97
178 171 100
177 170 99
175 169 100
178 171 103
176 170 99
176 170 102
178 171 101
178 171 104
178 171 101
179 172 103
182 174 106
175 169 98
175 168 97
177 171 100
173 167 94
174 167 95
175 168 97
172 165 94
172 166 90
164 158 82
171 164 89
166 160 86
168 162 84
166 159 83
166 159 83
158 154 73
162 156 75
158 156 67
159 160 64
157 162 58
159 164 60
155 164 48
158 169 48
156 169 45
161 174 39
160 176 30
164 182 28
160 178 19
165 186 19
164 187 16
166 191 0
167 192 0
167 190 0
166 191 0
165 190 0
168 194 0
167 193 0
167 193 0
168 194 0
167 192 0
168 194 0
167 192 0
167 192 0
169 194 0
168 194 0
168 194 0
167 193 0
167 193 0
169 195 0
170 195 0
169 195 0
168 194 0
167 193 0
168 194 0
167 194 0
166 192 0
169 195 0
168 194 0
169 195 0
170 195 0
169 195 0
170 195 0
168 194 0
167 193 0
169 195 0
169 194 0
168 194 0
168 195 0
169 194 0
168 194 0
169 195 0
170 195 0
169 195 0
169 195 0
168 195 0
167 193 0
166 192 0
167 193 0
164 191 0
168 194 0
168 194 0
168 193 0
168 194 0
167 193 0
166 192 0
167 193 0
166 191 0
162 188 0
163 189 0
164 190 0
167 192 0
165 191 0
164 191 0
166 192 0
164 190 0
166 192 0
164 189 0
162 188 0
168 193 0
162 187 0
165 190 0
162 188 0
160 185 0
164 189 0
163 189 0
164 190 0
162 188 0
159 183 0
159 185 0
162 188 0
152 177 0
161 186 0
157 183 0
156 182 0
156 182 0
152 177 0
156 181 0
155 180 0
152 177 0
146 170 0
144 170 0
133 157 0
145 170 0
146 171 0
135 159 0
133 156 0
138 162 0
126 150 0
136 159 0
129 153 0
127 149 0
123 145 0
115 137 0
113 135 0
107 128 0
111 132 0
113 133 0
108 127 0
100 119 0
101 120 0
97 114 0
95 114 0
97 116 0
86 101 0
89 106 0
85 101 0
83 96 0
85 99 0
89 104 0
68 83 0
89 105 0
91 104 0
78 89 0
79 95 0
78 90 0
79 91 0
88 99 0
84 93 8
87 93 14
89 97 25
105 108 25
116 119 31
111 114 36
125 126 51
136 136 49
129 129 47
143 140 58
145 140 62
149 144 59
151 146 63
154 150 65
155 150 68
165 159 78
164 157 82
158 153 73
162 157 76
170 163 82
170 164 83
171 165 87
169 163 80
172 166 93
175 169 95
174 168 95
176 169 97
177 170 97
176 169 96
179 171 100
178 170 98
175 169 98
175 168 96
176 169 97
176 170 101
176 170 101
177 169 98
175 169 94
179 172 103
174 168 100
178 171 100
178 171 101
176 169 95
171 166 94
177 171 101
175 168 98
177 170 99
174 168 97
173 167 93
176 169 95
168 162 87
168 162 88
170 163 89
167 161 85
169 163 81
165 159 80
158 151 77
157 151 73
160 156 67
151 151 59
156 153 69
155 157 60
157 161 54
158 162 56
159 165 53
153 162 42
161 175 39
161 175 41
160 176 25
156 175 19
160 179 16
165 187 19
161 182 16
165 188 0
165 189 0
167 191 0
168 193 0
166 190 0
167 192 0
167 193 0
167 192 0
168 194 0
170 193 0
167 192 0
168 193 0
168 193 0
167 193 0
168 192 0
168 194 0
168 194 0
166 191 0
168 194 0
167 193 0
169 195 0
169 195 0
169 195 0
167 193 0
170 195 0
168 194 0
170 195 0
169 195 0
169 195 0
169 194 0
169 194 0
168 194 0
168 194 0
167 193 0
168 194 0
170 196 0
168 194 0
167 193 0
168 194 0
168 194 0
169 194 0
170 195 0
168 194 0
168 193 0
167 194 0
168 194 0
168 194 0
166 191 0
168 194 0
167 193 0
166 192 0
168 194 0
169 195 0
167 193 0
169 195 0
169 194 0
167 193 0
169 195 0
163 190 0
166 192 0
168 195 0
167 193 0
166 192 0
163 189 0
166 192 0
167 193 0
165 191 0
165 191 0
163 189 0
165 191 0
160 186 0
161 187 0
161 187 0
165 190 0
161 187 0
163 189 0
161 187 0
159 184 0
161 187 0
157 183 0
155 181 0
157 183 0
158 184 0
158 183 0
148 173 0
155 181 0
153 178 0
150 175 0
149 173 0
142 166 0
143 168 0
152 177 0
141 166 0
151 175 0
145 170 0
142 167 0
138 162 0
137 161 0
129 152 0
129 152 0
133 157 0
113 136 0
118 139 0
110 132 0
116 138 0
108 128 0
114 134 0
111 130 0
110 130 0
103 123 0
93 113 0
95 114 0
96 115 0
90 109 0
99 117 0
99 115 0
83 99 0
83 98 0
80 96 0
88 103 0
81 96 0
85 98 0
81 95 0
89 102 0
79 92 0
91 102 8
92 104 0
91 99 14
100 109 22
98 105 21
114 119 29
110 115 28
111 114 28
120 120 45
128 128 49
136 135 47
131 127 51
135 133 49
144 140 61
151 147 58
159 154 66
167 160 80
158 153 64
166 159 75
162 157 70
168 163 79
169 162 83
171 165 84
173 167 87
175 167 93
174 167 93
174 167 88
175 168 91
171 166 94
174 168 93
175 168 93
175 168 94
173 167 92
175 169 94
176 169 97
172 167 93
179 171 102
175 169 97
177 170 96
175 169 94
175 168 95
180 172 104
177 170 103
175 168 93
175 168 94
174 169 97
176 169 95
178 170 97
173 167 94
171 165 88
177 169 95
171 165 90
175 168 92
168 161 89
171 164 88
167 160 85
168 162 84
162 156 76
165 159 76
160 154 70
161 157 70
157 156 62
157 156 64
150 153 51
160 164 58
154 162 48
159 166 45
157 167 45
159 173 44
159 177 28
162 178 30
161 179 28
162 184 16
164 186 0
167 191 11
166 191 0
168 192 0
167 192 0
167 192 0
166 191 0
169 194 0
167 192 0
168 193 0
167 192 0
167 192 0
168 194 0
168 193 0
169 195 0
169 193 0
168 194 0
168 194 0
170 193 0
167 192 0
169 195 0
169 195 0
169 195 0
168 195 0
169 195 0
169 195 0
168 194 0
170 196 0
169 195 0
169 195 0
169 195 0
169 194 0
168 194 0
167 193 0
169 195 0
168 194 0
169 195 0
169 194 0
168 194 0
169 195 0
169 194 0
169 195 0
168 194 0
167 193 0
168 193 0
168 194 0
168 194 0
167 193 0
168 195 0
165 191 0
168 194 0
166 192 0
168 195 0
167 193 0
168 194 0
166 192 0
167 193 0
166 191 0
168 194 0
167 193 0
167 193 0
165 191 0
168 194 0
166 192 0
167 193 0
167 193 0
166 192 0
164 190 0
164 189 0
165 191 0
164 190 0
164 190 0
163 189 0
165 191 0
162 188 0
162 188 0
156 182 0
157 183 0
161 186 0
161 186 0
160 186 0
158 183 0
158 183 0
162 187 0
156 181 0
152 178 0
154 179 0
156 182 0
151 176 0
149 175 0
155 180 0
147 172 0
145 169 0
146 171 0
148 173 0
130 154 0
143 168 0
143 167 0
143 168 0
134 157 0
144 168 0
130 153 0
138 161 0
135 158 0
131 154 0
122 145 0
123 146 0
123 144 0
118 139 0
112 133 0
109 129 0
96 115 0
101 120 0
112 132 0
108 127 0
106 125 0
98 116 0
89 107 0
96 113 0
94 111 0
89 103 0
93 106 0
91 107 0
90 105 0
91 107 0
98 111 0
87 100 0
89 101 0
100 114 8
100 110 11
90 99 16
95 102 19
110 118 24
107 112 21
119 120 32
123 126 35
121 119 44
127 126 42
134 132 52
150 146 59
156 153 59
152 148 57
154 150 66
155 151 62
157 152 58
164 158 77
161 156 71
164 159 78
170 164 80
167 161 81
166 161 78
172 165 84
175 168 90
171 165 83
171 165 82
171 165 90
175 168 91
173 167 87
176 169 95
173 166 92
174 168 95
175 168 93
173 167 92
174 168 95
175 168 95
173 167 90
173 167 90
173 167 89
172 167 90
174 167 90
173 167 91
174 168 94
175 169 94
175 168 94
174 168 95
174 167 90
171 166 87
168 162 83
173 167 89
171 164 86
169 162 90
173 166 90
168 162 82
169 162 82
163 158 74
159 153 69
152 147 64
161 156 73
154 152 65
156 155 62
157 160 56
149 153 49
152 158 49
160 168 51
159 172 30
156 168 44
158 170 41
161 179 25
157 176 25
164 184 25
165 189 11
166 188 0
165 188 11
168 192 0
166 192 0
164 188 0
167 192 0
169 194 0
165 190 0
168 193 0
169 194 0
168 193 0
166 191 0
169 195 0
169 195 0
169 194 0
168 193 0
168 194 0
168 193 0
167 191 0
169 195 0
169 195 0
168 194 0
169 195 0
167 193 0
168 194 0
167 194 0
170 195 0
170 195 0
166 192 0
169 195 0
169 195 0
172 196 0
169 194 0
170 196 0
169 195 0
167 193 0
168 195 0
169 194 0
167 193 0
168 194 0
167 193 0
165 191 0
169 195 0
166 192 0
167 193 0
165 192 0
169 195 0
167 193 0
168 193 0
168 194 0
167 193 0
169 194 0
168 194 0
165 192 0
169 195 0
168 193 0
165 191 0
167 193 0
166 192 0
166 192 0
167 193 0
165 190 0
163 190 0
165 191 0
163 189 0
166 191 0
166 192 0
166 191 0
165 191 0
167 193 0
164 190 0
162 188 0
167 192 0
166 192 0
163 189 0
159 185 0
164 190 0
160 186 0
157 183 0
158 184 0
163 189 0
155 181 0
158 184 0
156 183 0
153 179 0
158 184 0
158 184 0
157 182 0
157 183 0
153 177 0
151 176 0
160 186 0
151 176 0
145 170 0
143 167 0
144 169 0
142 166 0
141 165 0
131 155 0
133 157 0
138 161 0
133 156 0
127 150 0
125 147 0
134 157 0
125 148 0
117 139 0
137 157 0
123 143 0
102 123 0
121 143 0
112 132 0
110 131 0
117 137 0
98 118 0
115 133 0
102 120 0
108 125 0
101 118 0
106 123 0
92 110 0
104 119 0
106 124 0
103 118 0
109 127 0
101 116 0
108 123 0
116 129 0
106 119 11
99 110 18
109 120 11
108 116 25
105 111 19
110 113 32
121 124 34
122 122 40
120 121 39
129 128 40
139 135 49
138 134 45
145 142 52
153 148 67
150 145 61
154 150 61
157 151 65
166 160 72
160 155 67
167 161 74
166 160 75
164 158 74
174 166 86
171 165 84
169 163 85
170 164 80
172 166 88
168 162 78
171 165 84
174 168 91
173 167 87
172 165 89
168 163 82
173 167 89
174 168 93
170 164 84
176 168 93
172 166 87
172 166 88
170 165 86
173 167 85
176 168 93
179 171 97
174 167 92
174 167 93
171 165 85
168 162 81
172 165 90
171 165 87
167 161 75
167 160 80
168 162 84
170 163 77
163 157 75
165 158 79
163 157 71
160 154 69
158 153 71
159 156 65
160 160 62
153 154 56
161 163 58
158 161 56
155 161 47
156 164 48
153 165 41
166 180 42
156 172 25
161 180 16
162 182 22
166 190 0
166 188 16
165 185 11
166 189 0
164 188 0
167 191 0
166 189 0
167 192 0
166 190 0
168 193 0
167 192 0
166 191 0
167 191 0
168 193 0
170 195 0
167 193 0
168 192 0
167 192 0
169 194 0
167 192 0
167 193 0
168 194 0
169 195 0
169 195 0
169 195 0
168 194 0
169 195 0
169 195 0
168 194 0
168 194 0
169 195 0
168 194 0
169 195 0
168 194 0
169 195 0
169 195 0
167 192 0
170 195 0
170 195 0
168 194 0
169 194 0
168 194 0
168 193 0
166 192 0
171 196 0
167 193 0
169 195 0
168 194 0
169 195 0
168 194 0
167 193 0
167 193 0
164 191 0
166 192 0
168 194 0
165 192 0
167 194 0
168 194 0
166 192 0
167 193 0
165 191 0
168 194 0
167 193 0
166 192 0
165 191 0
166 192 0
166 192 0
164 190 0
165 191 0
165 191 0
165 191 0
167 193 0
165 191 0
165 191 0
165 190 0
160 186 0
164 190 0
162 187 0
160 185 0
163 189 0
162 187 0
157 183 0
159 185 0
161 187 0
161 186 0
159 184 0
160 185 0
156 181 0
153 178 0
152 177 0
152 177 0
154 178 0
148 174 0
144 170 0
148 173 0
146 171 0
149 173 0
151 176 0
142 166 0
132 155 0
143 167 0
147 170 0
148 172 0
138 161 0
132 154 0
129 151 0
118 140 0
133 156 0
124 146 0
134 157 0
125 147 0
123 145 0
117 137 0
132 154 0
118 139 0
112 131 0
109 127 0
107 127 0
111 130 0
107 126 0
104 122 0
106 124 0
117 135 0
110 128 0
105 122 0
105 119 0
105 122 0
99 117 0
98 111 8
100 115 0
110 120 18
109 122 11
112 121 11
115 120 25
118 121 39
116 122 21
108 111 25
134 134 42
134 133 45
131 129 43
131 129 45
144 141 50
149 144 60
145 141 53
143 139 51
156 152 59
159 154 62
158 153 62
170 163 79
164 158 72
169 163 80
167 161 78
164 160 75
169 164 81
166 160 75
175 167 89
167 161 80
168 162 78
169 163 83
173 166 86
173 166 90
174 167 91
176 169 92
174 168 90
174 167 88
175 168 91
173 166 89
173 167 89
172 165 87
173 166 87
176 169 92
172 167 93
173 167 89
171 164 88
169 164 82
172 164 85
172 165 84
170 164 85
164 158 75
167 161 80
170 163 84
167 161 78
167 161 76
170 163 83
160 154 69
160 153 77
155 150 67
146 142 60
153 150 63
143 145 44
155 155 56
159 163 54
154 156 57
154 162 42
163 172 49
153 165 30
158 173 34
158 175 34
158 178 16
163 183 22
161 183 0
165 189 11
167 190 0
167 191 11
166 188 0
167 192 0
167 191 0
167 192 0
168 193 0
168 193 0
168 192 0
166 192 0
167 192 0
167 193 0
167 193 0
168 193 0
168 193 0
167 192 0
168 193 0
168 193 0
169 194 0
169 195 0
169 195 0
167 193 0
169 195 0
171 196 0
168 194 0
167 193 0
168 195 0
169 195 0
169 195 0
170 195 0
169 194 0
168 194 0
169 194 0
168 194 0
168 194 0
168 194 0
168 194 0
169 195 0
168 194 0
167 192 0
169 195 0
169 195 0
168 194 0
165 191 0
168 195 0
167 193 0
168 193 0
167 193 0
168 194 0
167 192 0
167 193 0
168 194 0
166 192 0
169 195 0
167 193 0
169 194 0
165 192 0
164 191 0
166 192 0
167 193 0
167 193 0
168 194 0
165 191 0
167 194 0
167 192 0
166 192 0
164 189 0
164 189 0
166 192 0
165 191 0
162 188 0
161 187 0
165 192 0
165 191 0
161 187 0
164 190 0
162 188 0
160 187 0
165 190 0
157 182 0
160 185 0
158 183 0
158 184 0
159 185 0
156 182 0
152 178 0
155 180 0
155 181 0
150 175 0
159 184 0
149 174 0
148 173 0
151 176 0
151 175 0
151 176 0
152 177 0
149 174 0
143 167 0
149 174 0
138 162 0
142 167 0
144 168 0
132 155 0
134 157 0
132 155 0
142 165 0
132 154 0
135 157 0
118 139 0
119 141 0
129 151 0
113 134 0
133 154 0
126 147 0
115 134 0
109 128 0
119 139 0
124 144 0
118 137 0
114 134 0
116 134 0
114 131 0
114 133 0
109 127 0
116 134 0
126 144 0
100 115 0
101 112 0
107 118 11
116 126 18
108 120 18
105 116 16
125 132 31
120 125 22
123 125 26
123 126 31
112 113 30
125 124 37
129 128 40
141 138 46
148 145 47
149 145 56
148 143 62
163 158 71
162 155 67
156 152 62
165 159 71
162 157 66
166 160 72
165 159 75
164 159 73
174 167 87
166 161 75
171 165 82
166 161 75
170 164 82
172 166 84
171 165 81
169 163 78
174 167 87
166 160 75
170 163 78
171 165 84
170 164 80
173 166 87
173 166 86
172 166 87
171 165 86
173 166 87
172 165 89
171 165 83
168 162 84
173 166 85
172 166 88
169 162 80
172 165 81
164 159 74
164 159 74
163 158 71
165 159 76
156 150 68
165 158 78
162 156 75
158 152 64
157 152 64
152 150 52
153 150 64
147 148 51
159 158 61
152 158 48
152 162 36
153 161 42
157 165 36
167 179 48
157 174 32
160 179 19
159 179 16
158 177 16
163 186 0
166 187 19
165 190 0
168 192 0
167 191 0
165 188 0
167 191 0
168 193 0
165 190 0
169 193 0
168 192 0
166 192 0
167 191 0
169 193 0
166 191 0
168 193 0
168 193 0
168 193 0
168 193 0
168 193 0
168 192 0
170 196 0
169 195 0
170 195 0
170 196 0
168 194 0
169 195 0
169 194 0
168 194 0
167 194 0
169 195 0
169 194 0
169 195 0
168 194 0
168 195 0
169 195 0
169 194 0
168 194 0
167 193 0
169 195 0
169 195 0
167 193 0
167 194 0
168 194 0
167 193 0
170 196 0
169 194 0
168 193 0
168 194 0
168 194 0
169 195 0
168 194 0
165 191 0
168 194 0
168 195 0
167 193 0
168 193 0
168 194 0
169 194 0
167 193 0
167 193 0
169 194 0
168 193 0
164 190 0
166 192 0
162 188 0
165 191 0
165 191 0
161 188 0
166 192 0
165 191 0
166 191 0
165 191 0
161 186 0
164 189 0
163 189 0
163 189 0
164 190 0
164 190 0
162 187 0
164 190 0
162 188 0
161 187 0
160 186 0
157 182 0
154 179 0
161 187 0
159 184 0
156 182 0
160 186 0
152 177 0
151 176 0
157 182 0
149 173 0
154 179 0
148 173 0
145 170 0
142 166 0
149 174 0
147 171 0
144 170 0
140 164 0
145 169 0
139 163 0
140 163 0
144 168 0
139 162 0
136 158 0
138 161 0
131 153 0
130 152 0
140 163 0
127 149 0
123 144 0
128 149 0
131 153 0
121 142 0
122 143 0
131 152 0
117 138 0
121 142 0
131 150 0
124 143 0
120 137 0
115 130 0
117 134 0
120 137 0
104 121 0
112 128 0
107 123 0
121 132 11
107 120 11
109 120 16
115 125 14
117 125 16
118 126 19
124 129 29
123 127 30
129 131 36
131 129 39
140 139 51
145 142 52
139 137 47
146 143 53
139 135 52
144 142 47
158 153 61
154 150 56
161 156 64
160 155 64
165 160 70
166 161 75
163 158 64
162 157 70
165 160 69
164 159 69
166 160 77
165 160 75
171 165 83
169 163 79
172 166 87
163 159 67
171 164 80
172 165 85
171 164 82
175 167 89
168 162 76
170 164 80
168 163 80
165 160 75
169 163 80
169 162 76
171 164 84
166 160 75
167 160 79
170 164 80
167 161 79
168 162 77
163 158 74
164 159 71
162 156 74
162 157 70
164 158 77
164 157 75
157 151 65
153 147 69
151 147 61
152 149 59
148 146 57
159 160 56
148 151 44
150 154 41
160 167 47
153 161 37
152 163 36
155 167 32
160 178 22
163 181 11
158 177 11
162 179 22
162 183 0
166 189 0
165 187 0
166 189 0
167 192 0
165 188 0
164 188 0
167 192 0
167 190 0
168 192 0
168 193 0
167 190 0
167 192 0
169 195 0
167 191 0
169 194 0
168 194 0
169 194 0
169 194 0
168 194 0
168 194 0
170 195 0
169 195 0
169 195 0
167 194 0
169 195 0
169 195 0
169 195 0
170 195 0
170 195 0
169 195 0
169 195 0
169 195 0
168 194 0
166 192 0
168 194 0
168 194 0
169 195 0
168 195 0
167 193 0
169 195 0
168 194 0
166 192 0
170 195 0
166 193 0
168 195 0
168 194 0
168 194 0
169 195 0
168 193 0
168 194 0
168 194 0
169 194 0
166 192 0
167 194 0
166 192 0
168 194 0
169 195 0
164 189 0
164 189 0
163 189 0
165 191 0
161 186 0
166 192 0
166 191 0
166 192 0
165 191 0
168 194 0
165 191 0
165 191 0
163 189 0
164 190 0
165 191 0
165 190 0
163 189 0
162 188 0
163 189 0
164 189 0
164 190 0
165 191 0
160 186 0
164 190 0
158 183 0
160 186 0
160 186 0
156 181 0
162 188 0
159 185 0
162 186 0
159 185 0
157 182 0
149 173 0
157 183 0
153 178 0
151 176 0
150 173 0
147 173 0
150 174 0
156 181 0
159 183 0
147 171 0
150 175 0
145 168 0
145 169 0
147 172 0
147 171 0
137 161 0
142 166 0
135 158 0
129 152 0
129 152 0
132 155 0
139 161 0
129 151 0
119 140 0
131 154 0
135 157 0
121 143 0
133 155 0
125 145 0
132 151 0
120 141 0
125 144 0
121 139 0
128 148 0
107 125 0
128 148 0
116 134 0
118 133 0
118 133 0
119 134 0
113 124 11
118 130 18
107 116 16
111 118 11
103 113 22
125 129 32
121 126 22
114 114 30
131 129 41
141 138 47
132 129 41
130 127 40
142 137 49
151 147 48
151 147 51
151 147 57
152 148 49
156 151 61
158 154 57
154 149 54
157 153 60
160 155 63
158 154 60
165 160 71
166 161 75
166 161 74
166 161 75
166 161 73
166 160 70
163 159 66
169 162 76
162 159 73
169 163 75
167 162 75
167 162 75
167 161 75
166 160 74
172 165 82
169 163 79
166 160 74
164 160 75
168 161 78
167 161 77
168 163 78
166 160 75
172 164 84
169 162 78
161 156 61
168 162 79
157 153 57
163 158 69
162 157 71
159 153 64
158 153 64
145 141 48
154 149 58
151 148 56
148 149 42
150 153 48
154 158 42
153 158 45
152 158 39
143 150 34
157 170 32
157 173 16
157 172 30
156 174 22
158 175 19
165 186 11
161 183 11
161 184 0
165 189 0
167 188 0
167 192 0
166 190 0
166 189 0
164 187 0
167 190 0
166 191 0
166 190 0
166 191 0
169 193 0
167 191 0
168 193 0
168 192 0
167 192 0
169 194 0
167 191 0
168 194 0
167 192 0
169 194 0
170 195 0
169 195 0
169 195 0
169 195 0
168 193 0
170 195 0
169 195 0
169 195 0
168 194 0
168 194 0
169 195 0
167 193 0
169 195 0
170 196 0
169 195 0
169 194 0
170 195 0
168 194 0
170 195 0
168 194 0
169 195 0
169 194 0
168 194 0
168 194 0
168 194 0
169 195 0
168 194 0
168 194 0
170 195 0
168 194 0
167 193 0
168 194 0
168 193 0
166 192 0
169 194 0
167 193 0
166 192 0
166 191 0
166 192 0
169 194 0
167 192 0
166 192 0
165 191 0
165 192 0
164 190 0
165 191 0
168 194 0
165 191 0
164 189 0
164 190 0
166 193 0
166 191 0
161 187 0
164 190 0
164 190 0
162 188 0
159 185 0
164 190 0
165 190 0
160 185 0
165 191 0
159 184 0
163 189 0
160 186 0
155 180 0
159 185 0
158 184 0
157 182 0
159 184 0
158 182 0
154 179 0
151 175 0
158 184 0
148 174 0
156 180 0
157 181 0
149 173 0
150 175 0
136 160 0
150 175 0
141 165 0
151 175 0
144 167 0
144 168 0
140 163 0
141 164 0
147 170 0
143 167 0
140 164 0
140 163 0
136 160 0
132 154 0
141 163 0
126 148 0
140 162 0
128 150 0
131 152 0
133 154 0
130 150 0
127 146 0
126 144 0
127 147 0
127 145 0
116 134 0
129 147 0
127 143 0
117 133 0
122 136 0
118 136 0
113 126 11
120 133 0
117 129 16
123 133 19
126 132 21
128 135 22
124 128 22
130 132 25
133 133 37
129 130 33
131 132 25
134 132 37
144 140 44
148 145 48
145 141 46
149 145 53
147 142 51
156 151 61
160 155 62
157 152 58
159 154 60
161 155 58
165 159 69
167 161 75
166 161 72
162 157 69
165 160 74
162 157 68
164 159 67
161 157 68
165 160 66
168 161 78
168 162 72
170 163 81
170 164 78
170 164 80
166 160 75
167 162 72
166 160 72
164 159 68
167 161 77
163 158 69
167 161 77
172 164 80
163 159 62
165 160 70
166 160 69
164 159 72
166 160 75
158 153 65
168 162 69
152 148 58
151 146 58
149 145 56
147 143 53
156 155 56
151 150 49
156 155 57
160 161 56
150 156 39
150 157 45
161 168 48
154 168 25
157 169 30
160 173 28
153 167 25
157 174 19
157 176 11
162 180 11
164 184 16
161 183 0
165 189 0
165 189 0
167 190 0
166 190 0
165 189 0
165 188 0
165 190 0
169 192 0
167 191 0
166 188 0
169 194 0
169 193 0
168 193 0
169 194 0
169 194 0
168 193 0
168 193 0
169 195 0
169 194 0
170 195 0
168 194 0
167 194 0
169 194 0
169 194 0
169 195 0
169 195 0
169 195 0
169 195 0
169 195 0
170 195 0
169 195 0
169 194 0
167 193 0
167 193 0
169 195 0
170 195 0
170 195 0
169 195 0
169 195 0
168 194 0
168 195 0
168 194 0
167 194 0
167 193 0
169 195 0
167 194 0
168 194 0
168 194 0
169 194 0
169 194 0
170 195 0
168 194 0
168 194 0
169 194 0
168 193 0
170 195 0
166 192 0
168 194 0
168 194 0
168 194 0
166 192 0
165 191 0
165 191 0
168 194 0
168 194 0
164 190 0
168 194 0
167 192 0
166 192 0
163 189 0
166 193 0
164 191 0
167 192 0
163 188 0
165 191 0
163 189 0
162 187 0
161 186 0
161 186 0
164 190 0
168 192 0
161 186 0
163 188 0
165 190 0
157 183 0
155 181 0
159 185 0
156 181 0
156 181 0
154 179 0
152 177 0
161 187 0
158 183 0
157 183 0
154 180 0
152 177 0
154 178 0
151 176 0
151 176 0
149 173 0
147 171 0
152 176 0
154 179 0
144 168 0
145 167 0
141 163 0
142 165 0
135 159 0
139 162 0
140 163 0
141 164 0
130 153 0
142 165 0
130 152 0
136 157 0
123 144 0
133 155 0
128 147 0
128 150 0
142 163 0
136 157 0
132 151 0
134 153 0
129 150 0
123 142 0
125 140 0
119 137 0
121 137 0
121 134 11
119 132 0
124 139 0
125 135 0
129 139 19
115 122 19
126 133 21
122 127 30
129 133 34
116 116 28
131 131 30
125 125 29
130 129 28
137 135 32
133 129 34
148 144 48
149 145 48
148 144 53
151 147 52
145 140 51
154 148 56
155 151 53
163 157 64
154 151 52
161 155 63
159 154 63
167 160 69
160 156 58
161 156 62
164 157 75
162 156 70
166 160 75
165 159 74
167 161 70
165 159 72
167 162 74
165 159 74
164 158 67
164 159 71
166 161 73
165 160 69
162 158 61
162 157 67
165 160 70
166 161 71
156 151 63
165 159 75
159 155 62
167 160 74
155 150 58
159 154 67
151 146 58
159 153 61
154 152 52
150 148 54
150 150 47
147 147 48
156 157 51
152 154 37
151 153 47
153 159 42
158 163 47
155 165 36
152 163 22
154 167 32
162 178 22
158 175 16
156 173 11
162 182 19
161 178 16
163 184 19
164 189 0
166 189 0
165 188 0
164 186 0
166 189 0
167 191 0
166 189 0
169 194 0
167 190 0
167 192 0
166 191 0
167 192 0
167 192 0
168 193 0
167 192 0
169 194 0
168 193 0
167 192 0
168 193 0
167 193 0
169 195 0
169 195 0
169 195 0
168 194 0
168 194 0
169 195 0
169 195 0
169 195 0
169 194 0
167 194 0
169 195 0
170 195 0
168 194 0
169 195 0
167 194 0
170 195 0
169 195 0
168 194 0
168 194 0
169 195 0
169 195 0
168 194 0
168 194 0
168 194 0
168 194 0
166 192 0
168 194 0
169 195 0
168 194 0
168 194 0
168 194 0
169 195 0
168 193 0
169 194 0
168 194 0
168 194 0
167 192 0
166 192 0
167 193 0
168 194 0
167 193 0
167 193 0
167 193 0
170 195 0
165 190 0
168 194 0
167 193 0
164 190 0
163 190 0
165 192 0
164 190 0
163 189 0
166 192 0
165 191 0
163 189 0
166 191 0
162 187 0
165 190 0
159 184 0
161 187 0
163 189 0
160 185 0
161 186 0
160 186 0
160 185 0
159 184 0
160 186 0
157 182 0
160 185 0
156 181 0
155 181 0
160 186 0
156 180 0
150 175 0
161 187 0
153 179 0
149 174 0
155 180 0
153 178 0
154 178 0
151 176 0
152 176 0
153 176 0
152 177 0
144 168 0
153 177 0
137 161 0
148 173 0
148 173 0
137 161 0
141 164 0
141 165 0
143 164 0
141 162 0
139 160 0
139 160 0
131 152 0
141 163 0
139 160 0
129 149 0
134 155 0
132 152 0
126 144 0
132 150 0
133 150 0
130 147 0
127 144 0
117 133 0
128 143 0
121 139 0
119 133 0
126 137 0
126 139 11
122 133 11
123 133 18
127 135 11
136 141 19
120 124 16
124 125 19
131 130 32
134 134 32
130 129 25
135 136 30
136 133 34
137 134 37
146 141 45
142 138 39
146 141 45
153 150 52
151 147 54
153 148 51
153 149 56
157 152 59
151 147 51
157 153 54
159 154 62
156 151 57
162 157 64
162 157 64
168 161 74
157 153 54
161 156 62
163 159 65
164 159 65
165 159 72
167 161 74
161 156 63
158 154 65
163 157 69
161 156 62
164 158 68
161 156 63
163 157 66
162 156 67
164 158 68
162 156 68
158 153 66
157 152 61
157 151 62
156 151 64
157 153 61
150 146 52
151 146 57
148 146 53
145 144 41
144 142 39
149 151 41
151 153 41
152 156 39
156 162 37
154 162 32
152 163 30
153 167 28
160 176 19
159 172 0
159 174 22
160 176 19
162 179 11
162 182 0
164 185 0
161 184 0
163 186 0
166 189 0
164 187 0
167 190 0
168 191 0
167 190 0
166 191 0
166 191 0
167 192 0
167 191 0
166 192 0
168 193 0
167 193 0
166 191 0
168 192 0
169 194 0
167 192 0
169 194 0
167 193 0
170 195 0
169 195 0
169 195 0
169 195 0
169 195 0
168 195 0
169 195 0
168 194 0
169 195 0
169 195 0
168 194 0
169 195 0
168 194 0
170 195 0
170 195 0
170 195 0
168 194 0
168 194 0
167 193 0
168 195 0
169 194 0
168 194 0
166 192 0
168 194 0
169 194 0
167 193 0
167 193 0
168 194 0
167 193 0
168 194 0
169 195 0
166 192 0
168 194 0
169 195 0
168 195 0
169 194 0
168 194 0
168 194 0
167 193 0
167 192 0
165 191 0
165 191 0
167 193 0
170 195 0
166 193 0
167 192 0
165 191 0
163 188 0
168 194 0
166 192 0
164 190 0
165 190 0
165 190 0
164 189 0
164 190 0
165 190 0
166 192 0
161 187 0
165 191 0
165 190 0
163 189 0
163 188 0
165 191 0
159 185 0
160 185 0
159 184 0
158 183 0
162 188 0
159 185 0
163 188 0
161 185 0
154 178 0
156 181 0
163 188 0
157 182 0
158 183 0
157 181 0
154 179 0
153 178 0
149 173 0
153 177 0
156 180 0
147 171 0
144 168 0
152 175 0
147 171 0
147 170 0
145 169 0
148 171 0
146 171 0
139 163 0
145 168 0
147 170 0
137 160 0
145 166 0
144 165 0
146 169 0
132 154 0
136 157 0
135 155 0
137 156 0
130 148 0
134 152 0
127 146 0
137 154 0
136 156 0
132 151 0
137 156 0
136 153 0
138 156 0
133 146 0
125 139 0
115 126 0
122 135 11
119 125 16
121 128 14
122 133 16
126 132 8
131 135 31
118 120 28
127 127 22
123 123 25
132 129 32
134 129 42
140 137 36
137 136 30
143 139 42
148 144 52
142 137 36
151 146 41
154 150 53
151 148 49
156 152 51
154 149 48
156 151 56
160 155 58
152 148 49
158 154 56
163 158 59
162 156 63
161 156 60
163 157 65
163 157 71
159 154 59
161 156 61
163 158 63
161 156 59
158 153 61
162 156 65
165 158 71
159 155 65
157 152 61
165 159 69
160 156 61
159 154 64
157 153 58
158 152 60
154 150 51
152 147 53
154 148 63
152 149 54
145 141 49
155 153 56
150 147 53
156 155 51
153 153 48
151 150 51
152 157 32
150 154 34
151 158 32
150 160 30
151 163 25
161 172 34
151 164 16
162 179 19
160 177 19
164 180 25
161 180 0
160 180 0
164 185 0
168 191 0
163 183 0
164 187 0
166 190 0
164 187 0
167 191 0
163 186 0
166 189 0
165 189 0
166 190 0
167 191 0
167 193 0
168 192 0
168 193 0
163 188 0
168 193 0
169 195 0
169 193 0
168 193 0
167 192 0
167 193 0
170 195 0
168 194 0
168 194 0
169 195 0
168 194 0
169 195 0
168 193 0
169 195 0
169 194 0
168 194 0
168 194 0
169 195 0
169 195 0
168 194 0
170 195 0
167 193 0
169 194 0
168 194 0
168 194 0
167 193 0
169 195 0
166 192 0
169 195 0
168 194 0
169 195 0
166 192 0
168 194 0
167 193 0
167 193 0
166 192 0
167 193 0
168 193 0
166 192 0
168 194 0
167 193 0
168 194 0
169 195 0
168 194 0
167 193 0
166 192 0
169 195 0
168 193 0
167 193 0
167 193 0
169 194 0
168 194 0
164 190 0
169 194 0
167 193 0
168 193 0
167 193 0
165 191 0
168 193 0
164 190 0
163 187 0
162 188 0
164 189 0
165 190 0
164 190 0
162 188 0
164 191 0
163 189 0
162 187 0
161 187 0
161 186 0
163 188 0
161 187 0
159 184 0
162 188 0
163 188 0
160 186 0
158 182 0
158 183 0
158 183 0
154 179 0
159 184 0
160 185 0
157 181 0
160 185 0
154 179 0
156 181 0
158 181 0
157 181 0
151 176 0
152 177 0
140 164 0
151 175 0
151 175 0
143 166 0
147 170 0
143 166 0
144 168 0
136 159 0
144 167 0
129 152 0
140 163 0
142 164 0
143 162 0
139 160 0
139 160 0
133 150 0
138 156 0
135 155 0
135 152 0
136 154 0
146 165 0
131 149 0
146 164 0
128 145 0
130 146 0
129 143 8
130 141 8
130 140 0
132 141 16
124 131 16
132 137 19
131 135 22
128 133 11
129 132 19
131 132 25
129 127 19
129 130 28
140 139 32
139 136 44
136 132 34
144 138 45
145 142 42
149 145 45
144 141 28
154 149 52
155 148 56
149 145 39
156 151 49
153 149 51
154 149 52
150 146 39
151 147 49
155 151 49
155 151 47
158 153 59
159 154 62
158 153 60
160 154 60
158 153 59
161 156 62
162 157 68
162 156 67
158 154 57
162 156 63
154 149 57
155 152 52
156 151 53
162 156 66
155 151 58
151 147 49
156 150 54
150 146 53
159 154 60
151 147 52
156 151 56
143 140 45
156 152 59
153 150 49
147 149 34
146 145 47
148 153 37
148 152 37
148 154 32
153 160 37
155 167 25
154 165 28
151 166 22
156 167 30
153 168 11
158 176 11
164 184 11
163 183 11
163 183 0
165 186 0
165 188 0
167 189 0
166 189 0
166 189 0
165 188 0
166 189 0
163 187 0
165 188 0
168 192 0
164 187 0
165 190 0
169 193 0
167 191 0
168 193 0
168 193 0
169 193 0
168 192 0
167 193 0
166 191 0
168 192 0
169 195 0
168 194 0
169 195 0
169 195 0
168 194 0
169 195 0
168 195 0
170 195 0
169 195 0
168 194 0
167 193 0
169 195 0
167 193 0
168 195 0
169 195 0
169 195 0
168 194 0
168 194 0
167 193 0
170 195 0
169 195 0
167 193 0
165 191 0
170 195 0
169 195 0
168 194 0
168 194 0
168 195 0
166 192 0
168 193 0
166 191 0
168 194 0
169 195 0
165 191 0
166 192 0
169 194 0
167 193 0
168 194 0
168 194 0
166 192 0
167 193 0
167 193 0
169 194 0
169 194 0
166 192 0
167 193 0
162 188 0
169 194 0
169 195 0
166 191 0
165 191 0
167 193 0
163 190 0
167 192 0
167 193 0
163 189 0
164 190 0
162 187 0
167 193 0
161 186 0
164 190 0
162 188 0
163 188 0
162 188 0
164 190 0
160 186 0
162 187 0
159 184 0
162 188 0
158 183 0
161 186 0
158 183 0
162 187 0
160 186 0
154 179 0
155 180 0
161 187 0
160 184 0
157 182 0
152 176 0
154 179 0
157 183 0
156 180 0
147 171 0
152 176 0
157 181 0
153 176 0
150 174 0
154 177 0
150 175 0
153 178 0
142 165 0
150 173 0
149 171 0
142 165 0
146 168 0
148 170 0
142 163 0
141 162 0
142 161 0
143 164 0
138 160 0
136 156 0
136 158 0
137 156 0
134 152 0
132 149 0
142 161 0
136 153 0
139 156 0
139 157 0
126 139 0
133 149 0
128 140 0
131 141 16
129 137 11
121 130 16
133 140 11
129 136 16
132 136 16
123 125 25
128 129 28
123 124 22
131 132 22
139 137 36
134 131 31
137 134 36
142 138 42
144 140 39
145 142 47
143 141 36
142 140 22
150 145 45
153 149 45
149 146 39
152 147 48
153 147 53
152 148 51
154 149 52
151 148 45
152 148 52
153 150 53
156 152 53
158 153 56
158 153 57
155 151 52
156 152 58
156 152 51
156 152 57
157 152 58
152 148 48
160 154 56
153 148 51
153 149 47
155 150 49
152 146 53
152 148 54
148 144 44
151 147 52
152 148 48
150 147 49
157 154 48
149 147 37
148 147 44
153 155 36
145 148 28
141 147 22
154 162 34
147 153 22
152 159 32
148 158 22
153 164 22
157 173 19
159 173 25
159 177 16
160 178 11
158 178 11
161 181 0
165 187 0
164 185 0
164 186 0
166 188 0
165 187 0
167 190 0
165 187 0
165 188 0
168 191 0
168 192 0
166 188 0
165 191 0
166 191 0
167 191 0
167 191 0
168 192 0
170 194 0
167 192 0
167 192 0
168 193 0
169 193 0
169 194 0
169 195 0
169 195 0
169 195 0
169 195 0
170 196 0
169 195 0
170 195 0
170 195 0
169 195 0
169 195 0
170 195 0
167 193 0
169 195 0
169 194 0
169 195 0
168 194 0
169 194 0
169 195 0
168 193 0
168 194 0
168 194 0
169 194 0
169 195 0
168 194 0
168 194 0
168 194 0
169 195 0
168 194 0
167 193 0
168 194 0
168 194 0
166 192 0
169 195 0
165 191 0
169 194 0
169 195 0
169 195 0
166 192 0
167 193 0
168 193 0
166 192 0
166 192 0
167 193 0
164 189 0
166 192 0
164 190 0
167 193 0
165 191 0
166 192 0
168 194 0
168 194 0
165 191 0
166 191 0
167 193 0
168 194 0
165 191 0
163 187 0
165 190 0
164 190 0
166 191 0
164 190 0
164 189 0
165 191 0
164 190 0
161 187 0
156 182 0
163 188 0
158 183 0
163 189 0
158 183 0
158 183 0
162 188 0
164 189 0
163 188 0
157 182 0
156 182 0
157 182 0
153 178 0
156 181 0
151 176 0
155 180 0
150 176 0
159 184 0
150 176 0
157 179 0
152 176 0
157 180 0
146 169 0
143 167 0
145 169 0
147 170 0
150 173 0
146 171 0
143 166 0
145 168 0
148 171 0
147 170 0
144 167 0
153 176 0
151 174 0
147 168 0
148 170 0
135 156 0
142 163 0
143 163 0
135 152 0
133 151 0
141 160 0
146 164 0
138 154 0
138 152 0
142 156 0
142 158 0
137 150 0
133 145 0
139 149 11
127 136 11
130 135 11
130 135 0
131 133 19
128 129 19
132 131 19
130 129 16
129 129 28
135 132 22
134 130 36
129 126 30
143 139 37
139 134 32
139 136 34
142 139 36
145 141 41
151 147 47
145 142 32
146 140 44
149 145 42
151 148 49
153 149 52
152 148 47
149 144 48
154 151 47
153 150 47
157 152 54
158 154 51
160 155 60
156 152 52
154 150 44
161 155 60
153 147 57
152 148 45
147 143 42
151 147 42
156 152 52
150 146 51
151 147 48
146 142 41
150 145 49
151 147 42
146 142 39
148 144 47
147 143 39
148 146 41
143 141 34
156 158 41
151 153 37
152 156 36
154 157 39
154 162 22
145 153 22
155 164 32
155 164 19
158 172 19
157 173 0
161 173 16
160 177 16
160 177 11
160 176 0
162 181 0
166 187 0
162 184 0
165 188 0
164 183 0
163 185 0
165 189 0
164 187 0
166 190 0
168 190 0
166 188 0
166 190 0
168 193 0
166 190 0
165 189 0
168 190 0
167 193 0
169 194 0
168 193 0
166 191 0
168 194 0
167 192 0
167 193 0
168 194 0
168 194 0
169 195 0
170 195 0
168 194 0
169 195 0
168 194 0
170 195 0
166 192 0
169 195 0
169 194 0
168 195 0
169 194 0
168 194 0
169 195 0
170 195 0
170 196 0
169 195 0
169 194 0
169 195 0
168 193 0
169 194 0
167 193 0
170 195 0
167 194 0
169 195 0
168 194 0
167 193 0
168 193 0
167 193 0
167 193 0
166 192 0
166 192 0
168 194 0
169 194 0
166 192 0
167 194 0
164 190 0
168 194 0
168 195 0
167 193 0
168 193 0
166 192 0
164 190 0
165 191 0
167 193 0
167 193 0
164 190 0
163 189 0
166 192 0
167 193 0
164 190 0
167 192 0
165 191 0
164 190 0
167 193 0
162 188 0
163 189 0
164 189 0
165 190 0
165 191 0
164 190 0
163 189 0
162 188 0
165 191 0
164 189 0
164 189 0
161 187 0
167 193 0
163 188 0
159 185 0
160 185 0
160 185 0
164 190 0
160 185 0
154 179 0
162 187 0
155 180 0
160 186 0
155 180 0
157 182 0
156 180 0
152 177 0
154 178 0
157 183 0
157 182 0
154 178 0
156 179 0
151 175 0
151 176 0
153 176 0
144 167 0
153 177 0
153 175 0
152 175 0
154 177 0
144 166 0
144 165 0
150 170 0
148 169 0
147 168 0
146 166 0
140 160 0
138 157 0
139 155 0
142 164 0
139 157 0
149 166 0
139 159 0
138 154 0
141 159 0
140 154 0
132 145 0
138 152 0
135 144 11
137 144 11
130 139 11
131 142 11
128 130 22
121 125 0
127 127 19
128 129 11
127 128 16
128 129 25
120 118 16
137 136 19
136 132 34
132 129 22
132 129 19
139 135 34
142 139 36
137 133 32
140 135 36
145 141 41
150 145 45
140 136 25
147 142 41
145 141 37
151 147 37
148 143 42
150 144 45
149 143 49
152 148 52
150 145 49
155 151 42
152 148 45
147 141 37
152 147 44
150 145 49
154 150 48
147 144 41
153 148 53
148 144 52
147 143 32
151 145 49
146 142 41
142 137 42
145 141 37
146 145 37
144 141 34
144 143 39
152 152 47
146 144 28
151 152 28
153 157 30
146 152 25
144 147 25
155 160 30
149 157 22
149 159 22
155 164 25
157 170 16
156 169 16
153 170 0
160 175 0
159 177 0
160 178 0
160 177 0
161 183 0
166 187 0
164 187 0
166 190 0
161 184 0
168 191 0
168 191 0
166 189 0
165 187 0
166 189 0
168 191 0
167 190 0
166 191 0
168 192 0
168 192 0
167 190 0
167 192 0
169 193 0
167 193 0
168 192 0
168 192 0
169 194 0
168 195 0
168 195 0
168 194 0
169 195 0
168 194 0
169 195 0
169 195 0
169 195 0
167 194 0
167 194 0
167 192 0
168 194 0
169 195 0
170 196 0
168 194 0
168 194 0
167 193 0
168 193 0
168 194 0
169 195 0
167 194 0
168 194 0
169 194 0
168 194 0
168 194 0
169 195 0
167 194 0
168 194 0
170 195 0
169 195 0
167 193 0
168 193 0
169 194 0
167 193 0
169 194 0
165 191 0
166 192 0
168 194 0
168 194 0
168 193 0
169 194 0
168 193 0
168 193 0
166 192 0
167 192 0
168 194 0
165 191 0
167 192 0
169 195 0
164 190 0
165 192 0
165 190 0
166 192 0
166 192 0
165 191 0
159 184 0
164 190 0
164 190 0
167 193 0
160 185 0
167 193 0
166 192 0
163 188 0
165 191 0
164 190 0
163 188 0
167 192 0
160 186 0
164 189 0
164 190 0
164 190 0
158 183 0
160 185 0
158 183 0
158 183 0
161 187 0
159 184 0
157 182 0
162 187 0
161 186 0
162 188 0
156 181 0
156 179 0
158 183 0
158 182 0
151 175 0
156 180 0
156 180 0
157 181 0
147 171 0
147 171 0
150 174 0
152 176 0
150 174 0
150 172 0
153 178 0
146 170 0
152 174 0
150 173 0
155 176 0
149 170 0
143 162 0
154 175 0
145 166 0
146 166 0
137 156 0
146 163 0
139 156 0
139 154 0
141 157 0
147 164 0
135 151 0
139 153 0
136 149 0
132 140 0
146 159 0
126 134 0
130 135 0
135 142 19
128 134 0
131 134 11
131 135 16
132 132 16
129 132 11
133 132 32
127 123 19
127 124 30
136 131 25
136 134 25
135 131 22
136 132 25
135 133 22
143 138 37
140 137 36
143 138 32
147 143 45
141 138 28
142 137 48
143 139 39
145 142 30
143 138 36
147 143 37
149 145 36
145 142 42
143 138 37
150 146 42
148 142 48
143 138 37
150 147 48
144 138 30
150 146 44
143 138 37
153 147 48
147 142 48
148 143 49
144 141 37
151 146 48
142 139 34
147 146 37
145 144 37
140 138 32
144 144 30
144 146 32
144 148 22
142 141 36
151 155 32
146 151 25
148 155 19
148 159 25
152 163 19
154 164 22
154 168 16
151 166 0
157 172 0
164 183 0
162 179 16
161 180 0
165 185 0
163 182 0
164 183 0
162 184 0
164 185 0
162 185 0
166 188 0
164 187 0
166 188 0
168 193 0
166 190 0
164 186 0
167 191 0
166 190 0
165 189 0
169 193 0
167 192 0
167 192 0
167 192 0
169 193 0
168 192 0
169 193 0
167 192 0
169 195 0
169 195 0
169 195 0
168 194 0
168 194 0
169 195 0
169 195 0
169 195 0
169 195 0
169 194 0
170 195 0
167 193 0
169 195 0
169 195 0
169 195 0
169 195 0
169 194 0
170 195 0
170 195 0
166 192 0
168 193 0
170 195 0
168 194 0
169 194 0
168 194 0
168 194 0
168 194 0
169 194 0
170 195 0
168 194 0
169 194 0
169 195 0
168 194 0
168 194 0
167 193 0
167 193 0
167 193 0
167 193 0
169 194 0
166 192 0
167 193 0
167 193 0
167 193 0
168 195 0
167 192 0
167 193 0
165 191 0
167 193 0
167 192 0
168 194 0
164 190 0
165 191 0
166 192 0
169 194 0
167 193 0
167 193 0
167 192 0
167 193 0
163 190 0
167 193 0
163 189 0
161 187 0
166 191 0
165 191 0
164 190 0
164 190 0
161 187 0
159 185 0
160 186 0
163 189 0
162 187 0
163 188 0
156 182 0
161 187 0
158 183 0
160 185 0
159 183 0
161 185 0
155 180 0
156 180 0
162 187 0
157 182 0
159 183 0
156 180 0
158 182 0
158 182 0
155 180 0
157 179 0
156 180 0
160 185 0
150 174 0
153 176 0
151 174 0
157 181 0
158 183 0
152 176 0
146 168 0
148 170 0
152 173 0
144 165 0
144 166 0
148 168 0
150 172 0
149 170 0
149 169 0
142 161 0
145 160 0
136 155 0
143 163 0
140 155 0
138 154 0
142 157 0
140 153 0
139 153 11
137 148 0
139 152 0
133 140 0
131 138 0
136 142 0
137 143 16
128 134 16
132 135 11
129 133 19
127 128 19
127 127 16
135 134 11
125 121 19
134 131 25
122 119 25
136 132 36
138 134 19
139 133 32
141 135 32
140 135 32
142 137 37
144 141 32
143 138 30
146 140 41
143 136 39
146 141 37
143 137 36
149 144 49
154 149 41
145 142 32
144 139 32
138 132 32
148 142 51
149 145 39
147 143 41
144 141 39
141 137 37
145 140 41
144 139 34
143 138 48
140 136 42
142 138 39
145 141 41
148 145 44
139 136 37
143 140 32
143 144 22
142 142 11
145 147 28
145 148 36
144 150 28
147 152 30
150 156 22
155 166 19
151 161 16
153 164 16
154 166 11
157 173 0
157 173 0
159 175 16
160 178 0
162 180 0
162 182 0
163 182 0
164 184 0
162 183 0
162 182 0
166 187 0
163 182 0
162 183 0
165 188 0
165 190 0
167 191 0
168 190 0
168 191 0
166 190 0
166 188 0
167 191 0
166 189 0
167 191 0
168 193 0
168 193 0
166 191 0
167 192 0
167 192 0
168 192 0
169 195 0
168 194 0
168 194 0
169 195 0
169 195 0
169 195 0
169 195 0
169 195 0
170 195 0
168 194 0
168 194 0
168 195 0
168 195 0
169 194 0
169 195 0
170 196 0
167 194 0
169 195 0
169 195 0
169 194 0
167 193 0
169 194 0
167 192 0
169 195 0
169 194 0
169 195 0
168 194 0
169 195 0
168 194 0
170 195 0
168 194 0
170 196 0
167 193 0
167 193 0
167 193 0
168 194 0
169 194 0
170 196 0
166 192 0
168 194 0
168 194 0
168 193 0
168 194 0
167 193 0
166 192 0
166 191 0
168 193 0
166 192 0
165 192 0
169 194 0
168 194 0
166 192 0
164 189 0
165 191 0
167 192 0
165 191 0
162 188 0
161 187 0
166 191 0
166 191 0
167 193 0
167 192 0
165 191 0
168 193 0
164 190 0
164 189 0
163 189 0
162 187 0
163 188 0
163 188 0
165 190 0
163 188 0
161 187 0
163 188 0
162 187 0
159 184 0
157 181 0
159 184 0
157 182 0
161 186 0
158 183 0
158 183 0
151 176 0
158 183 0
155 180 0
155 180 0
161 186 0
159 183 0
154 180 0
155 180 0
157 182 0
155 178 0
157 181 0
156 180 0
153 176 0
155 177 0
154 177 0
152 175 0
154 177 0
150 172 0
150 171 0
147 168 0
148 168 0
149 169 0
156 176 0
146 166 0
151 171 0
150 167 0
148 167 0
154 172 0
143 161 0
147 163 0
148 165 0
142 156 0
139 151 0
139 151 0
138 149 0
142 149 0
137 145 0
142 149 0
138 144 11
125 128 16
135 139 0
135 138 19
126 126 11
131 131 19
132 128 11
131 130 11
134 132 16
133 130 22
132 129 16
137 134 22
130 125 19
138 133 30
143 139 28
133 127 30
136 132 28
145 142 32
131 125 28
142 135 39
147 141 34
146 140 42
135 132 28
141 136 25
139 136 32
143 138 32
147 141 45
140 135 25
139 134 28
142 138 30
142 136 37
135 131 30
144 138 34
147 143 36
142 139 30
141 136 36
138 133 30
141 142 30
141 139 39
139 138 28
145 146 37
147 148 32
141 143 19
141 145 16
144 149 16
143 150 22
155 162 16
150 157 22
155 167 0
156 169 16
156 169 19
152 167 11
161 176 11
159 175 11
157 174 0
164 181 0
161 180 0
162 182 0
165 185 0
163 184 0
165 187 0
168 189 0
164 185 0
166 189 0
166 187 0
165 188 0
167 189 0
166 188 0
167 191 0
167 190 0
166 189 0
167 192 0
168 191 0
167 191 0
166 190 0
168 192 0
166 189 0
166 190 0
166 189 0
166 191 0
