P3
200 100
255
206 227 255
206 227 255
205 227 255
205 227 255
205 227 255
205 227 255
205 227 255
205 226 255
205 226 255
205 226 255
204 226 255
204 226 255
204 226 255
204 226 255
204 226 255
204 226 255
204 226 255
204 226 255
203 226 255
203 226 255
203 226 255
203 226 255
203 225 255
203 225 255
203 225 255
203 225 255
202 225 255
202 225 255
202 225 255
202 225 255
202 225 255
202 225 255
202 225 255
201 225 255
201 225 255
201 224 255
201 224 255
201 224 255
201 224 255
201 224 255
200 224 255
200 224 255
200 224 255
200 224 255
200 224 255
200 224 255
199 224 255
199 223 255
199 223 255
199 223 255
199 223 255
199 223 255
198 223 255
198 223 255
198 223 255
198 223 255
198 223 255
198 223 255
198 223 255
197 222 255
197 222 255
197 222 255
197 222 255
197 222 255
197 222 255
196 222 255
196 222 255
196 222 255
196 222 255
196 222 255
196 222 255
196 222 255
195 221 255
195 221 255
195 221 255
195 221 255
195 221 255
195 221 255
195 221 255
195 221 255
195 221 255
194 221 255
194 221 255
194 221 255
194 221 255
194 221 255
194 221 255
194 221 255
194 221 255
194 221 255
194 221 255
194 220 255
194 220 255
194 220 255
194 220 255
194 220 255
194 220 255
193 220 255
193 220 255
193 220 255
193 220 255
193 220 255
193 220 255
193 220 255
194 220 255
194 220 255
194 220 255
194 220 255
194 220 255
194 221 255
194 221 255
194 221 255
194 221 255
194 221 255
194 221 255
194 221 255
194 221 255
194 221 255
194 221 255
195 221 255
195 221 255
195 221 255
195 221 255
195 221 255
195 221 255
195 221 255
195 221 255
195 221 255
196 222 255
196 222 255
196 222 255
196 222 255
196 222 255
196 222 255
196 222 255
197 222 255
197 222 255
197 222 255
197 222 255
197 222 255
197 222 255
198 223 255
198 223 255
198 223 255
198 223 255
198 223 255
198 223 255
198 223 255
199 223 255
199 223 255
199 223 255
199 223 255
199 223 255
199 224 255
200 224 255
200 224 255
200 224 255
200 224 255
200 224 255
200 224 255
201 224 255
201 224 255
201 224 255
201 224 255
201 224 255
201 225 255
201 225 255
202 225 255
202 225 255
202 225 255
202 225 255
202 225 255
202 225 255
202 225 255
203 225 255
203 225 255
203 225 255
203 225 255
203 226 255
203 226 255
203 226 255
204 226 255
204 226 255
204 226 255
204 226 255
204 226 255
204 226 255
204 226 255
204 226 255
204 226 255
205 226 255
205 226 255
205 226 255
205 227 255
205 227 255
205 227 255
205 227 255
205 227 255
206 227 255
206 227 255
206 227 255
206 227 255
206 227 255
206 227 255
205 227 255
205 227 255
205 227 255
205 227 255
205 227 255
205 226 255
205 226 255
205 226 255
205 226 255
204 226 255
204 226 255
204 226 255
204 226 255
204 226 255
204 226 255
204 226 255
204 226 255
203 226 255
203 226 255
203 226 255
203 225 255
203 225 255
203 225 255
203 225 255
202 225 255
202 225 255
202 225 255
202 225 255
202 225 255
202 225 255
202 225 255
201 225 255
201 225 255
201 224 255
201 224 255
201 224 255
201 224 255
201 224 255
200 224 255
200 224 255
200 224 255
200 224 255
200 224 255
200 224 255
199 224 255
199 223 255
199 223 255
199 223 255
199 223 255
199 223 255
198 223 255
198 223 255
198 223 255
198 223 255
198 223 255
198 223 255
198 223 255
197 222 255
197 222 255
197 222 255
197 222 255
197 222 255
197 222 255
196 222 255
196 222 255
196 222 255
196 222 255
196 222 255
196 222 255
196 222 255
196 221 255
195 221 255
195 221 255
195 221 255
195 221 255
195 221 255
195 221 255
195 221 255
195 221 255
195 221 255
194 221 255
194 221 255
194 221 255
194 221 255
194 221 255
194 221 255
194 221 255
194 221 255
194 221 255
194 221 255
194 221 255
194 221 255
194 221 255
194 221 255
194 221 255
194 221 255
194 221 255
194 221 255
194 221 255
194 221 255
194 221 255
194 221 255
194 221 255
194 221 255
194 221 255
194 221 255
194 221 255
194 221 255
194 221 255
194 221 255
194 221 255
194 221 255
195 221 255
195 221 255
195 221 255
195 221 255
195 221 255
195 221 255
195 221 255
195 221 255
195 221 255
196 221 255
196 222 255
196 222 255
196 222 255
196 222 255
196 222 255
196 222 255
196 222 255
197 222 255
197 222 255
197 222 255
197 222 255
197 222 255
197 222 255
198 223 255
198 223 255
198 223 255
198 223 255
198 223 255
198 223 255
198 223 255
199 223 255
199 223 255
199 223 255
199 223 255
199 223 255
199 224 255
200 224 255
200 224 255
200 224 255
200 224 255
200 224 255
200 224 255
201 224 255
201 224 255
201 224 255
201 224 255
201 224 255
201 225 255
201 225 255
202 225 255
202 225 255
202 225 255
202 225 255
202 225 255
202 225 255
202 225 255
203 225 255
203 225 255
203 225 255
203 225 255
203 226 255
203 226 255
203 226 255
204 226 255
204 226 255
204 226 255
204 226 255
204 226 255
204 226 255
204 226 255
204 226 255
205 226 255
205 226 255
205 226 255
205 227 255
205 227 255
205 227 255
205 227 255
205 227 255
205 227 255
206 227 255
206 227 255
206 227 255
206 227 255
206 227 255
206 227 255
206 227 255
206 227 255
206 227 255
206 227 255
206 227 255
205 227 255
205 227 255
205 227 255
205 227 255
205 227 255
205 226 255
205 226 255
205 226 255
204 226 255
204 226 255
204 226 255
204 226 255
204 226 255
204 226 255
204 226 255
204 226 255
203 226 255
203 226 255
203 226 255
203 225 255
203 225 255
203 225 255
203 225 255
202 225 255
202 225 255
202 225 255
202 225 255
202 225 255
202 225 255
202 225 255
201 225 255
201 225 255
201 224 255
201 224 255
201 224 255
201 224 255
201 224 255
200 224 255
200 224 255
200 224 255
200 224 255
200 224 255
200 224 255
199 224 255
199 223 255
199 223 255
199 223 255
199 223 255
199 223 255
199 223 255
198 223 255
198 223 255
198 223 255
198 223 255
198 223 255
198 223 255
197 222 255
197 222 255
197 222 255
197 222 255
197 222 255
197 222 255
197 222 255
196 222 255
196 222 255
196 222 255
196 222 255
196 222 255
196 222 255
196 222 255
196 221 255
195 221 255
195 221 255
195 221 255
195 221 255
195 221 255
195 221 255
195 221 255
195 221 255
195 221 255
195 221 255
194 221 255
194 221 255
194 221 255
194 221 255
194 221 255
194 221 255
194 221 255
194 221 255
194 221 255
194 221 255
194 221 255
194 221 255
194 221 255
194 221 255
194 221 255
194 221 255
194 221 255
194 221 255
194 221 255
194 221 255
194 221 255
194 221 255
194 221 255
194 221 255
195 221 255
195 221 255
195 221 255
195 221 255
195 221 255
195 221 255
195 221 255
195 221 255
195 221 255
195 221 255
196 221 255
196 222 255
196 222 255
196 222 255
196 222 255
196 222 255
196 222 255
196 222 255
197 222 255
197 222 255
197 222 255
197 222 255
197 222 255
197 222 255
197 222 255
198 223 255
198 223 255
198 223 255
198 223 255
198 223 255
198 223 255
199 223 255
199 223 255
199 223 255
199 223 255
199 223 255
199 223 255
199 224 255
200 224 255
200 224 255
200 224 255
200 224 255
200 224 255
200 224 255
201 224 255
201 224 255
201 224 255
201 224 255
201 224 255
201 225 255
201 225 255
202 225 255
202 225 255
202 225 255
202 225 255
202 225 255
202 225 255
202 225 255
203 225 255
203 225 255
203 225 255
203 225 255
203 226 255
203 226 255
203 226 255
204 226 255
204 226 255
204 226 255
204 226 255
204 226 255
204 226 255
204 226 255
204 226 255
205 226 255
205 226 255
205 226 255
205 227 255
205 227 255
205 227 255
205 227 255
205 227 255
206 227 255
206 227 255
206 227 255
206 227 255
206 227 255
206 227 255
206 227 255
206 227 255
206 227 255
206 227 255
206 227 255
206 227 255
206 227 255
206 227 255
206 227 255
206 227 255
205 227 255
205 227 255
205 227 255
205 227 255
205 227 255
205 226 255
205 226 255
205 226 255
205 226 255
204 226 255
204 226 255
204 226 255
204 226 255
204 226 255
204 226 255
204 226 255
203 226 255
203 226 255
203 226 255
203 225 255
203 225 255
203 225 255
203 225 255
203 225 255
202 225 255
202 225 255
202 225 255
202 225 255
202 225 255
202 225 255
201 225 255
201 225 255
201 224 255
201 224 255
201 224 255
201 224 255
201 224 255
200 224 255
200 224 255
200 224 255
200 224 255
200 224 255
200 224 255
199 224 255
199 223 255
199 223 255
199 223 255
199 223 255
199 223 255
199 223 255
198 223 255
198 223 255
198 223 255
198 223 255
198 223 255
198 223 255
197 222 255
197 222 255
197 222 255
197 222 255
197 222 255
197 222 255
197 222 255
196 222 255
196 222 255
196 222 255
196 222 255
196 222 255
196 222 255
196 222 255
196 222 255
196 221 255
195 221 255
195 221 255
195 221 255
195 221 255
195 221 255
195 221 255
195 221 255
195 221 255
195 221 255
195 221 255
195 221 255
195 221 255
195 221 255
195 221 255
194 221 255
194 221 255
194 221 255
194 221 255
194 221 255
194 221 255
194 221 255
194 221 255
194 221 255
194 221 255
195 221 255
195 221 255
195 221 255
195 221 255
195 221 255
195 221 255
195 221 255
195 221 255
195 221 255
195 221 255
195 221 255
195 221 255
195 221 255
195 221 255
196 221 255
196 222 255
196 222 255
196 222 255
196 222 255
196 222 255
196 222 255
196 222 255
196 222 255
197 222 255
197 222 255
197 222 255
197 222 255
197 222 255
197 222 255
197 222 255
198 223 255
198 223 255
198 223 255
198 223 255
198 223 255
198 223 255
199 223 255
199 223 255
199 223 255
199 223 255
199 223 255
199 223 255
199 224 255
200 224 255
200 224 255
200 224 255
200 224 255
200 224 255
200 224 255
201 224 255
201 224 255
201 224 255
201 224 255
201 224 255
201 225 255
201 225 255
202 225 255
202 225 255
202 225 255
202 225 255
202 225 255
202 225 255
203 225 255
203 225 255
203 225 255
203 225 255
203 226 255
203 226 255
203 226 255
203 226 255
204 226 255
204 226 255
204 226 255
204 226 255
204 226 255
204 226 255
204 226 255
205 226 255
205 226 255
205 226 255
205 226 255
205 227 255
205 227 255
205 227 255
205 227 255
205 227 255
206 227 255
206 227 255
206 227 255
206 227 255
206 227 255
206 227 255
206 227 255
206 227 255
206 227 255
207 227 255
207 227 255
207 227 255
206 227 255
206 227 255
206 227 255
206 227 255
206 227 255
206 227 255
206 227 255
206 227 255
206 227 255
205 227 255
205 227 255
205 227 255
205 227 255
205 227 255
205 226 255
205 226 255
205 226 255
204 226 255
204 226 255
204 226 255
204 226 255
204 226 255
204 226 255
204 226 255
204 226 255
203 226 255
203 226 255
203 226 255
203 225 255
203 225 255
203 225 255
203 225 255
202 225 255
202 225 255
202 225 255
202 225 255
202 225 255
202 225 255
202 225 255
201 225 255
201 224 255
201 224 255
201 224 255
201 224 255
201 224 255
200 224 255
200 224 255
200 224 255
200 224 255
200 224 255
200 224 255
200 224 255
199 223 255
199 223 255
199 223 255
199 223 255
199 223 255
199 223 255
198 223 255
198 223 255
198 223 255
198 223 255
198 223 255
198 223 255
198 223 255
197 222 255
197 222 255
197 222 255
197 222 255
197 222 255
197 222 255
197 222 255
196 222 255
196 222 255
196 222 255
196 222 255
196 222 255
196 222 255
196 222 255
196 222 255
196 221 255
195 221 255
195 221 255
195 221 255
195 221 255
195 221 255
195 221 255
195 221 255
195 221 255
195 221 255
195 221 255
195 221 255
195 221 255
195 221 255
195 221 255
195 221 255
195 221 255
195 221 255
195 221 255
195 221 255
195 221 255
195 221 255
195 221 255
195 221 255
195 221 255
195 221 255
195 221 255
195 221 255
195 221 255
195 221 255
195 221 255
195 221 255
195 221 255
196 221 255
196 222 255
196 222 255
196 222 255
196 222 255
196 222 255
196 222 255
196 222 255
196 222 255
197 222 255
197 222 255
197 222 255
197 222 255
197 222 255
197 222 255
197 222 255
198 223 255
198 223 255
198 223 255
198 223 255
198 223 255
198 223 255
198 223 255
199 223 255
199 223 255
199 223 255
199 223 255
199 223 255
199 223 255
200 224 255
200 224 255
200 224 255
200 224 255
200 224 255
200 224 255
200 224 255
201 224 255
201 224 255
201 224 255
201 224 255
201 225 255
201 225 255
202 225 255
202 225 255
202 225 255
202 225 255
202 225 255
202 225 255
202 225 255
203 225 255
203 225 255
203 225 255
203 225 255
203 226 255
203 226 255
203 226 255
204 226 255
204 226 255
204 226 255
204 226 255
204 226 255
204 226 255
204 226 255
204 226 255
205 226 255
205 226 255
205 226 255
205 227 255
205 227 255
205 227 255
205 227 255
205 227 255
206 227 255
206 227 255
206 227 255
206 227 255
206 227 255
206 227 255
206 227 255
206 227 255
206 227 255
207 227 255
207 227 255
207 227 255
207 228 255
207 228 255
207 228 255
207 227 255
207 227 255
207 227 255
206 227 255
206 227 255
206 227 255
206 227 255
206 227 255
206 227 255
206 227 255
206 227 255
205 227 255
205 227 255
205 227 255
205 227 255
205 227 255
205 226 255
205 226 255
205 226 255
205 226 255
204 226 255
204 226 255
204 226 255
204 226 255
204 226 255
204 226 255
204 226 255
203 226 255
203 226 255
203 226 255
203 225 255
203 225 255
203 225 255
203 225 255
202 225 255
202 225 255
202 225 255
202 225 255
202 225 255
202 225 255
202 225 255
201 225 255
201 225 255
201 224 255
201 224 255
201 224 255
201 224 255
200 224 255
200 224 255
200 224 255
200 224 255
200 224 255
200 224 255
200 224 255
199 224 255
199 223 255
199 223 255
199 223 255
199 223 255
199 223 255
198 223 255
198 223 255
198 223 255
198 223 255
198 223 255
198 223 255
198 223 255
197 222 255
197 222 255
197 222 255
197 222 255
197 222 255
197 222 255
197 222 255
197 222 255
196 222 255
196 222 255
196 222 255
196 222 255
196 222 255
196 222 255
196 222 255
196 222 255
196 222 255
196 221 255
195 221 255
195 221 255
195 221 255
195 221 255
195 221 255
195 221 255
195 221 255
195 221 255
195 221 255
195 221 255
195 221 255
195 221 255
195 221 255
195 221 255
195 221 255
195 221 255
195 221 255
195 221 255
195 221 255
195 221 255
195 221 255
195 221 255
195 221 255
195 221 255
196 221 255
196 222 255
196 222 255
196 222 255
196 222 255
196 222 255
196 222 255
196 222 255
196 222 255
196 222 255
197 222 255
197 222 255
197 222 255
197 222 255
197 222 255
197 222 255
197 222 255
197 222 255
198 223 255
198 223 255
198 223 255
198 223 255
198 223 255
198 223 255
198 223 255
199 223 255
199 223 255
199 223 255
199 223 255
199 223 255
199 224 255
200 224 255
200 224 255
200 224 255
200 224 255
200 224 255
200 224 255
200 224 255
201 224 255
201 224 255
201 224 255
201 224 255
201 225 255
201 225 255
202 225 255
202 225 255
202 225 255
202 225 255
202 225 255
202 225 255
202 225 255
203 225 255
203 225 255
203 225 255
203 225 255
203 226 255
203 226 255
203 226 255
204 226 255
204 226 255
204 226 255
204 226 255
204 226 255
204 226 255
204 226 255
205 226 255
205 226 255
205 226 255
205 226 255
205 227 255
205 227 255
205 227 255
205 227 255
205 227 255
206 227 255
206 227 255
206 227 255
206 227 255
206 227 255
206 227 255
206 227 255
206 227 255
207 227 255
207 227 255
207 227 255
207 228 255
207 228 255
207 228 255
207 228 255
207 228 255
207 228 255
207 228 255
207 228 255
207 228 255
207 227 255
207 227 255
206 227 255
206 227 255
206 227 255
206 227 255
206 227 255
206 227 255
206 227 255
206 227 255
206 227 255
205 227 255
205 227 255
205 227 255
205 227 255
205 227 255
205 226 255
205 226 255
205 226 255
204 226 255
204 226 255
204 226 255
204 226 255
204 226 255
204 226 255
204 226 255
204 226 255
203 226 255
203 226 255
203 226 255
203 225 255
203 225 255
203 225 255
202 225 255
202 225 255
202 225 255
202 225 255
202 225 255
202 225 255
202 225 255
201 225 255
201 225 255
201 224 255
201 224 255
201 224 255
201 224 255
201 224 255
200 224 255
200 224 255
200 224 255
200 224 255
200 224 255
200 224 255
199 224 255
199 223 255
199 223 255
199 223 255
199 223 255
199 223 255
199 223 255
198 223 255
198 223 255
198 223 255
198 223 255
198 223 255
198 223 255
198 223 255
197 222 255
197 222 255
197 222 255
197 222 255
197 222 255
197 222 255
197 222 255
197 222 255
196 222 255
196 222 255
196 222 255
196 222 255
196 222 255
196 222 255
196 222 255
196 222 255
196 222 255
196 222 255
196 222 255
196 222 255
196 221 255
196 221 255
196 221 255
195 221 255
195 221 255
195 221 255
195 221 255
195 221 255
195 221 255
195 221 255
195 221 255
196 221 255
196 221 255
196 221 255
196 222 255
196 222 255
196 222 255
196 222 255
196 222 255
196 222 255
196 222 255
196 222 255
196 222 255
196 222 255
196 222 255
196 222 255
197 222 255
197 222 255
197 222 255
197 222 255
197 222 255
197 222 255
197 222 255
197 222 255
198 223 255
198 223 255
198 223 255
198 223 255
198 223 255
198 223 255
198 223 255
199 223 255
199 223 255
199 223 255
199 223 255
199 223 255
199 223 255
199 224 255
200 224 255
200 224 255
200 224 255
200 224 255
200 224 255
200 224 255
201 224 255
201 224 255
201 224 255
201 224 255
201 224 255
201 225 255
201 225 255
202 225 255
202 225 255
202 225 255
202 225 255
202 225 255
202 225 255
203 225 255
203 225 255
203 225 255
203 225 255
203 226 255
203 226 255
203 226 255
203 226 255
204 226 255
204 226 255
204 226 255
204 226 255
204 226 255
204 226 255
204 226 255
205 226 255
205 226 255
205 226 255
205 227 255
205 227 255
205 227 255
205 227 255
205 227 255
206 227 255
206 227 255
206 227 255
206 227 255
206 227 255
206 227 255
206 227 255
206 227 255
206 227 255
207 227 255
207 227 255
207 228 255
207 228 255
207 228 255
207 228 255
207 228 255
207 228 255
208 228 255
208 228 255
207 228 255
207 228 255
207 228 255
207 228 255
207 228 255
207 228 255
207 228 255
207 227 255
207 227 255
206 227 255
206 227 255
206 227 255
206 227 255
206 227 255
206 227 255
206 227 255
206 227 255
206 227 255
205 227 255
205 227 255
205 227 255
205 227 255
205 226 255
205 226 255
205 226 255
204 226 255
204 226 255
204 226 255
204 226 255
204 226 255
204 226 255
204 226 255
204 226 255
203 226 255
203 226 255
203 226 255
203 225 255
203 225 255
203 225 255
203 225 255
202 225 255
202 225 255
202 225 255
202 225 255
202 225 255
202 225 255
202 225 255
201 225 255
201 224 255
201 224 255
201 224 255
201 224 255
201 224 255
200 224 255
200 224 255
200 224 255
200 224 255
200 224 255
200 224 255
199 224 255
199 224 255
199 223 255
199 223 255
199 223 255
199 223 255
199 223 255
198 223 255
198 223 255
198 223 255
198 223 255
198 223 255
198 223 255
198 223 255
197 223 255
197 222 255
197 222 255
197 222 255
197 222 255
197 222 255
197 222 255
197 222 255
197 222 255
197 222 255
196 222 255
196 222 255
196 222 255
196 222 255
196 222 255
196 222 255
196 222 255
196 222 255
196 222 255
196 222 255
196 222 255
196 222 255
196 222 255
196 222 255
196 222 255
196 222 255
196 222 255
196 222 255
196 222 255
196 222 255
196 222 255
196 222 255
196 222 255
196 222 255
196 222 255
196 222 255
196 222 255
196 222 255
196 222 255
196 222 255
197 222 255
197 222 255
197 222 255
197 222 255
197 222 255
197 222 255
197 222 255
197 222 255
197 222 255
198 223 255
198 223 255
198 223 255
198 223 255
198 223 255
198 223 255
198 223 255
198 223 255
199 223 255
199 223 255
199 223 255
199 223 255
199 223 255
199 223 255
200 224 255
200 224 255
200 224 255
200 224 255
200 224 255
200 224 255
200 224 255
201 224 255
201 224 255
201 224 255
201 224 255
201 224 255
201 225 255
202 225 255
202 225 255
202 225 255
202 225 255
202 225 255
202 225 255
202 225 255
203 225 255
203 225 255
203 225 255
203 225 255
203 226 255
203 226 255
203 226 255
204 226 255
204 226 255
204 226 255
204 226 255
204 226 255
204 226 255
204 226 255
204 226 255
205 226 255
205 226 255
205 227 255
205 227 255
205 227 255
205 227 255
205 227 255
206 227 255
206 227 255
206 227 255
206 227 255
206 227 255
206 227 255
206 227 255
206 227 255
206 227 255
207 227 255
207 227 255
207 228 255
207 228 255
207 228 255
207 228 255
207 228 255
207 228 255
207 228 255
208 228 255
208 228 255
208 228 255
208 228 255
208 228 255
208 228 255
208 228 255
207 228 255
207 228 255
207 228 255
207 228 255
207 228 255
207 228 255
207 227 255
207 227 255
207 227 255
206 227 255
206 227 255
206 227 255
206 227 255
206 227 255
206 227 255
206 227 255
206 227 255
205 227 255
205 227 255
205 227 255
205 227 255
205 227 255
205 226 255
205 226 255
205 226 255
204 226 255
204 226 255
204 226 255
204 226 255
204 226 255
204 226 255
204 226 255
203 226 255
203 226 255
203 226 255
203 225 255
203 225 255
203 225 255
203 225 255
202 225 255
202 225 255
202 225 255
202 225 255
202 225 255
202 225 255
202 225 255
201 225 255
201 225 255
201 224 255
201 224 255
201 224 255
201 224 255
200 224 255
200 224 255
200 224 255
200 224 255
200 224 255
200 224 255
200 224 255
199 224 255
199 223 255
199 223 255
199 223 255
199 223 255
199 223 255
199 223 255
198 223 255
198 223 255
198 223 255
198 223 255
198 223 255
198 223 255
198 223 255
198 223 255
197 222 255
197 222 255
197 222 255
197 222 255
197 222 255
197 222 255
197 222 255
197 222 255
197 222 255
197 222 255
197 222 255
196 222 255
196 222 255
196 222 255
196 222 255
196 222 255
196 222 255
196 222 255
196 222 255
196 222 255
196 222 255
196 222 255
196 222 255
196 222 255
196 222 255
196 222 255
196 222 255
196 222 255
196 222 255
196 222 255
196 222 255
197 222 255
197 222 255
197 222 255
197 222 255
197 222 255
197 222 255
197 222 255
197 222 255
197 222 255
197 222 255
197 222 255
198 223 255
198 223 255
198 223 255
198 223 255
198 223 255
198 223 255
198 223 255
198 223 255
199 223 255
199 223 255
199 223 255
199 223 255
199 223 255
199 223 255
199 224 255
200 224 255
200 224 255
200 224 255
200 224 255
200 224 255
200 224 255
200 224 255
201 224 255
201 224 255
201 224 255
201 224 255
201 225 255
201 225 255
202 225 255
202 225 255
202 225 255
202 225 255
202 225 255
202 225 255
202 225 255
203 225 255
203 225 255
203 225 255
203 225 255
203 226 255
203 226 255
203 226 255
204 226 255
204 226 255
204 226 255
204 226 255
204 226 255
204 226 255
204 226 255
205 226 255
205 226 255
205 226 255
205 227 255
205 227 255
205 227 255
205 227 255
205 227 255
206 227 255
206 227 255
206 227 255
206 227 255
206 227 255
206 227 255
206 227 255
206 227 255
207 227 255
207 227 255
207 227 255
207 228 255
207 228 255
207 228 255
207 228 255
207 228 255
207 228 255
208 228 255
208 228 255
208 228 255
208 228 255
208 228 255
208 228 255
208 228 255
208 228 255
208 228 255
208 228 255
208 228 255
208 228 255
207 228 255
207 228 255
207 228 255
207 228 255
207 228 255
207 228 255
207 228 255
207 227 255
207 227 255
206 227 255
206 227 255
206 227 255
206 227 255
206 227 255
206 227 255
206 227 255
206 227 255
206 227 255
205 227 255
205 227 255
205 227 255
205 227 255
205 227 255
205 226 255
205 226 255
205 226 255
204 226 255
204 226 255
204 226 255
204 226 255
204 226 255
204 226 255
204 226 255
203 226 255
203 226 255
203 226 255
203 225 255
203 225 255
203 225 255
203 225 255
202 225 255
202 225 255
202 225 255
202 225 255
202 225 255
202 225 255
201 225 255
201 225 255
201 224 255
201 224 255
201 224 255
201 224 255
201 224 255
200 224 255
200 224 255
200 224 255
200 224 255
200 224 255
200 224 255
200 224 255
199 224 255
199 223 255
199 223 255
199 223 255
199 223 255
199 223 255
199 223 255
198 223 255
198 223 255
198 223 255
198 223 255
198 223 255
198 223 255
198 223 255
198 223 255
197 223 255
197 222 255
197 222 255
197 222 255
197 222 255
197 222 255
197 222 255
197 222 255
197 222 255
197 222 255
197 222 255
197 222 255
197 222 255
197 222 255
197 222 255
197 222 255
197 222 255
197 222 255
197 222 255
197 222 255
197 222 255
197 222 255
197 222 255
197 222 255
197 222 255
197 222 255
197 222 255
197 222 255
197 222 255
197 222 255
197 222 255
197 222 255
197 222 255
197 222 255
197 222 255
198 223 255
198 223 255
198 223 255
198 223 255
198 223 255
198 223 255
198 223 255
198 223 255
198 223 255
199 223 255
199 223 255
199 223 255
199 223 255
199 223 255
199 223 255
199 224 255
199 224 255
200 224 255
200 224 255
200 224 255
200 224 255
200 224 255
200 224 255
201 224 255
201 224 255
201 224 255
201 224 255
201 224 255
201 225 255
201 225 255
202 225 255
202 225 255
202 225 255
202 225 255
202 225 255
202 225 255
203 225 255
203 225 255
203 225 255
203 225 255
203 226 255
203 226 255
203 226 255
204 226 255
204 226 255
204 226 255
204 226 255
204 226 255
204 226 255
204 226 255
205 226 255
205 226 255
205 226 255
205 227 255
205 227 255
205 227 255
205 227 255
205 227 255
206 227 255
206 227 255
206 227 255
206 227 255
206 227 255
206 227 255
206 227 255
206 227 255
207 227 255
207 227 255
207 227 255
207 228 255
207 228 255
207 228 255
207 228 255
207 228 255
207 228 255
208 228 255
208 228 255
208 228 255
208 228 255
208 228 255
208 228 255
208 228 255
208 228 255
208 228 255
208 228 255
208 228 255
208 228 255
208 228 255
208 228 255
208 228 255
208 228 255
208 228 255
208 228 255
207 228 255
207 228 255
207 228 255
207 228 255
207 228 255
207 228 255
207 228 255
207 227 255
207 227 255
206 227 255
206 227 255
206 227 255
206 227 255
206 227 255
206 227 255
206 227 255
206 227 255
206 227 255
205 227 255
205 227 255
205 227 255
205 227 255
205 226 255
205 226 255
205 226 255
204 226 255
204 226 255
204 226 255
204 226 255
204 226 255
204 226 255
204 226 255
203 226 255
203 226 255
203 226 255
203 225 255
203 225 255
203 225 255
203 225 255
202 225 255
202 225 255
202 225 255
202 225 255
202 225 255
202 225 255
202 225 255
201 225 255
201 225 255
201 224 255
201 224 255
201 224 255
201 224 255
200 224 255
200 224 255
200 224 255
200 224 255
200 224 255
200 224 255
200 224 255
199 224 255
199 223 255
199 223 255
199 223 255
199 223 255
199 223 255
199 223 255
199 223 255
198 223 255
198 223 255
198 223 255
198 223 255
198 223 255
198 223 255
198 223 255
198 223 255
198 223 255
198 223 255
197 222 255
197 222 255
197 222 255
197 222 255
197 222 255
197 222 255
197 222 255
197 222 255
197 222 255
197 222 255
197 222 255
197 222 255
197 222 255
197 222 255
197 222 255
197 222 255
197 222 255
197 222 255
197 222 255
197 222 255
197 222 255
197 222 255
197 222 255
197 222 255
197 222 255
197 222 255
198 223 255
198 223 255
198 223 255
198 223 255
198 223 255
198 223 255
198 223 255
198 223 255
198 223 255
198 223 255
199 223 255
199 223 255
199 223 255
199 223 255
199 223 255
199 223 255
199 224 255
199 224 255
200 224 255
200 224 255
200 224 255
200 224 255
200 224 255
200 224 255
201 224 255
201 224 255
201 224 255
201 224 255
201 224 255
201 225 255
201 225 255
202 225 255
202 225 255
202 225 255
202 225 255
202 225 255
202 225 255
202 225 255
203 225 255
203 225 255
203 225 255
203 225 255
203 226 255
203 226 255
203 226 255
204 226 255
204 226 255
204 226 255
204 226 255
204 226 255
204 226 255
204 226 255
205 226 255
205 226 255
205 226 255
205 227 255
205 227 255
205 227 255
205 227 255
206 227 255
206 227 255
206 227 255
206 227 255
206 227 255
206 227 255
206 227 255
206 227 255
206 227 255
207 227 255
207 227 255
207 228 255
207 228 255
207 228 255
207 228 255
207 228 255
207 228 255
207 228 255
208 228 255
208 228 255
208 228 255
208 228 255
208 228 255
208 228 255
208 228 255
208 228 255
208 228 255
208 228 255
209 229 255
209 229 255
209 229 255
208 228 255
208 228 255
208 228 255
208 228 255
208 228 255
208 228 255
208 228 255
208 228 255
208 228 255
208 228 255
207 228 255
207 228 255
207 228 255
207 228 255
207 228 255
207 228 255
207 228 255
207 227 255
207 227 255
206 227 255
206 227 255
206 227 255
206 227 255
206 227 255
206 227 255
206 227 255
206 227 255
205 227 255
205 227 255
205 227 255
205 227 255
205 227 255
205 226 255
205 226 255
205 226 255
204 226 255
204 226 255
204 226 255
204 226 255
204 226 255
204 226 255
204 226 255
203 226 255
203 226 255
203 226 255
203 225 255
203 225 255
203 225 255
203 225 255
202 225 255
202 225 255
202 225 255
202 225 255
202 225 255
202 225 255
201 225 255
201 225 255
201 224 255
201 224 255
201 224 255
201 224 255
201 224 255
200 224 255
200 224 255
200 224 255
200 224 255
200 224 255
200 224 255
200 224 255
199 224 255
199 223 255
199 223 255
199 223 255
199 223 255
199 223 255
199 223 255
199 223 255
199 223 255
198 223 255
198 223 255
198 223 255
198 223 255
198 223 255
198 223 255
198 223 255
198 223 255
198 223 255
198 223 255
198 223 255
198 223 255
198 223 255
197 222 255
197 222 255
197 222 255
197 222 255
197 222 255
197 222 255
197 222 255
197 222 255
197 222 255
197 222 255
197 222 255
197 222 255
197 223 255
198 223 255
198 223 255
198 223 255
198 223 255
198 223 255
198 223 255
198 223 255
198 223 255
198 223 255
198 223 255
198 223 255
198 223 255
198 223 255
199 223 255
199 223 255
199 223 255
199 223 255
199 223 255
199 223 255
199 223 255
199 224 255
200 224 255
200 224 255
200 224 255
200 224 255
200 224 255
200 224 255
200 224 255
201 224 255
201 224 255
201 224 255
201 224 255
201 224 255
201 225 255
202 225 255
202 225 255
202 225 255
202 225 255
202 225 255
202 225 255
202 225 255
203 225 255
203 225 255
203 225 255
203 225 255
203 226 255
203 226 255
203 226 255
204 226 255
204 226 255
204 226 255
204 226 255
204 226 255
204 226 255
204 226 255
205 226 255
205 226 255
205 226 255
205 227 255
205 227 255
205 227 255
205 227 255
205 227 255
206 227 255
206 227 255
206 227 255
206 227 255
206 227 255
206 227 255
206 227 255
206 227 255
207 227 255
207 227 255
207 228 255
207 228 255
207 228 255
207 228 255
207 228 255
207 228 255
207 228 255
208 228 255
208 228 255
208 228 255
208 228 255
208 228 255
208 228 255
208 228 255
208 228 255
208 228 255
208 228 255
209 228 255
209 229 255
209 229 255
209 229 255
209 229 255
209 229 255
209 229 255
209 229 255
209 229 255
209 228 255
208 228 255
208 228 255
208 228 255
208 228 255
208 228 255
208 228 255
208 228 255
208 228 255
208 228 255
207 228 255
207 228 255
207 228 255
207 228 255
207 228 255
207 228 255
207 228 255
207 227 255
207 227 255
206 227 255
206 227 255
206 227 255
206 227 255
206 227 255
206 227 255
206 227 255
206 227 255
205 227 255
205 227 255
205 227 255
205 227 255
205 227 255
205 226 255
205 226 255
205 226 255
204 226 255
204 226 255
204 226 255
204 226 255
204 226 255
204 226 255
203 226 255
203 226 255
203 226 255
203 225 255
203 225 255
203 225 255
203 225 255
202 225 255
202 225 255
202 225 255
202 225 255
202 225 255
202 225 255
202 225 255
201 225 255
201 225 255
201 224 255
201 224 255
201 224 255
201 224 255
201 224 255
200 224 255
200 224 255
200 224 255
200 224 255
200 224 255
200 224 255
200 224 255
200 224 255
199 224 255
199 223 255
199 223 255
199 223 255
199 223 255
199 223 255
199 223 255
199 223 255
199 223 255
198 223 255
198 223 255
198 223 255
198 223 255
198 223 255
198 223 255
198 223 255
198 223 255
198 223 255
198 223 255
198 223 255
198 223 255
198 223 255
198 223 255
198 223 255
198 223 255
198 223 255
198 223 255
198 223 255
198 223 255
198 223 255
198 223 255
198 223 255
198 223 255
198 223 255
198 223 255
198 223 255
198 223 255
198 223 255
198 223 255
199 223 255
199 223 255
199 223 255
199 223 255
199 223 255
199 223 255
199 223 255
199 223 255
199 224 255
200 224 255
200 224 255
200 224 255
200 224 255
200 224 255
200 224 255
200 224 255
200 224 255
201 224 255
201 224 255
201 224 255
201 224 255
201 224 255
201 225 255
201 225 255
202 225 255
202 225 255
202 225 255
202 225 255
202 225 255
202 225 255
202 225 255
203 225 255
203 225 255
203 225 255
203 225 255
203 226 255
203 226 255
204 226 255
204 226 255
204 226 255
204 226 255
204 226 255
204 226 255
204 226 255
205 226 255
205 226 255
205 226 255
205 226 255
205 227 255
205 227 255
205 227 255
205 227 255
206 227 255
206 227 255
206 227 255
206 227 255
206 227 255
206 227 255
206 227 255
206 227 255
207 227 255
207 227 255
207 228 255
207 228 255
207 228 255
207 228 255
207 228 255
207 228 255
207 228 255
208 228 255
208 228 255
208 228 255
208 228 255
208 228 255
208 228 255
208 228 255
208 228 255
208 228 255
209 228 255
209 229 255
209 229 255
209 229 255
209 229 255
209 229 255
209 229 255
209 229 255
209 229 255
209 229 255
209 229 255
209 229 255
209 229 255
209 229 255
209 229 255
209 229 255
209 228 255
208 228 255
208 228 255
208 228 255
208 228 255
208 228 255
208 228 255
208 228 255
208 228 255
208 228 255
208 228 255
207 228 255
207 228 255
207 228 255
207 228 255
207 228 255
207 228 255
207 227 255
207 227 255
206 227 255
206 227 255
206 227 255
206 227 255
206 227 255
206 227 255
206 227 255
206 227 255
205 227 255
205 227 255
205 227 255
205 227 255
205 226 255
205 226 255
205 226 255
204 226 255
204 226 255
204 226 255
204 226 255
204 226 255
204 226 255
204 226 255
203 226 255
203 226 255
203 226 255
203 225 255
203 225 255
203 225 255
203 225 255
202 225 255
202 225 255
202 225 255
202 225 255
202 225 255
202 225 255
202 225 255
201 225 255
201 225 255
201 224 255
201 224 255
201 224 255
201 224 255
201 224 255
200 224 255
200 224 255
200 224 255
200 224 255
200 224 255
200 224 255
200 224 255
200 224 255
199 224 255
199 223 255
199 223 255
199 223 255
199 223 255
199 223 255
199 223 255
199 223 255
199 223 255
199 223 255
199 223 255
198 223 255
198 223 255
198 223 255
198 223 255
198 223 255
198 223 255
198 223 255
198 223 255
198 223 255
198 223 255
198 223 255
198 223 255
198 223 255
198 223 255
198 223 255
198 223 255
198 223 255
198 223 255
198 223 255
199 223 255
199 223 255
199 223 255
199 223 255
199 223 255
199 223 255
199 223 255
199 223 255
199 223 255
199 223 255
199 223 255
199 224 255
200 224 255
200 224 255
200 224 255
200 224 255
200 224 255
200 224 255
200 224 255
200 224 255
201 224 255
201 224 255
201 224 255
201 224 255
201 224 255
201 225 255
201 225 255
202 225 255
202 225 255
202 225 255
202 225 255
202 225 255
202 225 255
202 225 255
203 225 255
203 225 255
203 225 255
203 225 255
203 226 255
203 226 255
203 226 255
204 226 255
204 226 255
204 226 255
204 226 255
204 226 255
204 226 255
204 226 255
205 226 255
205 226 255
205 226 255
205 227 255
205 227 255
205 227 255
205 227 255
206 227 255
206 227 255
206 227 255
206 227 255
206 227 255
206 227 255
206 227 255
206 227 255
207 227 255
207 227 255
207 228 255
207 228 255
207 228 255
207 228 255
207 228 255
207 228 255
207 228 255
208 228 255
208 228 255
208 228 255
208 228 255
208 228 255
208 228 255
208 228 255
208 228 255
208 228 255
209 228 255
209 229 255
209 229 255
209 229 255
209 229 255
209 229 255
209 229 255
209 229 255
209 229 255
209 229 255
210 229 255
210 229 255
210 229 255
209 229 255
209 229 255
209 229 255
209 229 255
209 229 255
209 229 255
209 229 255
209 229 255
209 229 255
209 228 255
208 228 255
208 228 255
208 228 255
208 228 255
208 228 255
208 228 255
208 228 255
208 228 255
208 228 255
208 228 255
207 228 255
207 228 255
207 228 255
207 228 255
207 228 255
207 228 255
207 227 255
207 227 255
206 227 255
206 227 255
206 227 255
206 227 255
206 227 255
206 227 255
206 227 255
206 227 255
205 227 255
205 227 255
205 227 255
205 227 255
205 226 255
205 226 255
205 226 255
204 226 255
204 226 255
204 226 255
204 226 255
204 226 255
204 226 255
204 226 255
203 226 255
203 226 255
203 226 255
203 225 255
203 225 255
203 225 255
203 225 255
202 225 255
202 225 255
202 225 255
202 225 255
202 225 255
202 225 255
202 225 255
201 225 255
201 225 255
201 224 255
201 224 255
201 224 255
201 224 255
201 224 255
200 224 255
200 224 255
200 224 255
200 224 255
200 224 255
200 224 255
200 224 255
200 224 255
200 224 255
199 224 255
199 224 255
199 223 255
199 223 255
199 223 255
199 223 255
199 223 255
199 223 255
199 223 255
199 223 255
199 223 255
199 223 255
199 223 255
199 223 255
199 223 255
199 223 255
199 223 255
199 223 255
199 223 255
199 223 255
199 223 255
199 223 255
199 223 255
199 223 255
199 223 255
199 223 255
199 223 255
199 223 255
199 223 255
199 223 255
199 223 255
199 223 255
199 224 255
199 224 255
200 224 255
200 224 255
200 224 255
200 224 255
200 224 255
200 224 255
200 224 255
200 224 255
200 224 255
201 224 255
201 224 255
201 224 255
201 224 255
201 224 255
201 225 255
201 225 255
202 225 255
202 225 255
202 225 255
202 225 255
202 225 255
202 225 255
202 225 255
203 225 255
203 225 255
203 225 255
203 225 255
203 226 255
203 226 255
203 226 255
204 226 255
204 226 255
204 226 255
204 226 255
204 226 255
204 226 255
204 226 255
205 226 255
205 226 255
205 226 255
205 227 255
205 227 255
205 227 255
205 227 255
206 227 255
206 227 255
206 227 255
206 227 255
206 227 255
206 227 255
206 227 255
206 227 255
207 227 255
207 227 255
207 228 255
207 228 255
207 228 255
207 228 255
207 228 255
207 228 255
207 228 255
208 228 255
208 228 255
208 228 255
208 228 255
208 228 255
208 228 255
208 228 255
208 228 255
208 228 255
209 228 255
209 229 255
209 229 255
209 229 255
209 229 255
209 229 255
209 229 255
209 229 255
209 229 255
209 229 255
210 229 255
210 229 255
210 229 255
210 229 255
210 229 255
210 229 255
210 229 255
210 229 255
210 229 255
209 229 255
209 229 255
209 229 255
209 229 255
209 229 255
209 229 255
209 229 255
209 229 255
209 229 255
209 229 255
208 228 255
208 228 255
208 228 255
208 228 255
208 228 255
208 228 255
208 228 255
208 228 255
208 228 255
208 228 255
207 228 255
207 228 255
207 228 255
207 228 255
207 228 255
207 228 255
207 227 255
207 227 255
206 227 255
206 227 255
206 227 255
206 227 255
206 227 255
206 227 255
206 227 255
206 227 255
205 227 255
205 227 255
205 227 255
205 227 255
205 226 255
205 226 255
205 226 255
204 226 255
204 226 255
204 226 255
204 226 255
204 226 255
204 226 255
204 226 255
203 226 255
203 226 255
203 226 255
203 225 255
203 225 255
203 225 255
203 225 255
202 225 255
202 225 255
202 225 255
202 225 255
202 225 255
202 225 255
202 225 255
201 225 255
201 225 255
201 224 255
201 224 255
201 224 255
201 224 255
201 224 255
201 224 255
200 224 255
200 224 255
200 224 255
200 224 255
200 224 255
200 224 255
200 224 255
200 224 255
200 224 255
200 224 255
200 224 255
199 224 255
199 224 255
199 223 255
199 223 255
199 223 255
199 223 255
199 223 255
199 223 255
199 223 255
199 223 255
199 223 255
199 223 255
199 223 255
199 223 255
199 223 255
199 223 255
199 223 255
199 223 255
199 223 255
199 224 255
199 224 255
199 224 255
200 224 255
200 224 255
200 224 255
200 224 255
200 224 255
200 224 255
200 224 255
200 224 255
200 224 255
200 224 255
200 224 255
201 224 255
201 224 255
201 224 255
201 224 255
201 224 255
201 224 255
201 225 255
201 225 255
202 225 255
202 225 255
202 225 255
202 225 255
202 225 255
202 225 255
202 225 255
203 225 255
203 225 255
203 225 255
203 225 255
203 226 255
203 226 255
203 226 255
204 226 255
204 226 255
204 226 255
204 226 255
204 226 255
204 226 255
204 226 255
205 226 255
205 226 255
205 226 255
205 227 255
205 227 255
205 227 255
205 227 255
206 227 255
206 227 255
206 227 255
206 227 255
206 227 255
206 227 255
206 227 255
206 227 255
207 227 255
207 227 255
207 228 255
207 228 255
207 228 255
207 228 255
207 228 255
207 228 255
208 228 255
208 228 255
208 228 255
208 228 255
208 228 255
208 228 255
208 228 255
208 228 255
208 228 255
209 228 255
209 229 255
209 229 255
209 229 255
209 229 255
209 229 255
209 229 255
209 229 255
209 229 255
209 229 255
209 229 255
210 229 255
210 229 255
210 229 255
210 229 255
210 229 255
210 229 255
210 229 255
210 229 255
210 229 255
210 229 255
210 229 255
210 229 255
210 229 255
210 229 255
210 229 255
209 229 255
209 229 255
209 229 255
209 229 255
209 229 255
209 229 255
209 229 255
209 229 255
209 229 255
209 229 255
209 228 255
208 228 255
208 228 255
208 228 255
208 228 255
208 228 255
208 228 255
208 228 255
208 228 255
208 228 255
207 228 255
207 228 255
207 228 255
207 228 255
207 228 255
207 228 255
207 227 255
207 227 255
206 227 255
206 227 255
206 227 255
206 227 255
206 227 255
206 227 255
206 227 255
205 227 255
205 227 255
205 227 255
205 227 255
205 227 255
205 226 255
205 226 255
205 226 255
204 226 255
204 226 255
204 226 255
204 226 255
204 226 255
204 226 255
204 226 255
203 226 255
203 226 255
203 226 255
203 225 255
203 225 255
203 225 255
203 225 255
202 225 255
202 225 255
202 225 255
202 225 255
202 225 255
202 225 255
202 225 255
202 225 255
201 225 255
201 225 255
201 224 255
201 224 255
201 224 255
201 224 255
201 224 255
201 224 255
200 224 255
200 224 255
200 224 255
200 224 255
200 224 255
200 224 255
200 224 255
200 224 255
200 224 255
200 224 255
200 224 255
200 224 255
200 224 255
200 224 255
200 224 255
200 224 255
200 224 255
200 224 255
200 224 255
200 224 255
200 224 255
200 224 255
200 224 255
200 224 255
200 224 255
200 224 255
200 224 255
200 224 255
200 224 255
200 224 255
200 224 255
200 224 255
200 224 255
200 224 255
200 224 255
200 224 255
201 224 255
201 224 255
201 224 255
201 224 255
201 224 255
201 224 255
201 225 255
201 225 255
201 225 255
202 225 255
202 225 255
202 225 255
202 225 255
202 225 255
202 225 255
202 225 255
203 225 255
203 225 255
203 225 255
203 225 255
203 226 255
203 226 255
203 226 255
204 226 255
204 226 255
204 226 255
204 226 255
204 226 255
204 226 255
204 226 255
205 226 255
205 226 255
205 226 255
205 227 255
205 227 255
205 227 255
205 227 255
206 227 255
206 227 255
206 227 255
206 227 255
206 227 255
206 227 255
206 227 255
206 227 255
207 227 255
207 227 255
207 228 255
207 228 255
207 228 255
207 228 255
207 228 255
207 228 255
208 228 255
208 228 255
208 228 255
208 228 255
208 228 255
208 228 255
208 228 255
208 228 255
208 228 255
209 228 255
209 229 255
209 229 255
209 229 255
209 229 255
209 229 255
209 229 255
209 229 255
209 229 255
209 229 255
209 229 255
210 229 255
210 229 255
210 229 255
210 229 255
210 229 255
210 229 255
210 229 255
210 229 255
210 229 255
211 230 255
211 230 255
210 230 255
210 229 255
210 229 255
210 229 255
210 229 255
210 229 255
210 229 255
210 229 255
210 229 255
210 229 255
210 229 255
209 229 255
209 229 255
209 229 255
209 229 255
209 229 255
209 229 255
209 229 255
209 229 255
209 229 255
209 228 255
208 228 255
208 228 255
208 228 255
208 228 255
208 228 255
208 228 255
208 228 255
208 228 255
208 228 255
207 228 255
207 228 255
207 228 255
207 228 255
207 228 255
207 228 255
207 227 255
207 227 255
206 227 255
206 227 255
206 227 255
206 227 255
206 227 255
206 227 255
206 227 255
205 227 255
205 227 255
205 227 255
205 227 255
205 227 255
205 226 255
205 226 255
205 226 255
204 226 255
204 226 255
204 226 255
204 226 255
204 226 255
204 226 255
204 226 255
203 226 255
203 226 255
203 226 255
203 225 255
203 225 255
203 225 255
203 225 255
202 225 255
202 225 255
202 225 255
202 225 255
202 225 255
202 225 255
202 225 255
202 225 255
201 225 255
201 225 255
201 225 255
201 224 255
201 224 255
201 224 255
201 224 255
201 224 255
201 224 255
201 224 255
201 224 255
200 224 255
200 224 255
200 224 255
200 224 255
200 224 255
200 224 255
200 224 255
200 224 255
200 224 255
200 224 255
200 224 255
200 224 255
200 224 255
200 224 255
200 224 255
200 224 255
200 224 255
200 224 255
200 224 255
200 224 255
200 224 255
200 224 255
200 224 255
200 224 255
201 224 255
201 224 255
201 224 255
201 224 255
201 224 255
201 224 255
201 224 255
201 224 255
201 225 255
201 225 255
201 225 255
202 225 255
202 225 255
202 225 255
202 225 255
202 225 255
202 225 255
202 225 255
202 225 255
203 225 255
203 225 255
203 225 255
203 225 255
203 226 255
203 226 255
203 226 255
204 226 255
204 226 255
204 226 255
204 226 255
204 226 255
204 226 255
204 226 255
205 226 255
205 226 255
205 226 255
205 227 255
205 227 255
205 227 255
205 227 255
206 227 255
206 227 255
206 227 255
206 227 255
206 227 255
206 227 255
206 227 255
206 227 255
207 227 255
207 227 255
207 228 255
207 228 255
207 228 255
207 228 255
207 228 255
207 228 255
208 228 255
208 228 255
208 228 255
208 228 255
208 228 255
208 228 255
208 228 255
208 228 255
208 228 255
209 228 255
209 229 255
209 229 255
209 229 255
209 229 255
209 229 255
209 229 255
209 229 255
209 229 255
209 229 255
210 229 255
210 229 255
210 229 255
210 229 255
210 229 255
210 229 255
210 229 255
210 229 255
210 229 255
210 229 255
210 230 255
211 230 255
211 230 255
211 230 255
211 230 255
211 230 255
211 230 255
211 230 255
210 230 255
210 230 255
210 229 255
210 229 255
210 229 255
210 229 255
210 229 255
210 229 255
210 229 255
210 229 255
210 229 255
210 229 255
209 229 255
209 229 255
209 229 255
209 229 255
209 229 255
209 229 255
209 229 255
209 229 255
209 229 255
208 228 255
208 228 255
208 228 255
208 228 255
208 228 255
208 228 255
208 228 255
208 228 255
208 228 255
207 228 255
207 228 255
207 228 255
207 228 255
207 228 255
207 228 255
207 227 255
207 227 255
206 227 255
206 227 255
206 227 255
206 227 255
206 227 255
206 227 255
206 227 255
206 227 255
205 227 255
205 227 255
205 227 255
205 227 255
205 226 255
205 226 255
205 226 255
204 226 255
204 226 255
204 226 255
204 226 255
204 226 255
204 226 255
204 226 255
204 226 255
203 226 255
203 226 255
203 225 255
203 225 255
203 225 255
203 225 255
203 225 255
202 225 255
202 225 255
202 225 255
202 225 255
202 225 255
202 225 255
202 225 255
202 225 255
202 225 255
201 225 255
201 225 255
201 225 255
201 224 255
201 224 255
201 224 255
201 224 255
201 224 255
201 224 255
201 224 255
201 224 255
201 224 255
201 224 255
201 224 255
201 224 255
201 224 255
201 224 255
201 224 255
201 224 255
201 224 255
201 224 255
201 224 255
201 224 255
201 224 255
201 224 255
201 224 255
201 224 255
201 224 255
201 224 255
201 224 255
201 224 255
201 224 255
201 224 255
201 225 255
201 225 255
201 225 255
202 225 255
202 225 255
202 225 255
202 225 255
202 225 255
202 225 255
202 225 255
202 225 255
202 225 255
203 225 255
203 225 255
203 225 255
203 225 255
203 226 255
203 226 255
203 226 255
203 226 255
204 226 255
204 226 255
204 226 255
204 226 255
204 226 255
204 226 255
204 226 255
205 226 255
205 226 255
205 226 255
205 227 255
205 227 255
205 227 255
205 227 255
206 227 255
206 227 255
206 227 255
206 227 255
206 227 255
206 227 255
206 227 255
206 227 255
207 227 255
207 227 255
207 228 255
207 228 255
207 228 255
207 228 255
207 228 255
207 228 255
208 228 255
208 228 255
208 228 255
208 228 255
208 228 255
208 228 255
208 228 255
208 228 255
208 228 255
209 229 255
209 229 255
209 229 255
209 229 255
209 229 255
209 229 255
209 229 255
209 229 255
209 229 255
210 229 255
210 229 255
210 229 255
210 229 255
210 229 255
210 229 255
210 229 255
210 229 255
210 229 255
210 229 255
210 230 255
211 230 255
211 230 255
211 230 255
211 230 255
211 230 255
211 230 255
211 230 255
211 230 255
211 230 255
211 230 255
211 230 255
211 230 255
211 230 255
211 230 255
211 230 255
210 230 255
210 229 255
210 229 255
210 229 255
210 229 255
210 229 255
210 229 255
210 229 255
210 229 255
210 229 255
210 229 255
209 229 255
209 229 255
209 229 255
209 229 255
209 229 255
209 229 255
209 229 255
209 229 255
209 229 255
209 228 255
208 228 255
208 228 255
208 228 255
208 228 255
208 228 255
208 228 255
208 228 255
208 228 255
208 228 255
207 228 255
207 228 255
207 228 255
207 228 255
207 228 255
207 228 255
207 227 255
207 227 255
206 227 255
206 227 255
206 227 255
206 227 255
206 227 255
206 227 255
206 227 255
205 227 255
205 227 255
205 227 255
205 227 255
205 226 255
205 226 255
205 226 255
205 226 255
204 226 255
204 226 255
204 226 255
204 226 255
204 226 255
204 226 255
204 226 255
203 226 255
203 226 255
203 226 255
203 225 255
203 225 255
203 225 255
203 225 255
203 225 255
202 225 255
202 225 255
202 225 255
202 225 255
202 225 255
202 225 255
202 225 255
202 225 255
202 225 255
202 225 255
202 225 255
201 225 255
201 225 255
201 225 255
201 225 255
201 224 255
201 224 255
201 224 255
201 224 255
201 224 255
201 224 255
201 224 255
201 224 255
201 224 255
201 224 255
201 224 255
201 224 255
201 224 255
201 224 255
201 224 255
201 225 255
201 225 255
201 225 255
201 225 255
201 225 255
202 225 255
202 225 255
202 225 255
202 225 255
202 225 255
202 225 255
202 225 255
202 225 255
202 225 255
202 225 255
202 225 255
203 225 255
203 225 255
203 225 255
203 225 255
203 225 255
203 226 255
203 226 255
203 226 255
204 226 255
204 226 255
204 226 255
204 226 255
204 226 255
204 226 255
204 226 255
204 226 255
205 226 255
205 226 255
205 226 255
205 227 255
205 227 255
205 227 255
205 227 255
206 227 255
206 227 255
206 227 255
206 227 255
206 227 255
206 227 255
206 227 255
206 227 255
207 227 255
207 228 255
207 228 255
207 228 255
207 228 255
207 228 255
207 228 255
208 228 255
208 228 255
208 228 255
208 228 255
208 228 255
208 228 255
208 228 255
208 228 255
208 228 255
209 228 255
209 229 255
209 229 255
209 229 255
209 229 255
209 229 255
209 229 255
209 229 255
209 229 255
209 229 255
210 229 255
210 229 255
210 229 255
210 229 255
210 229 255
210 229 255
210 229 255
210 229 255
210 229 255
210 229 255
211 230 255
211 230 255
211 230 255
211 230 255
211 230 255
211 230 255
211 230 255
211 230 255
211 230 255
211 230 255
212 230 255
211 230 255
211 230 255
211 230 255
211 230 255
211 230 255
211 230 255
211 230 255
211 230 255
211 230 255
211 230 255
211 230 255
211 230 255
210 230 255
210 229 255
210 229 255
210 229 255
210 229 255
210 229 255
210 229 255
210 229 255
210 229 255
210 229 255
210 229 255
209 229 255
209 229 255
209 229 255
209 229 255
209 229 255
209 229 255
209 229 255
209 229 255
209 228 255
208 228 255
208 228 255
208 228 255
208 228 255
208 228 255
208 228 255
208 228 255
208 228 255
208 228 255
207 228 255
207 228 255
207 228 255
207 228 255
207 228 255
207 228 255
207 227 255
207 227 255
206 227 255
206 227 255
206 227 255
206 227 255
206 227 255
206 227 255
206 227 255
205 227 255
205 227 255
205 227 255
205 227 255
205 227 255
205 226 255
205 226 255
205 226 255
204 226 255
204 226 255
204 226 255
204 226 255
204 226 255
204 226 255
204 226 255
204 226 255
203 226 255
203 226 255
203 226 255
203 225 255
203 225 255
203 225 255
203 225 255
203 225 255
203 225 255
202 225 255
202 225 255
202 225 255
202 225 255
202 225 255
202 225 255
202 225 255
202 225 255
202 225 255
202 225 255
202 225 255
202 225 255
202 225 255
202 225 255
202 225 255
202 225 255
202 225 255
202 225 255
202 225 255
202 225 255
202 225 255
202 225 255
202 225 255
202 225 255
202 225 255
202 225 255
202 225 255
202 225 255
202 225 255
202 225 255
202 225 255
202 225 255
202 225 255
202 225 255
202 225 255
202 225 255
203 225 255
203 225 255
203 225 255
203 225 255
203 225 255
203 225 255
203 226 255
203 226 255
203 226 255
203 226 255
204 226 255
204 226 255
204 226 255
204 226 255
204 226 255
204 226 255
204 226 255
205 226 255
205 226 255
205 226 255
205 227 255
205 227 255
205 227 255
205 227 255
205 227 255
206 227 255
206 227 255
206 227 255
206 227 255
206 227 255
206 227 255
206 227 255
207 227 255
207 227 255
207 228 255
207 228 255
207 228 255
207 228 255
207 228 255
207 228 255
208 228 255
208 228 255
208 228 255
208 228 255
208 228 255
208 228 255
208 228 255
208 228 255
208 228 255
209 229 255
209 229 255
209 229 255
209 229 255
209 229 255
209 229 255
209 229 255
209 229 255
209 229 255
210 229 255
210 229 255
210 229 255
210 229 255
210 229 255
210 229 255
210 229 255
210 229 255
210 229 255
210 229 255
210 230 255
211 230 255
211 230 255
211 230 255
211 230 255
211 230 255
211 230 255
211 230 255
211 230 255
211 230 255
211 230 255
211 230 255
211 230 255
212 230 255
212 230 255
212 230 255
212 230 255
212 230 255
212 230 255
211 230 255
211 230 255
211 230 255
211 230 255
211 230 255
211 230 255
211 230 255
211 230 255
211 230 255
211 230 255
211 230 255
211 230 255
210 230 255
210 229 255
210 229 255
210 229 255
210 229 255
210 229 255
203 222 247
189 207 232
193 212 237
175 193 217
176 195 220
175 193 218
176 195 221
171 190 216
167 187 213
173 193 220
165 184 209
172 192 219
165 185 212
165 185 210
170 190 216
172 191 217
181 201 227
179 198 223
194 214 240
192 211 237
197 216 242
208 228 255
207 228 255
207 228 255
207 228 255
207 228 255
207 228 255
207 228 255
207 227 255
207 227 255
206 227 255
206 227 255
206 227 255
206 227 255
206 227 255
206 227 255
206 227 255
206 227 255
205 227 255
205 227 255
205 227 255
205 227 255
205 226 255
205 226 255
205 226 255
204 226 255
204 226 255
204 226 255
204 226 255
204 226 255
204 226 255
204 226 255
204 226 255
204 226 255
203 226 255
203 226 255
203 226 255
203 226 255
203 225 255
203 225 255
203 225 255
203 225 255
203 225 255
203 225 255
203 225 255
202 225 255
202 225 255
202 225 255
202 225 255
202 225 255
198 213 242
193 194 221
188 175 199
189 178 202
184 158 181
180 146 168
178 135 155
180 145 167
176 133 153
182 156 178
185 168 192
190 184 209
193 197 224
198 213 241
202 225 255
202 225 255
202 225 255
202 225 255
202 225 255
203 225 255
203 225 255
203 225 255
203 225 255
203 225 255
203 225 255
203 225 255
203 226 255
203 226 255
203 226 255
203 226 255
204 226 255
204 226 255
204 226 255
204 226 255
204 226 255
204 226 255
204 226 255
204 226 255
205 226 255
205 226 255
205 226 255
205 226 255
205 227 255
205 227 255
205 227 255
205 227 255
206 227 255
206 227 255
206 227 255
206 227 255
206 227 255
206 227 255
206 227 255
206 227 255
207 227 255
207 227 255
207 228 255
207 228 255
207 228 255
207 228 255
207 228 255
207 228 255
208 228 255
204 224 249
192 208 224
190 205 219
183 196 202
170 178 173
164 171 163
162 167 152
156 159 137
147 150 126
144 147 126
158 160 134
148 149 122
156 159 134
150 154 139
164 168 153
159 164 155
168 177 175
172 182 184
181 192 197
192 207 226
193 210 231
209 228 253
210 229 255
210 229 255
210 229 255
210 229 255
210 230 255
211 230 255
211 230 255
211 230 255
211 230 255
211 230 255
211 230 255
211 230 255
211 230 255
211 230 255
211 230 255
211 230 255
211 230 255
212 230 255
212 230 255
212 230 255
212 230 255
212 230 255
212 230 255
212 230 255
212 230 255
212 230 255
212 230 255
212 230 255
212 230 255
212 230 255
212 230 255
211 230 255
211 230 255
211 230 255
211 230 255
211 230 255
211 230 255
211 230 255
211 230 255
211 230 255
207 225 251
192 210 234
184 203 228
170 188 212
162 180 204
170 190 217
163 183 209
171 193 221
170 192 220
168 190 218
166 189 218
173 195 225
173 196 226
171 194 224
172 195 226
171 195 226
172 196 227
172 197 228
170 194 225
168 192 223
173 197 228
170 194 225
172 196 227
169 192 223
167 190 220
169 192 221
165 186 214
174 194 221
182 201 228
188 208 234
204 224 252
207 228 255
207 228 255
207 228 255
207 228 255
207 228 255
207 228 255
207 227 255
207 227 255
206 227 255
206 227 255
206 227 255
206 227 255
206 227 255
206 227 255
206 227 255
206 227 255
205 227 255
205 227 255
205 227 255
205 227 255
205 227 255
205 226 255
205 226 255
205 226 255
204 226 255
204 226 255
204 226 255
204 226 255
204 226 255
204 226 255
204 226 255
204 226 255
204 226 255
203 226 255
203 226 255
203 226 255
203 226 255
203 226 255
203 225 255
203 225 255
203 225 255
195 201 228
188 178 203
182 147 168
179 122 139
175 121 138
174 121 137
176 121 138
178 122 138
176 121 135
175 121 135
178 122 138
176 121 137
177 122 138
178 122 138
176 121 136
177 122 138
176 121 137
181 141 161
187 173 195
195 199 226
203 225 255
203 225 255
203 225 255
203 226 255
203 226 255
203 226 255
203 226 255
203 226 255
204 226 255
204 226 255
204 226 255
204 226 255
204 226 255
204 226 255
204 226 255
204 226 255
204 226 255
205 226 255
205 226 255
205 226 255
205 226 255
205 227 255
205 227 255
205 227 255
205 227 255
206 227 255
206 227 255
206 227 255
206 227 255
206 227 255
206 227 255
206 227 255
206 227 255
207 227 255
207 227 255
207 228 255
207 228 255
207 228 255
207 228 255
207 228 255
207 228 255
202 222 247
187 203 219
175 187 195
153 157 141
141 141 101
129 127 85
141 140 94
145 143 96
139 138 93
141 139 93
146 145 97
143 142 95
138 137 92
143 142 95
139 137 92
154 152 102
147 145 97
149 147 98
136 133 89
129 127 84
147 144 96
142 140 93
150 147 98
137 133 88
141 138 92
142 138 91
146 144 102
140 141 120
158 163 153
180 191 199
198 214 233
209 228 253
211 230 255
211 230 255
211 230 255
211 230 255
211 230 255
211 230 255
211 230 255
211 230 255
212 230 255
212 230 255
212 230 255
212 230 255
212 230 255
212 230 255
212 230 255
212 230 255
212 230 255
212 231 255
212 231 255
212 231 255
212 231 255
212 230 255
212 230 255
212 230 255
212 230 255
212 230 255
212 230 255
212 230 255
212 230 255
212 230 255
212 230 255
208 227 252
188 205 228
176 194 218
171 189 214
163 181 206
173 194 220
170 191 218
174 195 223
175 198 227
173 196 225
175 197 227
175 198 228
174 198 228
173 197 228
173 197 228
172 196 228
172 196 228
171 196 228
170 196 228
170 196 228
169 195 228
169 195 228
169 195 228
169 195 228
169 195 228
169 195 228
169 195 228
169 195 228
170 195 228
168 194 227
169 194 226
170 195 227
169 193 225
163 186 216
165 188 218
163 183 210
176 195 221
187 206 232
207 228 255
207 228 255
207 228 255
207 228 255
207 228 255
207 228 255
207 228 255
207 227 255
207 227 255
206 227 255
206 227 255
206 227 255
206 227 255
206 227 255
206 227 255
206 227 255
206 227 255
205 227 255
205 227 255
205 227 255
205 227 255
205 226 255
205 226 255
205 226 255
205 226 255
204 226 255
204 226 255
204 226 255
204 226 255
204 226 255
204 226 255
204 226 255
204 226 255
204 226 255
204 226 255
201 220 249
193 189 215
179 134 152
177 121 138
175 121 137
176 121 138
176 121 137
179 122 139
178 122 139
178 122 139
179 122 139
177 122 137
177 122 137
177 122 138
179 122 138
177 121 135
178 122 138
178 122 140
178 122 137
176 121 136
177 121 136
176 121 137
176 121 136
181 140 158
192 189 214
200 214 243
204 226 255
204 226 255
204 226 255
204 226 255
204 226 255
204 226 255
204 226 255
204 226 255
204 226 255
205 226 255
205 226 255
205 226 255
205 226 255
205 227 255
205 227 255
205 227 255
205 227 255
205 227 255
206 227 255
206 227 255
206 227 255
206 227 255
206 227 255
206 227 255
206 227 255
206 227 255
206 227 255
207 227 255
207 228 255
207 228 255
207 228 255
207 228 255
207 228 255
207 228 255
204 223 250
187 202 219
172 182 183
151 154 129
143 142 95
137 136 91
140 139 93
138 137 93
139 138 93
150 149 100
144 143 96
150 150 101
142 142 95
139 139 93
150 148 99
153 152 103
146 144 97
157 155 104
148 148 99
150 148 99
154 152 102
152 151 101
145 143 95
147 143 95
146 144 95
148 145 97
150 148 99
147 144 96
147 144 96
145 141 93
143 140 93
142 138 90
128 124 81
148 144 95
150 145 95
133 133 107
159 166 159
180 191 198
206 223 246
211 230 255
212 230 255
212 230 255
212 230 255
212 230 255
212 230 255
212 230 255
212 230 255
212 230 255
212 230 255
212 231 255
212 231 255
212 231 255
212 231 255
213 231 255
213 231 255
213 231 255
213 231 255
213 231 255
212 231 255
212 231 255
212 231 255
212 231 255
212 230 255
212 230 255
203 221 245
187 204 227
185 202 227
162 179 202
172 191 217
172 192 218
176 197 224
173 195 223
176 198 226
175 197 226
175 198 228
175 198 228
174 198 228
174 197 228
172 197 228
172 197 228
172 197 228
171 196 228
170 196 228
170 195 228
169 195 228
169 195 228
169 195 228
168 195 228
168 195 228
167 194 228
167 194 228
167 194 228
166 194 228
167 194 228
166 194 228
167 194 228
167 194 228
167 194 228
167 194 228
167 194 228
167 194 228
169 195 228
170 195 228
169 194 226
163 185 214
164 186 214
180 200 228
194 215 242
206 227 254
208 228 255
207 228 255
207 228 255
207 228 255
207 228 255
207 228 255
207 228 255
207 227 255
207 227 255
206 227 255
206 227 255
206 227 255
206 227 255
206 227 255
206 227 255
206 227 255
206 227 255
205 227 255
205 227 255
205 227 255
205 227 255
205 227 255
205 227 255
205 226 255
205 226 255
205 226 255
205 226 255
204 226 255
204 226 255
202 220 249
189 176 200
178 125 142
178 122 138
178 122 138
178 122 138
178 122 138
177 122 138
178 122 135
176 121 135
178 121 134
178 122 136
177 122 136
176 121 136
179 122 136
177 122 135
180 123 140
178 122 135
178 122 137
179 122 138
178 122 138
179 122 137
178 122 138
177 121 135
178 122 138
176 121 136
178 122 138
177 132 149
189 172 195
204 225 254
204 226 255
204 226 255
205 226 255
205 226 255
205 226 255
205 226 255
205 226 255
205 227 255
205 227 255
205 227 255
205 227 255
205 227 255
206 227 255
206 227 255
206 227 255
206 227 255
206 227 255
206 227 255
206 227 255
206 227 255
207 227 255
207 227 255
207 228 255
207 228 255
207 228 255
207 228 255
207 228 255
207 228 255
207 228 255
206 226 252
187 202 215
157 162 149
147 147 110
135 133 89
138 137 92
141 141 95
145 144 97
147 147 99
146 145 98
144 144 97
151 151 102
149 150 101
151 151 102
157 157 106
154 154 104
148 147 99
155 154 104
151 150 101
150 150 101
150 149 101
158 157 105
156 154 103
157 156 105
152 150 100
156 154 103
154 153 103
150 148 99
151 150 101
154 152 102
142 140 93
144 141 94
148 145 95
146 143 95
148 144 95
144 141 92
158 154 101
146 142 93
151 146 97
140 135 87
133 129 84
138 133 87
158 162 149
175 185 190
208 226 250
212 230 255
212 230 255
212 231 255
212 231 255
212 231 255
212 231 255
213 231 255
213 231 255
213 231 255
213 231 255
213 231 255
213 231 255
213 231 255
213 231 255
213 231 255
213 231 255
213 231 255
213 231 255
213 231 255
213 231 255
201 219 243
174 190 212
165 182 206
171 190 214
174 193 219
177 197 224
178 199 227
178 199 227
177 199 228
177 199 228
176 199 228
175 198 228
175 198 228
173 197 228
173 197 228
173 197 228
172 196 228
171 196 228
171 196 228
170 195 228
169 195 228
169 195 228
169 195 228
167 194 228
167 194 228
167 194 228
167 194 228
166 194 228
166 193 228
166 193 228
165 193 228
165 193 228
165 193 228
164 193 228
164 193 228
164 193 228
165 193 228
165 193 228
166 193 228
165 193 228
166 193 228
167 194 228
168 194 228
169 195 228
170 196 228
167 191 221
163 184 213
180 200 228
201 221 248
208 228 255
208 228 255
208 228 255
207 228 255
207 228 255
207 228 255
207 228 255
207 228 255
207 228 255
207 227 255
207 227 255
206 227 255
206 227 255
206 227 255
206 227 255
206 227 255
206 227 255
206 227 255
206 227 255
206 227 255
205 227 255
205 227 255
205 227 255
205 227 255
205 227 255
205 227 255
198 204 231
180 138 157
177 122 138
179 122 139
179 122 137
179 122 139
177 121 134
179 122 138
177 122 136
178 122 135
178 122 136
179 122 137
178 122 135
177 121 133
177 122 136
181 123 138
178 121 130
180 122 135
179 122 137
178 122 137
178 122 139
177 121 133
177 121 133
177 121 135
178 121 133
177 121 134
180 122 138
180 123 137
177 121 138
174 120 135
180 132 148
196 197 223
205 227 255
205 227 255
205 227 255
205 227 255
205 227 255
205 227 255
206 227 255
206 227 255
206 227 255
206 227 255
206 227 255
206 227 255
206 227 255
206 227 255
206 227 255
207 227 255
207 227 255
207 228 255
207 228 255
207 228 255
207 228 255
207 228 255
207 228 255
208 228 255
208 228 255
208 228 255
195 212 231
174 184 182
134 135 102
147 145 97
134 134 90
141 140 95
145 146 99
144 143 97
148 148 100
156 156 105
147 148 100
148 148 100
155 155 105
150 149 101
155 155 104
151 150 101
150 150 101
154 154 104
153 152 103
152 151 102
153 152 102
159 158 106
149 149 100
156 154 103
155 154 104
158 156 105
159 156 104
153 152 102
156 154 103
158 154 102
155 153 101
157 154 103
158 156 104
154 151 101
147 145 97
165 161 106
150 146 95
156 153 101
144 141 93
155 151 99
154 150 98
151 147 97
148 144 93
143 139 91
144 139 91
129 126 80
139 134 85
163 169 163
196 209 221
213 231 255
213 231 255
213 231 255
213 231 255
213 231 255
213 231 255
213 231 255
213 231 255
213 231 255
213 231 255
213 231 255
213 231 255
213 231 255
213 231 255
213 231 255
210 227 251
188 204 226
167 183 204
168 185 208
171 190 214
177 197 223
180 200 227
178 199 226
177 198 226
179 200 228
178 200 228
176 199 228
176 199 228
175 198 228
175 198 228
174 198 228
173 197 228
172 197 228
172 196 228
171 196 228
171 196 228
170 196 228
169 195 228
169 195 228
169 195 228
168 194 228
167 194 228
167 194 228
167 194 228
166 194 228
165 193 228
165 193 228
165 193 228
164 192 228
164 192 228
164 192 228
164 192 228
163 192 228
163 192 228
163 192 228
163 192 228
163 192 228
164 192 228
164 192 228
164 193 228
165 193 228
165 193 228
167 194 228
167 194 228
169 195 228
169 194 226
166 189 218
179 199 226
198 218 245
208 228 255
208 228 255
208 228 255
208 228 255
208 228 255
207 228 255
207 228 255
207 228 255
207 228 255
207 228 255
207 228 255
207 228 255
207 227 255
207 227 255
206 227 255
206 227 255
206 227 255
206 227 255
206 227 255
206 227 255
206 227 255
206 227 255
205 226 255
185 160 181
179 122 137
178 122 138
177 121 133
179 122 135
178 122 135
180 122 135
179 122 136
178 122 134
179 122 135
178 122 133
178 122 136
176 121 135
179 122 135
179 122 135
179 122 136
177 121 134
178 122 135
179 122 136
177 121 134
181 123 135
179 122 135
179 122 136
179 122 135
179 122 135
179 122 135
179 122 135
180 123 138
178 122 135
179 122 135
178 122 135
177 121 136
178 122 136
185 160 180
205 223 251
206 227 255
206 227 255
206 227 255
206 227 255
206 227 255
206 227 255
206 227 255
206 227 255
207 227 255
207 227 255
207 228 255
207 228 255
207 228 255
207 228 255
207 228 255
207 228 255
207 228 255
208 228 255
208 228 255
208 228 255
208 228 255
208 228 255
193 208 224
171 178 169
148 146 98
141 141 95
141 140 95
141 141 95
148 147 99
140 141 95
150 151 102
150 150 102
156 156 106
154 154 104
155 155 105
149 149 101
156 156 105
156 156 106
152 152 103
153 154 104
159 159 108
151 151 102
159 158 106
154 154 104
156 156 105
159 158 106
160 158 106
154 153 103
156 155 103
151 150 100
156 154 103
157 155 103
161 159 106
158 156 104
159 156 104
156 154 103
159 157 105
157 155 103
160 156 103
161 159 106
153 150 100
159 155 103
146 143 95
155 150 97
156 151 99
154 150 97
153 150 98
153 149 98
144 141 93
146 142 91
142 137 87
133 128 83
141 135 87
144 144 120
192 203 209
211 228 252
213 231 255
213 231 255
213 231 255
213 231 255
213 231 255
213 231 255
214 231 255
214 231 255
214 231 255
214 231 255
213 231 255
185 201 223
166 182 203
177 195 219
177 195 220
181 200 226
182 202 228
179 200 227
180 201 228
179 200 228
178 200 228
178 199 228
177 199 228
176 198 228
175 198 228
174 198 228
174 197 228
173 197 228
173 197 228
172 197 228
172 196 228
171 196 228
170 196 228
170 195 228
169 195 228
168 195 228
168 194 228
168 194 228
167 194 228
166 194 228
166 194 228
166 193 228
165 193 228
165 193 228
164 193 228
164 193 228
164 192 228
163 192 228
163 192 228
163 192 228
163 192 228
163 192 228
163 192 228
163 192 228
163 192 228
163 192 228
163 192 228
163 192 228
164 192 228
164 192 228
165 193 228
166 194 228
168 194 228
169 195 228
170 195 227
169 192 223
176 197 225
196 216 242
208 228 255
208 228 255
208 228 255
208 228 255
208 228 255
208 228 255
208 228 255
208 228 255
207 228 255
207 228 255
207 228 255
207 228 255
207 228 255
207 228 255
207 228 255
207 227 255
207 227 255
207 227 255
206 227 255
201 213 239
182 140 158
177 121 137
177 122 136
177 121 135
176 121 131
177 121 132
177 121 132
178 121 133
177 121 135
179 122 137
179 122 135
178 121 133
180 122 130
178 122 133
180 122 133
177 121 130
178 122 132
178 122 133
181 123 136
178 122 135
180 122 133
179 122 135
180 122 135
179 122 136
179 122 133
178 121 133
180 122 135
181 123 137
176 121 131
178 121 133
179 122 135
179 122 134
180 123 138
179 122 135
177 121 134
183 145 162
201 210 237
206 227 255
207 227 255
207 227 255
207 227 255
207 228 255
207 228 255
207 228 255
207 228 255
207 228 255
207 228 255
207 228 255
208 228 255
208 228 255
208 228 255
208 228 255
208 228 255
208 228 255
208 228 255
208 228 255
196 212 231
164 170 158
139 137 92
149 147 99
155 154 104
148 148 99
153 153 103
154 154 104
156 156 105
149 149 101
156 157 106
150 151 102
147 148 100
157 157 106
153 153 104
153 153 104
161 161 109
158 158 107
156 156 105
162 161 109
155 155 105
160 159 108
160 160 108
162 161 108
161 160 108
165 164 110
158 157 105
161 160 108
159 157 105
162 161 108
156 155 103
160 158 106
159 157 104
165 162 108
159 157 104
151 149 100
161 158 105
159 155 102
158 156 104
161 157 104
163 159 105
162 158 105
154 151 100
158 153 101
163 157 103
158 154 101
153 147 94
159 155 101
157 152 99
158 153 100
146 142 89
152 147 96
146 142 90
134 130 83
133 127 80
149 149 122
183 195 208
213 231 254
214 231 255
214 231 255
214 231 255
214 231 255
214 232 255
214 232 255
214 231 255
198 215 237
172 188 210
167 184 207
178 196 220
179 198 223
179 199 225
182 202 228
180 200 227
180 201 228
180 201 228
178 199 228
178 199 228
178 200 228
176 199 228
176 199 228
175 198 228
174 198 228
174 197 228
173 197 228
173 197 228
172 197 228
172 196 228
171 196 228
170 196 228
170 195 228
169 195 228
169 195 228
168 195 228
168 194 228
168 194 228
167 194 228
166 194 228
166 193 228
166 193 228
165 193 228
165 193 228
164 193 228
164 192 228
163 192 228
163 192 228
163 192 228
163 192 228
163 192 228
162 192 228
162 191 228
162 192 228
162 191 228
162 191 228
162 192 228
163 192 228
163 192 228
164 192 228
164 192 228
165 193 228
166 193 228
167 194 228
168 195 228
172 196 228
170 192 222
174 194 220
203 223 249
209 229 255
208 228 255
208 228 255
208 228 255
208 228 255
208 228 255
208 228 255
208 228 255
208 228 255
208 228 255
208 228 255
207 228 255
207 228 255
207 228 255
207 228 255
207 228 255
197 199 224
178 124 139
179 122 138
178 122 133
181 123 138
177 121 133
178 121 133
179 122 135
180 122 136
179 122 132
180 123 135
179 122 135
180 122 133
174 120 126
179 122 131
177 121 129
178 121 126
178 121 130
180 122 134
177 121 132
179 122 135
178 121 133
180 122 134
180 122 132
182 123 137
179 121 128
180 123 135
178 122 133
179 122 133
180 122 135
179 122 135
178 121 133
181 123 135
180 122 134
177 121 132
179 122 135
177 121 133
179 122 137
180 129 144
197 194 217
207 228 255
207 228 255
207 228 255
207 228 255
207 228 255
208 228 255
208 228 255
208 228 255
208 228 255
208 228 255
208 228 255
208 228 255
208 228 255
208 228 255
209 228 255
209 229 255
206 224 247
168 178 178
138 136 91
145 143 96
145 144 97
154 153 103
155 155 104
149 149 101
152 152 103
152 152 103
161 161 109
154 154 104
155 155 105
154 154 104
161 161 109
157 157 106
162 162 109
160 159 108
164 164 110
158 158 106
163 163 110
159 158 107
158 157 106
163 163 110
157 157 106
163 162 109
166 164 110
167 164 110
164 162 108
162 160 107
167 165 110
163 162 109
157 155 103
163 161 107
165 162 108
163 161 108
165 163 108
166 162 107
158 155 103
163 160 106
165 162 108
163 159 106
164 160 105
164 159 104
163 158 104
157 154 101
156 152 99
156 152 99
159 154 101
153 148 97
148 143 92
153 148 95
153 150 97
149 145 93
150 145 95
156 150 95
150 144 92
140 136 86
139 134 84
162 161 133
197 211 226
214 231 255
214 231 255
214 232 255
214 232 255
209 226 249
179 194 215
166 182 204
176 193 217
181 199 224
183 202 227
181 201 227
182 202 228
182 202 228
181 201 228
180 201 228
179 200 228
179 200 228
178 200 228
177 199 228
176 199 228
176 199 228
175 198 228
174 198 228
174 198 228
173 197 228
173 197 228
172 196 228
172 197 228
171 196 228
170 196 228
170 195 228
169 195 228
169 195 228
169 195 228
169 195 228
168 194 228
168 194 228
167 194 228
166 193 228
167 194 228
165 193 228
165 193 228
165 193 228
164 192 228
164 192 228
163 192 228
164 192 228
163 192 228
163 192 228
163 192 228
162 192 228
162 192 228
162 191 228
162 191 228
162 191 228
162 191 228
163 192 228
163 192 228
163 192 228
164 192 228
164 193 228
165 193 228
166 194 228
168 194 228
171 196 228
173 197 228
170 191 219
189 208 235
209 229 255
209 229 255
209 229 255
209 229 255
209 229 255
209 228 255
208 228 255
208 228 255
208 228 255
208 228 255
208 228 255
208 228 255
208 228 255
208 228 255
198 198 223
179 124 137
178 121 133
179 122 132
178 121 133
179 122 134
180 122 133
178 122 133
179 122 135
178 122 135
180 122 130
180 122 132
180 122 133
181 122 133
180 122 132
180 123 136
180 122 133
178 121 130
179 122 131
179 122 131
180 122 130
179 122 132
178 121 130
180 122 132
177 121 133
180 122 133
179 122 130
180 122 132
180 122 130
180 122 134
181 122 133
178 121 130
180 122 133
180 122 131
178 121 130
178 122 133
177 121 133
178 121 132
179 122 135
181 122 136
178 123 136
200 204 228
208 228 255
208 228 255
208 228 255
208 228 255
208 228 255
208 228 255
208 228 255
208 228 255
209 228 255
209 229 255
209 229 255
209 229 255
209 229 255
209 228 254
175 187 195
145 144 104
145 143 96
156 154 103
151 150 101
154 154 104
144 143 96
157 156 105
159 159 108
157 157 106
152 153 103
158 158 107
160 160 109
160 161 109
160 159 108
164 163 110
161 161 109
161 160 108
163 163 110
161 161 109
163 163 110
162 162 110
165 164 110
161 161 109
166 165 111
165 164 110
161 159 107
166 163 109
165 164 110
170 169 113
163 162 109
166 163 109
163 161 108
165 163 109
164 162 108
162 159 106
155 153 101
169 165 110
164 161 107
163 160 104
164 160 105
169 165 109
166 163 107
169 165 108
161 156 101
161 157 101
161 156 103
160 155 102
159 155 99
159 154 99
152 148 95
160 156 102
162 157 101
162 158 101
155 150 97
156 150 96
148 143 91
154 148 94
158 152 97
143 137 87
140 135 84
124 119 75
164 169 165
209 225 247
214 232 255
198 214 236
163 178 199
167 183 204
179 197 220
183 201 226
182 201 226
183 202 228
182 202 228
182 202 228
181 201 228
180 201 228
180 201 228
180 201 228
178 200 228
178 200 228
176 199 228
177 199 228
176 199 228
175 198 228
175 198 228
174 198 228
175 198 228
173 197 228
173 197 228
172 196 228
172 196 228
171 196 228
171 196 228
170 196 228
170 196 228
169 195 228
169 195 228
169 195 228
168 194 228
167 194 228
167 194 228
167 194 228
166 193 228
166 194 228
166 193 228
165 193 228
165 193 228
164 192 228
164 192 228
164 192 228
163 192 228
163 192 228
163 192 228
163 192 228
163 192 228
162 192 228
163 192 228
162 192 228
163 192 228
163 192 228
163 192 228
163 192 228
164 192 228
165 193 228
165 193 228
166 193 228
168 194 228
169 195 228
171 195 227
171 193 223
181 201 228
205 224 251
209 229 255
209 229 255
209 229 255
209 229 255
209 229 255
209 229 255
209 229 255
209 229 255
209 229 255
209 228 255
208 228 255
200 203 228
180 126 140
178 122 132
179 122 132
181 122 133
181 123 135
179 122 131
178 121 129
180 122 134
177 121 130
180 122 131
180 122 133
178 121 130
180 122 133
180 122 133
178 121 126
181 122 131
178 121 129
177 121 128
180 122 130
178 121 126
180 122 133
178 121 127
178 121 128
180 122 132
180 122 130
176 120 126
180 122 132
177 121 127
181 123 133
177 121 126
178 121 131
178 121 128
178 121 128
182 123 135
179 122 130
178 121 129
181 122 133
180 122 134
179 122 133
175 120 126
178 121 130
180 125 137
201 207 232
208 228 255
209 228 255
209 229 255
209 229 255
209 229 255
209 229 255
209 229 255
209 229 255
209 229 255
209 229 255
209 229 255
203 221 244
162 166 149
147 144 95
153 151 100
155 154 103
151 150 101
157 156 105
157 155 104
160 160 108
160 159 108
161 161 109
158 158 107
157 156 105
162 161 109
161 160 108
163 163 110
158 158 106
163 163 110
167 167 113
165 164 110
165 165 111
160 161 109
162 161 109
167 166 112
164 163 109
170 168 112
168 166 110
167 166 111
165 163 109
168 166 111
169 167 112
169 167 112
168 167 112
168 166 111
167 164 109
163 161 107
168 165 110
166 163 108
169 166 110
171 166 110
166 163 107
159 156 104
164 160 105
165 161 106
167 163 108
166 160 104
166 162 106
166 161 104
168 164 108
160 156 102
160 156 103
169 163 106
157 153 97
157 152 99
168 162 106
163 158 103
161 156 97
158 153 99
156 151 97
154 148 94
147 141 87
140 135 87
157 152 97
146 141 87
143 137 85
141 140 110
199 211 222
159 173 193
180 196 219
180 197 220
184 202 227
183 202 227
183 202 228
183 202 228
182 202 228
182 202 228
181 201 228
181 201 228
179 201 228
179 200 228
179 200 228
178 200 228
177 199 228
177 199 228
177 199 228
176 199 228
175 198 228
175 198 228
175 198 228
174 198 228
174 197 228
173 197 228
173 197 228
172 196 228
172 196 228
171 196 228
170 196 228
170 196 228
170 195 228
169 195 228
168 195 228
168 194 228
168 194 228
168 194 228
167 194 228
166 194 228
167 194 228
166 194 228
165 193 228
165 193 228
165 193 228
165 193 228
164 193 228
164 192 228
164 192 228
163 192 228
163 192 228
163 192 228
163 192 228
163 192 228
163 192 228
163 192 228
163 192 228
164 192 228
164 192 228
164 192 228
165 193 228
166 193 228
166 193 228
168 194 228
170 195 228
172 196 228
174 197 227
172 193 221
198 217 243
210 229 255
210 229 255
210 229 255
210 229 255
209 229 255
209 229 255
209 229 255
209 229 255
209 229 255
201 209 233
178 126 140
181 123 137
177 121 130
180 122 135
180 122 132
176 121 128
180 122 133
176 120 129
177 121 128
181 122 133
179 122 132
181 122 133
180 122 132
182 123 133
177 121 126
179 121 127
180 122 131
180 122 127
179 122 130
181 122 129
179 122 128
181 122 132
178 121 129
180 122 135
178 121 129
178 121 130
178 121 126
179 122 130
179 121 127
178 121 125
177 121 127
178 121 126
178 121 130
181 122 129
180 122 130
178 121 132
178 121 126
179 122 135
180 122 135
182 122 130
178 121 129
179 121 133
178 121 131
178 126 136
203 211 235
209 229 255
209 229 255
209 229 255
209 229 255
209 229 255
210 229 255
210 229 255
210 229 255
210 229 255
196 212 229
151 151 115
143 141 93
152 150 100
151 149 100
156 155 104
157 156 105
157 156 105
156 154 104
159 158 107
156 155 105
159 159 108
164 164 110
158 158 106
165 164 111
163 162 109
167 166 112
164 163 110
165 164 110
168 166 111
163 162 109
163 162 109
166 166 112
169 168 113
164 163 110
169 167 112
170 168 113
168 165 110
169 167 112
166 164 110
165 162 108
169 166 110
168 166 110
159 157 104
169 166 110
171 167 110
168 166 110
169 165 109
174 169 112
169 165 109
170 166 110
169 165 109
170 165 106
162 159 104
166 161 106
167 163 107
170 165 107
166 162 104
161 157 103
164 160 105
165 161 104
159 155 101
164 159 103
158 152 99
167 162 104
159 154 99
158 153 98
163 157 101
166 161 104
161 155 97
155 149 94
153 147 94
145 141 88
152 146 91
149 143 92
140 135 85
136 131 80
140 134 82
178 194 217
183 200 224
184 202 226
185 203 228
184 203 228
184 203 228
183 203 228
183 202 228
182 202 228
181 201 228
180 201 228
180 201 228
179 201 228
179 200 228
179 200 228
179 200 228
178 199 228
177 199 228
176 199 228
176 199 228
176 199 228
175 198 228
175 198 228
175 198 228
174 198 228
173 197 228
173 197 228
172 197 228
172 197 228
170 196 228
171 196 228
171 196 228
170 196 228
170 195 228
169 195 228
168 195 228
169 195 228
168 195 228
168 194 228
167 194 228
167 194 228
167 194 228
166 194 228
166 193 228
166 193 228
165 193 228
165 193 228
164 193 228
164 193 228
164 192 228
164 192 228
164 192 228
164 192 228
164 192 228
164 192 228
164 192 228
164 192 228
164 192 228
165 193 228
165 193 228
165 193 228
166 193 228
167 194 228
168 194 228
169 195 228
171 196 228
172 195 225
169 190 217
192 211 236
210 229 255
210 229 255
210 229 255
210 229 255
210 229 255
210 229 255
210 229 255
209 226 251
181 143 156
179 121 133
176 120 128
181 122 133
178 121 129
178 121 127
177 121 125
178 121 125
178 121 126
181 122 132
178 121 128
179 121 126
178 121 129
176 121 128
179 122 129
180 122 132
179 122 130
178 121 127
180 122 130
180 122 133
179 121 126
179 121 130
178 121 130
179 122 131
181 122 131
178 121 126
180 122 130
179 122 131
177 120 123
180 121 126
180 122 128
176 120 123
178 121 128
180 122 130
179 122 128
181 123 134
179 121 130
182 123 133
178 121 130
180 122 130
177 121 130
178 121 129
179 122 130
178 121 130
179 121 131
178 133 147
207 223 248
210 229 255
210 229 255
210 229 255
210 229 255
210 229 255
210 229 255
210 229 255
187 199 207
146 144 97
142 140 94
153 151 101
158 155 104
165 161 108
160 158 107
167 164 110
160 156 105
160 159 108
161 160 108
161 160 108
165 164 110
163 162 109
164 161 108
162 160 108
167 165 111
166 165 112
168 167 112
168 166 112
167 165 111
169 168 113
168 167 112
169 167 112
170 168 112
168 167 112
167 166 111
170 167 110
168 165 110
168 166 110
166 163 109
167 165 110
174 169 112
170 167 112
168 164 109
171 167 109
171 167 110
170 167 110
170 165 108
172 168 111
164 160 106
170 165 108
167 164 106
170 165 109
169 166 109
164 160 106
172 167 109
163 159 104
164 160 103
160 156 100
167 162 106
163 159 103
171 164 107
167 162 103
163 159 101
168 163 103
162 157 99
169 163 103
158 153 98
169 162 104
157 152 95
150 145 90
164 158 97
152 146 90
141 136 85
155 149 94
153 148 91
144 138 84
143 137 84
184 202 225
186 203 227
186 204 228
185 203 228
185 204 228
184 203 228
182 202 228
183 202 228
182 202 228
181 201 228
181 201 228
180 201 228
180 201 228
180 201 228
179 200 228
179 200 228
179 200 228
178 200 228
177 199 228
177 199 228
176 199 228
176 199 228
176 199 228
175 198 228
175 198 228
174 198 228
174 197 228
173 197 228
172 197 228
173 197 228
172 197 228
172 196 228
171 196 228
171 196 228
171 196 228
170 196 228
170 195 228
169 195 228
169 195 228
168 195 228
168 195 228
168 195 228
167 194 228
167 194 228
167 194 228
166 193 228
166 193 228
166 193 228
166 193 228
165 193 228
165 193 228
165 193 228
165 193 228
165 193 228
165 193 228
165 193 228
165 193 228
165 193 228
165 193 228
166 193 228
165 193 228
166 194 228
167 194 228
168 194 228
169 195 228
170 195 228
172 197 228
174 198 228
169 190 218
193 212 238
211 230 255
211 230 255
211 230 255
211 230 255
211 230 255
210 230 255
188 163 180
177 121 130
181 122 133
179 122 131
180 122 132
181 122 131
180 122 132
179 122 131
179 121 128
177 121 129
180 122 127
178 121 127
181 122 131
178 121 125
181 122 133
181 122 132
182 123 132
176 120 123
181 122 131
179 121 126
180 122 131
175 120 124
179 122 131
181 122 133
176 120 123
177 120 121
182 122 130
180 122 127
179 121 129
179 121 126
177 121 126
178 121 130
181 122 130
177 120 125
177 121 128
180 122 131
182 122 130
179 122 130
178 121 125
177 120 123
178 121 129
179 121 131
177 120 124
181 122 134
180 122 133
176 120 127
179 121 132
184 156 169
210 230 255
211 230 255
211 230 255
211 230 255
211 230 255
211 230 255
178 187 191
156 152 99
152 148 99
151 149 100
158 156 104
161 156 104
158 154 103
162 160 107
162 159 107
164 159 107
167 165 111
165 162 109
163 162 109
161 160 108
169 167 112
168 164 111
164 163 109
167 165 111
169 167 112
168 167 112
167 165 110
169 167 112
167 166 111
167 166 112
167 166 112
171 169 113
171 169 113
171 169 113
172 169 112
171 168 112
173 169 111
169 166 110
170 167 112
170 167 110
168 166 110
171 168 111
168 165 110
173 169 112
171 167 110
170 166 108
173 169 110
174 168 110
166 162 105
168 163 107
169 164 107
171 166 108
175 168 109
169 165 106
171 165 107
171 164 105
167 161 103
165 159 103
163 158 101
166 161 103
167 162 104
166 161 101
167 162 106
164 158 101
164 159 102
169 163 101
163 157 99
163 156 98
156 150 93
159 152 95
157 151 95
152 147 90
141 136 86
154 148 93
153 147 90
151 144 91
187 205 228
187 204 228
186 204 228
186 204 228
185 204 228
185 204 228
184 203 228
183 202 228
183 202 228
182 202 228
181 202 228
181 201 228
180 201 228
180 201 228
179 200 228
180 201 228
179 200 228
179 200 228
179 200 228
178 200 228
177 199 228
177 199 228
176 199 228
176 199 228
176 199 228
175 198 228
175 198 228
175 198 228
174 198 228
174 198 228
173 197 228
173 197 228
173 197 228
172 197 228
172 197 228
172 196 228
171 196 228
170 196 228
171 196 228
170 195 228
169 195 228
169 195 228
169 195 228
169 195 228
168 194 228
168 194 228
168 194 228
167 194 228
167 194 228
167 194 228
167 194 228
166 194 228
166 194 228
166 193 228
166 194 228
166 193 228
166 193 228
166 193 228
166 193 228
166 194 228
167 194 228
167 194 228
167 194 228
168 195 228
169 195 228
170 196 228
171 196 228
173 197 228
176 198 228
175 196 224
185 202 226
211 230 255
211 230 255
211 230 255
211 230 255
198 196 217
180 122 131
179 122 133
177 120 126
181 122 132
180 122 130
177 120 123
176 120 123
178 121 126
179 121 129
180 122 129
178 121 127
178 121 123
177 120 124
176 119 118
178 121 130
179 121 127
176 120 122
179 121 127
178 121 128
177 121 125
179 121 124
177 120 123
181 122 129
178 121 126
178 121 129
178 121 125
180 122 130
182 122 130
180 122 128
179 121 126
180 122 129
179 121 126
178 121 126
181 122 129
180 122 126
180 122 130
180 122 125
179 121 126
179 121 127
176 119 119
179 121 129
181 122 130
178 121 126
181 123 133
176 120 126
176 119 125
180 122 133
177 120 133
198 194 213
211 230 255
211 230 255
211 230 255
211 230 255
186 196 198
149 144 95
152 148 97
156 152 101
150 146 98
155 151 101
164 158 106
162 155 103
159 155 104
169 164 111
166 163 110
163 159 107
162 159 106
165 162 109
162 159 107
167 164 110
167 165 111
168 165 110
169 167 112
172 169 113
167 164 110
169 167 112
169 167 112
170 167 110
170 167 111
173 170 113
170 168 112
173 170 113
172 168 112
173 170 113
172 168 111
170 167 111
171 168 110
168 165 109
175 171 113
172 168 110
171 168 112
172 168 111
172 168 110
169 165 109
171 168 110
171 166 110
175 170 111
172 167 110
178 172 113
173 168 110
168 163 105
174 169 110
173 168 107
172 167 108
171 165 108
167 161 103
170 164 105
164 159 101
164 160 103
167 162 103
174 168 109
160 155 96
167 161 100
163 157 99
166 160 101
163 157 101
160 154 94
156 150 95
159 153 93
158 152 95
150 144 87
151 145 89
154 148 90
144 139 87
151 145 88
188 205 228
187 205 228
187 205 228
186 204 228
185 204 228
185 203 228
185 203 228
183 202 228
183 202 228
183 203 228
183 202 228
183 202 228
181 202 228
181 202 228
181 201 228
181 201 228
180 201 228
181 201 228
179 200 228
179 200 228
179 200 228
178 200 228
178 200 228
178 200 228
177 199 228
177 199 228
177 199 228
176 199 228
175 198 228
175 198 228
176 198 228
174 198 228
174 197 228
174 197 228
173 197 228
173 197 228
173 197 228
172 197 228
172 196 228
171 196 228
171 196 228
171 196 228
170 196 228
170 195 228
169 195 228
169 195 228
170 195 228
169 195 228
169 195 228
168 195 228
168 194 228
168 194 228
167 194 228
168 194 228
167 194 228
168 194 228
167 194 228
168 194 228
167 194 228
167 194 228
167 194 228
168 194 228
169 195 228
168 194 228
169 195 228
171 196 228
170 196 228
172 197 228
174 198 228
177 199 228
174 195 221
195 213 237
212 230 255
212 230 255
211 228 252
181 137 146
176 120 128
178 121 128
178 121 126
178 121 123
180 121 127
179 121 128
181 122 133
179 121 125
178 121 127
178 121 126
178 121 126
180 121 126
177 120 120
178 121 128
178 121 126
179 121 123
175 119 119
179 121 125
179 121 127
180 122 126
179 121 127
180 121 124
176 120 120
178 121 125
178 121 124
178 121 126
175 119 119
178 121 124
180 122 127
176 120 122
180 122 127
179 121 126
175 120 120
178 121 126
179 122 130
177 120 122
176 119 120
176 119 117
178 121 126
177 121 127
178 120 123
181 122 132
179 121 125
176 120 123
177 121 126
177 120 127
176 120 126
177 120 126
180 136 147
210 224 249
212 230 255
212 230 255
186 197 201
150 145 93
147 143 94
161 156 103
149 139 92
158 153 102
160 155 104
158 155 104
161 155 104
159 153 103
159 153 102
160 156 105
168 164 110
165 161 108
170 165 110
168 161 107
169 166 111
172 167 112
172 167 111
168 165 110
172 168 112
172 169 112
169 165 110
174 171 114
170 169 113
174 171 114
172 168 112
174 170 112
172 169 112
174 170 112
177 173 114
175 170 112
172 169 112
171 168 111
174 170 113
174 171 112
176 171 112
172 168 109
167 163 105
173 169 111
172 168 109
176 171 110
172 166 107
171 167 110
176 171 108
176 171 110
169 164 105
174 168 104
174 168 108
170 165 106
172 167 106
165 160 101
173 167 108
167 161 103
169 164 106
164 159 99
170 164 103
168 162 102
170 164 102
165 159 99
166 160 100
165 160 97
167 161 101
158 153 95
159 154 93
148 142 88
160 153 95
163 156 96
155 149 93
158 153 91
152 146 87
155 148 90
188 205 228
187 205 228
187 205 228
186 204 228
186 204 228
185 204 228
184 203 228
184 203 228
184 203 228
183 203 228
183 202 228
183 202 228
182 202 228
182 202 228
183 202 228
181 201 228
181 201 228
181 201 228
180 201 228
180 201 228
180 201 228
180 201 228
179 200 228
178 200 228
178 200 228
178 200 228
178 200 228
177 199 228
176 199 228
176 199 228
176 198 228
175 198 228
175 198 228
175 198 228
175 198 228
174 198 228
174 198 228
174 197 228
173 197 228
173 197 228
173 197 228
172 197 228
172 196 228
172 196 228
171 196 228
171 196 228
171 196 228
169 195 228
170 196 228
170 195 228
170 195 228
170 195 228
170 195 228
169 195 228
169 195 228
169 195 228
169 195 228
169 195 228
169 195 228
168 195 228
170 195 228
169 195 228
169 195 228
170 195 228
170 195 228
171 196 228
171 196 228
172 197 228
174 197 228
176 199 228
177 199 228
174 193 219
199 217 240
212 231 255
194 182 201
178 121 131
176 119 124
180 122 134
176 120 122
178 121 123
178 121 122
179 121 128
179 121 127
179 121 126
178 121 125
180 121 126
178 121 123
176 120 123
177 120 120
178 121 123
176 120 122
180 122 132
175 119 118
178 121 124
178 121 125
180 122 127
178 121 122
178 121 124
179 121 126
179 121 123
180 122 127
176 120 119
179 121 126
180 122 126
179 121 126
177 121 128
181 122 130
179 121 126
178 121 124
177 120 121
175 119 119
176 119 120
181 122 130
178 121 122
177 120 123
175 119 121
179 121 128
179 121 124
179 121 124
179 121 126
177 120 120
179 121 130
177 120 126
179 121 132
176 119 123
191 175 191
212 231 255
193 206 218
141 137 93
154 148 98
160 152 100
162 155 104
155 147 98
160 150 100
162 151 101
164 155 103
162 152 101
161 154 102
164 158 107
164 155 104
166 158 106
163 157 104
167 159 106
171 165 111
171 167 111
172 167 112
171 166 109
170 167 112
169 165 110
173 168 112
173 170 112
174 170 113
174 170 112
176 171 113
171 168 111
174 170 112
174 171 112
172 169 111
175 171 112
172 168 110
173 168 109
177 172 112
175 170 111
175 169 109
176 171 110
177 172 113
173 169 110
175 170 112
174 169 109
174 169 109
171 167 108
174 169 109
172 168 108
175 169 108
171 167 109
176 170 108
173 167 107
170 165 105
169 164 105
174 167 106
170 164 104
170 164 103
170 164 105
172 166 104
170 164 105
167 161 99
160 154 93
157 151 96
161 155 97
169 163 101
169 162 100
169 163 101
167 161 100
152 146 90
160 155 96
158 153 90
153 146 90
167 161 99
156 151 93
157 150 89
189 206 228
187 205 228
187 205 228
186 204 228
186 204 228
186 204 228
186 204 228
185 204 228
185 204 228
184 203 228
184 203 228
183 203 228
183 202 228
182 202 228
183 203 228
182 202 228
182 202 228
182 202 228
181 202 228
182 202 228
181 201 228
180 201 228
180 201 228
179 200 228
179 200 228
179 200 228
179 200 228
178 200 228
179 200 228
178 200 228
178 200 228
177 199 228
177 199 228
176 199 228
176 198 228
175 198 228
175 198 228
175 198 228
175 198 228
174 198 228
174 198 228
174 198 228
174 198 228
173 197 228
173 197 228
173 197 228
173 197 228
173 197 228
172 197 228
171 196 228
172 197 228
172 196 228
171 196 228
171 196 228
171 196 228
170 196 228
170 196 228
171 196 228
171 196 228
170 196 228
171 196 228
171 196 228
170 196 228
171 196 228
171 196 228
172 197 228
173 197 228
174 197 228
174 198 228
176 199 228
177 199 228
179 200 228
174 192 216
204 216 239
178 130 140
176 120 125
177 120 121
177 120 124
177 120 119
180 121 128
178 121 126
179 121 124
177 120 121
178 121 124
177 120 123
179 121 123
181 122 126
177 120 123
177 121 126
177 120 123
177 120 121
180 122 129
179 121 120
175 119 118
177 120 123
179 121 126
178 120 124
178 121 126
178 120 118
180 122 129
177 120 123
180 121 123
178 120 123
176 120 122
178 120 123
178 121 123
178 121 125
176 120 122
177 120 123
178 120 122
177 120 120
180 121 125
177 120 122
177 121 124
176 120 123
179 121 123
177 120 120
177 120 121
180 121 124
181 122 128
178 121 127
179 121 127
175 119 117
180 121 129
177 119 123
181 127 137
197 210 229
150 146 100
151 144 95
145 139 91
155 147 98
152 142 95
157 147 98
160 149 99
160 149 99
161 150 100
164 155 103
166 150 99
163 152 101
164 153 102
163 154 103
169 163 108
171 161 107
166 156 103
169 162 106
172 167 111
172 166 109
169 163 108
172 165 108
171 166 108
173 170 112
175 171 111
176 171 113
176 171 111
172 168 109
177 171 112
176 171 113
175 169 108
173 168 109
176 171 112
171 166 107
176 171 112
174 169 109
177 172 113
176 170 108
177 171 109
178 173 112
175 169 109
178 171 109
173 168 108
175 169 109
175 169 105
171 166 106
178 172 110
174 167 107
176 170 110
174 168 106
175 168 106
173 168 104
168 163 103
172 166 103
171 166 106
169 163 103
174 167 104
174 168 108
170 164 101
162 156 96
174 168 106
169 163 101
165 158 96
169 162 101
164 157 95
165 159 99
160 154 93
160 154 90
166 159 95
159 153 91
163 157 95
156 150 90
161 154 97
189 206 228
188 205 228
187 204 228
187 205 228
188 205 228
187 205 228
187 205 228
186 204 228
186 204 228
186 204 228
185 204 228
185 204 228
184 203 228
184 203 228
183 203 228
183 203 228
184 203 228
183 202 228
183 202 228
182 202 228
182 202 228
181 201 228
181 201 228
181 201 228
181 201 228
181 201 228
181 201 228
180 201 228
180 201 228
180 201 228
179 200 228
179 200 228
178 200 228
178 200 228
178 200 228
177 199 228
177 199 228
177 199 228
177 199 228
177 199 228
176 199 228
176 199 228
175 198 228
174 198 228
175 198 228
175 198 228
174 198 228
174 197 228
174 198 228
174 197 228
173 197 228
174 197 228
173 197 228
173 197 228
172 197 228
172 197 228
172 197 228
173 197 228
172 197 228
172 197 228
173 197 228
171 194 226
171 193 224
172 193 224
171 191 221
171 189 219
171 191 221
172 192 223
175 197 228
175 198 228
177 199 228
179 200 228
182 202 228
178 169 188
177 120 126
180 122 126
175 119 116
177 120 122
179 121 124
179 121 124
177 120 121
180 122 127
182 122 130
178 120 121
179 121 124
181 122 125
177 120 122
177 120 119
180 122 127
178 121 123
180 121 124
179 121 124
176 120 120
180 122 127
177 120 123
179 121 125
178 121 125
176 120 119
178 120 118
177 120 122
177 120 121
178 121 126
177 120 123
179 121 124
176 119 118
180 121 125
180 121 125
178 120 123
177 120 118
178 120 121
176 119 118
177 119 116
177 120 118
177 120 121
177 120 120
177 120 118
179 120 122
178 120 122
178 120 121
178 120 124
181 122 127
179 121 123
180 122 129
173 117 114
179 121 129
178 120 126
159 127 114
158 151 97
150 140 92
151 140 92
159 146 96
147 134 88
146 129 85
164 149 99
161 145 96
163 151 100
163 149 99
167 154 103
162 147 96
168 155 103
165 156 102
167 156 104
170 158 105
172 162 107
170 162 107
173 163 107
175 166 110
173 166 109
173 165 109
175 167 109
175 169 110
177 170 111
173 168 109
176 170 112
176 170 109
176 171 112
176 171 111
177 172 109
178 173 111
176 170 110
179 173 111
176 171 109
176 171 112
176 170 110
174 169 109
175 170 108
176 170 110
178 172 111
178 172 109
177 170 109
175 169 108
174 168 104
176 170 107
175 169 108
177 171 108
175 168 107
177 170 109
177 170 106
172 165 99
175 168 104
174 167 104
168 162 103
178 170 105
166 160 99
175 168 104
168 162 101
169 163 98
167 161 99
169 163 100
165 159 96
169 162 97
165 158 95
163 157 99
166 159 97
164 156 96
166 160 93
158 152 88
162 156 95
157 151 90
155 150 92
189 206 228
189 206 228
188 205 228
188 205 228
188 205 228
187 205 228
187 205 228
188 205 228
187 204 228
187 205 228
186 204 228
185 204 228
185 204 228
185 204 228
185 203 228
183 203 228
184 203 228
183 203 228
183 203 228
183 203 228
183 203 228
183 202 228
183 202 228
181 201 228
182 202 228
181 202 228
182 202 228
181 201 228
181 201 228
181 201 228
180 201 228
180 201 228
180 201 228
179 200 228
178 200 228
179 200 228
180 201 228
178 200 228
178 200 228
179 200 228
178 200 228
177 199 228
177 199 228
177 199 228
177 199 228
176 199 228
177 199 228
176 199 228
176 198 228
175 198 228
176 198 228
175 198 228
175 198 228
175 198 228
175 198 228
174 198 228
175 198 228
175 198 228
175 198 228
174 194 224
173 195 226
170 186 216
171 187 217
169 182 211
168 178 206
168 178 206
167 175 202
168 176 203
169 178 206
171 183 211
177 195 223
180 200 228
181 201 228
174 135 143
178 120 126
179 121 128
174 118 116
175 119 120
177 120 120
176 119 117
180 122 126
178 121 125
180 122 127
176 120 121
176 120 120
173 118 114
175 119 115
178 121 125
178 120 121
175 119 117
176 119 115
177 120 120
174 118 113
179 121 123
177 120 119
180 121 126
177 120 119
175 119 115
176 120 118
176 120 118
174 118 111
178 120 123
176 119 118
178 120 120
177 120 119
177 119 116
177 120 121
180 122 126
179 121 121
177 121 124
177 120 120
176 119 114
178 120 118
174 118 112
180 122 126
181 122 126
178 121 123
177 121 125
181 122 129
176 120 120
176 120 120
176 119 121
175 119 116
175 118 115
175 119 116
177 119 121
172 122 116
155 145 94
155 142 94
152 129 84
154 135 89
150 132 87
158 135 89
160 138 91
156 139 92
159 130 86
160 138 91
163 145 95
167 154 103
166 152 101
169 154 101
170 158 103
169 156 102
170 162 106
175 163 107
173 165 109
174 164 107
174 164 106
177 169 108
175 166 107
176 167 109
176 170 110
175 169 109
176 171 112
178 172 110
179 173 109
175 170 109
178 172 111
177 171 109
177 171 109
178 173 110
177 172 111
176 171 106
178 172 109
178 172 110
178 172 109
177 170 106
181 173 108
176 171 107
173 167 103
177 171 106
176 170 106
176 170 106
177 170 105
174 169 104
176 170 106
173 168 104
175 168 106
174 168 104
177 170 106
175 168 105
178 171 106
171 165 102
167 161 97
170 163 99
171 165 100
171 165 102
167 160 98
169 162 97
168 161 99
166 160 97
169 162 97
165 158 97
163 156 94
166 159 96
167 160 95
153 148 87
158 152 89
154 147 89
148 142 83
190 206 228
189 206 228
189 206 228
189 206 228
189 206 228
188 205 228
188 205 228
187 205 228
188 205 228
187 204 228
188 205 228
186 204 228
187 205 228
186 204 228
186 204 228
186 204 228
185 204 228
185 204 228
185 204 228
185 203 228
185 203 228
184 203 228
184 203 228
183 202 228
183 203 228
183 202 228
183 202 228
183 202 228
182 202 228
182 202 228
182 202 228
182 202 228
182 202 228
181 201 228
181 201 228
181 201 228
181 201 228
181 201 228
180 201 228
180 201 228
179 200 228
179 200 228
179 200 228
178 200 228
178 200 228
179 200 228
178 200 228
178 200 228
177 199 228
177 199 228
177 199 228
178 199 228
177 199 228
177 199 228
176 199 228
176 199 228
176 199 228
177 199 228
176 198 228
174 191 220
173 187 215
171 183 210
168 174 200
167 167 194
165 162 187
161 147 170
158 146 169
158 142 165
162 153 176
162 160 183
168 176 202
178 192 218
178 177 198
174 118 122
180 121 125
179 121 126
177 120 119
177 120 121
179 121 124
176 120 118
179 120 124
176 120 118
176 120 121
177 120 118
179 121 121
174 119 114
177 120 120
181 122 126
177 120 116
180 121 123
174 118 113
178 121 121
175 119 113
180 122 126
178 120 121
174 118 113
177 120 123
179 121 122
179 121 123
178 120 119
181 122 123
179 121 121
176 120 118
177 119 114
178 120 122
178 120 118
176 120 122
176 120 117
177 120 118
178 120 123
178 121 120
177 120 118
176 120 118
179 121 123
175 119 116
176 120 117
175 118 113
177 120 117
178 120 122
177 120 121
176 120 118
178 120 124
176 119 118
176 119 118
173 118 116
170 115 111
171 114 109
147 121 90
154 135 88
154 135 89
143 119 78
151 124 80
154 133 88
150 131 86
160 135 88
159 135 88
162 135 88
162 139 91
165 144 94
165 146 95
170 156 103
171 160 104
173 161 104
171 155 100
173 160 103
173 162 104
176 163 104
172 161 104
175 166 106
175 169 108
176 167 107
174 168 106
178 172 111
178 172 110
177 172 110
176 170 107
178 171 110
175 170 108
174 169 105
178 171 107
179 172 110
178 172 109
178 172 107
177 171 108
177 171 104
180 172 109
178 172 108
177 171 107
179 172 108
178 171 108
176 169 103
179 172 109
178 171 104
174 167 102
176 169 102
176 169 105
173 167 101
179 171 107
173 167 101
177 169 101
177 170 106
174 167 101
173 167 101
172 165 99
171 164 95
174 166 103
164 158 95
172 164 97
171 164 101
166 159 95
165 158 94
163 157 97
160 153 89
173 165 103
163 157 95
164 157 95
155 149 87
161 155 93
160 152 92
152 146 84
190 206 228
190 206 228
190 206 228
191 207 228
190 206 228
190 206 228
190 206 228
189 206 228
189 205 228
189 205 228
188 205 228
187 205 228
187 205 228
188 205 228
188 205 228
187 205 228
186 204 228
187 204 228
185 204 228
186 204 228
185 204 228
186 204 228
185 204 228
185 204 228
186 204 228
185 203 228
185 203 228
184 203 228
184 203 228
184 203 228
184 203 228
184 203 228
183 203 228
183 203 228
182 202 228
182 202 228
182 202 228
182 202 228
182 202 228
182 202 228
181 201 228
181 201 228
181 201 228
180 201 228
181 201 228
180 201 228
180 201 228
179 200 228
179 200 228
180 201 228
180 201 228
180 201 228
179 200 228
179 200 228
178 200 228
179 200 228
179 199 228
178 198 226
176 193 221
175 188 215
170 175 200
168 163 186
164 157 180
163 153 174
157 135 154
156 130 149
154 124 143
151 114 131
154 128 147
153 131 151
158 145 167
164 161 184
174 158 172
174 118 119
176 120 120
175 119 114
175 119 115
178 121 123
179 121 120
178 120 121
178 120 120
177 120 119
178 120 122
178 120 122
178 121 119
175 119 115
176 119 116
178 120 118
176 120 118
177 120 120
175 119 113
180 121 122
174 118 113
177 120 114
176 120 116
176 120 117
180 121 122
179 121 120
178 120 124
174 119 113
177 120 118
175 119 114
178 121 120
178 120 123
177 120 118
176 119 116
177 120 118
174 119 113
179 121 120
175 119 114
175 119 117
179 121 123
177 120 114
176 119 119
176 119 113
176 119 121
174 118 113
177 120 121
180 121 123
177 119 116
177 119 118
175 119 118
176 119 117
177 119 119
177 119 122
175 118 117
174 117 115
161 116 100
147 124 81
141 114 74
144 113 72
146 120 78
149 118 76
149 118 76
156 133 87
159 134 86
159 135 89
161 134 87
166 146 96
167 149 96
170 154 99
167 148 96
168 151 97
172 156 98
172 158 101
175 164 106
176 165 107
175 165 105
175 165 104
178 170 108
175 169 107
177 169 107
177 169 107
180 172 110
177 171 110
178 170 106
176 170 104
178 172 109
177 171 105
176 171 108
176 171 106
178 172 110
176 169 102
179 172 109
177 171 106
179 172 108
177 170 105
178 171 107
177 170 106
175 168 103
179 172 108
176 168 104
174 167 102
175 169 104
177 170 103
174 168 104
179 171 104
179 171 104
178 170 103
169 163 96
172 166 99
176 169 101
172 165 98
178 170 105
169 163 99
170 163 99
171 164 96
169 162 98
167 160 96
174 166 101
169 162 98
170 162 98
167 160 95
163 157 91
164 158 95
158 152 87
163 157 90
157 150 90
159 153 89
167 160 97
191 207 228
191 207 228
191 207 228
191 207 228
190 206 228
191 207 228
190 207 228
190 206 228
189 206 228
190 206 228
189 206 228
189 205 228
189 206 228
189 206 228
189 205 228
188 205 228
188 205 228
188 205 228
187 205 228
187 205 228
188 205 228
187 205 228
188 205 228
187 205 228
187 204 228
186 204 228
186 204 228
185 204 228
185 204 228
185 204 228
186 204 228
186 204 228
185 204 228
185 204 228
184 203 228
184 203 228
185 203 228
184 203 228
184 203 228
183 203 228
183 203 228
182 202 228
183 203 228
183 202 228
183 202 228
182 202 228
182 202 228
183 202 228
182 202 228
182 202 228
182 202 228
181 201 228
181 201 228
181 202 228
180 201 228
181 202 228
180 200 228
179 196 223
177 190 215
174 182 207
169 164 187
168 157 178
159 134 150
157 123 137
154 113 126
153 112 126
148 102 115
142 97 108
143 98 112
143 97 111
145 108 125
149 126 144
170 119 124
177 119 120
175 119 114
175 118 115
177 120 121
180 121 122
180 121 122
177 120 119
179 121 123
177 119 119
176 119 118
176 119 114
177 120 119
174 118 111
180 121 123
177 120 118
176 119 113
176 120 117
175 119 117
178 120 117
177 120 118
174 118 112
175 119 116
176 119 114
177 120 116
174 118 112
179 120 116
177 120 118
179 121 123
178 120 119
174 118 112
176 119 115
177 120 118
177 120 118
175 119 118
177 119 113
179 121 119
175 119 114
178 121 122
175 119 113
176 119 115
177 119 115
176 119 114
177 120 117
175 119 117
178 120 117
178 120 118
178 120 120
177 120 123
178 120 118
177 119 119
175 119 116
175 118 118
173 117 110
178 120 119
167 114 110
137 102 65
134 93 58
139 103 66
143 107 67
145 105 66
147 116 74
150 110 69
155 124 81
163 139 90
159 129 83
163 141 90
165 141 90
165 142 91
167 151 98
171 156 99
172 156 99
172 160 101
171 157 98
172 160 98
175 161 100
177 166 104
176 166 105
178 167 104
177 168 105
176 166 102
178 171 108
180 173 108
180 172 106
178 172 108
178 171 106
176 170 104
178 171 105
179 171 106
177 171 106
177 171 104
181 174 109
179 171 103
179 171 106
178 172 108
178 170 106
178 172 107
178 171 104
178 172 108
175 168 105
177 170 101
176 169 104
181 173 105
177 170 103
175 168 100
174 166 103
176 168 96
172 166 98
175 168 101
175 167 97
175 168 99
175 168 99
170 164 96
176 168 97
166 159 93
169 163 97
169 163 96
172 165 103
167 160 95
167 160 92
169 161 97
165 158 93
163 157 95
162 155 86
162 154 90
156 150 85
167 160 89
163 156 92
193 208 228
191 207 228
192 207 228
191 207 228
191 207 228
191 207 228
191 207 228
190 206 228
191 207 228
190 206 228
190 206 228
191 207 228
190 206 228
190 206 228
190 206 228
189 206 228
188 205 228
189 205 228
189 205 228
189 205 228
189 205 228
188 205 228
188 205 228
188 205 228
188 205 228
188 205 228
187 205 228
188 205 228
188 205 228
187 205 228
187 205 228
187 204 228
187 204 228
186 204 228
186 204 228
186 204 228
186 204 228
186 204 228
185 204 228
186 204 228
185 203 228
185 204 228
184 203 228
185 204 228
185 203 228
184 203 228
184 203 228
183 203 228
184 203 228
183 202 228
183 202 228
183 202 228
183 202 228
183 203 228
182 202 228
183 202 228
182 198 224
178 190 214
176 182 205
174 174 197
167 153 172
161 136 149
158 126 140
155 111 119
153 104 113
150 102 113
148 101 113
146 99 111
140 92 101
137 90 103
130 82 95
138 93 106
175 118 120
175 119 118
177 120 122
175 119 117
176 119 115
175 119 113
177 120 119
173 118 111
179 121 124
175 119 111
175 118 111
178 120 120
177 120 118
179 121 118
175 119 115
174 118 108
173 118 111
176 120 118
175 119 117
176 120 118
177 120 119
174 118 110
174 118 112
173 117 106
177 120 118
180 121 125
176 119 113
180 121 120
176 119 114
177 120 116
175 119 116
179 121 122
176 119 118
175 119 113
175 118 113
178 121 122
173 118 108
175 118 111
175 119 118
175 119 117
177 119 113
179 121 118
177 120 116
177 120 114
176 120 117
179 121 121
174 118 110
180 121 122
176 119 115
176 119 115
178 120 120
175 119 115
173 117 111
173 117 116
171 115 105
170 114 109
134 94 65
128 89 55
136 92 56
143 105 67
142 109 69
148 114 72
150 114 71
157 122 78
157 124 79
162 131 83
156 127 80
163 139 89
166 143 90
167 143 90
170 149 95
171 155 97
173 157 99
174 160 99
174 163 100
174 163 98
177 166 104
176 167 104
178 168 105
178 169 104
179 173 109
178 171 106
176 170 104
178 172 105
179 172 108
177 170 102
177 170 103
178 172 109
177 171 102
178 171 105
178 171 103
177 171 104
177 171 104
179 172 106
178 171 103
179 172 104
181 173 105
178 171 103
176 169 102
180 171 103
175 168 99
177 169 101
177 169 99
179 172 106
175 167 100
171 166 97
176 168 99
178 170 99
175 168 99
173 166 99
174 167 101
170 162 95
173 166 96
178 170 101
169 163 90
171 164 95
174 166 98
164 157 90
169 163 92
168 161 92
166 158 95
169 161 96
161 155 84
173 165 96
162 156 90
158 152 87
159 152 88
163 156 93
193 208 228
193 208 227
192 207 225
193 208 228
192 208 228
192 208 228
192 207 228
191 207 227
192 207 228
191 207 228
192 207 228
192 207 228
190 207 228
191 207 228
191 207 228
191 207 228
190 206 228
190 206 228
190 206 228
190 206 228
190 206 228
190 206 228
189 206 228
189 205 228
190 206 228
189 206 228
189 206 228
189 206 228
189 206 228
189 205 228
189 205 228
188 205 228
187 205 228
188 205 228
188 205 228
188 205 228
187 205 228
187 205 228
187 205 228
187 205 228
187 204 228
187 204 228
187 204 228
186 204 228
187 204 228
186 204 228
186 204 228
186 204 228
186 204 228
185 204 228
186 204 228
186 204 228
186 204 228
186 204 228
186 204 228
185 201 225
183 198 222
179 186 209
176 176 196
172 165 185
165 142 156
157 116 125
155 110 118
153 104 110
151 103 110
148 99 107
144 97 103
142 95 104
140 91 102
133 84 93
127 78 89
146 95 101
173 118 112
173 117 110
177 120 116
174 118 114
176 119 121
178 120 117
177 119 117
182 122 128
176 119 118
178 120 119
176 119 117
172 118 106
177 120 115
175 119 113
175 119 115
173 118 112
176 120 116
176 119 113
178 120 118
175 119 113
176 119 114
176 119 118
174 118 107
177 119 113
178 120 116
176 119 113
177 120 119
177 120 115
179 120 118
176 120 118
179 120 119
176 119 116
175 119 111
176 119 114
178 120 118
175 119 113
176 119 118
176 120 116
178 121 123
173 117 112
175 119 113
174 118 112
180 121 123
177 120 118
174 119 113
177 120 117
176 119 118
175 118 111
177 120 117
173 117 108
173 118 108
171 116 109
179 120 121
174 117 113
171 115 110
173 117 114
145 102 80
124 78 46
127 77 44
138 95 56
141 105 66
141 95 56
144 100 61
153 117 75
153 122 76
157 128 81
158 128 79
161 131 80
168 145 91
163 139 85
168 144 84
167 148 90
170 151 91
172 158 98
174 157 96
172 160 97
177 166 100
176 164 100
174 162 97
176 168 100
176 169 102
180 172 105
177 168 102
178 171 103
177 169 100
180 172 106
176 169 101
179 170 101
176 169 101
178 171 101
177 170 99
177 170 104
177 170 101
177 169 100
174 168 98
177 171 101
174 168 94
176 169 101
176 169 98
177 170 101
177 170 99
176 169 97
176 169 104
174 167 96
177 170 99
177 169 102
175 168 99
173 165 93
176 169 101
176 169 99
175 168 99
168 162 93
170 162 94
174 167 95
165 159 91
171 164 96
174 165 96
166 159 93
171 163 97
167 161 92
167 160 90
161 155 88
157 151 83
163 156 90
164 157 91
161 155 85
164 157 92
153 147 80
191 206 223
192 207 223
192 207 226
192 207 226
191 207 224
193 208 228
193 208 228
193 208 228
192 207 226
191 207 226
194 208 228
192 208 228
192 207 227
192 207 228
191 207 226
192 207 228
192 207 228
191 207 228
191 207 228
191 207 228
191 207 228
191 207 228
192 207 228
191 207 228
191 207 228
191 207 228
190 206 228
191 207 228
190 206 228
190 206 228
190 206 228
190 206 228
189 206 228
190 206 228
190 206 228
189 205 228
191 207 228
189 206 228
190 206 228
189 206 228
189 206 228
189 206 228
189 206 228
189 206 228
188 205 228
189 206 228
188 205 228
188 205 228
189 206 228
188 205 228
188 205 228
188 205 228
188 205 228
188 205 228
187 205 228
187 204 228
184 196 219
179 181 201
173 167 184
172 156 173
162 134 146
159 112 121
153 104 108
153 104 109
148 99 103
147 99 107
141 95 101
138 88 97
137 88 95
132 82 90
126 77 85
141 91 90
174 118 116
173 118 111
173 117 110
174 118 113
178 120 118
177 120 118
174 118 113
177 120 116
176 120 117
173 118 108
175 118 110
176 119 113
178 120 119
175 118 111
175 119 113
177 120 117
175 119 116
176 119 116
175 119 109
174 118 109
178 120 118
174 118 110
175 119 113
179 121 120
172 117 103
176 119 112
176 119 115
177 119 117
180 121 125
175 119 111
174 118 108
175 118 111
179 120 118
174 117 109
175 119 113
171 116 105
174 118 112
177 120 117
174 118 112
175 119 115
175 118 110
176 119 114
176 119 113
176 119 114
174 118 105
179 120 117
178 120 118
173 117 106
172 117 109
175 118 113
171 117 106
174 118 113
175 119 112
173 116 110
170 115 107
176 117 119
142 91 82
116 67 37
122 79 46
139 83 47
138 88 52
143 99 61
150 109 67
148 108 67
152 111 68
158 121 72
160 133 81
160 130 79
166 140 87
162 138 84
167 143 85
174 156 95
170 155 93
172 158 94
173 159 94
172 157 94
171 159 91
178 165 100
175 165 98
175 163 94
178 169 101
176 167 99
175 168 95
178 171 100
176 167 97
175 169 95
176 168 99
177 170 98
179 172 102
179 172 104
178 170 100
177 170 97
176 169 95
176 168 99
176 169 99
176 169 98
177 170 99
180 172 104
178 170 99
175 168 93
177 169 95
177 170 100
172 166 92
178 171 99
170 165 92
177 170 101
176 168 95
176 169 98
175 168 94
176 168 101
172 165 95
174 166 96
167 160 90
170 163 93
173 166 97
174 167 97
168 161 87
173 165 96
156 150 83
169 161 93
163 157 87
168 160 93
165 159 86
163 157 85
161 155 85
157 150 84
162 155 89
154 148 80
192 206 218
193 207 225
192 207 221
193 207 225
193 208 227
192 207 223
194 208 227
191 206 223
192 207 224
193 207 226
193 208 227
191 206 221
193 208 227
193 208 226
193 208 228
193 208 227
192 207 225
192 207 226
192 207 226
193 208 228
192 207 227
192 207 227
193 208 228
192 207 226
192 207 227
192 207 226
192 207 227
191 207 226
192 207 228
193 208 228
192 207 228
191 206 226
192 207 228
192 207 228
192 207 228
191 207 228
192 207 228
192 207 228
190 206 228
191 207 228
191 207 228
191 207 228
192 207 228
191 207 228
190 207 228
190 206 228
190 206 228
191 207 228
189 206 228
189 206 228
190 206 228
190 206 228
191 207 228
190 206 228
191 206 228
188 202 224
184 189 209
180 179 199
175 171 189
167 144 155
159 124 130
154 109 110
151 103 105
151 101 105
149 100 105
147 100 103
143 94 99
141 92 97
139 89 96
126 77 83
123 72 78
161 106 106
171 116 108
172 116 111
176 119 118
175 118 112
173 117 110
174 118 109
176 119 113
178 120 118
175 119 109
176 119 115
175 119 113
174 117 110
177 120 115
175 119 113
175 119 113
175 118 111
177 119 114
177 120 117
176 119 112
174 118 110
174 118 110
173 118 111
174 118 111
173 118 110
178 120 116
175 119 113
178 120 114
178 120 118
178 120 118
177 119 114
176 119 116
177 119 113
173 117 111
176 119 113
174 118 107
174 118 106
175 119 114
173 118 108
178 120 118
175 119 116
176 119 113
176 119 113
177 119 115
176 119 114
174 118 109
176 119 112
177 120 118
173 118 108
175 118 113
177 119 117
175 118 113
172 116 103
174 117 114
174 118 110
173 117 110
171 113 106
152 101 86
112 56 25
124 76 42
125 67 35
131 83 46
141 92 53
157 111 68
144 95 54
154 113 66
158 116 70
161 136 83
158 129 76
165 137 82
165 142 83
171 148 90
171 149 89
169 153 88
170 153 88
171 155 91
176 161 96
172 161 91
178 168 101
174 164 95
176 165 96
176 168 95
174 166 92
178 168 98
175 168 95
179 171 99
175 167 95
177 169 99
180 172 101
178 171 100
175 168 98
174 168 92
174 167 90
179 171 100
173 166 87
175 168 94
173 167 90
176 169 97
174 168 96
179 171 98
177 169 97
173 166 90
174 168 93
177 169 98
170 163 91
174 167 94
173 166 93
175 168 96
173 166 95
167 161 88
172 165 89
174 167 95
170 163 88
174 166 95
172 165 95
173 166 94
173 165 98
172 165 91
168 160 91
163 156 87
166 159 87
166 159 88
161 154 87
167 159 91
165 158 90
164 158 90
161 154 87
159 153 81
150 145 73
191 206 219
193 207 223
191 206 217
192 207 220
192 207 224
191 206 219
192 207 221
192 206 220
191 206 219
191 206 220
193 207 223
192 206 220
191 205 214
192 207 223
190 205 218
190 205 217
190 205 218
191 206 221
192 207 223
192 207 221
192 207 221
193 208 225
193 207 223
193 208 226
192 207 223
191 206 219
191 206 221
192 207 225
191 206 221
193 208 226
190 206 220
194 209 228
191 207 224
193 208 228
193 208 227
192 207 225
193 208 228
193 208 226
192 208 227
192 207 225
193 208 226
190 206 225
193 208 227
191 206 224
193 208 227
192 207 227
192 207 228
191 207 226
192 207 227
192 207 227
192 208 227
193 208 228
192 207 227
192 207 227
192 205 226
190 203 224
188 197 216
178 172 187
170 155 166
167 141 150
158 120 119
151 103 99
152 103 106
149 100 101
143 95 92
140 93 86
137 90 90
139 88 89
136 86 89
127 78 77
118 68 72
156 102 100
171 116 107
172 117 111
176 119 115
176 119 113
175 118 112
175 119 113
177 120 116
178 120 119
175 118 113
174 118 110
175 118 110
173 118 107
174 118 110
174 118 111
175 117 107
173 118 109
172 117 106
175 118 112
175 118 106
170 116 101
173 117 105
174 118 112
176 119 114
177 120 117
176 119 114
176 119 112
177 119 117
176 119 110
175 118 112
175 118 112
175 119 111
173 117 103
174 118 105
172 116 104
175 119 113
175 118 112
174 118 110
172 117 103
176 119 112
173 118 108
176 119 111
177 119 113
175 119 111
172 117 104
180 121 120
175 119 113
173 117 109
177 119 113
175 119 112
176 119 109
173 117 105
175 118 113
173 116 111
173 116 107
173 116 114
170 113 103
151 98 85
109 58 30
120 60 28
128 70 35
135 75 38
134 87 50
134 85 47
149 99 55
148 102 58
156 116 65
151 121 65
160 130 73
160 134 75
165 145 83
165 142 84
167 143 82
168 151 86
168 149 82
172 157 91
169 154 83
168 157 87
173 162 95
175 162 93
172 160 90
178 169 96
176 166 95
179 172 102
173 165 91
175 166 93
174 166 90
177 168 95
176 168 94
174 167 92
177 169 95
175 168 93
180 171 103
176 169 92
173 167 89
175 168 93
178 170 97
178 170 97
175 168 91
175 168 93
174 168 93
177 169 101
176 169 95
174 167 90
177 169 97
178 169 96
175 168 93
173 166 90
169 162 90
172 165 93
172 165 87
171 164 90
173 166 92
175 168 96
162 156 82
168 162 87
170 164 90
171 163 91
162 156 84
174 166 94
164 157 87
165 158 87
164 157 86
169 161 93
164 157 85
168 160 87
167 160 90
153 147 78
161 156 83
190 205 212
191 206 214
192 207 219
189 204 209
191 206 216
190 205 213
189 204 208
187 203 204
191 206 219
191 205 216
191 206 218
188 204 209
190 205 212
192 206 219
191 206 216
192 207 219
192 206 217
192 206 218
191 206 218
192 206 218
192 207 221
190 205 216
192 206 220
190 205 217
190 205 214
188 204 209
190 205 216
187 203 211
189 204 211
190 205 216
192 207 220
193 208 226
188 204 209
190 205 216
190 205 213
191 206 220
192 206 220
191 206 219
191 206 219
190 205 214
191 206 218
190 205 217
190 205 214
191 206 221
192 207 224
191 206 219
191 206 220
190 205 217
191 206 219
191 206 220
191 206 218
190 205 216
190 206 219
192 207 221
189 204 214
189 197 211
182 187 198
179 176 185
170 149 157
160 131 134
157 122 122
151 102 96
148 100 95
148 100 95
142 95 87
142 95 90
139 90 91
132 85 81
131 79 80
126 75 74
115 66 65
164 109 107
171 116 103
173 118 112
172 117 108
173 117 108
170 116 100
172 117 103
175 119 113
176 118 114
173 118 109
175 119 110
177 120 116
171 116 102
177 119 113
175 119 113
176 119 110
172 117 103
175 118 109
175 118 111
172 117 103
176 119 112
177 119 111
172 117 104
175 118 107
176 119 115
173 117 105
174 118 106
176 119 112
175 119 111
175 119 110
176 119 112
177 120 113
175 119 110
170 116 103
174 117 104
174 118 108
177 119 113
176 119 113
175 118 106
173 117 106
176 119 113
174 118 109
175 118 107
175 118 112
176 119 112
174 118 110
172 117 105
173 118 108
174 117 111
175 117 107
172 116 104
173 117 108
174 117 108
171 115 101
172 116 104
170 115 102
170 113 104
159 102 92
106 49 21
111 55 25
120 67 35
133 75 39
134 81 42
138 90 50
141 97 52
153 108 59
153 114 61
158 119 67
153 117 61
161 130 73
161 129 71
166 140 80
169 149 84
166 147 80
169 150 83
172 154 89
169 158 86
173 163 88
174 162 94
172 164 91
170 159 87
175 164 91
171 163 87
175 166 92
175 164 92
176 168 95
178 170 97
176 166 93
175 167 91
176 169 92
174 166 92
175 168 91
172 165 87
175 168 95
174 166 92
173 166 88
175 168 86
174 167 89
175 167 89
173 166 89
177 169 96
173 167 87
173 166 90
174 166 92
169 163 81
174 167 95
171 164 90
169 163 85
175 167 95
168 162 87
169 163 84
172 164 90
172 165 90
164 159 79
168 162 82
174 166 93
169 163 86
169 162 90
170 162 94
171 163 91
165 158 84
168 160 84
168 161 86
166 160 81
162 155 86
161 155 85
165 158 91
163 155 83
162 154 91
187 202 203
189 204 211
190 204 211
188 203 206
190 204 209
186 202 203
191 206 213
188 203 203
186 201 198
188 203 206
185 201 196
186 202 200
189 204 208
188 203 206
190 205 212
187 203 204
190 204 209
186 202 199
188 203 204
187 202 204
190 205 212
187 203 204
186 202 200
188 203 206
186 201 199
189 204 212
185 201 198
187 203 204
187 203 207
185 201 194
188 203 202
187 203 204
190 205 213
189 204 208
190 205 212
185 201 199
191 205 213
186 202 200
188 203 207
188 203 204
189 204 209
190 205 211
187 203 203
188 203 204
189 204 208
188 204 208
185 201 196
189 204 209
187 202 203
189 204 209
188 204 208
188 203 206
185 201 199
187 202 204
188 202 206
184 193 194
178 181 178
171 161 159
167 149 150
159 127 124
152 109 101
150 101 96
150 102 94
143 97 86
140 93 83
143 94 90
134 87 81
132 82 79
129 80 73
120 72 64
110 57 52
159 106 97
171 116 102
174 118 112
172 117 105
171 116 104
175 119 111
173 117 106
175 118 111
175 118 109
177 120 114
174 118 109
170 116 97
176 119 112
174 118 110
173 118 106
171 116 103
171 116 99
177 119 112
175 118 108
174 118 109
174 118 108
177 120 116
177 119 109
178 120 115
168 115 96
174 118 109
175 119 112
170 116 102
173 118 109
172 117 104
171 116 104
173 118 106
171 116 101
176 118 115
172 116 104
176 119 112
173 118 109
175 119 111
173 117 107
174 118 106
171 117 100
175 118 106
175 118 105
173 116 105
173 117 110
171 116 105
174 118 112
173 117 106
175 118 108
176 119 113
174 118 108
171 116 102
175 118 109
172 116 103
172 116 104
171 116 103
171 114 101
151 99 84
100 42 15
118 58 25
120 67 31
124 68 29
124 71 36
135 82 41
142 92 48
146 98 50
151 110 63
150 117 62
155 120 64
159 123 68
159 132 71
166 143 79
164 148 75
165 141 77
162 142 68
170 156 84
170 156 81
168 158 82
169 155 85
172 162 86
173 164 89
175 165 91
175 165 91
176 167 93
177 167 92
176 167 93
172 165 88
175 166 91
174 166 91
177 169 93
175 167 91
173 166 85
173 167 86
171 165 84
174 167 89
175 168 92
171 165 85
177 168 94
174 167 89
173 165 85
173 166 90
173 167 93
172 166 87
172 166 89
171 165 85
176 168 90
174 167 92
172 165 86
171 165 87
168 162 84
173 166 88
172 165 86
168 162 83
171 165 87
172 165 88
170 163 87
166 159 85
163 157 83
170 162 93
164 158 83
169 161 90
163 157 85
163 157 81
163 156 83
159 153 76
167 160 88
158 152 81
155 149 77
162 154 87
185 201 195
189 204 206
186 202 199
183 199 188
185 201 196
189 204 206
186 202 198
185 201 195
184 200 191
183 199 190
185 200 194
185 200 194
186 202 198
186 202 199
184 200 191
187 202 199
185 201 196
184 200 190
183 199 187
184 200 191
185 201 192
184 200 190
181 198 183
183 199 188
183 199 188
186 201 198
187 202 200
185 200 192
183 199 190
187 202 200
187 202 199
183 199 190
183 199 187
186 202 199
182 199 187
183 199 188
184 199 188
181 197 183
182 198 184
183 199 187
181 198 181
184 200 191
186 202 198
183 199 188
179 196 174
183 199 188
182 198 181
187 202 199
182 198 184
180 197 180
183 199 187
184 200 191
180 196 178
180 196 175
180 194 178
180 192 178
177 178 172
163 151 128
160 139 122
155 123 103
150 105 87
150 102 91
151 101 94
143 97 85
142 94 86
139 92 84
136 91 82
132 84 79
126 77 68
123 73 69
112 63 57
160 107 94
172 115 107
170 116 105
173 117 106
172 116 105
171 116 101
172 116 99
172 117 102
175 118 107
177 119 114
172 117 103
173 118 105
174 118 106
172 117 104
172 116 103
172 117 103
174 118 109
176 118 111
176 119 113
176 119 110
172 117 102
173 117 103
175 118 106
172 117 103
172 117 103
174 118 108
172 116 102
171 117 102
175 119 111
175 118 105
173 117 100
174 117 103
175 118 108
173 118 106
174 118 107
177 120 114
171 116 99
170 116 99
174 118 110
173 117 105
172 116 102
174 118 110
171 117 100
170 115 94
173 117 105
179 120 120
171 116 103
174 118 108
172 117 106
174 118 109
174 118 107
174 118 107
172 117 104
171 116 102
172 116 107
170 114 99
170 114 101
159 104 93
104 47 19
108 47 18
125 63 27
126 65 27
129 72 29
129 73 34
137 93 47
143 101 50
144 108 57
150 112 57
150 115 59
159 129 65
153 125 57
162 138 73
158 135 70
166 150 76
164 147 78
166 147 76
166 153 70
168 155 79
177 164 90
173 162 85
170 161 84
172 163 83
170 163 84
174 166 86
172 163 84
169 161 80
171 164 86
171 163 83
173 166 88
171 164 82
163 159 72
169 163 79
172 165 84
172 164 82
175 168 89
175 167 89
171 164 81
172 165 83
173 167 90
174 167 89
170 163 84
173 166 90
174 167 89
171 163 84
169 163 82
175 167 95
171 165 82
171 163 87
172 165 87
169 162 83
174 166 90
172 164 86
168 161 86
167 160 83
167 162 81
168 161 80
171 164 90
169 162 90
170 163 85
162 156 77
168 162 85
164 156 88
166 159 87
164 158 84
163 157 82
167 160 87
159 152 78
156 150 75
162 155 80
182 198 181
183 199 186
183 199 186
184 200 191
182 198 186
182 198 183
184 200 191
186 201 195
177 195 169
183 199 186
175 193 160
182 198 183
181 198 181
177 194 166
177 194 165
183 199 187
179 196 174
180 197 177
180 197 177
181 197 178
176 193 163
177 194 166
184 200 190
185 200 192
179 196 174
180 196 177
180 197 177
176 194 163
182 198 184
177 194 165
184 200 190
179 196 172
180 197 175
178 195 168
177 194 165
181 197 177
177 194 166
174 192 156
179 196 174
174 192 156
178 195 169
176 193 161
182 198 181
173 191 151
178 195 171
180 197 178
179 196 175
180 196 172
176 193 160
172 189 146
174 191 153
177 194 168
177 194 168
178 195 166
176 192 163
172 183 151
169 174 145
160 158 119
154 132 105
150 119 93
151 109 93
148 100 88
144 97 84
142 95 85
136 91 72
138 90 77
134 88 68
128 78 65
126 79 63
120 72 58
117 66 61
161 108 94
172 117 103
166 114 91
172 117 107
178 120 115
171 116 100
176 119 114
174 117 106
171 117 101
172 116 103
172 117 104
171 116 103
174 118 108
170 116 101
174 118 105
174 118 103
174 118 109
168 115 95
173 117 107
175 119 111
172 117 102
176 119 110
169 115 94
171 116 100
176 119 109
172 117 104
176 119 113
176 119 110
174 118 107
172 117 103
172 117 103
173 118 104
172 117 103
171 116 102
171 116 100
175 118 111
177 119 113
172 117 105
176 119 109
172 116 101
172 116 103
172 117 101
173 118 107
173 118 106
173 118 104
170 116 99
172 116 102
173 117 107
177 119 114
171 116 103
171 116 99
176 119 112
170 115 103
168 113 99
173 117 103
171 115 103
172 116 103
152 98 84
105 45 15
99 44 13
118 58 15
127 66 30
132 75 29
134 83 40
139 96 45
139 98 47
146 103 48
147 110 51
155 125 67
155 126 65
155 131 59
154 127 56
159 132 71
160 138 60
163 143 75
161 142 69
169 153 77
162 148 68
165 155 73
168 159 75
169 160 79
170 160 79
166 159 75
168 161 77
169 161 79
169 162 76
166 157 74
171 164 83
170 163 79
170 162 79
172 164 85
170 163 80
172 164 85
173 166 85
170 164 76
173 166 87
173 166 85
173 166 84
172 165 83
174 167 86
170 164 78
173 167 86
170 164 77
171 164 80
171 164 84
173 166 87
172 165 84
174 166 84
169 162 83
172 165 84
166 160 79
168 161 80
170 163 82
167 161 83
170 163 87
162 157 75
164 159 77
168 161 82
162 155 80
165 158 85
164 157 87
165 159 81
160 154 75
156 151 76
165 157 84
167 159 84
163 157 79
158 152 79
155 149 80
180 196 175
182 198 181
182 198 181
181 198 181
182 198 183
180 196 175
176 193 161
177 194 166
182 198 183
182 198 181
177 194 165
179 196 172
180 197 175
174 192 156
176 193 161
177 194 166
178 195 168
174 192 156
181 197 178
176 193 161
177 194 165
177 194 165
178 195 168
173 191 150
172 190 144
175 192 153
171 189 144
175 193 160
171 190 146
174 192 153
173 191 153
173 191 151
174 192 153
168 187 133
168 187 131
172 190 144
171 189 141
172 190 146
172 190 146
170 189 142
172 190 146
172 190 142
169 188 131
167 186 127
172 189 141
173 191 146
169 188 139
166 186 123
169 187 139
169 188 135
169 187 133
167 186 125
169 188 133
165 184 118
169 186 135
166 181 127
160 169 104
156 155 99
155 141 98
147 119 79
148 110 79
144 99 83
142 96 73
145 96 81
137 92 76
133 88 70
134 88 67
124 79 59
127 79 62
119 73 59
108 61 47
153 101 89
172 116 108
169 115 98
171 116 103
167 114 98
174 117 107
174 118 106
174 118 109
169 116 95
174 117 109
173 117 102
167 114 90
169 115 95
169 115 96
173 117 101
173 118 104
174 118 106
175 118 110
175 118 107
175 119 113
171 116 98
172 117 101
171 116 98
172 117 103
173 117 102
174 118 108
172 117 104
169 115 99
171 115 97
170 116 102
171 116 98
175 118 107
169 114 97
171 117 103
172 117 101
173 117 105
172 117 103
173 118 106
172 117 104
170 116 100
175 118 107
170 116 96
174 118 107
174 118 105
171 116 101
172 116 101
173 117 103
170 115 98
174 117 103
171 116 101
170 115 103
170 115 100
172 117 103
171 115 104
169 114 98
169 114 102
168 113 98
148 96 70
93 41 10
106 49 16
113 58 21
122 68 27
125 68 27
122 72 29
134 92 32
140 107 49
142 107 50
148 108 49
151 115 55
156 125 64
151 126 52
155 129 57
156 137 66
158 139 66
160 143 63
158 138 65
162 147 64
160 147 62
168 155 78
168 159 75
169 157 79
166 156 75
169 161 78
165 157 68
169 159 78
170 162 77
170 161 76
172 165 81
169 161 74
170 162 79
171 164 80
170 163 79
167 161 75
172 165 81
170 162 80
169 164 80
170 164 78
166 160 72
169 162 84
169 162 76
172 165 83
173 166 85
168 162 75
169 163 80
166 161 75
164 159 70
170 163 84
163 158 79
168 162 79
168 161 82
169 163 80
165 158 80
167 161 77
167 161 80
166 160 83
165 159 77
164 158 79
170 162 87
163 157 78
163 156 80
164 157 78
160 154 76
161 154 81
161 154 80
159 153 75
159 153 75
161 154 76
156 150 76
157 150 82
177 194 166
176 193 160
172 190 144
177 194 166
178 195 168
178 195 169
174 192 155
175 193 158
176 193 160
179 196 169
173 191 151
172 190 146
177 194 165
171 189 144
175 192 156
173 191 151
170 189 141
173 191 148
168 187 133
169 188 133
169 188 131
169 188 135
172 190 146
174 191 150
173 190 146
168 187 131
169 188 133
169 188 133
170 189 139
169 187 131
168 187 129
161 182 102
166 185 121
161 182 99
167 186 125
162 183 107
161 182 102
165 184 116
163 183 107
163 182 107
163 183 107
159 180 88
165 185 114
163 182 104
162 183 104
162 182 102
163 183 107
163 184 112
159 180 88
158 179 82
159 180 94
164 182 112
160 180 91
157 177 85
163 181 112
159 175 96
153 159 73
151 154 60
151 145 75
147 130 71
146 109 78
141 95 73
145 98 77
136 93 63
133 88 70
133 87 64
127 84 62
123 79 59
113 69 39
117 69 51
110 63 45
146 96 77
166 112 95
170 116 103
167 113 94
168 114 96
171 117 103
172 117 101
168 114 94
172 116 100
169 115 97
173 117 103
171 116 99
170 115 96
176 119 110
172 117 99
172 117 100
171 117 102
172 116 106
171 116 102
171 116 97
174 117 103
171 115 101
170 115 96
174 118 109
172 117 103
174 117 103
171 117 100
171 116 99
175 118 110
172 117 100
171 117 101
169 114 95
169 115 91
177 119 114
173 117 104
174 118 105
172 116 103
173 117 102
176 118 108
170 115 95
172 117 103
171 116 102
170 116 99
170 115 95
172 117 101
174 118 105
171 116 97
169 115 92
173 117 104
170 116 100
174 118 108
171 116 103
169 114 96
170 114 99
167 113 88
168 113 93
168 112 101
147 94 79
101 47 10
108 59 17
109 54 15
117 68 22
126 75 28
121 70 29
125 77 22
137 100 38
140 98 43
139 103 38
145 114 49
151 120 58
149 125 52
157 131 63
160 136 65
154 135 54
157 142 57
161 145 66
166 152 72
163 152 68
166 154 70
167 156 72
166 159 72
165 156 67
166 155 72
166 158 72
165 156 70
166 159 73
167 159 75
167 160 73
166 158 69
166 160 71
167 161 70
168 161 77
166 160 74
167 161 75
166 161 73
167 160 73
172 165 84
167 161 75
168 162 74
172 165 79
168 161 75
169 162 77
170 163 79
168 162 70
172 164 81
169 163 82
166 159 77
165 159 75
167 161 77
169 163 79
166 160 75
167 161 80
156 151 66
168 161 83
164 159 75
165 159 75
161 155 73
169 162 82
165 159 80
159 152 75
160 153 77
164 158 78
157 151 73
167 160 81
162 156 77
158 152 74
157 150 77
151 145 69
160 152 77
172 191 151
174 192 155
172 190 148
171 189 144
176 193 161
172 190 148
172 190 146
172 190 146
171 190 144
171 189 142
169 188 135
164 184 116
172 190 144
166 186 121
166 185 118
170 188 135
168 187 131
173 191 148
167 186 125
165 185 116
164 184 114
166 185 125
166 185 118
163 183 104
164 184 114
160 180 97
162 182 104
166 185 116
163 183 102
163 182 104
161 181 102
161 182 99
160 181 94
160 181 91
162 182 104
158 179 85
159 180 88
161 182 102
159 180 85
157 178 72
157 179 75
160 180 91
157 177 85
156 178 68
159 179 85
157 179 75
156 177 68
154 175 56
153 175 51
152 174 39
152 173 39
155 174 64
155 175 64
156 174 79
153 174 45
153 170 60
150 154 54
146 146 39
147 139 61
140 116 52
143 112 59
139 101 65
136 93 61
142 95 72
137 92 68
130 85 59
127 80 59
122 79 51
119 76 50
117 71 46
99 55 25
132 86 64
169 114 97
168 114 97
174 117 106
165 112 85
170 115 95
169 114 93
175 117 107
171 116 99
169 115 94
171 116 99
169 115 96
169 115 98
171 116 102
173 117 105
172 117 103
170 116 98
171 116 98
169 114 95
169 115 90
173 116 103
169 115 95
171 116 99
170 115 95
174 117 103
172 116 100
169 115 93
172 116 99
169 116 96
170 116 96
174 117 104
174 118 103
173 117 104
169 115 95
168 114 89
172 117 104
172 117 100
172 117 103
172 116 103
174 118 103
171 116 101
171 116 100
166 114 89
169 115 95
171 116 98
174 116 105
170 115 96
172 116 103
170 115 100
171 116 98
173 117 107
171 116 99
171 116 101
167 113 92
170 114 97
165 111 88
163 109 89
130 82 56
97 48 10
98 52 9
113 63 17
113 69 22
120 71 23
126 85 24
132 84 28
136 95 37
136 93 31
141 107 41
141 113 39
148 125 47
148 126 41
149 127 53
153 136 54
156 134 56
155 140 54
162 147 67
159 142 65
158 151 65
159 149 57
160 149 62
162 153 64
164 152 68
166 160 70
165 155 70
162 153 68
167 161 73
166 159 69
162 157 61
166 160 72
169 161 73
164 157 70
164 159 69
165 161 65
169 161 74
172 165 82
166 158 72
168 161 72
166 160 72
165 160 69
166 161 68
167 161 75
170 164 78
170 164 77
167 161 70
166 159 70
167 160 78
169 162 76
165 158 70
167 160 75
167 162 75
170 163 82
159 154 67
167 160 79
161 155 70
162 156 68
164 159 69
161 155 70
167 160 79
162 156 72
161 155 75
159 153 73
159 152 74
155 148 69
149 143 62
159 152 74
157 151 72
156 150 74
150 144 72
150 145 63
172 191 148
171 189 139
172 190 144
171 190 144
168 187 127
168 187 129
168 187 133
165 184 118
168 187 131
170 189 141
166 185 121
168 187 127
164 184 109
165 184 112
164 184 109
163 183 109
168 187 131
160 181 91
162 182 102
159 179 85
159 179 79
160 181 91
160 181 94
159 180 88
163 184 112
158 178 82
158 180 82
160 181 94
155 177 68
155 177 64
155 177 60
154 176 51
158 179 75
157 178 72
154 176 56
154 176 60
153 175 51
154 176 56
154 176 56
155 177 51
155 177 56
152 175 32
152 175 45
151 174 22
153 174 32
152 175 39
151 171 32
151 171 39
152 173 45
151 173 22
150 169 0
147 167 0
149 167 0
149 169 0
148 169 0
147 163 26
149 163 21
146 152 12
144 138 45
142 126 56
140 109 59
134 102 51
138 98 64
133 90 50
133 88 61
127 84 55
126 80 56
119 75 46
117 73 41
112 68 35
105 61 26
123 77 50
166 112 96
171 115 98
170 114 96
169 115 96
172 116 103
171 115 96
171 116 99
169 114 96
169 115 93
169 115 93
169 115 95
169 115 94
172 116 106
170 115 98
169 116 94
175 118 108
171 116 104
170 115 97
173 117 101
171 116 99
169 115 96
171 116 101
170 116 95
172 117 104
171 117 99
171 116 100
171 116 100
170 116 97
171 117 100
171 115 101
170 116 98
170 116 98
172 116 102
171 116 101
170 115 95
173 117 103
173 116 102
172 117 99
173 117 103
173 117 105
172 117 100
171 115 98
171 117 103
169 114 98
169 114 94
175 119 110
167 115 90
173 117 104
170 115 98
167 113 88
172 116 103
165 112 91
166 112 89
165 113 92
166 111 91
163 108 85
121 77 45
96 51 5
106 54 12
111 65 11
115 62 15
121 75 20
122 76 22
129 87 20
124 89 26
133 98 24
138 105 36
142 115 41
142 111 38
146 122 48
147 122 40
146 126 43
152 133 59
160 146 58
156 141 57
155 143 55
160 147 60
158 146 58
159 151 60
162 154 66
161 155 61
158 148 52
159 150 60
160 154 54
168 161 75
163 155 64
163 158 66
163 156 64
161 156 58
162 156 64
161 154 58
164 158 63
169 162 74
166 160 69
164 157 67
161 157 61
164 160 67
164 157 68
163 157 64
164 159 71
170 163 76
165 160 69
166 160 69
164 158 70
161 156 64
166 158 75
171 163 80
165 159 71
166 159 70
171 164 81
169 162 77
166 159 73
160 155 69
163 157 75
158 153 66
162 157 72
162 157 74
157 152 64
157 152 69
157 152 71
160 154 72
156 150 72
150 145 65
157 151 74
157 150 73
151 147 64
158 151 76
153 147 71
166 185 118
167 186 127
167 186 125
168 187 127
164 184 112
170 188 135
168 187 127
167 186 125
160 181 97
163 183 109
165 185 118
164 184 112
164 184 112
162 183 102
159 180 88
157 178 72
158 179 82
157 178 72
159 180 85
158 178 79
161 182 97
158 180 82
157 179 75
154 177 60
156 178 64
156 178 68
154 176 60
155 177 64
155 177 51
152 175 32
153 175 22
156 177 60
153 175 39
154 176 45
153 176 51
154 176 45
152 173 0
151 173 0
151 174 0
151 174 0
152 173 0
150 171 0
151 172 22
150 173 0
152 174 0
150 171 22
150 170 0
151 172 0
151 172 0
149 168 0
150 172 0
148 167 0
146 164 0
149 165 0
147 164 0
148 166 0
142 152 17
143 145 25
142 140 37
141 126 41
138 116 46
136 107 52
130 89 56
132 90 52
127 84 51
124 81 47
119 78 41
117 74 34
117 74 37
109 68 26
103 62 18
110 65 39
162 110 83
166 112 91
167 113 91
171 115 98
170 115 98
172 116 101
166 113 89
170 116 96
170 116 97
171 116 98
172 116 101
165 113 87
168 113 91
169 115 96
172 116 102
174 118 103
173 117 102
174 118 104
170 115 95
170 115 97
170 115 99
171 116 98
174 117 104
177 119 109
170 115 97
167 114 88
170 116 98
170 115 96
168 114 90
172 117 100
172 117 101
172 116 100
170 115 101
175 118 109
169 115 95
169 114 93
169 115 97
171 116 102
171 116 96
172 117 101
171 116 98
170 115 97
168 114 91
173 117 103
170 115 95
170 116 96
171 115 98
174 117 106
168 114 96
169 114 95
169 113 96
169 114 95
165 112 86
168 113 98
167 111 97
160 106 84
109 72 31
94 50 9
102 58 10
118 71 16
116 74 13
116 77 15
119 76 25
129 86 25
130 94 27
129 95 29
138 110 26
136 110 40
143 117 39
141 119 45
144 126 45
145 124 43
148 132 46
152 136 46
155 141 55
155 142 53
153 143 50
157 144 55
158 147 59
157 149 58
159 151 51
160 151 57
159 151 58
156 149 48
165 157 68
162 157 58
159 151 57
160 155 54
164 157 66
160 154 61
162 158 62
163 158 61
164 157 67
167 159 72
165 160 64
162 155 59
164 158 66
166 160 67
159 154 57
165 159 68
170 162 80
162 157 67
161 156 60
164 159 62
161 156 64
164 158 67
162 156 67
164 158 66
162 156 66
163 156 67
162 155 66
166 158 80
162 156 65
162 157 65
155 149 68
161 156 66
162 156 71
158 152 71
162 156 75
162 157 70
162 155 72
153 148 66
159 154 75
157 151 72
156 151 65
152 146 70
158 152 70
149 144 64
164 184 112
164 184 112
163 183 109
168 187 127
160 181 94
165 184 118
162 182 102
161 182 97
159 180 88
160 181 91
161 181 94
157 179 79
159 180 88
155 177 60
156 178 68
156 178 60
154 177 60
154 176 56
153 175 45
156 177 60
153 176 45
153 175 32
154 176 51
153 175 32
153 175 39
152 174 22
151 173 0
151 173 0
153 176 39
151 173 32
152 174 0
152 174 0
151 174 0
152 175 0
151 174 0
151 173 0
150 174 0
150 172 0
150 171 0
150 173 0
149 171 0
151 173 0
149 170 0
150 170 0
149 170 0
151 170 0
149 167 0
149 170 0
149 166 0
148 167 0
149 171 0
145 163 0
147 164 0
144 160 0
147 158 0
145 158 0
142 150 0
140 145 0
140 137 27
137 128 27
134 109 44
126 103 30
123 91 30
121 87 42
125 83 50
121 80 34
123 80 40
110 70 23
112 70 23
106 65 24
105 69 17
109 75 19
156 109 77
169 115 97
168 113 97
166 113 86
170 116 97
170 116 95
169 114 94
169 115 93
170 115 93
173 117 99
170 115 96
168 114 94
169 115 93
170 115 95
175 118 105
169 115 91
167 114 88
168 114 89
171 116 99
169 115 95
168 115 91
168 115 95
168 114 89
168 114 93
168 114 91
171 115 98
173 117 102
169 114 94
169 115 96
171 116 94
169 115 94
167 114 88
169 114 96
168 114 94
167 114 88
171 116 99
168 115 95
171 115 98
172 116 101
169 115 98
171 115 98
170 115 95
172 117 101
169 115 93
168 115 91
168 113 93
167 114 87
167 114 93
167 113 91
168 114 94
162 109 81
164 111 82
170 114 94
167 112 94
168 113 94
157 106 75
109 74 18
101 65 8
101 62 8
106 64 8
113 69 16
113 67 14
118 77 20
116 73 15
126 94 28
131 100 22
134 109 26
138 110 20
138 111 33
143 113 39
148 131 45
141 127 28
148 132 47
152 137 52
146 131 45
152 140 41
155 143 51
156 148 56
151 139 47
156 146 52
157 150 57
156 150 48
156 149 48
155 146 52
157 151 51
157 151 52
155 148 50
162 156 57
163 156 62
156 150 51
161 157 59
160 155 53
157 151 52
164 158 63
163 156 65
157 153 51
157 152 56
162 156 56
163 158 61
159 154 56
163 157 63
165 159 66
160 155 58
163 157 65
159 153 60
161 154 65
160 155 60
158 154 61
159 153 61
162 156 66
154 151 53
163 156 65
160 154 72
162 156 64
158 151 66
160 154 66
162 156 71
150 144 66
158 151 75
152 147 61
156 149 57
159 154 70
161 155 70
146 141 59
150 145 68
150 144 63
150 143 67
152 147 67
165 185 116
160 181 97
161 182 97
158 179 72
157 179 79
161 181 94
160 181 91
159 181 88
159 180 85
154 176 56
154 177 56
155 177 51
155 177 51
154 177 51
152 175 32
153 176 51
154 176 45
152 175 22
151 174 22
151 174 0
151 174 0
151 174 0
151 174 22
152 174 22
150 172 0
151 174 22
151 173 0
150 172 0
150 174 0
151 173 0
151 174 0
150 173 0
152 174 0
150 173 0
150 172 0
151 174 0
150 173 0
150 172 0
150 170 0
149 171 0
150 172 0
150 173 0
149 168 0
149 170 0
148 169 0
148 171 0
151 169 0
148 165 0
149 167 0
147 166 0
148 167 0
147 163 0
148 162 0
144 155 0
143 153 0
139 144 0
139 142 0
139 145 0
135 133 12
134 129 17
133 123 17
127 103 28
125 97 36
117 78 29
118 80 33
118 81 28
110 70 13
116 74 30
103 62 13
114 84 27
112 91 5
124 119 11
149 122 57
162 109 77
168 113 99
163 112 86
166 113 87
167 114 90
169 114 89
167 114 89
169 115 90
168 114 90
167 114 91
170 114 99
169 115 96
169 114 96
164 112 85
172 116 100
169 114 94
166 113 86
170 116 100
166 113 87
168 113 93
164 111 80
168 115 93
173 117 99
166 113 87
169 115 94
166 113 88
169 115 95
168 115 90
173 117 101
172 117 100
167 113 91
169 114 94
171 116 95
171 115 98
165 112 88
172 117 100
169 115 90
165 112 87
170 116 98
167 114 89
167 113 89
169 115 93
170 116 96
166 113 88
172 116 99
169 115 93
168 114 89
169 114 91
171 115 99
169 115 92
166 112 88
164 112 85
166 112 88
159 106 84
141 95 59
98 67 11
102 78 0
103 63 10
114 76 13
110 69 11
113 77 5
114 73 16
113 73 12
121 84 14
124 87 19
129 105 19
137 114 31
139 121 34
137 108 32
136 109 37
142 123 44
145 127 36
145 129 35
149 133 45
152 140 46
151 138 46
149 138 41
150 141 40
154 144 49
153 145 49
157 147 52
157 151 49
158 152 49
157 150 52
159 152 60
156 151 47
155 148 52
160 155 57
159 150 56
156 151 51
160 154 60
156 148 57
166 159 66
163 157 62
162 157 58
161 155 59
157 152 56
159 154 56
156 151 52
164 159 66
161 154 58
161 156 61
168 160 69
155 151 56
158 153 57
160 154 63
162 157 73
157 152 60
161 155 66
156 152 54
162 156 68
159 153 66
166 160 73
160 154 62
160 154 68
153 147 57
157 152 67
148 142 54
159 153 69
155 150 63
156 152 60
148 144 60
161 155 72
151 146 60
153 147 65
156 150 69
146 139 63
161 182 97
162 182 99
160 181 91
154 176 60
156 178 72
156 178 68
156 178 72
156 177 68
153 176 51
153 175 39
152 174 22
153 175 39
152 174 32
153 176 39
151 174 22
151 174 22
151 174 0
151 174 0
149 172 0
152 174 0
150 173 0
150 173 0
151 174 0
151 174 0
151 174 0
150 173 0
151 173 0
151 174 0
150 173 0
151 174 0
152 173 0
150 172 0
151 173 0
151 173 0
150 173 0
150 172 0
149 169 0
151 173 0
149 170 0
150 172 0
151 172 0
148 171 0
149 168 0
150 171 0
149 169 0
150 167 0
147 163 0
146 162 0
147 167 0
145 163 0
148 162 0
144 157 0
146 162 0
142 155 0
142 152 0
143 153 0
139 144 0
135 135 0
134 129 0
133 125 0
121 104 0
122 101 28
118 94 17
112 80 23
107 75 21
103 62 27
108 75 20
104 77 0
106 76 0
114 93 12
116 100 0
134 137 0
147 139 42
161 108 82
165 112 91
167 113 93
163 110 80
164 112 83
170 115 100
170 114 96
168 114 93
169 114 99
165 113 85
173 117 101
170 114 95
168 113 90
169 114 89
169 115 93
171 116 98
167 114 88
168 114 87
167 113 88
166 114 88
171 116 97
169 114 96
168 114 90
169 116 91
170 115 96
168 114 89
169 115 91
171 115 96
166 113 86
173 116 102
171 116 100
168 114 88
166 114 86
169 115 94
165 112 85
165 112 84
168 114 96
170 115 95
171 116 100
168 114 94
166 112 82
172 117 99
169 114 95
167 114 88
170 115 93
168 113 94
170 115 96
165 113 85
167 112 88
167 113 94
168 112 95
162 109 82
163 109 86
159 108 74
130 95 46
111 90 22
100 75 0
104 68 4
108 71 3
116 76 15
111 71 13
112 79 9
111 81 6
127 94 16
129 96 23
129 103 23
126 102 22
134 104 29
137 116 25
136 116 29
134 114 27
142 126 36
146 132 39
144 132 33
147 135 40
149 137 41
149 139 39
145 137 41
153 145 49
152 143 49
153 146 47
157 148 48
147 142 30
156 150 46
157 151 49
154 146 41
153 147 44
156 149 48
153 148 42
162 156 60
158 151 53
159 153 56
158 151 52
159 152 57
153 148 47
157 151 56
157 151 52
160 155 58
158 151 53
156 150 54
162 157 63
161 156 61
159 154 54
161 156 62
155 150 53
154 149 53
159 155 58
156 151 51
157 152 53
157 151 62
158 153 56
162 154 72
157 152 62
157 151 62
159 153 63
147 143 56
152 146 58
154 148 63
157 151 71
151 146 63
158 152 69
149 142 63
150 144 63
147 141 57
150 145 59
149 142 66
148 141 75
157 179 75
158 180 85
155 177 64
155 177 64
156 178 68
153 176 51
152 175 39
152 175 39
152 175 22
153 176 51
151 174 0
152 174 0
151 173 0
151 174 22
151 174 22
151 173 0
150 174 0
151 174 0
152 174 0
151 174 0
151 174 0
151 173 0
149 173 0
151 174 0
150 174 0
150 173 0
151 173 0
151 174 0
150 173 0
150 173 0
150 172 0
150 173 0
151 172 0
150 171 0
150 173 0
149 171 0
150 172 0
148 168 0
150 172 0
148 169 0
149 172 0
147 167 0
148 167 0
145 160 0
148 167 0
149 171 0
148 166 0
149 166 0
146 160 0
147 163 0
147 162 0
143 157 0
144 156 0
142 148 0
141 148 0
141 147 0
138 140 0
133 133 0
131 130 0
127 117 0
120 113 0
115 101 0
118 104 12
106 79 0
111 92 12
106 76 17
102 70 12
103 77 0
111 95 0
118 104 0
124 117 0
136 136 0
145 157 0
162 118 77
163 111 78
166 113 88
161 109 77
168 114 96
164 111 82
167 113 91
167 113 87
166 113 86
164 112 89
168 113 90
168 114 89
166 114 86
165 112 80
163 111 80
168 114 88
170 115 95
167 113 88
165 113 82
167 114 85
169 113 94
169 115 91
164 111 81
172 117 100
173 117 100
170 115 93
168 114 89
167 113 87
167 114 90
167 114 86
168 113 91
167 114 93
166 113 86
168 114 90
168 114 90
168 113 88
167 113 88
165 112 85
170 114 94
166 113 82
168 113 97
166 113 87
172 115 100
168 114 87
170 116 100
171 115 99
164 112 81
168 113 94
166 111 85
162 109 83
161 110 75
163 109 84
161 108 74
159 109 75
116 102 23
109 91 22
109 84 26
106 75 13
101 70 9
112 75 6
109 75 4
119 90 13
111 81 14
123 94 18
118 88 15
125 102 11
128 100 21
137 117 19
133 113 31
134 115 28
137 121 23
136 121 33
144 128 34
141 128 29
143 133 32
144 130 28
144 133 25
151 139 38
151 141 36
148 139 34
145 139 28
154 145 50
150 143 34
150 142 39
150 143 36
153 147 39
155 150 42
157 151 51
150 146 36
155 150 45
151 147 44
158 150 57
154 150 44
155 149 48
159 152 56
161 155 54
157 151 54
159 153 56
156 152 48
160 153 57
157 154 52
157 150 56
161 156 61
157 151 58
158 153 58
163 157 64
161 155 64
157 152 60
155 149 52
157 152 51
153 146 58
156 151 60
150 146 52
157 151 62
153 147 60
156 151 60
153 148 54
152 145 60
154 148 61
153 148 60
152 147 64
157 151 60
153 148 66
144 140 57
140 135 53
145 140 56
150 145 63
155 177 60
155 177 60
154 176 51
154 177 60
151 174 22
151 174 22
152 175 32
152 174 0
152 175 22
151 174 0
151 174 0
151 174 0
151 174 0
151 174 0
150 174 0
151 173 0
151 174 0
150 173 0
150 173 0
152 174 0
150 172 0
151 174 0
150 171 0
150 174 0
150 171 0
150 173 0
151 174 0
150 171 0
150 172 0
150 173 0
151 172 0
150 172 0
150 172 0
150 173 0
151 174 0
151 172 0
151 173 0
149 170 0
149 168 0
147 167 0
148 167 0
148 170 0
150 168 0
149 169 0
147 162 0
145 161 0
146 165 0
145 163 0
144 161 0
144 159 0
143 156 0
142 156 0
140 148 0
140 151 0
141 148 0
136 140 0
131 128 0
137 139 0
130 123 0
122 119 0
122 109 0
118 105 0
115 106 0
112 99 12
103 84 0
110 98 0
109 97 0
113 99 0
111 97 0
118 109 0
133 136 0
137 141 0
140 151 0
147 130 57
158 106 77
164 112 83
162 110 73
166 113 89
165 113 82
165 112 84
164 112 83
166 113 88
167 113 87
167 113 90
169 115 94
164 111 79
167 113 87
169 115 94
167 114 88
168 113 89
167 114 88
168 114 91
165 112 84
166 114 87
166 114 86
167 113 91
165 112 82
166 113 86
166 113 84
168 114 88
163 112 80
168 114 88
166 113 81
168 114 88
172 116 99
166 113 86
167 113 89
166 113 85
165 113 80
167 112 87
163 111 79
168 114 90
165 113 82
168 115 89
168 113 89
164 112 81
166 112 84
163 110 80
166 113 85
167 113 91
163 110 84
159 109 72
166 113 85
162 108 85
161 109 81
155 104 60
135 108 47
120 105 38
119 105 28
116 96 20
109 87 6
116 84 12
110 79 7
115 89 9
107 77 0
111 84 13
113 86 6
125 100 11
126 100 17
123 95 25
128 105 21
130 111 13
135 111 25
134 115 23
135 116 26
140 122 30
135 121 21
141 126 34
143 129 23
146 135 32
154 145 42
146 138 23
151 143 42
148 141 32
148 141 34
150 143 32
147 137 32
150 145 30
150 143 37
151 144 37
151 144 39
150 147 39
152 146 42
148 143 34
153 148 39
153 148 42
152 147 34
157 150 48
153 148 42
159 155 52
162 156 59
153 148 45
158 153 54
157 152 45
156 152 56
158 152 58
146 143 34
155 150 51
154 149 48
156 153 51
156 151 52
155 152 54
156 151 58
160 155 61
153 148 51
151 146 49
150 144 58
151 147 58
154 149 61
149 143 54
154 149 56
152 146 62
154 149 59
142 138 56
155 149 64
151 145 61
147 142 54
148 144 58
142 137 53
142 137 56
157 178 75
153 175 39
154 177 56
152 175 39
154 176 56
152 175 32
150 173 0
151 174 0
150 174 22
151 173 0
151 173 0
150 173 0
151 173 0
151 174 0
151 174 0
150 173 0
151 173 0
151 174 0
151 174 0
151 173 0
150 173 0
150 173 0
149 171 0
150 171 0
151 174 0
151 173 0
151 174 0
150 173 0
150 172 0
151 173 0
150 172 0
149 171 0
150 171 0
150 172 0
148 167 0
150 169 0
149 171 0
149 170 0
149 169 0
147 167 0
148 169 0
146 164 0
146 165 0
146 164 0
148 169 0
147 165 0
145 160 0
147 163 0
147 163 0
142 157 0
143 157 0
140 149 0
139 148 0
141 146 0
141 148 0
134 136 0
131 134 0
131 129 0
126 118 0
125 120 0
121 111 0
122 117 0
110 95 0
107 92 0
110 98 0
112 99 0
112 97 0
112 102 0
115 108 0
127 128 0
132 134 0
137 148 0
141 158 0
161 181 14
159 115 77
161 109 76
162 110 83
164 111 83
162 110 79
162 110 76
165 112 83
161 108 78
166 113 87
165 112 84
165 111 81
162 111 80
168 114 88
163 111 76
168 114 87
166 113 82
167 113 85
163 111 75
168 114 90
166 113 86
163 111 78
165 112 82
171 116 95
165 112 82
162 109 72
165 112 80
172 116 97
166 114 84
169 115 93
165 112 84
169 114 91
164 112 85
162 110 76
164 111 80
164 112 79
164 112 76
165 113 80
162 109 72
165 113 81
169 115 95
164 112 76
167 113 88
165 112 87
167 113 88
164 112 84
164 111 87
165 112 87
164 111 82
159 108 70
161 109 79
160 108 70
157 114 73
156 173 22
115 107 28
117 101 30
105 86 16
109 90 26
112 93 11
110 86 6
107 83 0
109 84 0
114 86 0
121 95 9
123 94 6
118 89 9
120 99 13
124 98 11
125 101 19
134 116 26
128 107 16
129 109 17
139 120 13
138 125 26
139 124 30
139 129 19
140 129 28
143 134 16
141 127 30
146 138 30
147 139 32
147 140 34
153 145 41
149 143 30
143 136 19
150 145 34
152 146 34
151 144 36
145 139 37
153 145 41
151 146 36
158 152 49
148 145 32
152 147 41
158 150 49
154 149 47
154 148 42
151 146 39
153 149 45
155 148 49
154 148 47
156 150 54
154 149 44
154 149 54
150 145 48
154 149 53
155 149 57
156 150 54
149 146 37
151 146 47
148 142 48
149 145 44
152 147 54
149 144 49
146 141 49
158 153 57
153 146 62
150 145 59
152 147 61
147 143 48
151 144 60
145 139 59
150 145 57
146 142 52
137 132 49
146 140 60
143 139 58
154 176 51
153 176 39
152 175 32
152 175 39
151 174 22
153 175 32
151 174 0
151 174 0
151 174 0
149 171 0
152 174 0
150 173 0
151 174 0
151 174 0
150 173 0
150 172 0
151 174 0
152 174 0
151 173 0
150 171 0
150 172 0
149 172 0
150 173 0
149 172 0
148 170 0
148 170 0
149 171 0
151 173 0
149 170 0
148 169 0
149 170 0
150 172 0
149 170 0
148 170 0
149 172 0
150 169 0
149 171 0
148 169 0
147 167 0
148 167 0
148 167 0
146 166 0
149 167 0
145 164 0
145 162 0
144 159 0
147 165 0
145 163 0
147 161 0
144 160 0
142 154 0
141 147 0
140 146 0
139 151 0
139 146 0
136 144 0
138 144 0
132 135 0
128 125 0
121 113 0
121 116 0
118 114 0
110 100 0
114 103 0
109 95 0
110 99 0
115 107 0
115 109 0
125 123 0
127 127 0
134 138 0
135 146 0
153 174 0
167 191 0
160 157 41
158 108 72
157 106 70
161 109 80
166 112 86
161 110 75
160 109 72
164 111 84
164 111 76
163 110 82
166 113 86
165 112 80
164 111 85
164 111 78
164 113 80
165 111 82
164 112 80
164 111 79
165 111 80
167 113 86
167 114 86
167 113 81
166 113 85
167 113 91
169 114 91
168 113 88
168 113 87
164 113 80
167 113 86
167 113 86
168 114 90
164 112 85
168 115 89
162 111 75
166 113 82
165 111 80
163 110 78
163 111 76
167 113 86
161 109 78
166 112 85
164 112 82
166 114 84
160 108 70
162 110 72
167 113 84
163 110 82
160 109 75
161 109 77
161 108 74
152 100 65
156 146 40
167 191 0
151 167 25
105 93 22
114 98 30
102 82 13
107 81 11
109 87 11
106 77 0
110 85 6
107 77 0
108 86 0
120 96 0
122 103 2
121 97 8
121 100 13
130 107 18
129 113 17
126 106 19
130 114 11
136 120 21
134 115 20
134 123 16
144 132 22
132 118 0
138 130 23
141 131 14
142 132 25
143 138 22
141 135 22
147 140 30
143 135 11
145 136 22
148 142 30
149 142 34
151 144 32
149 143 32
153 147 34
155 150 47
151 146 39
155 150 45
150 145 41
151 145 42
150 144 32
147 143 37
151 147 42
152 145 45
149 143 47
151 145 42
147 143 41
150 145 42
149 145 39
146 142 36
155 150 45
153 148 45
155 150 56
150 144 45
153 149 48
154 150 48
153 146 59
151 146 48
155 149 54
150 145 54
153 148 61
159 152 67
149 144 56
151 144 60
149 143 57
141 136 51
139 134 54
148 143 60
144 138 52
140 135 51
129 124 42
140 136 49
153 175 51
153 176 39
153 175 32
150 173 0
151 173 0
149 172 0
150 173 0
150 173 0
150 173 0
150 173 0
150 173 0
151 174 0
150 173 0
149 172 0
150 173 0
151 174 0
151 173 0
150 173 0
150 172 0
150 173 0
150 173 0
148 171 0
151 173 0
151 173 0
149 171 0
149 170 0
150 171 0
149 170 0
149 170 0
150 171 0
148 169 0
148 169 0
149 172 0
148 169 0
146 165 0
149 170 0
149 170 0
147 166 0
148 168 0
148 170 0
146 164 0
145 165 0
147 164 0
147 164 0
145 162 0
146 166 0
142 155 0
143 161 0
143 158 0
143 158 0
139 148 0
139 149 0
139 149 0
138 147 0
136 144 0
137 144 0
138 148 0
128 127 0
126 122 0
127 126 0
126 120 0
122 118 0
121 117 0
114 104 0
117 108 0
119 114 0
118 115 0
117 108 0
119 115 0
130 135 0
131 141 0
150 169 0
167 191 0
167 191 0
161 182 14
153 113 57
159 109 70
160 109 72
160 109 71
159 109 67
162 110 80
166 113 82
162 110 76
168 113 95
165 112 80
164 111 81
162 110 74
160 109 71
164 113 78
164 111 80
163 110 79
161 110 68
165 112 81
162 109 74
165 113 81
166 112 84
162 111 72
164 112 79
166 113 82
166 112 87
166 113 84
167 113 85
168 113 89
169 114 91
163 111 78
165 111 81
166 112 91
163 110 79
169 114 93
164 111 84
164 112 80
160 108 72
168 113 87
163 110 78
161 108 78
168 114 89
167 113 86
166 112 85
161 109 78
162 108 76
161 110 74
159 107 74
164 110 82
159 105 77
155 113 65
160 174 24
165 185 0
168 190 0
135 144 19
114 98 32
109 92 22
106 89 11
118 99 22
102 77 11
111 85 14
106 83 0
111 85 6
117 93 6
118 95 2
114 97 6
127 104 17
115 95 9
121 105 17
129 113 16
133 117 8
137 120 21
133 119 16
135 118 20
137 124 16
138 127 19
140 130 22
139 130 19
146 134 28
142 134 16
145 136 25
137 128 16
143 137 19
146 141 25
146 140 22
144 137 22
147 138 34
149 141 34
147 139 22
151 146 34
147 142 22
149 143 32
144 139 30
147 141 30
151 147 34
151 146 30
146 143 30
151 146 41
151 147 37
147 142 39
151 146 44
150 146 39
151 145 41
149 144 44
149 145 36
151 147 44
151 145 47
151 146 45
144 139 37
148 142 44
144 139 45
150 144 54
146 140 48
147 143 47
150 146 44
147 142 51
140 135 44
146 142 49
146 141 57
143 139 48
143 137 52
140 135 53
139 135 49
143 138 57
142 135 58
132 128 51
152 174 56
152 175 39
151 174 22
152 174 0
149 173 0
150 173 0
150 172 0
150 173 0
150 172 0
150 173 0
149 172 0
150 172 0
151 173 0
150 173 0
151 173 0
151 173 0
149 172 0
149 172 0
149 172 0
149 172 0
150 172 0
151 173 0
150 172 0
149 171 0
150 171 0
148 169 0
149 170 0
149 171 0
148 171 0
150 171 0
147 167 0
148 169 0
146 167 0
146 165 0
149 168 0
147 166 0
146 166 0
147 166 0
148 168 0
148 170 0
148 167 0
146 165 0
145 164 0
145 165 0
148 166 0
142 159 0
143 160 0
143 159 0
145 160 0
141 152 0
138 147 0
140 152 0
139 149 0
135 144 0
134 141 0
133 142 0
129 130 0
129 134 0
125 124 0
126 126 0
117 112 0
117 115 0
115 113 0
118 111 0
116 107 0
110 103 0
115 109 0
121 118 0
122 124 0
124 131 0
142 158 0
166 189 0
165 189 0
164 185 0
164 186 0
161 161 41
161 109 79
158 107 73
154 103 60
168 112 89
159 108 69
161 110 71
163 111 76
162 110 68
159 107 71
165 112 81
166 112 87
165 112 82
165 111 79
167 112 88
161 109 75
161 109 72
162 111 74
165 112 82
167 114 88
162 110 76
164 111 78
162 109 76
164 112 80
164 112 80
162 111 74
164 112 75
166 114 82
162 111 75
167 112 87
168 114 91
164 111 79
163 111 81
167 113 87
163 111 78
159 106 70
163 110 79
165 112 78
164 112 82
164 111 78
160 109 75
161 107 78
162 107 76
161 108 75
158 108 67
161 109 74
160 107 71
162 108 79
158 105 70
157 156 42
164 183 0
163 179 0
163 181 0
161 179 0
132 138 22
99 90 22
108 88 11
106 87 16
104 80 11
105 86 0
109 83 0
106 84 0
109 84 0
110 87 0
114 90 0
114 93 6
125 103 6
117 94 0
116 97 11
127 112 0
124 110 19
127 112 11
134 122 16
133 121 0
142 134 16
137 127 16
136 125 11
136 125 0
140 131 11
145 138 19
140 132 16
145 138 19
147 137 28
150 144 32
144 137 16
144 136 30
145 138 25
145 138 25
142 135 16
144 136 30
144 140 22
149 144 30
151 148 34
146 141 30
146 141 36
143 138 28
151 147 39
146 141 41
147 141 34
142 138 28
150 145 36
140 136 37
149 144 37
152 146 49
147 142 44
148 142 44
147 141 45
143 140 36
150 146 44
148 143 45
146 142 34
147 143 49
148 143 51
149 144 51
141 136 45
153 147 57
146 142 45
143 137 51
130 126 42
138 134 47
139 135 47
143 138 58
134 130 47
136 132 48
135 129 56
149 171 56
150 172 22
151 174 0
153 175 32
151 174 0
151 174 0
150 172 0
150 173 0
150 173 0
149 172 0
151 173 0
150 172 0
148 172 0
149 172 0
149 172 0
150 173 0
148 171 0
150 172 0
150 173 0
150 173 0
149 171 0
149 171 0
149 171 0
147 169 0
150 171 0
148 170 0
148 170 0
146 166 0
148 169 0
149 171 0
148 169 0
148 169 0
146 165 0
146 166 0
148 169 0
147 167 0
147 165 0
146 165 0
146 167 0
143 158 0
144 161 0
145 162 0
143 159 0
146 162 0
143 158 0
144 159 0
144 157 0
142 156 0
140 152 0
138 152 0
134 146 0
134 142 0
138 150 0
132 139 0
129 132 0
132 137 0
129 132 0
126 127 0
127 129 0
119 118 0
121 122 0
124 124 0
116 111 0
119 116 0
117 112 0
117 115 0
123 123 0
126 130 0
126 134 0
140 156 0
164 184 0
161 184 0
163 184 0
161 178 0
161 179 0
159 176 0
160 136 57
153 104 62
160 108 70
160 108 70
160 106 76
161 109 72
157 106 65
164 111 84
161 108 75
161 110 71
160 109 67
162 110 79
165 111 84
160 108 70
161 110 70
162 109 75
161 109 68
162 110 74
164 111 81
165 111 86
163 111 79
162 110 76
160 109 70
161 109 71
166 112 82
165 113 81
162 111 79
167 113 85
164 112 82
162 109 74
167 112 88
163 111 78
161 110 74
160 109 71
165 111 86
164 111 76
162 109 78
161 110 70
159 109 67
165 110 82
159 107 71
161 108 76
160 108 71
161 109 71
160 107 74
161 107 75
155 104 70
159 137 58
155 172 0
161 178 0
164 179 0
161 175 0
163 178 0
155 170 0
131 132 22
107 93 19
96 79 11
107 84 16
110 92 11
110 89 0
104 83 0
108 85 0
109 90 0
118 95 6
126 106 6
115 91 6
124 104 6
131 116 11
125 106 14
127 112 0
120 105 0
131 115 11
132 118 16
137 125 6
128 114 11
137 128 19
136 126 11
136 129 11
135 124 0
137 129 0
139 132 16
137 129 11
140 135 19
138 127 11
140 133 22
144 134 25
146 140 30
139 134 25
146 141 25
147 141 36
142 136 25
149 145 30
144 136 25
143 138 22
146 140 28
150 144 36
147 141 34
145 139 28
144 137 32
148 143 37
147 142 36
147 142 42
148 142 42
150 145 39
145 141 34
141 137 32
148 143 44
147 141 51
144 138 42
144 139 36
148 140 53
141 136 45
148 144 49
146 142 48
141 138 44
145 140 53
136 133 37
139 134 49
146 140 53
139 134 52
138 134 49
141 136 51
132 128 52
129 124 52
148 168 56
149 171 22
151 173 32
151 174 0
150 173 0
149 172 0
150 172 0
150 172 0
150 172 0
150 173 0
151 173 0
150 171 0
149 172 0
149 170 0
149 172 0
148 170 0
150 172 0
148 171 0
149 171 0
147 169 0
149 170 0
149 170 0
148 170 0
150 172 0
149 171 0
149 171 0
148 170 0
147 167 0
147 169 0
145 166 0
147 167 0
148 169 0
146 165 0
146 165 0
148 170 0
146 164 0
146 164 0
144 163 0
144 163 0
142 158 0
146 164 0
143 160 0
143 159 0
144 160 0
143 158 0
143 156 0
140 154 0
139 153 0
138 150 0
136 147 0
137 149 0
135 145 0
134 140 0
133 141 0
132 139 0
127 130 0
130 135 0
128 129 0
116 115 0
117 110 0
114 114 0
114 109 0
111 106 0
114 108 0
112 106 0
118 116 0
119 120 0
118 120 0
147 164 0
158 177 0
157 176 0
157 176 0
160 179 0
159 179 0
159 176 0
160 178 0
153 163 14
152 112 52
154 103 61
161 110 75
162 109 81
160 108 71
160 109 72
155 105 57
157 107 59
160 110 67
159 109 71
160 108 71
161 111 68
165 111 80
165 110 81
158 108 64
162 109 74
165 111 81
162 110 74
158 107 67
166 113 79
163 110 78
166 113 87
159 109 68
163 108 74
163 112 78
164 111 78
162 110 75
162 110 74
161 109 71
165 113 82
162 109 79
165 112 78
159 108 68
158 108 64
164 110 79
160 109 68
161 108 72
164 111 81
161 107 75
164 110 75
159 106 70
157 106 64
161 109 79
159 105 76
156 104 68
152 108 57
158 166 14
158 168 0
152 163 0
156 169 0
155 166 0
155 162 0
160 170 0
157 168 0
136 143 0
98 81 16
99 76 11
100 83 19
108 91 0
101 78 2
112 94 11
109 89 0
111 90 0
106 82 0
116 99 0
120 101 0
124 107 0
125 111 0
121 103 6
129 112 0
129 112 11
126 115 0
132 120 0
134 122 0
133 118 0
135 122 0
131 123 0
133 122 0
137 128 11
141 133 0
141 131 19
139 128 16
134 127 19
143 137 0
138 130 16
140 135 16
144 139 16
141 131 25
142 136 30
143 135 32
145 139 19
146 141 28
142 133 28
142 139 28
138 131 16
146 138 34
146 141 34
147 142 36
145 138 32
148 144 34
141 138 30
148 142 37
147 143 45
138 133 32
142 136 42
145 141 37
139 134 32
146 142 44
149 144 48
144 140 36
134 130 44
141 138 36
143 138 45
138 132 39
139 135 39
138 134 44
138 133 45
135 130 49
130 126 42
133 128 42
134 129 49
135 131 42
125 121 48
140 159 64
140 161 45
147 169 39
148 170 0
150 173 0
149 172 0
151 174 0
148 171 0
149 171 0
149 171 0
149 172 0
150 172 0
149 172 0
150 172 0
149 172 0
148 170 0
150 171 0
148 169 0
149 171 0
148 169 0
148 169 0
148 169 0
149 171 0
149 170 0
149 171 0
148 171 0
149 170 0
147 168 0
147 168 0
148 169 0
148 169 0
147 167 0
143 163 0
145 163 0
145 163 0
145 164 0
146 163 0
146 166 0
144 161 0
147 164 0
145 161 0
145 160 0
142 156 0
140 155 0
139 153 0
143 157 0
137 151 0
139 154 0
139 153 0
137 147 0
135 143 0
137 147 0
135 145 0
131 136 0
126 130 0
130 132 0
127 131 0
125 127 0
119 117 0
120 122 0
114 107 0
122 120 0
109 105 0
114 112 0
110 105 0
113 109 0
121 126 0
147 161 0
156 170 0
155 169 0
157 172 0
151 168 0
153 168 0
155 166 0
154 166 0
155 168 0
154 167 0
151 151 14
149 103 48
154 103 53
158 106 60
158 105 68
156 105 63
157 105 68
159 108 67
162 110 70
158 107 68
161 109 75
164 110 79
166 112 84
161 110 75
159 109 67
161 110 70
164 111 76
162 110 74
163 110 80
161 109 72
160 108 74
164 111 78
162 109 72
161 108 70
161 109 70
162 110 75
161 109 71
162 109 75
160 108 65
159 109 67
164 111 78
160 107 72
157 106 70
163 110 74
161 109 70
160 108 70
161 107 74
156 105 67
157 106 64
157 106 65
159 107 71
159 106 70
157 105 65
154 102 61
148 100 54
150 150 19
150 156 0
146 148 0
145 149 0
147 152 0
151 155 0
146 152 0
151 155 0
149 153 0
147 149 0
130 129 0
105 91 16
96 76 0
97 81 11
104 89 0
102 82 0
103 84 11
105 87 0
116 96 0
111 89 0
116 97 0
121 106 0
125 109 6
118 101 6
123 110 0
122 107 0
124 109 0
128 113 11
132 119 0
133 119 11
135 123 0
129 120 0
134 123 16
137 128 0
134 125 16
138 129 16
137 127 0
135 126 11
137 127 11
136 127 11
140 134 16
143 137 19
138 130 25
148 142 30
135 131 0
138 132 11
136 130 25
143 138 25
135 129 30
145 138 28
142 135 22
137 130 25
138 133 22
146 140 28
137 133 16
142 138 32
139 137 16
152 145 49
141 137 37
145 139 30
139 135 28
145 141 41
142 138 36
139 134 36
138 134 34
141 134 42
140 135 37
130 125 37
142 138 47
134 129 41
133 128 44
125 119 28
125 121 42
130 124 47
138 133 45
121 116 39
131 126 42
125 122 45
155 179 0
138 158 32
137 157 32
143 165 22
151 173 0
147 169 0
149 172 0
150 172 0
149 171 0
150 172 0
149 171 0
149 171 0
148 171 0
148 170 0
148 169 0
148 169 0
149 169 0
150 171 0
148 171 0
147 168 0
148 171 0
147 169 0
146 167 0
145 166 0
146 167 0
148 169 0
149 170 0
143 163 0
146 167 0
147 168 0
145 167 0
146 166 0
146 165 0
147 167 0
145 163 0
147 167 0
144 160 0
143 161 0
146 164 0
143 159 0
142 160 0
139 152 0
141 156 0
138 149 0
138 147 0
142 160 0
139 153 0
137 150 0
136 145 0
134 146 0
138 150 0
131 141 0
133 141 0
126 131 0
128 132 0
127 133 0
126 128 0
120 119 0
122 125 0
117 113 0
114 110 0
113 112 0
107 105 0
110 104 0
106 105 0
115 121 0
144 157 0
150 164 0
149 163 0
149 162 0
152 165 0
147 157 0
150 161 0
150 162 0
148 158 0
147 156 0
145 156 0
146 154 0
145 135 14
150 105 52
153 101 61
153 104 50
159 106 70
157 106 65
160 108 68
161 109 74
158 107 68
162 110 78
159 108 68
159 107 68
159 107 68
162 108 79
156 104 56
161 110 70
156 107 61
156 104 61
160 108 71
161 109 71
159 107 65
165 111 81
163 109 75
159 108 71
163 110 71
160 109 68
162 110 74
160 108 70
157 107 65
162 108 74
159 107 71
163 110 80
157 106 65
160 108 72
154 104 57
159 106 74
159 108 64
158 105 72
157 104 68
153 103 59
156 104 64
152 102 61
153 102 50
144 130 24
144 139 0
147 152 0
141 146 0
142 146 0
140 139 0
140 139 0
143 141 0
136 135 0
145 147 0
143 141 0
140 137 0
144 143 0
109 99 11
89 72 0
98 76 11
106 88 0
105 83 11
96 71 0
111 93 0
103 82 0
116 99 0
114 96 0
119 100 0
125 112 0
116 103 0
120 106 0
125 108 0
121 108 0
130 116 0
126 112 0
129 118 0
130 117 0
131 121 0
129 116 11
130 121 11
137 124 0
132 121 0
135 125 16
135 126 19
137 128 11
134 125 0
140 133 16
139 131 11
140 133 25
139 132 16
140 134 22
140 134 28
144 136 16
136 131 16
143 135 22
139 134 28
144 138 36
140 136 25
143 136 36
137 132 28
136 133 25
145 139 36
141 134 34
136 130 19
138 132 32
139 134 36
139 134 28
137 131 36
137 132 30
141 136 41
138 133 41
134 131 30
143 136 39
135 130 37
133 129 32
136 130 42
130 128 36
138 131 51
128 123 45
125 121 42
127 122 41
135 135 44
158 177 25
170 195 0
168 194 0
149 171 45
139 160 45
140 162 0
146 168 0
148 170 0
147 169 0
149 173 0
149 171 0
149 171 0
151 173 0
149 170 0
148 170 0
150 172 0
150 171 0
147 169 0
149 170 0
148 169 0
147 169 0
147 168 0
147 169 0
148 168 0
146 167 0
144 164 0
146 165 0
147 167 0
146 166 0
148 167 0
143 163 0
144 165 0
146 165 0
146 163 0
146 163 0
148 165 0
145 162 0
144 162 0
143 159 0
144 161 0
142 157 0
141 157 0
141 154 0
142 158 0
141 154 0
136 150 0
137 148 0
137 151 0
136 150 0
135 145 0
133 143 0
132 143 0
128 135 0
130 139 0
128 135 0
129 138 0
124 129 0
125 130 0
112 108 0
112 111 0
111 112 0
113 111 0
101 95 0
107 103 0
100 101 0
126 136 0
139 151 0
141 151 0
140 150 0
147 156 0
140 148 0
143 152 0
142 150 0
139 141 0
148 157 0
145 151 0
145 149 0
151 158 0
139 144 0
140 140 0
145 130 24
153 101 52
155 104 62
153 103 59
156 105 62
156 104 57
157 107 62
154 104 54
155 105 56
156 104 59
155 103 64
160 108 67
162 108 74
160 108 71
157 106 61
158 106 62
160 109 68
160 107 71
160 108 68
159 107 65
155 105 46
161 109 71
161 109 68
159 107 64
159 105 68
160 107 70
158 108 64
159 107 65
161 107 70
154 103 54
156 104 62
155 106 50
158 106 64
162 109 79
156 105 62
160 106 76
159 105 71
157 106 71
153 102 56
154 102 62
145 94 52
140 122 28
139 136 0
143 138 0
135 129 0
145 147 0
133 127 0
140 140 0
136 132 0
142 140 0
133 128 0
141 138 0
135 132 0
136 130 0
136 131 0
129 124 0
120 110 16
85 64 0
83 68 0
97 75 0
100 78 11
102 83 0
103 82 0
106 87 0
110 94 0
113 96 0
118 99 0
118 100 0
116 98 0
121 104 0
119 105 0
125 110 0
119 107 0
126 111 0
120 107 0
126 113 0
125 116 0
138 126 0
136 127 11
130 119 0
131 117 0
138 126 16
136 126 22
132 123 11
134 125 16
129 123 11
138 131 16
127 121 0
141 132 11
134 128 16
138 132 19
139 131 25
134 128 11
131 125 25
140 135 28
138 132 28
145 137 37
142 135 28
137 129 30
136 130 28
135 131 25
134 128 37
133 130 22
137 130 32
134 129 22
143 138 36
126 123 25
131 128 34
139 132 45
138 134 32
133 127 44
136 132 44
135 130 44
128 123 37
127 121 41
126 122 48
136 131 48
122 117 41
136 145 28
164 189 0
168 194 0
169 195 0
169 195 0
168 194 0
157 181 0
140 160 32
135 156 22
139 160 0
146 168 0
146 168 0
148 170 0
149 171 0
149 171 0
149 170 0
148 169 0
145 167 0
147 169 0
148 169 0
148 169 0
146 167 0
147 167 0
148 169 0
146 166 0
147 168 0
146 166 0
146 166 0
145 166 0
144 163 0
145 166 0
144 163 0
146 165 0
144 163 0
146 163 0
145 163 0
144 162 0
143 162 0
143 160 0
145 162 0
139 153 0
141 156 0
141 158 0
141 158 0
139 154 0
138 154 0
135 148 0
140 154 0
138 149 0
138 149 0
135 147 0
130 142 0
130 136 0
133 140 0
131 139 0
119 124 0
123 128 0
122 129 0
121 123 0
119 121 0
115 113 0
117 120 0
105 103 0
98 94 0
95 96 0
104 109 0
124 133 0
126 135 0
124 129 0
128 130 0
133 136 0
130 133 0
136 141 0
134 130 0
132 133 0
135 138 0
136 137 0
143 148 0
139 135 0
138 137 0
134 132 0
147 150 0
133 126 0
140 123 24
148 100 52
153 101 57
155 105 57
156 104 61
156 102 62
158 105 62
153 104 54
154 104 57
155 105 64
154 103 59
156 105 61
159 107 70
158 106 64
162 110 67
161 109 76
158 107 64
157 106 62
156 105 59
157 106 57
160 107 72
159 107 71
162 109 74
159 108 67
158 106 64
157 104 62
156 105 59
159 108 65
154 103 56
158 106 67
156 106 57
156 105 62
155 103 57
155 102 61
153 101 61
156 105 67
148 97 48
147 97 44
143 92 48
134 111 34
132 122 0
140 137 0
129 119 0
140 136 0
132 127 0
128 123 0
120 107 0
137 138 0
132 125 0
133 126 0
132 126 0
129 124 0
120 109 0
127 120 0
115 105 0
116 106 0
116 102 0
94 75 0
84 66 0
94 72 0
100 79 11
87 70 0
95 72 0
105 83 0
107 87 0
114 97 0
111 94 0
105 87 0
118 99 0
116 99 0
119 102 0
121 108 0
128 110 11
128 114 0
124 111 0
132 122 0
129 118 0
125 114 0
127 116 0
130 119 0
128 117 0
133 121 11
126 116 11
136 127 0
141 135 11
135 126 16
136 126 11
130 122 11
132 125 19
132 125 11
129 123 0
136 131 25
127 120 11
139 131 25
128 123 16
131 124 19
135 130 19
135 127 25
136 130 28
136 129 22
134 130 19
134 129 34
137 129 36
132 127 36
137 132 28
136 129 41
129 124 32
138 133 34
128 122 34
132 128 34
119 114 34
121 117 28
127 122 42
114 109 32
121 116 37
127 130 28
164 185 25
170 195 0
170 195 0
169 194 0
170 195 0
169 195 0
169 195 0
168 194 0
168 194 0
159 183 22
135 155 0
140 160 0
143 164 0
145 166 0
146 169 0
147 169 0
147 169 0
147 169 0
150 170 0
146 168 0
147 167 0
144 166 0
146 166 0
147 167 0
147 167 0
147 168 0
144 165 0
144 163 0
147 167 0
146 165 0
144 163 0
144 161 0
144 163 0
145 164 0
144 163 0
143 161 0
141 157 0
142 161 0
139 156 0
141 159 0
140 157 0
141 158 0
140 157 0
140 157 0
138 153 0
138 153 0
140 154 0
137 152 0
137 149 0
133 146 0
132 142 0
130 141 0
125 132 0
129 137 0
130 138 0
125 133 0
122 125 0
117 120 0
120 126 0
115 115 0
111 112 0
107 106 0
105 104 0
93 94 0
89 89 0
101 105 0
117 125 0
120 125 0
117 119 0
126 128 0
120 121 0
129 129 0
128 128 0
132 133 0
131 133 0
135 134 0
137 138 0
130 126 0
135 137 0
133 131 0
133 126 0
139 135 0
141 144 0
134 128 0
133 132 0
127 100 19
146 100 48
152 99 62
150 99 46
149 100 39
150 98 52
157 105 67
158 108 61
158 105 64
156 107 61
154 102 56
154 103 57
157 108 61
158 105 64
151 100 44
153 102 56
159 107 64
157 103 67
156 106 59
153 101 56
154 103 61
156 104 62
157 106 65
154 104 52
156 102 67
158 104 67
155 102 59
155 101 59
157 106 65
158 105 65
155 104 54
154 102 62
151 99 52
155 103 59
153 101 64
149 97 50
143 95 50
126 106 24
136 125 0
124 113 0
130 123 0
132 122 0
132 121 0
135 124 0
127 117 0
125 111 0
125 111 0
124 117 0
122 110 0
128 120 0
133 126 0
118 103 0
115 102 0
123 113 0
106 92 0
106 91 0
112 98 0
92 80 0
89 72 0
90 68 11
88 66 0
77 58 0
97 81 0
102 84 0
104 89 0
112 95 0
110 90 0
116 99 0
114 98 0
117 102 0
115 100 0
110 97 0
121 109 0
121 104 0
123 108 0
125 112 0
125 112 11
128 115 0
121 111 0
132 122 0
134 123 0
129 118 0
127 114 0
119 112 11
132 123 0
137 129 16
138 127 16
136 128 19
135 126 16
127 120 19
132 125 11
131 125 0
123 116 16
139 132 19
129 122 16
132 126 25
136 129 22
133 128 25
129 125 19
141 133 30
128 123 25
128 121 16
126 120 32
138 130 41
133 128 30
131 125 41
122 118 28
130 124 42
130 124 41
117 113 42
121 114 28
127 120 41
111 113 16
150 166 25
167 193 0
168 193 0
168 194 0
169 195 0
169 195 0
169 195 0
170 195 0
169 195 0
169 194 0
169 195 0
168 194 0
166 192 0
149 172 0
141 162 22
138 158 0
141 161 0
144 166 0
146 167 0
148 169 0
146 167 0
145 165 0
148 168 0
147 167 0
146 166 0
147 165 0
148 169 0
145 165 0
143 162 0
147 167 0
146 166 0
144 163 0
144 162 0
144 161 0
143 161 0
144 163 0
140 158 0
143 163 0
143 161 0
144 163 0
139 154 0
138 154 0
139 154 0
141 157 0
138 151 0
133 150 0
135 149 0
137 152 0
132 144 0
134 147 0
129 139 0
132 143 0
128 137 0
127 139 0
124 132 0
124 132 0
121 128 0
122 130 0
117 122 0
108 111 0
113 115 0
107 107 0
100 101 0
93 94 0
88 90 0
89 90 0
97 97 0
104 107 0
109 111 0
116 115 0
112 106 0
117 116 0
130 131 0
120 116 0
124 112 0
124 118 0
130 129 0
129 126 0
127 122 0
127 121 0
127 121 0
135 133 0
129 117 0
129 123 0
129 122 0
138 134 0
122 108 0
122 103 0
125 105 0
139 99 28
149 96 46
152 99 52
153 102 52
153 101 54
146 96 42
150 98 54
154 103 57
151 101 42
152 102 46
153 103 48
153 102 54
154 104 57
152 98 56
158 105 65
156 104 57
154 103 59
157 106 61
155 105 52
155 103 56
156 103 59
155 103 57
158 105 68
154 103 50
154 101 59
154 103 56
154 101 56
149 98 50
151 100 48
152 100 48
149 98 48
145 94 34
144 92 34
136 96 37
124 106 0
122 100 0
125 114 0
133 122 0
126 119 0
131 121 0
120 102 0
132 124 0
121 113 0
130 123 0
125 108 0
124 115 0
124 110 0
121 106 0
115 103 0
121 105 0
121 102 0
111 97 0
112 99 0
112 95 0
108 92 0
99 81 0
97 81 0
79 63 0
75 58 0
79 60 0
82 63 0
102 81 0
92 74 0
105 83 0
108 91 0
108 93 0
114 97 0
118 103 0
111 96 0
118 103 0
114 99 0
112 97 0
120 107 0
119 104 0
114 99 0
129 116 0
117 105 0
119 107 0
125 116 0
127 116 11
119 111 11
133 125 0
123 112 0
134 124 11
130 120 11
132 125 11
128 118 0
131 122 0
128 120 11
131 124 16
124 115 11
126 120 11
131 125 19
124 116 30
127 118 19
121 114 0
130 126 25
128 122 19
125 119 34
124 118 11
136 128 36
132 125 39
123 117 32
127 121 34
131 125 34
125 118 36
118 112 30
120 115 36
128 130 32
148 163 30
169 193 0
168 193 0
169 194 0
169 194 0
169 194 0
168 194 0
169 194 0
168 195 0
168 194 0
169 195 0
169 194 0
168 194 0
168 194 0
167 193 0
169 194 0
168 194 0
155 179 22
146 169 0
136 154 0
138 158 0
142 162 0
144 163 0
145 165 0
145 164 0
144 164 0
145 165 0
145 163 0
144 164 0
145 165 0
143 163 0
141 160 0
143 161 0
143 161 0
140 158 0
143 162 0
141 157 0
139 157 0
143 160 0
139 157 0
142 159 0
138 153 0
135 151 0
140 157 0
138 153 0
136 152 0
135 148 0
135 150 0
136 150 0
129 141 0
131 143 0
129 143 0
131 143 0
125 135 0
128 137 0
127 138 0
126 136 0
122 133 0
118 126 0
117 125 0
110 114 0
105 110 0
94 93 0
86 85 0
83 86 0
71 69 0
87 89 0
94 92 0
103 101 0
110 110 0
118 120 0
112 109 0
114 109 0
119 114 0
120 118 0
118 112 0
126 119 0
123 116 0
130 124 0
127 122 0
129 123 0
131 131 0
128 123 0
129 126 0
131 130 0
124 115 0
125 116 0
127 111 0
124 107 0
120 98 0
121 105 0
122 101 0
128 100 19
141 92 42
146 92 50
148 98 42
152 101 52
149 97 48
153 101 52
149 97 52
153 101 54
153 103 54
149 98 50
153 103 52
151 98 50
153 101 56
155 102 61
155 104 56
152 100 52
153 100 52
153 104 52
154 101 56
154 102 57
153 104 54
154 102 56
150 99 48
151 98 44
148 96 42
145 95 37
150 98 46
150 97 56
154 102 59
146 96 44
127 91 28
106 85 0
117 96 0
123 104 0
126 106 0
120 103 0
127 115 0
121 108 0
127 115 0
126 110 0
122 113 0
125 117 0
126 118 0
127 117 0
119 105 0
118 107 0
119 104 0
123 110 0
114 99 0
119 103 0
119 103 0
109 90 0
118 107 0
101 84 0
102 84 0
91 71 0
77 61 0
69 51 0
62 42 0
72 55 0
80 63 0
94 76 0
95 78 0
102 84 0
99 80 0
106 88 0
105 89 0
102 86 0
106 90 0
107 91 0
105 89 0
107 96 0
118 100 0
123 108 11
124 113 0
126 114 0
123 114 0
126 114 11
123 114 0
124 113 0
121 111 11
128 117 11
121 113 0
126 114 0
117 108 11
127 116 16
127 119 0
127 119 16
127 118 19
134 125 22
130 124 16
121 114 22
132 124 16
126 119 34
129 123 25
118 114 16
120 113 19
124 118 30
126 120 36
118 112 25
129 123 36
119 112 32
119 111 34
114 109 28
124 131 19
153 174 0
167 193 0
168 192 0
167 192 0
168 193 0
168 193 0
168 194 0
168 193 0
167 192 0
167 193 0
168 194 0
168 194 0
168 193 0
167 193 0
168 194 0
167 192 0
169 194 0
168 194 0
166 191 0
168 193 0
166 192 0
163 188 0
147 169 0
141 161 0
131 150 0
140 159 0
140 158 0
145 164 0
139 158 0
142 161 0
142 161 0
141 159 0
141 160 0
142 160 0
144 162 0
141 158 0
141 159 0
141 158 0
137 153 0
140 157 0
140 158 0
140 155 0
137 153 0
136 150 0
135 150 0
136 152 0
130 143 0
135 151 0
128 142 0
133 146 0
129 143 0
125 137 0
124 136 0
123 134 0
128 140 0
121 131 0
124 135 0
117 124 0
108 118 0
105 111 0
102 108 0
98 104 0
96 100 0
67 71 0
75 77 0
62 59 0
78 75 0
91 91 0
95 94 0
95 90 0
107 105 0
114 112 0
108 105 0
111 104 0
116 110 0
119 109 0
129 122 0
122 120 0
128 126 0
124 120 0
133 126 0
126 120 0
125 120 0
132 128 0
125 115 0
130 125 0
131 121 0
128 120 0
125 115 0
123 109 0
119 105 0
125 112 0
122 106 0
118 108 0
114 89 0
115 86 14
121 80 28
141 87 37
143 90 46
149 98 42
146 96 44
149 99 46
145 93 37
147 96 31
145 96 34
148 99 42
156 103 59
150 98 52
152 99 54
148 98 39
149 98 54
152 100 52
149 98 48
146 94 39
155 104 56
148 94 46
151 99 50
148 95 46
150 96 46
147 93 46
148 94 57
142 91 34
143 89 48
123 81 19
111 87 6
106 78 0
113 96 0
112 88 0
125 112 0
125 108 0
123 104 0
126 116 0
114 97 0
117 102 0
125 115 0
120 100 0
122 109 0
123 114 0
125 109 0
122 111 0
113 100 0
128 117 0
122 111 0
130 123 0
119 107 0
108 88 0
113 97 0
110 93 0
108 90 0
100 80 0
93 74 0
87 70 0
90 74 0
83 68 0
73 55 0
65 47 0
65 48 0
78 59 0
84 64 0
91 69 0
88 72 0
93 75 0
95 76 0
106 90 0
109 92 0
107 91 11
106 90 0
111 97 0
110 97 0
114 100 0
116 104 0
113 101 0
109 95 0
116 104 0
123 111 0
113 102 0
118 108 0
116 103 16
120 110 19
127 117 11
121 112 11
117 107 19
121 113 16
125 117 11
116 107 0
117 109 0
128 120 19
116 108 11
123 114 19
118 110 19
123 116 25
123 114 25
114 107 11
121 115 32
123 115 34
117 113 30
126 128 22
149 161 28
160 182 0
166 190 0
167 190 0
168 192 0
166 190 0
169 194 0
169 193 0
168 192 0
167 192 0
165 190 0
169 194 0
168 194 0
168 194 0
167 192 0
169 194 0
167 193 0
169 194 0
168 193 0
169 194 0
168 193 0
168 193 0
166 191 0
166 191 0
166 191 0
168 193 0
163 188 0
167 191 0
147 168 0
143 164 0
126 142 0
139 156 0
135 153 0
137 155 0
138 156 0
138 156 0
142 160 0
140 157 0
138 156 0
135 152 0
135 152 0
136 153 0
141 159 0
132 148 0
132 146 0
133 149 0
136 152 0
132 147 0
128 143 0
128 142 0
125 138 0
128 139 0
126 137 0
123 135 0
127 139 0
122 132 0
117 127 0
112 121 0
110 120 0
103 111 0
97 104 0
93 101 0
73 80 0
66 69 0
69 73 0
66 66 0
80 81 0
86 85 0
94 97 0
97 94 0
106 107 0
111 108 0
112 110 0
113 110 0
127 129 0
121 116 0
126 125 0
119 115 0
128 124 0
121 114 0
127 119 0
129 127 0
128 125 0
129 118 0
124 116 0
135 130 0
128 123 0
122 116 0
129 123 0
131 122 0
125 112 0
122 105 0
123 110 0
123 105 0
122 103 0
114 92 0
120 103 0
114 91 0
108 79 0
107 77 0
114 79 0
111 70 19
137 85 42
145 95 31
149 94 50
147 95 46
150 97 48
145 94 37
144 92 37
147 94 42
146 95 39
149 96 44
146 94 42
151 98 50
149 96 37
144 92 28
151 99 48
141 90 37
143 92 37
147 96 42
147 94 39
140 87 28
145 90 31
130 78 39
117 73 19
106 76 0
106 80 0
108 75 0
110 87 0
120 101 0
115 96 0
116 95 0
120 99 0
123 104 0
117 101 0
124 98 0
128 120 0
126 115 0
128 121 0
126 116 0
126 118 0
124 109 0
124 114 0
123 110 0
124 112 0
127 121 0
117 106 0
122 108 0
114 99 0
122 108 0
120 105 0
114 99 0
117 106 0
112 97 0
109 92 0
103 84 0
98 82 0
91 72 0
84 69 0
74 57 0
74 58 0
63 45 0
68 52 0
78 60 0
81 64 0
94 78 0
89 73 0
94 79 0
94 78 0
103 86 0
103 87 0
108 95 0
109 94 0
113 97 0
106 90 0
111 97 0
115 100 11
112 102 0
109 98 0
104 92 0
115 103 11
106 95 11
116 106 11
123 113 16
116 109 0
116 107 11
114 105 0
121 114 25
109 100 11
122 112 30
117 111 11
119 112 25
120 113 25
120 113 30
113 105 22
116 111 16
128 132 16
151 164 22
162 182 0
166 189 0
166 186 0
167 190 0
167 189 0
163 184 0
168 192 0
165 188 0
164 187 0
167 191 0
166 191 0
169 192 0
169 194 0
167 192 0
166 191 0
169 194 0
168 193 0
168 192 0
167 192 0
166 191 0
165 190 0
168 193 0
167 192 0
167 193 0
165 190 0
166 190 0
168 193 0
167 191 0
167 191 0
163 187 0
166 190 0
163 187 0
163 186 0
156 178 0
155 175 0
136 154 0
130 148 0
129 146 0
130 146 0
133 149 0
136 153 0
134 149 0
136 152 0
132 147 0
132 148 0
132 147 0
129 145 0
130 145 0
128 142 0
124 138 0
127 141 0
126 140 0
117 130 0
125 138 0
113 124 0
118 130 0
107 119 0
109 119 0
103 113 0
98 108 0
86 94 0
70 75 0
73 80 0
61 65 0
69 73 0
82 87 0
84 89 0
90 96 0
95 99 0
105 106 0
109 112 0
116 120 0
123 125 0
117 119 0
120 117 0
131 132 0
132 134 0
126 125 0
126 125 0
118 109 0
131 128 0
126 120 0
128 121 0
131 125 0
135 125 0
127 122 0
134 134 0
127 120 0
136 132 0
130 123 0
128 118 0
133 123 0
129 119 0
134 128 0
129 116 0
126 112 0
121 104 0
119 98 0
119 98 0
111 86 0
113 86 0
104 75 0
104 71 0
97 69 0
103 75 0
102 62 19
112 63 0
132 80 28
137 82 24
142 89 42
140 88 34
143 92 42
143 91 34
141 90 28
141 87 31
143 92 31
149 98 44
146 94 39
141 89 39
146 93 37
143 92 39
141 88 31
133 79 31
117 76 19
98 62 0
95 62 0
96 69 0
103 69 0
111 77 0
114 87 0
116 95 0
113 91 0
114 84 0
128 110 0
122 106 0
122 102 0
120 103 0
131 117 0
133 123 0
126 115 0
127 114 0
127 117 0
130 126 0
125 114 0
130 122 0
126 115 0
125 117 0
119 106 0
118 106 0
130 124 0
116 104 0
122 107 0
117 100 0
119 112 0
124 114 0
109 95 0
116 105 0
108 92 0
108 91 0
101 83 0
101 85 0
94 78 0
91 73 0
82 69 0
82 65 0
70 53 0
74 55 0
69 56 0
64 48 0
81 68 0
86 71 0
82 66 0
91 74 0
93 78 11
94 79 0
106 90 0
94 81 11
102 88 11
108 93 0
107 93 11
103 89 0
111 98 11
109 98 0
106 94 0
106 94 11
108 96 16
114 102 16
113 104 16
121 110 25
101 91 0
108 100 11
106 97 0
105 100 19
119 116 16
127 127 16
145 153 19
156 168 0
162 180 0
160 179 0
159 176 0
164 186 0
164 182 0
163 184 0
165 185 0
163 183 0
162 182 0
162 181 0
165 189 0
167 188 0
168 191 0
166 188 0
165 188 0
166 189 0
168 192 0
168 192 0
167 192 0
168 192 0
166 192 0
168 193 0
167 193 0
164 189 0
165 190 0
167 192 0
166 191 0
165 189 0
164 188 0
164 188 0
162 186 0
166 189 0
165 189 0
164 187 0
163 186 0
166 188 0
163 185 0
164 185 0
162 184 0
158 179 0
160 182 0
154 173 0
139 155 0
137 153 0
132 148 0
125 140 0
128 142 0
123 138 0
122 136 0
114 128 0
115 128 0
115 129 0
113 126 0
110 123 0
106 118 0
98 109 0
93 103 0
98 108 0
96 106 0
92 101 0
87 95 0
84 90 0
75 80 0
85 93 0
79 86 0
89 96 0
90 96 0
102 110 0
107 110 0
107 113 0
109 115 0
111 116 0
117 119 0
124 127 0
124 123 0
122 120 0
127 125 0
130 132 0
127 121 0
130 128 0
128 126 0
137 139 0
130 130 0
136 132 0
131 129 0
137 137 0
135 132 0
133 133 0
138 131 0
138 135 0
130 116 0
142 138 0
138 131 0
129 122 0
129 120 0
129 119 0
130 118 0
127 110 0
121 103 0
128 114 0
125 111 0
117 97 0
119 100 0
108 83 0
119 91 0
106 75 0
99 67 0
103 73 0
98 75 0
90 57 0
81 50 0
90 55 0
88 50 0
112 65 19
114 68 28
124 74 31
128 78 28
125 73 31
122 66 24
119 73 0
122 72 24
112 65 24
110 62 24
91 47 0
77 50 0
85 58 0
94 64 0
95 63 0
100 61 0
100 68 0
111 86 0
104 69 0
110 79 0
116 95 0
123 101 0
106 77 0
121 92 0
128 113 0
119 101 0
125 112 0
133 121 0
129 116 0
129 122 0
128 116 0
134 121 0
130 122 0
130 122 0
131 120 0
134 126 0
124 115 0
133 124 0
133 123 0
128 120 0
122 108 0
125 112 0
126 117 0
124 111 0
123 111 0
125 118 0
123 114 0
117 103 0
117 100 0
113 99 0
109 98 0
106 91 0
110 94 0
93 81 0
100 87 0
90 73 0
99 83 0
89 76 0
82 66 0
75 60 0
87 70 0
89 76 0
84 72 0
84 71 0
86 71 0
97 83 0
85 70 11
102 90 0
101 85 0
102 87 0
96 84 0
100 88 0
108 95 11
96 84 11
112 104 0
104 97 11
105 99 0
119 115 0
123 121 22
124 125 11
139 140 16
146 154 11
150 157 0
149 161 0
156 167 0
160 172 0
152 162 0
162 175 0
158 173 0
162 179 0
162 179 0
163 181 0
162 180 0
162 180 0
161 180 0
164 186 0
167 188 0
164 185 0
163 183 0
163 185 0
165 187 0
164 184 0
165 189 0
167 188 0
168 192 0
168 193 0
167 192 0
165 191 0
166 191 0
168 193 0
165 189 0
164 188 0
165 190 0
167 190 0
166 190 0
165 189 0
164 187 0
164 187 0
166 190 0
166 189 0
163 185 0
161 183 0
161 183 0
158 179 0
163 184 0
154 174 0
157 177 0
156 175 0
158 177 0
150 168 0
150 167 0
153 171 0
148 165 0
142 159 0
137 153 0
138 153 0
139 155 0
136 151 0
127 142 0
120 133 0
114 126 0
109 121 0
105 117 0
102 112 0
106 117 0
103 112 0
99 109 0
102 112 0
101 110 0
105 115 0
103 111 0
103 113 0
118 128 0
113 122 0
116 123 0
120 125 0
119 124 0
122 125 0
127 132 0
123 130 0
122 127 0
135 144 0
124 128 0
128 130 0
140 151 0
138 139 0
130 129 0
138 138 0
131 133 0
131 129 0
139 141 0
141 145 0
132 136 0
137 134 0
138 138 0
140 144 0
137 136 0
129 119 0
138 136 0
139 135 0
137 133 0
134 126 0
134 128 0
128 117 0
135 127 0
132 118 0
129 118 0
124 103 0
127 108 0
119 93 0
117 91 0
120 102 0
116 95 0
114 90 0
105 78 0
105 79 0
99 69 0
96 70 0
91 62 0
91 64 0
82 47 0
75 44 0
67 37 0
71 41 0
69 36 0
68 32 0
75 45 0
73 42 0
77 48 0
89 60 0
87 50 0
97 73 0
99 73 0
95 61 0
107 85 0
105 81 0
110 83 0
109 78 0
118 94 0
112 83 0
119 88 0
123 106 0
126 103 0
125 108 0
122 100 0
131 115 0
115 101 0
132 121 0
133 127 0
136 132 0
131 116 0
141 133 0
129 119 0
131 124 0
133 132 0
132 128 0
125 112 0
133 128 0
131 127 0
125 120 0
133 124 0
132 129 0
131 119 0
136 129 0
127 116 0
128 120 0
124 113 0
130 121 0
119 111 0
124 115 0
121 109 0
126 119 0
110 99 0
115 99 0
113 104 0
117 106 0
109 96 0
109 96 0
107 96 0
99 85 0
100 86 0
95 82 0
97 84 0
100 85 0
96 82 0
97 85 0
99 87 0
93 77 0
104 91 0
114 104 0
114 107 0
125 113 0
129 127 0
129 125 0
134 129 0
135 132 0
138 139 0
145 145 0
143 144 0
141 146 0
143 151 0
142 147 0
150 158 0
150 161 0
153 162 0
160 172 0
154 163 0
155 169 0
162 177 0
162 179 0
162 178 0
159 175 0
162 178 0
161 178 0
166 186 0
161 182 0
164 184 0
162 182 0
165 184 0
166 187 0
165 186 0
165 187 0
166 189 0
165 187 0
165 187 0
166 190 0
168 192 0
167 191 0
166 190 0
165 190 0
165 190 0
165 190 0
165 189 0
166 189 0
163 187 0
162 186 0
163 186 0
164 187 0
164 187 0
164 187 0
162 184 0
165 187 0
160 181 0
159 181 0
160 180 0
157 176 0
155 175 0
153 172 0
152 171 0
150 169 0
146 164 0
148 166 0
138 154 0
139 156 0
138 154 0
138 154 0
128 143 0
130 144 0
129 143 0
123 136 0
127 140 0
116 129 0
113 124 0
119 132 0
114 127 0
109 119 0
112 123 0
116 129 0
120 131 0
114 124 0
118 128 0
124 132 0
120 129 0
124 132 0
129 138 0
125 132 0
132 138 0
128 134 0
133 143 0
137 142 0
134 141 0
130 133 0
132 136 0
138 139 0
137 141 0
137 138 0
134 135 0
143 148 0
140 142 0
145 150 0
142 143 0
140 138 0
138 133 0
140 135 0
138 141 0
137 129 0
134 126 0
138 134 0
133 125 0
139 131 0
138 128 0
135 127 0
140 133 0
135 126 0
131 114 0
129 109 0
125 109 0
123 99 0
127 109 0
120 96 0
124 105 0
118 97 0
116 86 0
121 97 0
119 91 0
110 81 0
103 74 0
109 81 0
99 64 0
99 69 0
100 67 0
104 77 0
98 69 0
98 70 0
93 68 0
85 53 0
90 63 0
91 64 0
95 65 0
97 62 0
92 64 0
99 66 0
100 64 0
101 68 0
105 71 0
117 89 0
111 79 0
118 94 0
125 105 0
122 103 0
125 104 0
128 109 0
128 113 0
129 118 0
132 112 0
129 115 0
134 120 0
128 116 0
132 125 0
134 127 0
131 120 0
134 128 0
129 115 0
134 129 0
137 128 0
130 125 0
137 133 0
124 114 0
140 139 0
129 121 0
132 122 0
132 127 0
138 136 0
132 126 0
134 133 0
130 125 0
130 125 0
134 128 0
126 115 0
128 122 0
129 120 0
124 116 0
129 123 0
130 118 0
119 109 0
115 106 0
117 102 0
117 105 0
120 111 0
105 94 0
108 96 0
98 81 0
106 94 0
108 98 0
112 99 0
101 91 0
113 104 0
105 94 0
116 103 0
115 108 0
120 110 0
124 118 0
118 110 0
126 119 0
129 126 0
130 125 0
140 138 0
141 140 0
136 135 0
139 140 0
144 147 0
144 149 0
152 156 0
154 164 0
153 160 0
154 162 0
153 164 0
160 173 0
158 171 0
153 163 0
158 172 0
161 177 0
159 171 0
161 177 0
158 173 0
163 180 0
162 178 0
162 182 0
163 179 0
162 183 0
164 184 0
163 184 0
166 186 0
166 187 0
167 190 0
166 191 0
167 191 0
166 190 0
165 189 0
165 188 0
165 189 0
165 188 0
164 187 0
163 186 0
164 186 0
164 187 0
163 185 0
162 184 0
162 183 0
159 178 0
158 178 0
160 181 0
157 176 0
157 176 0
159 178 0
149 168 0
155 173 0
154 173 0
147 164 0
152 170 0
145 163 0
144 160 0
140 157 0
140 157 0
134 150 0
135 149 0
138 153 0
131 145 0
126 140 0
125 139 0
124 138 0
119 131 0
125 138 0
121 132 0
123 135 0
122 134 0
126 137 0
130 140 0
128 140 0
130 140 0
131 140 0
128 141 0
130 140 0
133 142 0
136 143 0
133 141 0
135 142 0
141 150 0
133 137 0
132 135 0
138 145 0
137 142 0
141 144 0
139 141 0
143 151 0
135 137 0
136 138 0
143 147 0
142 145 0
145 148 0
144 149 0
136 133 0
143 147 0
141 140 0
144 143 0
137 135 0
142 138 0
137 135 0
138 139 0
141 137 0
135 131 0
136 127 0
137 133 0
140 133 0
137 129 0
137 129 0
130 111 0
127 103 0
125 104 0
127 110 0
131 115 0
123 102 0
117 87 0
119 99 0
117 87 0
117 91 0
118 91 0
108 77 0
105 74 0
109 85 0
107 79 0
109 79 0
102 66 0
98 65 0
101 69 0
105 78 0
108 74 0
106 72 0
101 66 0
108 82 0
109 78 0
108 78 0
115 87 0
117 91 0
115 81 0
118 98 0
119 98 0
120 92 0
123 99 0
133 114 0
132 116 0
127 101 0
135 119 0
130 120 0
131 121 0
131 115 0
123 106 0
126 109 0
132 118 0
142 132 0
134 130 0
134 126 0
139 135 0
133 125 0
132 124 0
132 129 0
139 136 0
132 123 0
146 145 0
135 131 0
137 133 0
133 130 0
143 144 0
142 138 0
140 137 0
135 128 0
137 134 0
132 124 0
135 134 0
135 135 0
133 127 0
134 126 0
131 128 0
131 124 0
130 119 0
135 127 0
128 123 0
122 111 0
122 111 0
124 118 0
120 110 0
118 108 0
121 115 0
121 112 0
114 102 0
114 105 0
113 104 0
130 121 0
117 110 0
120 112 0
122 118 0
121 115 0
120 112 0
116 109 0
132 126 0
132 130 0
138 136 0
137 135 0
132 128 0
139 139 0
144 143 0
146 150 0
146 149 0
151 156 0
143 148 0
150 156 0
153 162 0
157 165 0
153 159 0
151 162 0
154 165 0
154 166 0
160 172 0
156 170 0
160 175 0
158 171 0
161 177 0
162 178 0
162 182 0
163 180 0
164 182 0
166 187 0
165 186 0
161 179 0
163 184 0
163 186 0
164 187 0
163 187 0
164 188 0
163 187 0
159 182 0
163 186 0
164 186 0
162 184 0
159 182 0
161 182 0
164 185 0
163 185 0
162 184 0
157 178 0
159 180 0
161 182 0
157 176 0
155 175 0
154 173 0
149 167 0
150 169 0
149 166 0
143 162 0
150 167 0
141 159 0
142 159 0
141 156 0
135 151 0
144 161 0
137 153 0
134 149 0
134 147 0
135 150 0
133 147 0
129 143 0
129 142 0
132 145 0
131 144 0
132 146 0
133 146 0
131 142 0
126 138 0
136 148 0
139 150 0
135 145 0
135 143 0
136 145 0
136 144 0
142 149 0
144 157 0
139 146 0
142 151 0
141 147 0
139 143 0
144 152 0
147 153 0
142 148 0
142 150 0
146 151 0
145 149 0
144 148 0
146 148 0
140 143 0
145 154 0
143 149 0
144 147 0
139 136 0
148 151 0
145 145 0
145 146 0
145 147 0
144 143 0
140 130 0
142 137 0
141 133 0
141 138 0
145 142 0
140 133 0
140 131 0
129 118 0
132 116 0
128 105 0
133 114 0
130 117 0
132 112 0
129 116 0
128 106 0
126 111 0
122 103 0
128 110 0
121 97 0
117 91 0
118 92 0
113 82 0
116 88 0
109 77 0
115 83 0
111 88 0
113 84 0
113 90 0
116 90 0
108 72 0
112 79 0
109 76 0
117 92 0
114 80 0
124 102 0
121 93 0
115 86 0
121 101 0
126 102 0
123 105 0
129 106 0
126 104 0
130 113 0
134 116 0
134 114 0
128 109 0
140 128 0
132 119 0
134 122 0
141 132 0
139 132 0
137 125 0
139 130 0
140 136 0
137 131 0
143 141 0
140 138 0
139 134 0
137 126 0
144 143 0
135 131 0
144 144 0
138 134 0
132 128 0
145 143 0
136 134 0
136 131 0
141 136 0
139 135 0
139 138 0
131 129 0
142 133 0
144 145 0
134 126 0
135 132 0
130 124 0
135 133 0
130 121 0
132 125 0
133 125 0
133 128 0
134 129 0
132 126 0
132 124 0
128 122 0
127 121 0
124 114 0
125 118 0
116 106 0
124 117 0
130 122 0
125 114 0
120 112 0
125 116 0
131 126 0
132 126 0
131 124 0
137 133 0
136 133 0
140 137 0
137 136 0
145 144 0
138 139 0
140 142 0
143 145 0
144 147 0
140 144 0
152 156 0
145 151 0
148 154 0
154 162 0
157 166 0
155 166 0
155 168 0
153 164 0
157 172 0
163 175 0
159 174 0
162 179 0
159 173 0
160 176 0
159 174 0
161 177 0
164 182 0
161 178 0
154 171 0
163 183 0
163 187 0
166 190 0
164 187 0
164 188 0
162 185 0
164 186 0
161 183 0
164 187 0
161 183 0
160 182 0
161 182 0
161 181 0
159 180 0
162 184 0
155 175 0
156 176 0
154 174 0
153 173 0
149 167 0
158 178 0
153 171 0
154 172 0
151 168 0
150 167 0
146 163 0
142 158 0
145 162 0
143 160 0
143 158 0
140 156 0
143 158 0
140 156 0
138 154 0
141 156 0
142 157 0
129 143 0
138 151 0
140 153 0
135 149 0
132 145 0
139 152 0
143 157 0
136 146 0
137 148 0
138 149 0
142 153 0
142 154 0
137 148 0
141 148 0
146 157 0
143 151 0
140 147 0
146 155 0
141 147 0
142 146 0
148 157 0
139 142 0
143 150 0
148 153 0
139 145 0
142 146 0
145 147 0
147 154 0
143 145 0
147 148 0
146 150 0
147 149 0
143 145 0
142 141 0
143 141 0
146 144 0
146 150 0
143 145 0
144 143 0
146 145 0
141 138 0
140 137 0
138 125 0
141 129 0
142 132 0
131 116 0
139 128 0
134 118 0
133 116 0
138 128 0
132 115 0
133 113 0
139 131 0
128 108 0
133 114 0
127 108 0
127 106 0
124 100 0
125 104 0
123 99 0
124 99 0
122 100 0
119 88 0
120 89 0
121 101 0
120 92 0
117 89 0
119 93 0
123 97 0
112 80 0
118 97 0
124 100 0
117 89 0
124 102 0
129 105 0
128 106 0
130 108 0
128 107 0
133 111 0
137 122 0
129 111 0
135 118 0
136 117 0
140 131 0
138 127 0
143 132 0
130 118 0
137 125 0
137 124 0
132 118 0
136 129 0
144 139 0
146 140 0
137 131 0
137 135 0
144 143 0
140 138 0
144 144 0
141 141 0
143 140 0
134 132 0
147 143 0
137 135 0
143 146 0
142 146 0
138 137 0
146 148 0
139 141 0
147 145 0
140 134 0
134 131 0
136 136 0
144 146 0
143 143 0
130 125 0
144 144 0
135 133 0
137 133 0
136 134 0
135 128 0
135 134 0
143 142 0
132 126 0
130 122 0
122 117 0
130 127 0
133 129 0
130 124 0
126 119 0
130 126 0
128 121 0
131 126 0
129 123 0
135 129 0
137 135 0
131 127 0
139 138 0
135 131 0
135 131 0
129 126 0
141 140 0
141 142 0
142 141 0
152 156 0
148 149 0
146 149 0
145 149 0
150 155 0
156 163 0
151 158 0
151 161 0
149 158 0
156 165 0
155 165 0
157 168 0
157 169 0
152 164 0
160 176 0
156 169 0
158 175 0
162 176 0
163 180 0
159 175 0
164 181 0
161 180 0
163 186 0
165 190 0
162 185 0
163 188 0
164 187 0
163 185 0
165 187 0
161 182 0
163 184 0
159 180 0
161 182 0
159 180 0
158 178 0
154 173 0
159 178 0
156 176 0
157 175 0
155 174 0
155 174 0
147 165 0
150 168 0
146 164 0
146 163 0
148 165 0
149 165 0
148 165 0
148 165 0
142 158 0
146 162 0
143 160 0
143 158 0
142 158 0
145 161 0
144 160 0
143 158 0
143 159 0
143 157 0
149 165 0
144 159 0
141 155 0
140 151 0
155 172 0
142 155 0
147 161 0
145 156 0
145 156 0
144 154 0
149 158 0
144 152 0
148 157 0
149 159 0
147 156 0
144 154 0
148 155 0
152 161 0
147 153 0
148 156 0
145 152 0
149 156 0
146 151 0
144 151 0
152 160 0
148 159 0
148 150 0
145 151 0
154 160 0
144 143 0
143 140 0
148 148 0
145 146 0
141 144 0
146 148 0
146 139 0
143 141 0
139 131 0
146 144 0
138 127 0
139 132 0
140 134 0
145 139 0
148 144 0
144 138 0
137 124 0
138 130 0
133 120 0
140 125 0
135 121 0
136 116 0
137 120 0
134 118 0
132 116 0
129 110 0
132 113 0
130 105 0
129 109 0
129 111 0
129 101 0
122 89 0
124 103 0
124 98 0
124 99 0
123 103 0
130 108 0
119 88 0
130 108 0
131 109 0
138 118 0
135 121 0
132 114 0
127 103 0
135 121 0
126 102 0
135 116 0
133 114 0
134 115 0
136 123 0
139 119 0
144 136 0
140 122 0
142 131 0
135 123 0
144 138 0
145 139 0
145 141 0
139 135 0
142 136 0
145 144 0
148 146 0
144 140 0
138 136 0
142 138 0
142 138 0
143 143 0
143 139 0
148 151 0
144 147 0
141 140 0
144 144 0
145 144 0
142 139 0
148 154 0
138 140 0
138 134 0
145 144 0
143 144 0
138 137 0
143 140 0
142 138 0
139 137 0
144 143 0
143 139 0
138 135 0
135 136 0
142 142 0
125 117 0
139 135 0
140 137 0
136 132 0
126 124 0
136 131 0
136 133 0
138 136 0
134 132 0
134 129 0
139 134 0
126 122 0
124 119 0
135 129 0
133 127 0
134 130 0
134 133 0
139 137 0
134 135 0
138 136 0
141 141 0
142 143 0
146 148 0
138 136 0
142 143 0
143 148 0
148 154 0
152 156 0
148 152 0
155 161 0
150 159 0
144 148 0
146 154 0
153 159 0
153 163 0
153 161 0
156 168 0
159 173 0
158 167 0
160 175 0
160 174 0
162 179 0
159 176 0
164 180 0
160 176 0
165 180 0
161 184 0
161 183 0
163 186 0
161 184 0
163 184 0
161 183 0
158 180 0
159 180 0
158 179 0
158 180 0
162 182 0
160 180 0
154 174 0
156 176 0
157 176 0
157 176 0
157 175 0
157 175 0
149 168 0
151 169 0
146 164 0
148 166 0
149 167 0
150 167 0
147 165 0
143 160 0
150 166 0
152 169 0
141 158 0
148 164 0
146 164 0
141 156 0
143 159 0
142 157 0
146 162 0
149 164 0
146 159 0
147 162 0
146 163 0
150 163 0
147 160 0
150 164 0
151 164 0
152 162 0
148 160 0
151 163 0
147 154 0
149 159 0
144 155 0
148 159 0
149 159 0
149 158 0
150 160 0
147 155 0
152 159 0
144 151 0
143 149 0
152 158 0
147 155 0
140 145 0
152 160 0
147 154 0
152 156 0
151 157 0
153 164 0
144 149 0
150 159 0
143 143 0
144 143 0
144 145 0
150 153 0
146 149 0
146 142 0
141 137 0
148 149 0
151 153 0
148 147 0
143 139 0
145 136 0
142 130 0
142 133 0
146 143 0
141 137 0
141 132 0
146 138 0
134 125 0
143 133 0
140 128 0
138 122 0
136 120 0
140 127 0
136 117 0
129 99 0
135 119 0
134 113 0
139 117 0
128 105 0
125 104 0
131 104 0
127 103 0
132 108 0
132 111 0
130 107 0
134 111 0
126 106 0
128 103 0
132 107 0
131 113 0
136 116 0
134 113 0
138 117 0
130 99 0
139 129 0
144 128 0
141 128 0
139 124 0
142 132 0
138 126 0
143 133 0
144 133 0
142 130 0
141 135 0
149 145 0
139 134 0
143 139 0
145 138 0
149 153 0
141 137 0
143 142 0
144 143 0
141 138 0
147 140 0
144 144 0
147 147 0
141 138 0
146 147 0
140 140 0
139 133 0
148 153 0
148 152 0
147 148 0
141 140 0
145 144 0
144 146 0
142 140 0
144 141 0
146 152 0
147 150 0
145 145 0
144 144 0
148 150 0
138 141 0
143 145 0
138 136 0
137 138 0
149 147 0
147 148 0
140 139 0
143 145 0
149 152 0
138 135 0
137 137 0
139 138 0
135 130 0
137 136 0
141 139 0
147 145 0
140 137 0
141 140 0
135 133 0
137 135 0
142 141 0
139 136 0
138 135 0
141 139 0
142 141 0
141 143 0
139 138 0
146 147 0
138 139 0
142 142 0
151 152 0
153 161 0
152 156 0
148 153 0
151 156 0
147 155 0
155 164 0
158 169 0
155 166 0
152 162 0
157 167 0
156 167 0
158 171 0
155 168 0
157 167 0
162 177 0
157 169 0
158 173 0
161 178 0
163 185 0
162 184 0
163 187 0
162 184 0
163 185 0
161 182 0
158 179 0
159 180 0
156 176 0
159 181 0
158 179 0
155 175 0
155 175 0
154 174 0
153 173 0
156 175 0
154 173 0
154 172 0
153 171 0
151 167 0
155 172 0
155 173 0
147 164 0
150 167 0
148 166 0
151 170 0
148 164 0
153 171 0
151 167 0
148 165 0
149 165 0
149 164 0
150 167 0
149 163 0
146 163 0
149 165 0
150 166 0
145 160 0
145 159 0
144 155 0
153 167 0
148 159 0
148 161 0
148 159 0
153 165 0
146 157 0
149 159 0
146 156 0
149 164 0
152 162 0
152 163 0
148 160 0
152 163 0
151 163 0
142 151 0
151 158 0
152 161 0
146 156 0
150 159 0
152 160 0
152 161 0
148 154 0
150 158 0
147 149 0
150 148 0
145 146 0
152 159 0
147 155 0
152 155 0
151 158 0
149 157 0
149 150 0
151 149 0
149 149 0
145 143 0
143 140 0
148 146 0
145 139 0
138 134 0
145 143 0
146 138 0
143 134 0
140 127 0
143 132 0
143 133 0
143 136 0
142 132 0
144 131 0
138 126 0
136 125 0
135 118 0
139 123 0
142 134 0
138 124 0
140 126 0
142 128 0
133 105 0
145 134 0
137 117 0
137 124 0
136 117 0
136 122 0
131 111 0
136 124 0
130 110 0
136 119 0
131 111 0
138 119 0
139 118 0
141 131 0
142 131 0
134 118 0
143 132 0
135 119 0
135 117 0
139 121 0
141 125 0
144 132 0
144 135 0
150 148 0
148 138 0
141 134 0
140 133 0
145 137 0
147 143 0
142 138 0
146 144 0
144 136 0
142 146 0
140 134 0
146 144 0
143 139 0
152 154 0
146 149 0
146 151 0
149 149 0
146 152 0
150 155 0
150 151 0
145 149 0
151 156 0
145 146 0
147 154 0
143 144 0
143 143 0
149 152 0
146 147 0
145 146 0
149 152 0
143 143 0
147 149 0
150 155 0
144 146 0
147 150 0
143 142 0
146 146 0
140 140 0
147 151 0
142 144 0
147 151 0
139 134 0
142 140 0
145 146 0
139 141 0
147 149 0
151 154 0
145 147 0
145 146 0
144 145 0
144 144 0
141 140 0
145 150 0
143 143 0
139 139 0
142 144 0
139 139 0
146 145 0
140 139 0
140 144 0
140 141 0
147 148 0
150 153 0
150 155 0
148 152 0
146 151 0
151 157 0
153 159 0
155 167 0
153 161 0
155 167 0
156 166 0
153 162 0
150 160 0
153 164 0
155 164 0
159 174 0
162 176 0
158 172 0
156 171 0
162 179 0
163 185 0
162 184 0
162 184 0
163 184 0
160 183 0
159 180 0
158 178 0
163 184 0
160 181 0
157 177 0
159 180 0
157 178 0
158 179 0
156 175 0
155 175 0
158 177 0
155 173 0
153 171 0
156 174 0
152 172 0
157 176 0
151 171 0
146 164 0
151 170 0
150 167 0
151 168 0
149 166 0
148 165 0
151 165 0
151 167 0
152 169 0
150 166 0
149 166 0
153 167 0
151 166 0
151 168 0
151 166 0
149 164 0
148 161 0
147 158 0
148 163 0
150 165 0
153 166 0
157 171 0
158 173 0
148 161 0
155 165 0
159 174 0
154 164 0
147 154 0
149 159 0
153 168 0
153 165 0
148 154 0
152 160 0
151 159 0
151 159 0
150 156 0
151 159 0
150 157 0
146 150 0
149 154 0
149 159 0
152 161 0
148 151 0
155 158 0
147 151 0
151 152 0
155 165 0
152 159 0
150 149 0
149 150 0
146 144 0
150 149 0
149 148 0
146 148 0
148 146 0
144 142 0
143 131 0
149 147 0
146 139 0
141 132 0
147 141 0
142 128 0
141 132 0
145 138 0
142 135 0
149 143 0
142 131 0
142 128 0
141 125 0
139 127 0
144 131 0
141 117 0
145 135 0
136 115 0
139 122 0
138 120 0
136 121 0
133 110 0
138 122 0
140 128 0
135 117 0
139 121 0
135 118 0
140 126 0
141 130 0
136 119 0
137 124 0
142 129 0
138 126 0
140 123 0
144 135 0
137 118 0
146 137 0
143 133 0
147 142 0
139 122 0
141 138 0
140 136 0
140 131 0
144 136 0
144 137 0
145 143 0
142 138 0
145 144 0
142 139 0
148 151 0
152 151 0
150 150 0
147 148 0
145 149 0
144 144 0
151 152 0
149 154 0
147 145 0
148 151 0
147 147 0
147 147 0
149 153 0
150 151 0
150 155 0
151 153 0
146 149 0
151 158 0
151 156 0
147 147 0
146 149 0
149 156 0
140 145 0
146 154 0
139 141 0
147 149 0
145 151 0
143 147 0
147 152 0
151 157 0
143 143 0
154 157 0
146 145 0
143 143 0
150 149 0
143 148 0
147 155 0
139 140 0
145 150 0
142 142 0
141 139 0
146 150 0
145 150 0
145 142 0
148 151 0
140 141 0
147 146 0
137 139 0
140 142 0
148 156 0
144 146 0
148 151 0
145 144 0
151 159 0
150 152 0
151 156 0
148 153 0
146 150 0
150 156 0
152 161 0
151 158 0
152 161 0
153 163 0
154 164 0
158 171 0
157 169 0
153 161 0
160 170 0
157 166 0
155 167 0
152 165 0
158 172 0
158 173 0
160 183 0
163 185 0
160 181 0
164 186 0
158 180 0
159 181 0
162 183 0
156 177 0
159 179 0
157 177 0
158 179 0
153 173 0
154 173 0
154 174 0
154 173 0
158 177 0
153 171 0
149 169 0
155 174 0
154 172 0
152 171 0
156 174 0
152 169 0
155 172 0
151 170 0
151 170 0
151 169 0
152 169 0
153 171 0
151 169 0
153 171 0
154 169 0
155 172 0
155 174 0
154 169 0
154 171 0
150 166 0
155 171 0
152 167 0
156 172 0
153 166 0
154 169 0
152 166 0
150 163 0
154 169 0
156 170 0
153 168 0
153 166 0
149 162 0
148 159 0
148 161 0
154 169 0
154 167 0
156 169 0
154 167 0
152 163 0
152 164 0
156 166 0
152 160 0
154 164 0
150 155 0
152 159 0
154 158 0
155 170 0
153 157 0
157 164 0
154 161 0
151 160 0
150 151 0
150 154 0
150 153 0
150 152 0
153 158 0
153 153 0
153 156 0
145 138 0
147 147 0
145 138 0
151 154 0
152 153 0
147 139 0
152 151 0
150 150 0
144 139 0
143 132 0
143 134 0
149 141 0
143 134 0
142 129 0
147 141 0
142 126 0
146 138 0
145 136 0
143 126 0
147 135 0
148 138 0
141 126 0
142 124 0
144 132 0
142 135 0
138 127 0
138 123 0
140 125 0
142 124 0
142 131 0
147 139 0
143 133 0
135 119 0
140 125 0
146 135 0
137 119 0
144 136 0
144 133 0
147 141 0
148 142 0
146 138 0
145 133 0
150 147 0
142 134 0
149 141 0
144 137 0
146 142 0
147 142 0
145 144 0
150 151 0
145 139 0
149 149 0
152 152 0
143 137 0
152 156 0
152 153 0
148 150 0
152 153 0
147 149 0
150 155 0
148 149 0
150 151 0
156 167 0
145 141 0
155 165 0
155 163 0
148 153 0
150 153 0
149 155 0
145 152 0
149 152 0
153 159 0
149 157 0
151 156 0
149 155 0
150 156 0
146 149 0
148 156 0
148 151 0
144 150 0
146 152 0
150 156 0
150 152 0
149 152 0
150 156 0
145 148 0
148 152 0
150 158 0
143 149 0
154 159 0
152 155 0
146 147 0
152 155 0
145 149 0
149 152 0
149 155 0
143 146 0
141 144 0
149 153 0
147 151 0
151 156 0
148 155 0
151 156 0
149 152 0
148 151 0
154 158 0
153 157 0
149 154 0
144 149 0
144 148 0
151 158 0
151 158 0
152 160 0
154 164 0
146 150 0
153 162 0
158 167 0
151 159 0
150 159 0
153 163 0
154 162 0
153 165 0
152 160 0
162 175 0
161 170 0
159 180 0
162 184 0
160 182 0
157 178 0
162 182 0
159 181 0
158 179 0
162 182 0
154 175 0
156 175 0
153 173 0
158 177 0
161 180 0
159 178 0
159 179 0
157 176 0
153 172 0
156 174 0
156 175 0
158 179 0
156 174 0
152 169 0
150 166 0
152 170 0
156 172 0
155 170 0
150 167 0
152 168 0
150 168 0
155 172 0
150 167 0
157 173 0
154 171 0
153 171 0
156 173 0
156 173 0
152 167 0
156 172 0
153 168 0
156 168 0
156 173 0
152 165 0
155 173 0
149 163 0
155 169 0
155 169 0
152 161 0
152 169 0
154 168 0
154 167 0
156 171 0
156 169 0
156 169 0
155 168 0
152 160 0
152 162 0
155 164 0
156 164 0
149 155 0
152 158 0
150 160 0
150 163 0
157 175 0
153 160 0
152 157 0
154 162 0
156 163 0
157 164 0
150 157 0
152 156 0
153 159 0
149 155 0
152 157 0
153 153 0
155 158 0
150 154 0
150 153 0
150 148 0
153 153 0
145 143 0
152 153 0
149 141 0
148 143 0
153 152 0
149 140 0
145 138 0
145 141 0
148 141 0
147 135 0
143 131 0
148 136 0
146 139 0
144 135 0
149 146 0
141 127 0
144 135 0
148 140 0
143 127 0
150 138 0
144 134 0
140 126 0
144 131 0
142 131 0
146 139 0
143 132 0
149 140 0
149 140 0
140 117 0
147 144 0
146 143 0
141 125 0
146 137 0
145 134 0
150 150 0
149 145 0
145 139 0
151 150 0
144 143 0
153 153 0
148 140 0
150 148 0
151 154 0
149 143 0
149 149 0
156 163 0
151 151 0
152 155 0
146 143 0
145 137 0
155 151 0
148 152 0
151 155 0
151 153 0
151 156 0
154 163 0
155 160 0
145 144 0
154 159 0
152 157 0
148 154 0
147 154 0
147 151 0
148 157 0
152 161 0
147 153 0
158 169 0
146 151 0
153 162 0
150 159 0
147 150 0
150 157 0
153 160 0
149 156 0
151 159 0
146 151 0
150 157 0
152 159 0
152 161 0
150 155 0
152 157 0
146 151 0
154 160 0
149 153 0
150 156 0
150 153 0
146 148 0
150 156 0
147 150 0
146 152 0
147 150 0
151 157 0
152 158 0
150 156 0
150 155 0
149 154 0
150 153 0
149 150 0
149 156 0
154 160 0
148 153 0
153 160 0
149 155 0
153 160 0
149 155 0
150 158 0
153 158 0
153 159 0
150 156 0
154 163 0
150 156 0
155 164 0
153 162 0
153 161 0
151 159 0
157 166 0
158 171 0
157 164 0
151 164 0
158 169 0
159 170 0
159 181 0
158 179 0
162 183 0
158 178 0
160 181 0
159 181 0
155 174 0
160 180 0
156 177 0
156 177 0
156 176 0
156 177 0
159 179 0
161 181 0
155 175 0
151 171 0
158 177 0
155 174 0
157 175 0
154 173 0
152 169 0
156 173 0
156 175 0
155 172 0
156 174 0
154 172 0
156 172 0
154 171 0
156 175 0
161 178 0
155 171 0
159 177 0
156 168 0
154 169 0
156 171 0
154 170 0
154 169 0
158 176 0
156 174 0
156 172 0
153 168 0
158 174 0
155 164 0
155 167 0
153 168 0
156 168 0
150 162 0
155 169 0
158 174 0
155 165 0
156 168 0
155 166 0
159 174 0
156 168 0
156 168 0
157 167 0
157 170 0
154 165 0
157 163 0
157 169 0
153 163 0
157 160 0
153 160 0
155 160 0
149 155 0
155 163 0
150 160 0
156 163 0
154 161 0
152 154 0
152 163 0
154 158 0
156 161 0
153 156 0
156 163 0
155 155 0
151 153 0
148 146 0
153 156 0
154 149 0
154 153 0
146 145 0
149 148 0
152 152 0
149 144 0
144 140 0
146 135 0
150 133 0
149 142 0
149 143 0
153 151 0
147 136 0
146 134 0
142 132 0
148 142 0
141 124 0
152 148 0
148 139 0
139 122 0
143 128 0
146 132 0
146 135 0
148 136 0
148 136 0
140 133 0
146 143 0
147 140 0
145 134 0
147 142 0
145 137 0
145 134 0
145 132 0
146 139 0
146 141 0
150 142 0
149 146 0
148 147 0
153 156 0
151 146 0
148 144 0
150 141 0
149 142 0
151 151 0
145 141 0
154 156 0
144 137 0
151 151 0
146 146 0
155 161 0
151 157 0
151 151 0
151 149 0
154 154 0
147 149 0
149 148 0
151 154 0
153 157 0
153 158 0
152 158 0
154 161 0
152 158 0
151 157 0
153 160 0
150 154 0
153 160 0
148 152 0
151 156 0
154 161 0
150 158 0
152 158 0
147 153 0
153 157 0
151 153 0
147 151 0
148 151 0
150 154 0
154 162 0
153 162 0
155 162 0
150 157 0
149 154 0
151 157 0
150 157 0
146 150 0
142 147 0
147 152 0
150 155 0
152 158 0
151 157 0
146 152 0
146 149 0
148 154 0
154 159 0
145 147 0
148 151 0
156 162 0
139 143 0
150 154 0
150 155 0
150 154 0
152 161 0
146 150 0
155 159 0
146 152 0
150 157 0
153 160 0
156 164 0
153 159 0
154 159 0
152 157 0
152 161 0
154 161 0
153 160 0
156 168 0
154 166 0
153 166 0
157 170 0
155 166 0
159 173 0
158 171 0
159 180 0
161 183 0
161 182 0
162 183 0
161 182 0
161 182 0
162 183 0
157 178 0
163 184 0
160 180 0
157 178 0
157 178 0
159 177 0
155 174 0
154 176 0
159 178 0
155 174 0
157 177 0
159 179 0
155 174 0
158 176 0
154 174 0
154 171 0
155 173 0
155 174 0
160 177 0
153 169 0
154 170 0
156 173 0
157 175 0
150 168 0
153 171 0
152 166 0
157 175 0
156 174 0
158 172 0
158 176 0
151 167 0
155 170 0
156 170 0
160 179 0
158 176 0
153 169 0
157 172 0
154 166 0
156 172 0
152 165 0
155 170 0
154 167 0
153 164 0
149 159 0
151 162 0
153 163 0
157 170 0
158 166 0
154 169 0
158 168 0
154 162 0
158 169 0
154 161 0
153 161 0
152 160 0
155 163 0
150 154 0
155 165 0
157 164 0
151 153 0
156 166 0
156 162 0
152 159 0
154 160 0
152 150 0
153 157 0
150 158 0
149 146 0
150 153 0
152 156 0
154 160 0
152 152 0
151 153 0
152 149 0
151 148 0
153 155 0
149 147 0
147 146 0
150 144 0
149 147 0
150 146 0
146 139 0
147 140 0
149 146 0
151 151 0
149 139 0
151 147 0
146 134 0
147 137 0
148 140 0
141 129 0
152 149 0
147 142 0
151 146 0
149 144 0
145 140 0
150 141 0
147 139 0
150 140 0
150 142 0
154 153 0
150 141 0
149 140 0
151 146 0
148 144 0
147 147 0
150 141 0
147 144 0
152 152 0
148 142 0
148 147 0
153 153 0
147 139 0
151 154 0
151 148 0
154 155 0
151 149 0
151 152 0
149 152 0
150 148 0
147 143 0
154 152 0
152 156 0
152 157 0
151 151 0
155 161 0
153 157 0
153 159 0
150 154 0
156 158 0
148 152 0
154 162 0
153 161 0
152 156 0
150 157 0
152 157 0
155 163 0
151 158 0
155 166 0
152 158 0
150 150 0
154 159 0
151 154 0
150 160 0
158 169 0
147 157 0
152 157 0
153 162 0
146 150 0
156 168 0
149 159 0
152 160 0
157 166 0
152 162 0
152 161 0
151 160 0
152 160 0
150 156 0
154 160 0
148 152 0
153 160 0
149 155 0
149 154 0
148 153 0
152 158 0
146 153 0
148 155 0
155 163 0
155 159 0
148 150 0
151 157 0
154 162 0
150 159 0
149 155 0
152 158 0
153 160 0
150 159 0
157 166 0
148 155 0
148 154 0
154 164 0
154 165 0
152 162 0
155 167 0
156 167 0
156 167 0
156 167 0
156 165 0
157 168 0
156 166 0
156 169 0
159 169 0
154 169 0
160 181 0
162 183 0
161 182 0
158 181 0
163 185 0
159 179 0
158 178 0
155 177 0
160 181 0
162 182 0
154 173 0
156 175 0
156 174 0
162 183 0
160 180 0
157 177 0
154 170 0
158 179 0
156 175 0
156 176 0
158 177 0
156 174 0
159 177 0
155 174 0
158 176 0
155 173 0
158 177 0
158 177 0
156 174 0
155 171 0
158 174 0
157 176 0
156 170 0
159 176 0
159 177 0
156 175 0
155 168 0
158 176 0
156 172 0
157 174 0
159 173 0
156 168 0
158 173 0
155 167 0
154 164 0
154 166 0
157 169 0
158 171 0
157 166 0
156 169 0
155 162 0
159 177 0
158 174 0
156 167 0
153 159 0
152 163 0
155 166 0
155 165 0
153 162 0
159 170 0
160 172 0
153 161 0
152 161 0
155 165 0
157 168 0
156 163 0
156 164 0
150 149 0
153 160 0
154 158 0
157 163 0
158 162 0
152 156 0
153 159 0
152 152 0
154 163 0
153 157 0
157 163 0
155 158 0
155 162 0
153 153 0
149 145 0
154 153 0
155 156 0
153 151 0
152 144 0
149 144 0
149 148 0
153 152 0
151 145 0
149 144 0
154 156 0
147 138 0
147 142 0
145 134 0
146 140 0
147 141 0
149 145 0
154 153 0
148 147 0
148 139 0
146 135 0
151 148 0
151 150 0
147 140 0
146 137 0
152 149 0
147 146 0
153 147 0
150 141 0
149 146 0
151 149 0
149 142 0
153 148 0
152 150 0
146 138 0
149 144 0
153 153 0
150 148 0
155 152 0
157 162 0
157 160 0
149 149 0
153 158 0
151 151 0
154 156 0
152 157 0
151 153 0
157 164 0
157 162 0
148 152 0
148 147 0
155 155 0
154 159 0
154 161 0
153 162 0
154 164 0
156 165 0
152 154 0
148 152 0
156 166 0
156 167 0
149 153 0
154 161 0
153 161 0
156 167 0
153 161 0
155 163 0
156 167 0
155 167 0
151 156 0
155 167 0
155 162 0
152 161 0
155 165 0
151 158 0
147 157 0
148 155 0
154 166 0
149 153 0
148 156 0
158 171 0
150 157 0
152 160 0
159 166 0
153 163 0
155 166 0
146 153 0
151 160 0
147 152 0
150 158 0
151 157 0
151 155 0
150 158 0
156 165 0
156 166 0
147 155 0
155 161 0
149 154 0
156 168 0
150 158 0
156 163 0
155 164 0
153 163 0
152 161 0
151 156 0
150 159 0
152 160 0
153 163 0
154 160 0
150 158 0
150 159 0
154 163 0
153 163 0
153 164 0
158 170 0
153 163 0
160 171 0
155 165 0
153 163 0
159 181 0
163 184 0
160 182 0
161 183 0
161 181 0
158 179 0
161 180 0
158 178 0
157 177 0
158 179 0
159 177 0
161 182 0
160 180 0
159 179 0
158 177 0
153 172 0
159 178 0
157 175 0
156 174 0
153 170 0
157 175 0
158 176 0
157 173 0
156 174 0
159 178 0
158 176 0
157 175 0
157 175 0
159 177 0
161 181 0
155 171 0
161 181 0
156 171 0
155 172 0
157 172 0
158 175 0
157 173 0
157 171 0
157 175 0
159 178 0
156 174 0
156 167 0
160 177 0
156 171 0
159 174 0
156 172 0
154 167 0
154 166 0
155 169 0
157 173 0
159 176 0
156 170 0
157 167 0
159 173 0
154 166 0
158 170 0
155 165 0
160 175 0
156 169 0
157 168 0
154 163 0
157 172 0
155 163 0
155 160 0
157 168 0
154 161 0
156 162 0
157 165 0
153 157 0
152 158 0
157 164 0
154 158 0
154 156 0
151 156 0
152 151 0
155 157 0
150 155 0
151 152 0
154 156 0
157 160 0
154 158 0
155 161 0
156 161 0
156 157 0
153 155 0
155 152 0
152 150 0
152 155 0
153 157 0
152 150 0
148 142 0
153 158 0
153 152 0
155 156 0
154 154 0
148 144 0
150 145 0
156 155 0
147 137 0
147 140 0
155 153 0
151 145 0
150 146 0
152 153 0
154 149 0
153 150 0
150 141 0
153 148 0
149 144 0
150 148 0
150 148 0
152 150 0
152 152 0
150 146 0
149 142 0
154 155 0
155 156 0
151 148 0
155 155 0
154 156 0
155 156 0
151 151 0
157 167 0
156 159 0
154 157 0
156 157 0
150 146 0
153 154 0
154 161 0
152 156 0
152 154 0
157 162 0
156 161 0
149 151 0
149 151 0
151 155 0
160 171 0
157 165 0
155 164 0
157 166 0
148 156 0
155 164 0
149 160 0
151 157 0
153 159 0
158 168 0
158 170 0
151 158 0
157 168 0
151 158 0
158 168 0
158 168 0
152 156 0
160 177 0
151 163 0
149 155 0
153 162 0
155 166 0
154 163 0
154 165 0
155 163 0
150 159 0
157 160 0
153 161 0
155 163 0
152 163 0
153 160 0
153 160 0
152 159 0
153 162 0
155 168 0
149 156 0
154 165 0
155 165 0
151 159 0
152 159 0
152 160 0
153 160 0
154 163 0
151 159 0
153 163 0
156 165 0
152 161 0
149 159 0
155 163 0
154 165 0
150 159 0
160 170 0
157 168 0
148 156 0
157 167 0
153 162 0
157 168 0
151 160 0
154 167 0
156 164 0
152 164 0
159 172 0
156 166 0
160 171 0
165 187 0
159 179 0
162 183 0
160 180 0
160 179 0
160 182 0
159 180 0
160 179 0
161 182 0
161 181 0
161 180 0
158 176 0
159 179 0
161 182 0
159 180 0
160 178 0
159 179 0
160 177 0
159 180 0
158 178 0
158 176 0
158 177 0
158 176 0
155 173 0
159 178 0
160 178 0
155 170 0
153 171 0
158 173 0
155 172 0
157 174 0
161 178 0
153 168 0
160 178 0
153 170 0
158 176 0
159 178 0
159 176 0
156 172 0
157 172 0
159 178 0
160 177 0
157 173 0
159 173 0
150 164 0
157 172 0
157 169 0
155 167 0
153 168 0
155 171 0
160 173 0
154 167 0
157 168 0
157 168 0
157 166 0
154 166 0
151 161 0
153 161 0
160 172 0
157 167 0
158 175 0
155 166 0
158 170 0
161 177 0
158 167 0
158 171 0
160 169 0
157 167 0
154 163 0
153 161 0
157 161 0
158 165 0
154 158 0
154 156 0
159 167 0
158 164 0
155 159 0
154 154 0
154 157 0
156 160 0
151 157 0
156 158 0
155 158 0
155 158 0
151 147 0
157 154 0
152 153 0
152 148 0
153 149 0
153 153 0
150 151 0
154 157 0
150 149 0
152 154 0
150 148 0
153 152 0
155 160 0
150 146 0
150 142 0
156 155 0
150 151 0
154 149 0
155 158 0
152 152 0
153 149 0
150 145 0
151 153 0
149 147 0
154 150 0
152 152 0
155 158 0
156 158 0
155 154 0
147 140 0
152 151 0
154 158 0
154 156 0
156 160 0
152 152 0
157 160 0
151 153 0
152 153 0
156 157 0
154 153 0
149 153 0
154 160 0
153 152 0
159 164 0
152 158 0
158 168 0
151 157 0
154 155 0
154 162 0
152 154 0
152 159 0
153 164 0
154 158 0
158 166 0
154 159 0
154 164 0
161 172 0
160 174 0
161 177 0
157 163 0
158 169 0
156 167 0
151 159 0
157 164 0
156 165 0
154 162 0
152 161 0
149 156 0
154 162 0
156 169 0
155 167 0
156 169 0
157 165 0
148 160 0
157 168 0
149 160 0
156 166 0
156 166 0
156 162 0
151 161 0
156 167 0
150 159 0
154 160 0
153 163 0
153 161 0
156 169 0
154 164 0
160 173 0
155 163 0
151 161 0
154 164 0
154 167 0
150 157 0
152 161 0
153 161 0
154 162 0
153 161 0
156 167 0
154 163 0
157 167 0
159 171 0
158 168 0
155 167 0
153 162 0
152 160 0
155 165 0
156 165 0
153 165 0
151 161 0
149 158 0
158 170 0
153 163 0
153 164 0
158 172 0
165 179 0
154 166 0
157 176 0
157 176 0
160 181 0
161 181 0
161 183 0
164 186 0
159 180 0
160 179 0
161 181 0
160 180 0
154 173 0
157 176 0
156 173 0
156 177 0
161 181 0
160 179 0
160 180 0
162 182 0
160 182 0
157 176 0
158 178 0
159 178 0
159 177 0
155 173 0
156 172 0
159 177 0
158 175 0
157 174 0
157 176 0
161 178 0
159 175 0
156 175 0
155 172 0
155 169 0
158 173 0
162 178 0
160 177 0
159 177 0
158 178 0
158 173 0
155 170 0
161 175 0
156 168 0
159 175 0
161 178 0
157 172 0
156 171 0
158 173 0
157 170 0
156 170 0
160 177 0
156 171 0
156 167 0
162 179 0
158 172 0
160 171 0
157 170 0
155 164 0
157 173 0
155 165 0
159 165 0
159 169 0
158 168 0
154 164 0
154 159 0
157 168 0
156 163 0
155 163 0
158 166 0
159 172 0
157 163 0
155 162 0
155 162 0
155 162 0
159 170 0
156 163 0
156 159 0
156 157 0
154 155 0
151 150 0
156 157 0
152 154 0
152 152 0
152 148 0
152 146 0
155 159 0
150 147 0
150 148 0
153 152 0
154 149 0
153 149 0
153 153 0
151 153 0
154 152 0
148 139 0
153 150 0
154 159 0
149 140 0
151 153 0
151 153 0
154 154 0
153 145 0
155 157 0
154 150 0
152 154 0
149 149 0
151 146 0
151 153 0
151 146 0
154 153 0
152 153 0
152 147 0
153 152 0
155 155 0
154 162 0
151 152 0
150 148 0
153 156 0
158 161 0
156 162 0
155 162 0
151 149 0
156 161 0
156 159 0
158 159 0
149 150 0
159 167 0
157 161 0
155 158 0
151 152 0
159 165 0
161 168 0
155 164 0
156 164 0
155 161 0
159 170 0
160 168 0
150 153 0
156 166 0
157 163 0
155 164 0
161 172 0
159 172 0
155 164 0
155 166 0
157 169 0
155 165 0
155 163 0
155 165 0
156 165 0
156 167 0
157 167 0
162 175 0
157 166 0
156 164 0
155 166 0
156 170 0
157 166 0
156 168 0
156 165 0
154 166 0
158 171 0
160 171 0
154 167 0
156 167 0
154 164 0
155 165 0
155 165 0
159 172 0
155 163 0
156 167 0
151 164 0
150 161 0
157 165 0
153 160 0
155 165 0
158 171 0
154 165 0
154 164 0
154 163 0
148 158 0
158 169 0
152 162 0
154 167 0
152 162 0
155 164 0
157 165 0
152 161 0
156 166 0
156 166 0
156 168 0
157 168 0
157 172 0
156 168 0
159 169 0
159 170 0
156 166 0
157 167 0
156 168 0
158 172 0
162 184 0
156 176 0
159 179 0
161 179 0
160 181 0
159 179 0
161 183 0
160 178 0
160 179 0
162 184 0
159 181 0
159 179 0
160 181 0
161 181 0
162 181 0
160 180 0
160 180 0
160 181 0
157 175 0
162 182 0
161 179 0
159 176 0
159 179 0
161 182 0
160 176 0
161 179 0
155 175 0
160 180 0
160 177 0
158 175 0
160 178 0
162 179 0
156 173 0
157 172 0
155 169 0
159 175 0
156 171 0
159 175 0
160 177 0
159 173 0
156 172 0
162 180 0
156 175 0
158 172 0
157 168 0
158 171 0
153 164 0
161 177 0
156 167 0
161 178 0
158 172 0
161 173 0
159 175 0
160 174 0
159 170 0
158 171 0
161 178 0
162 175 0
156 166 0
157 167 0
162 176 0
159 169 0
159 174 0
158 173 0
161 173 0
159 167 0
156 165 0
156 163 0
159 172 0
156 164 0
154 160 0
155 160 0
155 159 0
154 160 0
151 154 0
156 166 0
154 161 0
157 160 0
158 163 0
150 150 0
152 155 0
156 159 0
155 163 0
154 158 0
156 160 0
155 158 0
156 160 0
155 156 0
156 159 0
155 154 0
154 152 0
153 149 0
156 159 0
152 147 0
154 152 0
150 144 0
154 154 0
156 155 0
152 147 0
154 155 0
153 152 0
155 157 0
152 147 0
154 153 0
156 162 0
154 153 0
154 150 0
155 152 0
156 156 0
154 157 0
150 148 0
150 148 0
152 149 0
153 149 0
158 162 0
156 157 0
156 152 0
153 156 0
154 158 0
153 153 0
157 162 0
156 161 0
159 163 0
157 163 0
153 153 0
158 161 0
161 174 0
158 160 0
157 164 0
158 159 0
155 158 0
155 157 0
156 162 0
151 152 0
153 163 0
158 166 0
150 156 0
159 173 0
154 166 0
157 167 0
158 167 0
158 169 0
156 165 0
158 169 0
154 165 0
160 173 0
156 164 0
153 162 0
156 165 0
161 171 0
155 167 0
158 167 0
157 170 0
153 164 0
155 166 0
154 163 0
155 165 0
154 163 0
155 167 0
154 165 0
153 159 0
153 163 0
154 164 0
154 163 0
157 168 0
156 165 0
156 167 0
153 165 0
156 167 0
155 166 0
156 171 0
155 167 0
155 168 0
156 166 0
157 166 0
158 170 0
155 165 0
156 168 0
157 171 0
149 157 0
158 171 0
154 165 0
158 170 0
160 171 0
160 171 0
154 165 0
157 170 0
152 163 0
151 162 0
157 171 0
157 167 0
153 163 0
158 169 0
158 172 0
160 173 0
149 160 0
157 164 0
154 165 0
158 171 0
158 173 0
162 183 0
159 179 0
163 184 0
162 183 0
160 180 0
160 180 0
160 180 0
158 175 0
163 183 0
163 185 0
160 180 0
161 179 0
160 180 0
163 183 0
163 182 0
160 180 0
158 179 0
160 179 0
159 178 0
159 176 0
159 178 0
161 180 0
159 175 0
159 179 0
162 183 0
163 184 0
158 171 0
161 181 0
162 183 0
163 182 0
162 181 0
159 177 0
155 168 0
159 177 0
160 177 0
157 175 0
160 180 0
158 174 0
161 178 0
160 181 0
160 176 0
161 178 0
154 166 0
159 176 0
161 176 0
158 172 0
160 178 0
163 182 0
157 173 0
159 177 0
161 177 0
157 171 0
159 173 0
160 174 0
159 172 0
162 175 0
160 170 0
161 176 0
161 176 0
157 168 0
162 177 0
158 174 0
157 165 0
160 172 0
160 174 0
160 174 0
160 168 0
157 167 0
155 164 0
154 163 0
157 168 0
155 160 0
153 155 0
155 158 0
158 168 0
158 164 0
158 163 0
154 157 0
158 164 0
156 162 0
156 161 0
157 165 0
159 161 0
154 156 0
158 164 0
157 166 0
152 148 0
156 159 0
157 161 0
157 158 0
157 161 0
155 154 0
154 153 0
153 154 0
154 157 0
153 152 0
151 148 0
154 154 0
152 153 0
154 156 0
153 147 0
157 160 0
151 149 0
153 152 0
156 157 0
153 155 0
152 149 0
152 158 0
151 151 0
151 150 0
157 160 0
154 151 0
157 163 0
153 153 0
159 162 0
154 152 0
155 160 0
154 158 0
157 160 0
157 165 0
155 156 0
153 158 0
154 158 0
157 160 0
154 160 0
157 165 0
156 163 0
153 159 0
155 163 0
158 164 0
154 160 0
156 167 0
155 164 0
156 166 0
158 165 0
156 162 0
160 168 0
157 166 0
158 172 0
153 163 0
157 167 0
153 162 0
155 169 0
157 162 0
159 168 0
155 165 0
154 161 0
155 165 0
158 171 0
156 166 0
156 166 0
157 171 0
158 171 0
152 163 0
160 173 0
155 165 0
157 170 0
155 164 0
157 171 0
152 162 0
156 167 0
159 173 0
154 163 0
152 163 0
155 166 0
157 169 0
156 168 0
159 170 0
159 172 0
156 165 0
159 170 0
157 171 0
160 176 0
159 172 0
156 168 0
157 169 0
152 163 0
157 170 0
154 165 0
154 165 0
154 163 0
151 159 0
158 170 0
158 172 0
158 168 0
156 163 0
155 166 0
158 171 0
157 169 0
160 169 0
157 168 0
154 162 0
156 170 0
159 171 0
158 170 0
152 162 0
156 166 0
155 165 0
157 167 0
159 171 0
157 176 0
162 184 0
161 181 0
160 179 0
162 182 0
164 187 0
160 181 0
162 182 0
160 179 0
159 179 0
161 180 0
159 177 0
162 183 0
162 182 0
162 182 0
159 178 0
162 184 0
159 179 0
161 181 0
161 179 0
160 177 0
161 181 0
160 178 0
162 181 0
161 179 0
158 176 0
160 177 0
161 179 0
161 181 0
160 181 0
161 180 0
162 180 0
156 169 0
158 175 0
160 176 0
161 182 0
162 180 0
156 173 0
160 179 0
159 179 0
156 174 0
157 173 0
158 173 0
156 172 0
160 178 0
157 171 0
155 167 0
159 175 0
161 178 0
158 171 0
159 173 0
158 175 0
160 177 0
161 173 0
159 175 0
158 172 0
159 171 0
155 166 0
161 176 0
159 173 0
161 176 0
161 174 0
159 173 0
157 165 0
159 166 0
158 172 0
160 167 0
159 172 0
159 167 0
154 154 0
155 165 0
155 161 0
159 168 0
156 161 0
155 163 0
159 164 0
158 167 0
157 165 0
159 164 0
160 165 0
155 158 0
153 159 0
160 167 0
159 163 0
154 158 0
159 167 0
156 158 0
154 156 0
157 166 0
156 163 0
155 155 0
158 162 0
158 161 0
158 166 0
156 158 0
156 153 0
157 160 0
154 159 0
155 158 0
158 157 0
158 163 0
155 154 0
155 160 0
157 160 0
158 163 0
152 152 0
154 151 0
157 162 0
156 155 0
153 154 0
153 155 0
156 159 0
153 157 0
158 161 0
156 159 0
153 156 0
150 152 0
152 157 0
157 162 0
162 173 0
153 151 0
154 154 0
153 153 0
160 171 0
158 166 0
158 168 0
155 157 0
157 167 0
157 163 0
158 170 0
159 165 0
157 166 0
153 156 0
161 171 0
160 168 0
157 166 0
154 163 0
161 171 0
157 165 0
158 164 0
158 166 0
158 170 0
161 175 0
155 165 0
155 166 0
155 160 0
156 168 0
162 181 0
159 173 0
155 167 0
157 164 0
158 166 0
155 164 0
159 174 0
153 162 0
155 165 0
159 174 0
158 172 0
157 167 0
154 165 0
159 173 0
159 170 0
157 168 0
161 171 0
158 173 0
158 169 0
156 165 0
157 170 0
159 170 0
155 171 0
159 172 0
159 173 0
151 161 0
157 169 0
154 167 0
153 164 0
157 170 0
153 163 0
157 169 0
153 166 0
159 171 0
159 174 0
158 171 0
158 169 0
156 168 0
156 170 0
155 168 0
149 159 0
158 172 0
161 174 0
159 167 0
158 172 0
158 172 0
155 169 0
156 169 0
155 169 0
158 172 0
154 167 0
163 176 0
160 175 0
164 186 0
163 184 0
163 182 0
160 180 0
163 184 0
161 183 0
161 183 0
160 177 0
159 181 0
160 181 0
163 183 0
160 179 0
162 182 0
163 185 0
161 179 0
162 182 0
161 180 0
158 177 0
161 180 0
162 182 0
163 183 0
162 182 0
160 178 0
160 179 0
161 180 0
161 180 0
163 181 0
160 180 0
161 179 0
161 178 0
162 179 0
161 181 0
159 180 0
160 177 0
157 170 0
161 179 0
160 180 0
160 178 0
159 176 0
160 177 0
160 173 0
159 176 0
163 181 0
161 175 0
157 173 0
162 179 0
158 174 0
160 173 0
157 173 0
160 174 0
159 171 0
161 175 0
160 172 0
161 174 0
162 172 0
160 172 0
160 176 0
162 175 0
161 174 0
156 168 0
158 169 0
163 181 0
160 174 0
159 166 0
162 175 0
156 170 0
160 173 0
159 170 0
154 161 0
156 167 0
157 165 0
159 170 0
158 167 0
157 164 0
159 169 0
159 166 0
155 165 0
157 162 0
160 169 0
157 165 0
160 170 0
158 165 0
158 166 0
162 170 0
156 166 0
155 156 0
156 159 0
155 164 0
157 162 0
154 152 0
157 166 0
157 161 0
156 159 0
159 168 0
155 156 0
155 158 0
157 159 0
155 152 0
154 155 0
158 164 0
156 160 0
153 154 0
156 156 0
157 161 0
153 157 0
160 167 0
157 160 0
155 158 0
155 156 0
156 163 0
159 165 0
156 158 0
159 166 0
152 150 0
157 162 0
159 168 0
157 159 0
156 158 0
156 161 0
159 166 0
157 164 0
152 150 0
157 163 0
158 162 0
158 163 0
155 161 0
156 165 0
158 170 0
158 167 0
158 166 0
158 166 0
160 170 0
157 165 0
157 166 0
154 158 0
160 173 0
160 169 0
158 172 0
154 163 0
160 173 0
158 169 0
159 168 0
155 162 0
158 169 0
156 167 0
160 173 0
158 165 0
157 169 0
158 172 0
156 165 0
162 174 0
158 168 0
154 166 0
156 170 0
160 175 0
158 167 0
159 172 0
163 176 0
152 163 0
158 170 0
158 173 0
154 167 0
159 170 0
158 173 0
162 178 0
155 168 0
153 166 0
157 170 0
151 158 0
156 167 0
159 171 0
160 173 0
159 173 0
153 167 0
154 167 0
158 169 0
155 167 0
164 181 0
158 172 0
157 167 0
155 166 0
153 166 0
158 170 0
159 173 0
160 177 0
158 170 0
155 167 0
157 170 0
157 171 0
161 171 0
156 170 0
157 171 0
160 173 0
159 175 0
157 171 0
162 176 0
151 162 0
156 169 0
160 169 0
160 172 0
