P3
200 100
255
206 227 255
206 227 255
205 227 255
205 227 255
205 227 255
205 227 255
205 227 255
205 226 255
205 226 255
205 226 255
204 226 255
204 226 255
204 226 255
204 226 255
204 226 255
204 226 255
204 226 255
204 226 255
203 226 255
203 226 255
203 226 255
203 226 255
203 225 255
203 225 255
203 225 255
203 225 255
202 225 255
202 225 255
202 225 255
202 225 255
202 225 255
202 225 255
202 225 255
201 225 255
201 225 255
201 224 255
201 224 255
201 224 255
201 224 255
201 224 255
200 224 255
200 224 255
200 224 255
200 224 255
200 224 255
200 224 255
199 224 255
199 223 255
199 223 255
199 223 255
199 223 255
199 223 255
198 223 255
198 223 255
198 223 255
198 223 255
198 223 255
198 223 255
198 223 255
197 222 255
197 222 255
197 222 255
197 222 255
197 222 255
197 222 255
196 222 255
196 222 255
196 222 255
196 222 255
196 222 255
196 222 255
196 222 255
195 221 255
195 221 255
195 221 255
195 221 255
195 221 255
195 221 255
195 221 255
195 221 255
195 221 255
194 221 255
194 221 255
194 221 255
194 221 255
194 221 255
194 221 255
194 221 255
194 221 255
194 221 255
194 221 255
194 220 255
194 220 255
194 220 255
194 220 255
194 220 255
194 220 255
193 220 255
193 220 255
193 220 255
193 220 255
193 220 255
193 220 255
193 220 255
194 220 255
194 220 255
194 220 255
194 220 255
194 220 255
194 221 255
194 221 255
194 221 255
194 221 255
194 221 255
194 221 255
194 221 255
194 221 255
194 221 255
194 221 255
195 221 255
195 221 255
195 221 255
195 221 255
195 221 255
195 221 255
195 221 255
195 221 255
195 221 255
196 222 255
196 222 255
196 222 255
196 222 255
196 222 255
196 222 255
196 222 255
197 222 255
197 222 255
197 222 255
197 222 255
197 222 255
197 222 255
198 223 255
198 223 255
198 223 255
198 223 255
198 223 255
198 223 255
198 223 255
199 223 255
199 223 255
199 223 255
199 223 255
199 223 255
199 224 255
200 224 255
200 224 255
200 224 255
200 224 255
200 224 255
200 224 255
201 224 255
201 224 255
201 224 255
201 224 255
201 224 255
201 225 255
201 225 255
202 225 255
202 225 255
202 225 255
202 225 255
202 225 255
202 225 255
202 225 255
203 225 255
203 225 255
203 225 255
203 225 255
203 226 255
203 226 255
203 226 255
204 226 255
204 226 255
204 226 255
204 226 255
204 226 255
204 226 255
204 226 255
204 226 255
204 226 255
205 226 255
205 226 255
205 226 255
205 227 255
205 227 255
205 227 255
205 227 255
205 227 255
206 227 255
206 227 255
206 227 255
206 227 255
206 227 255
206 227 255
205 227 255
205 227 255
205 227 255
205 227 255
205 227 255
205 226 255
205 226 255
205 226 255
205 226 255
204 226 255
204 226 255
204 226 255
204 226 255
204 226 255
204 226 255
204 226 255
204 226 255
203 226 255
203 226 255
203 226 255
203 225 255
203 225 255
203 225 255
203 225 255
202 225 255
202 225 255
202 225 255
202 225 255
202 225 255
202 225 255
202 225 255
201 225 255
201 225 255
201 224 255
201 224 255
201 224 255
201 224 255
201 224 255
200 224 255
200 224 255
200 224 255
200 224 255
200 224 255
200 224 255
199 224 255
199 223 255
199 223 255
199 223 255
199 223 255
199 223 255
198 223 255
198 223 255
198 223 255
198 223 255
198 223 255
198 223 255
198 223 255
197 222 255
197 222 255
197 222 255
197 222 255
197 222 255
197 222 255
196 222 255
196 222 255
196 222 255
196 222 255
196 222 255
196 222 255
196 222 255
196 221 255
195 221 255
195 221 255
195 221 255
195 221 255
195 221 255
195 221 255
195 221 255
195 221 255
195 221 255
194 221 255
194 221 255
194 221 255
194 221 255
194 221 255
194 221 255
194 221 255
194 221 255
194 221 255
194 221 255
194 221 255
194 221 255
194 221 255
194 221 255
194 221 255
194 221 255
194 221 255
194 221 255
194 221 255
194 221 255
194 221 255
194 221 255
194 221 255
194 221 255
194 221 255
194 221 255
194 221 255
194 221 255
194 221 255
194 221 255
194 221 255
194 221 255
195 221 255
195 221 255
195 221 255
195 221 255
195 221 255
195 221 255
195 221 255
195 221 255
195 221 255
196 221 255
196 222 255
196 222 255
196 222 255
196 222 255
196 222 255
196 222 255
196 222 255
197 222 255
197 222 255
197 222 255
197 222 255
197 222 255
197 222 255
198 223 255
198 223 255
198 223 255
198 223 255
198 223 255
198 223 255
198 223 255
199 223 255
199 223 255
199 223 255
199 223 255
199 223 255
199 224 255
200 224 255
200 224 255
200 224 255
200 224 255
200 224 255
200 224 255
201 224 255
201 224 255
201 224 255
201 224 255
201 224 255
201 225 255
201 225 255
202 225 255
202 225 255
202 225 255
202 225 255
202 225 255
202 225 255
202 225 255
203 225 255
203 225 255
203 225 255
203 225 255
203 226 255
203 226 255
203 226 255
204 226 255
204 226 255
204 226 255
204 226 255
204 226 255
204 226 255
204 226 255
204 226 255
205 226 255
205 226 255
205 226 255
205 227 255
205 227 255
205 227 255
205 227 255
205 227 255
205 227 255
206 227 255
206 227 255
206 227 255
206 227 255
206 227 255
206 227 255
206 227 255
206 227 255
206 227 255
206 227 255
206 227 255
205 227 255
205 227 255
205 227 255
205 227 255
205 227 255
205 226 255
205 226 255
205 226 255
204 226 255
204 226 255
204 226 255
204 226 255
204 226 255
204 226 255
204 226 255
204 226 255
203 226 255
203 226 255
203 226 255
203 225 255
203 225 255
203 225 255
203 225 255
202 225 255
202 225 255
202 225 255
202 225 255
202 225 255
202 225 255
202 225 255
201 225 255
201 225 255
201 224 255
201 224 255
201 224 255
201 224 255
201 224 255
200 224 255
200 224 255
200 224 255
200 224 255
200 224 255
200 224 255
199 224 255
199 223 255
199 223 255
199 223 255
199 223 255
199 223 255
199 223 255
198 223 255
198 223 255
198 223 255
198 223 255
198 223 255
198 223 255
197 222 255
197 222 255
197 222 255
197 222 255
197 222 255
197 222 255
197 222 255
196 222 255
196 222 255
196 222 255
196 222 255
196 222 255
196 222 255
196 222 255
196 221 255
195 221 255
195 221 255
195 221 255
195 221 255
195 221 255
195 221 255
195 221 255
195 221 255
195 221 255
195 221 255
194 221 255
194 221 255
194 221 255
194 221 255
194 221 255
194 221 255
194 221 255
194 221 255
194 221 255
194 221 255
194 221 255
194 221 255
194 221 255
194 221 255
194 221 255
194 221 255
194 221 255
194 221 255
194 221 255
194 221 255
194 221 255
194 221 255
194 221 255
194 221 255
195 221 255
195 221 255
195 221 255
195 221 255
195 221 255
195 221 255
195 221 255
195 221 255
195 221 255
195 221 255
196 221 255
196 222 255
196 222 255
196 222 255
196 222 255
196 222 255
196 222 255
196 222 255
197 222 255
197 222 255
197 222 255
197 222 255
197 222 255
197 222 255
197 222 255
198 223 255
198 223 255
198 223 255
198 223 255
198 223 255
198 223 255
199 223 255
199 223 255
199 223 255
199 223 255
199 223 255
199 223 255
199 224 255
200 224 255
200 224 255
200 224 255
200 224 255
200 224 255
200 224 255
201 224 255
201 224 255
201 224 255
201 224 255
201 224 255
201 225 255
201 225 255
202 225 255
202 225 255
202 225 255
202 225 255
202 225 255
202 225 255
202 225 255
203 225 255
203 225 255
203 225 255
203 225 255
203 226 255
203 226 255
203 226 255
204 226 255
204 226 255
204 226 255
204 226 255
204 226 255
204 226 255
204 226 255
204 226 255
205 226 255
205 226 255
205 226 255
205 227 255
205 227 255
205 227 255
205 227 255
205 227 255
206 227 255
206 227 255
206 227 255
206 227 255
206 227 255
206 227 255
206 227 255
206 227 255
206 227 255
206 227 255
206 227 255
206 227 255
206 227 255
206 227 255
206 227 255
206 227 255
205 227 255
205 227 255
205 227 255
205 227 255
205 227 255
205 226 255
205 226 255
205 226 255
205 226 255
204 226 255
204 226 255
204 226 255
204 226 255
204 226 255
204 226 255
204 226 255
203 226 255
203 226 255
203 226 255
203 225 255
203 225 255
203 225 255
203 225 255
203 225 255
202 225 255
202 225 255
202 225 255
202 225 255
202 225 255
202 225 255
201 225 255
201 225 255
201 224 255
201 224 255
201 224 255
201 224 255
201 224 255
200 224 255
200 224 255
200 224 255
200 224 255
200 224 255
200 224 255
199 224 255
199 223 255
199 223 255
199 223 255
199 223 255
199 223 255
199 223 255
198 223 255
198 223 255
198 223 255
198 223 255
198 223 255
198 223 255
197 222 255
197 222 255
197 222 255
197 222 255
197 222 255
197 222 255
197 222 255
196 222 255
196 222 255
196 222 255
196 222 255
196 222 255
196 222 255
196 222 255
196 222 255
196 221 255
195 221 255
195 221 255
195 221 255
195 221 255
195 221 255
195 221 255
195 221 255
195 221 255
195 221 255
195 221 255
195 221 255
195 221 255
195 221 255
195 221 255
194 221 255
194 221 255
194 221 255
194 221 255
194 221 255
194 221 255
194 221 255
194 221 255
194 221 255
194 221 255
195 221 255
195 221 255
195 221 255
195 221 255
195 221 255
195 221 255
195 221 255
195 221 255
195 221 255
195 221 255
195 221 255
195 221 255
195 221 255
195 221 255
196 221 255
196 222 255
196 222 255
196 222 255
196 222 255
196 222 255
196 222 255
196 222 255
196 222 255
197 222 255
197 222 255
197 222 255
197 222 255
197 222 255
197 222 255
197 222 255
198 223 255
198 223 255
198 223 255
198 223 255
198 223 255
198 223 255
199 223 255
199 223 255
199 223 255
199 223 255
199 223 255
199 223 255
199 224 255
200 224 255
200 224 255
200 224 255
200 224 255
200 224 255
200 224 255
201 224 255
201 224 255
201 224 255
201 224 255
201 224 255
201 225 255
201 225 255
202 225 255
202 225 255
202 225 255
202 225 255
202 225 255
202 225 255
203 225 255
203 225 255
203 225 255
203 225 255
203 226 255
203 226 255
203 226 255
203 226 255
204 226 255
204 226 255
204 226 255
204 226 255
204 226 255
204 226 255
204 226 255
205 226 255
205 226 255
205 226 255
205 226 255
205 227 255
205 227 255
205 227 255
205 227 255
205 227 255
206 227 255
206 227 255
206 227 255
206 227 255
206 227 255
206 227 255
206 227 255
206 227 255
206 227 255
207 227 255
207 227 255
207 227 255
206 227 255
206 227 255
206 227 255
206 227 255
206 227 255
206 227 255
206 227 255
206 227 255
206 227 255
205 227 255
205 227 255
205 227 255
205 227 255
205 227 255
205 226 255
205 226 255
205 226 255
204 226 255
204 226 255
204 226 255
204 226 255
204 226 255
204 226 255
204 226 255
204 226 255
203 226 255
203 226 255
203 226 255
203 225 255
203 225 255
203 225 255
203 225 255
202 225 255
202 225 255
202 225 255
202 225 255
202 225 255
202 225 255
202 225 255
201 225 255
201 224 255
201 224 255
201 224 255
201 224 255
201 224 255
200 224 255
200 224 255
200 224 255
200 224 255
200 224 255
200 224 255
200 224 255
199 223 255
199 223 255
199 223 255
199 223 255
199 223 255
199 223 255
198 223 255
198 223 255
198 223 255
198 223 255
198 223 255
198 223 255
198 223 255
197 222 255
197 222 255
197 222 255
197 222 255
197 222 255
197 222 255
197 222 255
196 222 255
196 222 255
196 222 255
196 222 255
196 222 255
196 222 255
196 222 255
196 222 255
196 221 255
195 221 255
195 221 255
195 221 255
195 221 255
195 221 255
195 221 255
195 221 255
195 221 255
195 221 255
195 221 255
195 221 255
195 221 255
195 221 255
195 221 255
195 221 255
195 221 255
195 221 255
195 221 255
195 221 255
195 221 255
195 221 255
195 221 255
195 221 255
195 221 255
195 221 255
195 221 255
195 221 255
195 221 255
195 221 255
195 221 255
195 221 255
195 221 255
196 221 255
196 222 255
196 222 255
196 222 255
196 222 255
196 222 255
196 222 255
196 222 255
196 222 255
197 222 255
197 222 255
197 222 255
197 222 255
197 222 255
197 222 255
197 222 255
198 223 255
198 223 255
198 223 255
198 223 255
198 223 255
198 223 255
198 223 255
199 223 255
199 223 255
199 223 255
199 223 255
199 223 255
199 223 255
200 224 255
200 224 255
200 224 255
200 224 255
200 224 255
200 224 255
200 224 255
201 224 255
201 224 255
201 224 255
201 224 255
201 225 255
201 225 255
202 225 255
202 225 255
202 225 255
202 225 255
202 225 255
202 225 255
202 225 255
203 225 255
203 225 255
203 225 255
203 225 255
203 226 255
203 226 255
203 226 255
204 226 255
204 226 255
204 226 255
204 226 255
204 226 255
204 226 255
204 226 255
204 226 255
205 226 255
205 226 255
205 226 255
205 227 255
205 227 255
205 227 255
205 227 255
205 227 255
206 227 255
206 227 255
206 227 255
206 227 255
206 227 255
206 227 255
206 227 255
206 227 255
206 227 255
207 227 255
207 227 255
207 227 255
207 228 255
207 228 255
207 228 255
207 227 255
207 227 255
207 227 255
206 227 255
206 227 255
206 227 255
206 227 255
206 227 255
206 227 255
206 227 255
206 227 255
205 227 255
205 227 255
205 227 255
205 227 255
205 227 255
205 226 255
205 226 255
205 226 255
205 226 255
204 226 255
204 226 255
204 226 255
204 226 255
204 226 255
204 226 255
204 226 255
203 226 255
203 226 255
203 226 255
203 225 255
203 225 255
203 225 255
203 225 255
202 225 255
202 225 255
202 225 255
202 225 255
202 225 255
202 225 255
202 225 255
201 225 255
201 225 255
201 224 255
201 224 255
201 224 255
201 224 255
200 224 255
200 224 255
200 224 255
200 224 255
200 224 255
200 224 255
200 224 255
199 224 255
199 223 255
199 223 255
199 223 255
199 223 255
199 223 255
198 223 255
198 223 255
198 223 255
198 223 255
198 223 255
198 223 255
198 223 255
197 222 255
197 222 255
197 222 255
197 222 255
197 222 255
197 222 255
197 222 255
197 222 255
196 222 255
196 222 255
196 222 255
196 222 255
196 222 255
196 222 255
196 222 255
196 222 255
196 222 255
196 221 255
195 221 255
195 221 255
195 221 255
195 221 255
195 221 255
195 221 255
195 221 255
195 221 255
195 221 255
195 221 255
195 221 255
195 221 255
195 221 255
195 221 255
195 221 255
195 221 255
195 221 255
195 221 255
195 221 255
195 221 255
195 221 255
195 221 255
195 221 255
195 221 255
196 221 255
196 222 255
196 222 255
196 222 255
196 222 255
196 222 255
196 222 255
196 222 255
196 222 255
196 222 255
197 222 255
197 222 255
197 222 255
197 222 255
197 222 255
197 222 255
197 222 255
197 222 255
198 223 255
198 223 255
198 223 255
198 223 255
198 223 255
198 223 255
198 223 255
199 223 255
199 223 255
199 223 255
199 223 255
199 223 255
199 224 255
200 224 255
200 224 255
200 224 255
200 224 255
200 224 255
200 224 255
200 224 255
201 224 255
201 224 255
201 224 255
201 224 255
201 225 255
201 225 255
202 225 255
202 225 255
202 225 255
202 225 255
202 225 255
202 225 255
202 225 255
203 225 255
203 225 255
203 225 255
203 225 255
203 226 255
203 226 255
203 226 255
204 226 255
204 226 255
204 226 255
204 226 255
204 226 255
204 226 255
204 226 255
205 226 255
205 226 255
205 226 255
205 226 255
205 227 255
205 227 255
205 227 255
205 227 255
205 227 255
206 227 255
206 227 255
206 227 255
206 227 255
206 227 255
206 227 255
206 227 255
206 227 255
207 227 255
207 227 255
207 227 255
207 228 255
207 228 255
207 228 255
207 228 255
207 228 255
207 228 255
207 228 255
207 228 255
207 228 255
207 227 255
207 227 255
206 227 255
206 227 255
206 227 255
206 227 255
206 227 255
206 227 255
206 227 255
206 227 255
206 227 255
205 227 255
205 227 255
205 227 255
205 227 255
205 227 255
205 226 255
205 226 255
205 226 255
204 226 255
204 226 255
204 226 255
204 226 255
204 226 255
204 226 255
204 226 255
204 226 255
203 226 255
203 226 255
203 226 255
203 225 255
203 225 255
203 225 255
202 225 255
202 225 255
202 225 255
202 225 255
202 225 255
202 225 255
202 225 255
201 225 255
201 225 255
201 224 255
201 224 255
201 224 255
201 224 255
201 224 255
200 224 255
200 224 255
200 224 255
200 224 255
200 224 255
200 224 255
199 224 255
199 223 255
199 223 255
199 223 255
199 223 255
199 223 255
199 223 255
198 223 255
198 223 255
198 223 255
198 223 255
198 223 255
198 223 255
198 223 255
197 222 255
197 222 255
197 222 255
197 222 255
197 222 255
197 222 255
197 222 255
197 222 255
196 222 255
196 222 255
196 222 255
196 222 255
196 222 255
196 222 255
196 222 255
196 222 255
196 222 255
196 222 255
196 222 255
196 222 255
196 221 255
196 221 255
196 221 255
195 221 255
195 221 255
195 221 255
195 221 255
195 221 255
195 221 255
195 221 255
195 221 255
196 221 255
196 221 255
196 221 255
196 222 255
196 222 255
196 222 255
196 222 255
196 222 255
196 222 255
196 222 255
196 222 255
196 222 255
196 222 255
196 222 255
196 222 255
197 222 255
197 222 255
197 222 255
197 222 255
197 222 255
197 222 255
197 222 255
197 222 255
198 223 255
198 223 255
198 223 255
198 223 255
198 223 255
198 223 255
198 223 255
199 223 255
199 223 255
199 223 255
199 223 255
199 223 255
199 223 255
199 224 255
200 224 255
200 224 255
200 224 255
200 224 255
200 224 255
200 224 255
201 224 255
201 224 255
201 224 255
201 224 255
201 224 255
201 225 255
201 225 255
202 225 255
202 225 255
202 225 255
202 225 255
202 225 255
202 225 255
203 225 255
203 225 255
203 225 255
203 225 255
203 226 255
203 226 255
203 226 255
203 226 255
204 226 255
204 226 255
204 226 255
204 226 255
204 226 255
204 226 255
204 226 255
205 226 255
205 226 255
205 226 255
205 227 255
205 227 255
205 227 255
205 227 255
205 227 255
206 227 255
206 227 255
206 227 255
206 227 255
206 227 255
206 227 255
206 227 255
206 227 255
206 227 255
207 227 255
207 227 255
207 228 255
207 228 255
207 228 255
207 228 255
207 228 255
207 228 255
208 228 255
208 228 255
207 228 255
207 228 255
207 228 255
207 228 255
207 228 255
207 228 255
207 228 255
207 227 255
207 227 255
206 227 255
206 227 255
206 227 255
206 227 255
206 227 255
206 227 255
206 227 255
206 227 255
206 227 255
205 227 255
205 227 255
205 227 255
205 227 255
205 226 255
205 226 255
205 226 255
204 226 255
204 226 255
204 226 255
204 226 255
204 226 255
204 226 255
204 226 255
204 226 255
203 226 255
203 226 255
203 226 255
203 225 255
203 225 255
203 225 255
203 225 255
202 225 255
202 225 255
202 225 255
202 225 255
202 225 255
202 225 255
202 225 255
201 225 255
201 224 255
201 224 255
201 224 255
201 224 255
201 224 255
200 224 255
200 224 255
200 224 255
200 224 255
200 224 255
200 224 255
199 224 255
199 224 255
199 223 255
199 223 255
199 223 255
199 223 255
199 223 255
198 223 255
198 223 255
198 223 255
198 223 255
198 223 255
198 223 255
198 223 255
197 223 255
197 222 255
197 222 255
197 222 255
197 222 255
197 222 255
197 222 255
197 222 255
197 222 255
197 222 255
196 222 255
196 222 255
196 222 255
196 222 255
196 222 255
196 222 255
196 222 255
196 222 255
196 222 255
196 222 255
196 222 255
196 222 255
196 222 255
196 222 255
196 222 255
196 222 255
196 222 255
196 222 255
196 222 255
196 222 255
196 222 255
196 222 255
196 222 255
196 222 255
196 222 255
196 222 255
196 222 255
196 222 255
196 222 255
196 222 255
197 222 255
197 222 255
197 222 255
197 222 255
197 222 255
197 222 255
197 222 255
197 222 255
197 222 255
198 223 255
198 223 255
198 223 255
198 223 255
198 223 255
198 223 255
198 223 255
198 223 255
199 223 255
199 223 255
199 223 255
199 223 255
199 223 255
199 223 255
200 224 255
200 224 255
200 224 255
200 224 255
200 224 255
200 224 255
200 224 255
201 224 255
201 224 255
201 224 255
201 224 255
201 224 255
201 225 255
202 225 255
202 225 255
202 225 255
202 225 255
202 225 255
202 225 255
202 225 255
203 225 255
203 225 255
203 225 255
203 225 255
203 226 255
203 226 255
203 226 255
204 226 255
204 226 255
204 226 255
204 226 255
204 226 255
204 226 255
204 226 255
204 226 255
205 226 255
205 226 255
205 227 255
205 227 255
205 227 255
205 227 255
205 227 255
206 227 255
206 227 255
206 227 255
206 227 255
206 227 255
206 227 255
206 227 255
206 227 255
206 227 255
207 227 255
207 227 255
207 228 255
207 228 255
207 228 255
207 228 255
207 228 255
207 228 255
207 228 255
208 228 255
208 228 255
208 228 255
208 228 255
208 228 255
208 228 255
208 228 255
207 228 255
207 228 255
207 228 255
207 228 255
207 228 255
207 228 255
207 227 255
207 227 255
207 227 255
206 227 255
206 227 255
206 227 255
206 227 255
206 227 255
206 227 255
206 227 255
206 227 255
205 227 255
205 227 255
205 227 255
205 227 255
205 227 255
205 226 255
205 226 255
205 226 255
204 226 255
204 226 255
204 226 255
204 226 255
204 226 255
204 226 255
204 226 255
203 226 255
203 226 255
203 226 255
203 225 255
203 225 255
203 225 255
203 225 255
202 225 255
202 225 255
202 225 255
202 225 255
202 225 255
202 225 255
202 225 255
201 225 255
201 225 255
201 224 255
201 224 255
201 224 255
201 224 255
200 224 255
200 224 255
200 224 255
200 224 255
200 224 255
200 224 255
200 224 255
199 224 255
199 223 255
199 223 255
199 223 255
199 223 255
199 223 255
199 223 255
198 223 255
198 223 255
198 223 255
198 223 255
198 223 255
198 223 255
198 223 255
198 223 255
197 222 255
197 222 255
197 222 255
197 222 255
197 222 255
197 222 255
197 222 255
197 222 255
197 222 255
197 222 255
197 222 255
196 222 255
196 222 255
196 222 255
196 222 255
196 222 255
196 222 255
196 222 255
196 222 255
196 222 255
196 222 255
196 222 255
196 222 255
196 222 255
196 222 255
196 222 255
196 222 255
196 222 255
196 222 255
196 222 255
196 222 255
197 222 255
197 222 255
197 222 255
197 222 255
197 222 255
197 222 255
197 222 255
197 222 255
197 222 255
197 222 255
197 222 255
198 223 255
198 223 255
198 223 255
198 223 255
198 223 255
198 223 255
198 223 255
198 223 255
199 223 255
199 223 255
199 223 255
199 223 255
199 223 255
199 223 255
199 224 255
200 224 255
200 224 255
200 224 255
200 224 255
200 224 255
200 224 255
200 224 255
201 224 255
201 224 255
201 224 255
201 224 255
201 225 255
201 225 255
202 225 255
202 225 255
202 225 255
202 225 255
202 225 255
202 225 255
202 225 255
203 225 255
203 225 255
203 225 255
203 225 255
203 226 255
203 226 255
203 226 255
204 226 255
204 226 255
204 226 255
204 226 255
204 226 255
204 226 255
204 226 255
205 226 255
205 226 255
205 226 255
205 227 255
205 227 255
205 227 255
205 227 255
205 227 255
206 227 255
206 227 255
206 227 255
206 227 255
206 227 255
206 227 255
206 227 255
206 227 255
207 227 255
207 227 255
207 227 255
207 228 255
207 228 255
207 228 255
207 228 255
207 228 255
207 228 255
208 228 255
208 228 255
208 228 255
208 228 255
208 228 255
208 228 255
208 228 255
208 228 255
208 228 255
208 228 255
208 228 255
208 228 255
207 228 255
207 228 255
207 228 255
207 228 255
207 228 255
207 228 255
207 228 255
207 227 255
207 227 255
206 227 255
206 227 255
206 227 255
206 227 255
206 227 255
206 227 255
206 227 255
206 227 255
206 227 255
205 227 255
205 227 255
205 227 255
205 227 255
205 227 255
205 226 255
205 226 255
205 226 255
204 226 255
204 226 255
204 226 255
204 226 255
204 226 255
204 226 255
204 226 255
203 226 255
203 226 255
203 226 255
203 225 255
203 225 255
203 225 255
203 225 255
202 225 255
202 225 255
202 225 255
202 225 255
202 225 255
202 225 255
201 225 255
201 225 255
201 224 255
201 224 255
201 224 255
201 224 255
201 224 255
200 224 255
200 224 255
200 224 255
200 224 255
200 224 255
200 224 255
200 224 255
199 224 255
199 223 255
199 223 255
199 223 255
199 223 255
199 223 255
199 223 255
198 223 255
198 223 255
198 223 255
198 223 255
198 223 255
198 223 255
198 223 255
198 223 255
197 223 255
197 222 255
197 222 255
197 222 255
197 222 255
197 222 255
197 222 255
197 222 255
197 222 255
197 222 255
197 222 255
197 222 255
197 222 255
197 222 255
197 222 255
197 222 255
197 222 255
197 222 255
197 222 255
197 222 255
197 222 255
197 222 255
197 222 255
197 222 255
197 222 255
197 222 255
197 222 255
197 222 255
197 222 255
197 222 255
197 222 255
197 222 255
197 222 255
197 222 255
197 222 255
198 223 255
198 223 255
198 223 255
198 223 255
198 223 255
198 223 255
198 223 255
198 223 255
198 223 255
199 223 255
199 223 255
199 223 255
199 223 255
199 223 255
199 223 255
199 224 255
199 224 255
200 224 255
200 224 255
200 224 255
200 224 255
200 224 255
200 224 255
201 224 255
201 224 255
201 224 255
201 224 255
201 224 255
201 225 255
201 225 255
202 225 255
202 225 255
202 225 255
202 225 255
202 225 255
202 225 255
203 225 255
203 225 255
203 225 255
203 225 255
203 226 255
203 226 255
203 226 255
204 226 255
204 226 255
204 226 255
204 226 255
204 226 255
204 226 255
204 226 255
205 226 255
205 226 255
205 226 255
205 227 255
205 227 255
205 227 255
205 227 255
205 227 255
206 227 255
206 227 255
206 227 255
206 227 255
206 227 255
206 227 255
206 227 255
206 227 255
207 227 255
207 227 255
207 227 255
207 228 255
207 228 255
207 228 255
207 228 255
207 228 255
207 228 255
208 228 255
208 228 255
208 228 255
208 228 255
208 228 255
208 228 255
208 228 255
208 228 255
208 228 255
208 228 255
208 228 255
208 228 255
208 228 255
208 228 255
208 228 255
208 228 255
208 228 255
208 228 255
207 228 255
207 228 255
207 228 255
207 228 255
207 228 255
207 228 255
207 228 255
207 227 255
207 227 255
206 227 255
206 227 255
206 227 255
206 227 255
206 227 255
206 227 255
206 227 255
206 227 255
206 227 255
205 227 255
205 227 255
205 227 255
205 227 255
205 226 255
205 226 255
205 226 255
204 226 255
204 226 255
204 226 255
204 226 255
204 226 255
204 226 255
204 226 255
203 226 255
203 226 255
203 226 255
203 225 255
203 225 255
203 225 255
203 225 255
202 225 255
202 225 255
202 225 255
202 225 255
202 225 255
202 225 255
202 225 255
201 225 255
201 225 255
201 224 255
201 224 255
201 224 255
201 224 255
200 224 255
200 224 255
200 224 255
200 224 255
200 224 255
200 224 255
200 224 255
199 224 255
199 223 255
199 223 255
199 223 255
199 223 255
199 223 255
199 223 255
199 223 255
198 223 255
198 223 255
198 223 255
198 223 255
198 223 255
198 223 255
198 223 255
198 223 255
198 223 255
198 223 255
197 222 255
197 222 255
197 222 255
197 222 255
197 222 255
197 222 255
197 222 255
197 222 255
197 222 255
197 222 255
197 222 255
197 222 255
197 222 255
197 222 255
197 222 255
197 222 255
197 222 255
197 222 255
197 222 255
197 222 255
197 222 255
197 222 255
197 222 255
197 222 255
197 222 255
197 222 255
198 223 255
198 223 255
198 223 255
198 223 255
198 223 255
198 223 255
198 223 255
198 223 255
198 223 255
198 223 255
199 223 255
199 223 255
199 223 255
199 223 255
199 223 255
199 223 255
199 224 255
199 224 255
200 224 255
200 224 255
200 224 255
200 224 255
200 224 255
200 224 255
201 224 255
201 224 255
201 224 255
201 224 255
201 224 255
201 225 255
201 225 255
202 225 255
202 225 255
202 225 255
202 225 255
202 225 255
202 225 255
202 225 255
203 225 255
203 225 255
203 225 255
203 225 255
203 226 255
203 226 255
203 226 255
204 226 255
204 226 255
204 226 255
204 226 255
204 226 255
204 226 255
204 226 255
205 226 255
205 226 255
205 226 255
205 227 255
205 227 255
205 227 255
205 227 255
206 227 255
206 227 255
206 227 255
206 227 255
206 227 255
206 227 255
206 227 255
206 227 255
206 227 255
207 227 255
207 227 255
207 228 255
207 228 255
207 228 255
207 228 255
207 228 255
207 228 255
207 228 255
208 228 255
208 228 255
208 228 255
208 228 255
208 228 255
208 228 255
208 228 255
208 228 255
208 228 255
208 228 255
209 229 255
209 229 255
209 229 255
208 228 255
208 228 255
208 228 255
208 228 255
208 228 255
208 228 255
208 228 255
208 228 255
208 228 255
208 228 255
207 228 255
207 228 255
207 228 255
207 228 255
207 228 255
207 228 255
207 228 255
207 227 255
207 227 255
206 227 255
206 227 255
206 227 255
206 227 255
206 227 255
206 227 255
206 227 255
206 227 255
205 227 255
205 227 255
205 227 255
205 227 255
205 227 255
205 226 255
205 226 255
205 226 255
204 226 255
204 226 255
204 226 255
204 226 255
204 226 255
204 226 255
204 226 255
203 226 255
203 226 255
203 226 255
203 225 255
203 225 255
203 225 255
203 225 255
202 225 255
202 225 255
202 225 255
202 225 255
202 225 255
202 225 255
201 225 255
201 225 255
201 224 255
201 224 255
201 224 255
201 224 255
201 224 255
200 224 255
200 224 255
200 224 255
200 224 255
200 224 255
200 224 255
200 224 255
199 224 255
199 223 255
199 223 255
199 223 255
199 223 255
199 223 255
199 223 255
199 223 255
199 223 255
198 223 255
198 223 255
198 223 255
198 223 255
198 223 255
198 223 255
198 223 255
198 223 255
198 223 255
198 223 255
198 223 255
198 223 255
198 223 255
197 222 255
197 222 255
197 222 255
197 222 255
197 222 255
197 222 255
197 222 255
197 222 255
197 222 255
197 222 255
197 222 255
197 222 255
197 223 255
198 223 255
198 223 255
198 223 255
198 223 255
198 223 255
198 223 255
198 223 255
198 223 255
198 223 255
198 223 255
198 223 255
198 223 255
198 223 255
199 223 255
199 223 255
199 223 255
199 223 255
199 223 255
199 223 255
199 223 255
199 224 255
200 224 255
200 224 255
200 224 255
200 224 255
200 224 255
200 224 255
200 224 255
201 224 255
201 224 255
201 224 255
201 224 255
201 224 255
201 225 255
202 225 255
202 225 255
202 225 255
202 225 255
202 225 255
202 225 255
202 225 255
203 225 255
203 225 255
203 225 255
203 225 255
203 226 255
203 226 255
203 226 255
204 226 255
204 226 255
204 226 255
204 226 255
204 226 255
204 226 255
204 226 255
205 226 255
205 226 255
205 226 255
205 227 255
205 227 255
205 227 255
205 227 255
205 227 255
206 227 255
206 227 255
206 227 255
206 227 255
206 227 255
206 227 255
206 227 255
206 227 255
207 227 255
207 227 255
207 228 255
207 228 255
207 228 255
207 228 255
207 228 255
207 228 255
207 228 255
208 228 255
208 228 255
208 228 255
208 228 255
208 228 255
208 228 255
208 228 255
208 228 255
208 228 255
208 228 255
209 228 255
209 229 255
209 229 255
209 229 255
209 229 255
209 229 255
209 229 255
209 229 255
209 229 255
209 228 255
208 228 255
208 228 255
208 228 255
208 228 255
208 228 255
208 228 255
208 228 255
208 228 255
208 228 255
207 228 255
207 228 255
207 228 255
207 228 255
207 228 255
207 228 255
207 228 255
207 227 255
207 227 255
206 227 255
206 227 255
206 227 255
206 227 255
206 227 255
206 227 255
206 227 255
206 227 255
205 227 255
205 227 255
205 227 255
205 227 255
205 227 255
205 226 255
205 226 255
205 226 255
204 226 255
204 226 255
204 226 255
204 226 255
204 226 255
204 226 255
203 226 255
203 226 255
203 226 255
203 225 255
203 225 255
203 225 255
203 225 255
202 225 255
202 225 255
202 225 255
202 225 255
202 225 255
202 225 255
202 225 255
201 225 255
201 225 255
201 224 255
201 224 255
201 224 255
201 224 255
201 224 255
200 224 255
200 224 255
200 224 255
200 224 255
200 224 255
200 224 255
200 224 255
200 224 255
199 224 255
199 223 255
199 223 255
199 223 255
199 223 255
199 223 255
199 223 255
199 223 255
199 223 255
198 223 255
198 223 255
198 223 255
198 223 255
198 223 255
198 223 255
198 223 255
198 223 255
198 223 255
198 223 255
198 223 255
198 223 255
198 223 255
198 223 255
198 223 255
198 223 255
198 223 255
198 223 255
198 223 255
198 223 255
198 223 255
198 223 255
198 223 255
198 223 255
198 223 255
198 223 255
198 223 255
198 223 255
198 223 255
198 223 255
199 223 255
199 223 255
199 223 255
199 223 255
199 223 255
199 223 255
199 223 255
199 223 255
199 224 255
200 224 255
200 224 255
200 224 255
200 224 255
200 224 255
200 224 255
200 224 255
200 224 255
201 224 255
201 224 255
201 224 255
201 224 255
201 224 255
201 225 255
201 225 255
202 225 255
202 225 255
202 225 255
202 225 255
202 225 255
202 225 255
202 225 255
203 225 255
203 225 255
203 225 255
203 225 255
203 226 255
203 226 255
204 226 255
204 226 255
204 226 255
204 226 255
204 226 255
204 226 255
204 226 255
205 226 255
205 226 255
205 226 255
205 226 255
205 227 255
205 227 255
205 227 255
205 227 255
206 227 255
206 227 255
206 227 255
206 227 255
206 227 255
206 227 255
206 227 255
206 227 255
207 227 255
207 227 255
207 228 255
207 228 255
207 228 255
207 228 255
207 228 255
207 228 255
207 228 255
208 228 255
208 228 255
208 228 255
208 228 255
208 228 255
208 228 255
208 228 255
208 228 255
208 228 255
209 228 255
209 229 255
209 229 255
209 229 255
209 229 255
209 229 255
209 229 255
209 229 255
209 229 255
209 229 255
209 229 255
209 229 255
209 229 255
209 229 255
209 229 255
209 229 255
209 228 255
208 228 255
208 228 255
208 228 255
208 228 255
208 228 255
208 228 255
208 228 255
208 228 255
208 228 255
208 228 255
207 228 255
207 228 255
207 228 255
207 228 255
207 228 255
207 228 255
207 227 255
207 227 255
206 227 255
206 227 255
206 227 255
206 227 255
206 227 255
206 227 255
206 227 255
206 227 255
205 227 255
205 227 255
205 227 255
205 227 255
205 226 255
205 226 255
205 226 255
204 226 255
204 226 255
204 226 255
204 226 255
204 226 255
204 226 255
204 226 255
203 226 255
203 226 255
203 226 255
203 225 255
203 225 255
203 225 255
203 225 255
202 225 255
202 225 255
202 225 255
202 225 255
202 225 255
202 225 255
202 225 255
201 225 255
201 225 255
201 224 255
201 224 255
201 224 255
201 224 255
201 224 255
200 224 255
200 224 255
200 224 255
200 224 255
200 224 255
200 224 255
200 224 255
200 224 255
199 224 255
199 223 255
199 223 255
199 223 255
199 223 255
199 223 255
199 223 255
199 223 255
199 223 255
199 223 255
199 223 255
198 223 255
198 223 255
198 223 255
198 223 255
198 223 255
198 223 255
198 223 255
198 223 255
198 223 255
198 223 255
198 223 255
198 223 255
198 223 255
198 223 255
198 223 255
198 223 255
198 223 255
198 223 255
198 223 255
199 223 255
199 223 255
199 223 255
199 223 255
199 223 255
199 223 255
199 223 255
199 223 255
199 223 255
199 223 255
199 223 255
199 224 255
200 224 255
200 224 255
200 224 255
200 224 255
200 224 255
200 224 255
200 224 255
200 224 255
201 224 255
201 224 255
201 224 255
201 224 255
201 224 255
201 225 255
201 225 255
202 225 255
202 225 255
202 225 255
202 225 255
202 225 255
202 225 255
202 225 255
203 225 255
203 225 255
203 225 255
203 225 255
203 226 255
203 226 255
203 226 255
204 226 255
204 226 255
204 226 255
204 226 255
204 226 255
204 226 255
204 226 255
205 226 255
205 226 255
205 226 255
205 227 255
205 227 255
205 227 255
205 227 255
206 227 255
206 227 255
206 227 255
206 227 255
206 227 255
206 227 255
206 227 255
206 227 255
207 227 255
207 227 255
207 228 255
207 228 255
207 228 255
207 228 255
207 228 255
207 228 255
207 228 255
208 228 255
208 228 255
208 228 255
208 228 255
208 228 255
208 228 255
208 228 255
208 228 255
208 228 255
209 228 255
209 229 255
209 229 255
209 229 255
209 229 255
209 229 255
209 229 255
209 229 255
209 229 255
209 229 255
210 229 255
210 229 255
210 229 255
209 229 255
209 229 255
209 229 255
209 229 255
209 229 255
209 229 255
209 229 255
209 229 255
209 229 255
209 228 255
208 228 255
208 228 255
208 228 255
208 228 255
208 228 255
208 228 255
208 228 255
208 228 255
208 228 255
208 228 255
207 228 255
207 228 255
207 228 255
207 228 255
207 228 255
207 228 255
207 227 255
207 227 255
206 227 255
206 227 255
206 227 255
206 227 255
206 227 255
206 227 255
206 227 255
206 227 255
205 227 255
205 227 255
205 227 255
205 227 255
205 226 255
205 226 255
205 226 255
204 226 255
204 226 255
204 226 255
204 226 255
204 226 255
204 226 255
204 226 255
203 226 255
203 226 255
203 226 255
203 225 255
203 225 255
203 225 255
203 225 255
202 225 255
202 225 255
202 225 255
202 225 255
202 225 255
202 225 255
202 225 255
201 225 255
201 225 255
201 224 255
201 224 255
201 224 255
201 224 255
201 224 255
200 224 255
200 224 255
200 224 255
200 224 255
200 224 255
200 224 255
200 224 255
200 224 255
200 224 255
199 224 255
199 224 255
199 223 255
199 223 255
199 223 255
199 223 255
199 223 255
199 223 255
199 223 255
199 223 255
199 223 255
199 223 255
199 223 255
199 223 255
199 223 255
199 223 255
199 223 255
199 223 255
199 223 255
199 223 255
199 223 255
199 223 255
199 223 255
199 223 255
199 223 255
199 223 255
199 223 255
199 223 255
199 223 255
199 223 255
199 223 255
199 223 255
199 224 255
199 224 255
200 224 255
200 224 255
200 224 255
200 224 255
200 224 255
200 224 255
200 224 255
200 224 255
200 224 255
201 224 255
201 224 255
201 224 255
201 224 255
201 224 255
201 225 255
201 225 255
202 225 255
202 225 255
202 225 255
202 225 255
202 225 255
202 225 255
202 225 255
203 225 255
203 225 255
203 225 255
203 225 255
203 226 255
203 226 255
203 226 255
204 226 255
204 226 255
204 226 255
204 226 255
204 226 255
204 226 255
204 226 255
205 226 255
205 226 255
205 226 255
205 227 255
205 227 255
205 227 255
205 227 255
206 227 255
206 227 255
206 227 255
206 227 255
206 227 255
206 227 255
206 227 255
206 227 255
207 227 255
207 227 255
207 228 255
207 228 255
207 228 255
207 228 255
207 228 255
207 228 255
207 228 255
208 228 255
208 228 255
208 228 255
208 228 255
208 228 255
208 228 255
208 228 255
208 228 255
208 228 255
209 228 255
209 229 255
209 229 255
209 229 255
209 229 255
209 229 255
209 229 255
209 229 255
209 229 255
209 229 255
210 229 255
210 229 255
210 229 255
210 229 255
210 229 255
210 229 255
210 229 255
210 229 255
210 229 255
209 229 255
209 229 255
209 229 255
209 229 255
209 229 255
209 229 255
209 229 255
209 229 255
209 229 255
209 229 255
208 228 255
208 228 255
208 228 255
208 228 255
208 228 255
208 228 255
208 228 255
208 228 255
208 228 255
208 228 255
207 228 255
207 228 255
207 228 255
207 228 255
207 228 255
207 228 255
207 227 255
207 227 255
206 227 255
206 227 255
206 227 255
206 227 255
206 227 255
206 227 255
206 227 255
206 227 255
205 227 255
205 227 255
205 227 255
205 227 255
205 226 255
205 226 255
205 226 255
204 226 255
204 226 255
204 226 255
204 226 255
204 226 255
204 226 255
204 226 255
203 226 255
203 226 255
203 226 255
203 225 255
203 225 255
203 225 255
203 225 255
202 225 255
202 225 255
202 225 255
202 225 255
202 225 255
202 225 255
202 225 255
201 225 255
201 225 255
201 224 255
201 224 255
201 224 255
201 224 255
201 224 255
201 224 255
200 224 255
200 224 255
200 224 255
200 224 255
200 224 255
200 224 255
200 224 255
200 224 255
200 224 255
200 224 255
200 224 255
199 224 255
199 224 255
199 223 255
199 223 255
199 223 255
199 223 255
199 223 255
199 223 255
199 223 255
199 223 255
199 223 255
199 223 255
199 223 255
199 223 255
199 223 255
199 223 255
199 223 255
199 223 255
199 223 255
199 224 255
199 224 255
199 224 255
200 224 255
200 224 255
200 224 255
200 224 255
200 224 255
200 224 255
200 224 255
200 224 255
200 224 255
200 224 255
200 224 255
201 224 255
201 224 255
201 224 255
201 224 255
201 224 255
201 224 255
201 225 255
201 225 255
202 225 255
202 225 255
202 225 255
202 225 255
202 225 255
202 225 255
202 225 255
203 225 255
203 225 255
203 225 255
203 225 255
203 226 255
203 226 255
203 226 255
204 226 255
204 226 255
204 226 255
204 226 255
204 226 255
204 226 255
204 226 255
205 226 255
205 226 255
205 226 255
205 227 255
205 227 255
205 227 255
205 227 255
206 227 255
206 227 255
206 227 255
206 227 255
206 227 255
206 227 255
206 227 255
206 227 255
207 227 255
207 227 255
207 228 255
207 228 255
207 228 255
207 228 255
207 228 255
207 228 255
208 228 255
208 228 255
208 228 255
208 228 255
208 228 255
208 228 255
208 228 255
208 228 255
208 228 255
209 228 255
209 229 255
209 229 255
209 229 255
209 229 255
209 229 255
209 229 255
209 229 255
209 229 255
209 229 255
209 229 255
210 229 255
210 229 255
210 229 255
210 229 255
210 229 255
210 229 255
210 229 255
210 229 255
210 229 255
210 229 255
210 229 255
210 229 255
210 229 255
210 229 255
210 229 255
209 229 255
209 229 255
209 229 255
209 229 255
209 229 255
209 229 255
209 229 255
209 229 255
209 229 255
209 229 255
209 228 255
208 228 255
208 228 255
208 228 255
208 228 255
208 228 255
208 228 255
208 228 255
208 228 255
208 228 255
207 228 255
207 228 255
207 228 255
207 228 255
207 228 255
207 228 255
207 227 255
207 227 255
206 227 255
206 227 255
206 227 255
206 227 255
206 227 255
206 227 255
206 227 255
205 227 255
205 227 255
205 227 255
205 227 255
205 227 255
205 226 255
205 226 255
205 226 255
204 226 255
204 226 255
204 226 255
204 226 255
204 226 255
204 226 255
204 226 255
203 226 255
203 226 255
203 226 255
203 225 255
203 225 255
203 225 255
203 225 255
202 225 255
202 225 255
202 225 255
202 225 255
202 225 255
202 225 255
202 225 255
202 225 255
201 225 255
201 225 255
201 224 255
201 224 255
201 224 255
201 224 255
201 224 255
201 224 255
200 224 255
200 224 255
200 224 255
200 224 255
200 224 255
200 224 255
200 224 255
200 224 255
200 224 255
200 224 255
200 224 255
200 224 255
200 224 255
200 224 255
200 224 255
200 224 255
200 224 255
200 224 255
200 224 255
200 224 255
200 224 255
200 224 255
200 224 255
200 224 255
200 224 255
200 224 255
200 224 255
200 224 255
200 224 255
200 224 255
200 224 255
200 224 255
200 224 255
200 224 255
200 224 255
200 224 255
201 224 255
201 224 255
201 224 255
201 224 255
201 224 255
201 224 255
201 225 255
201 225 255
201 225 255
202 225 255
202 225 255
202 225 255
202 225 255
202 225 255
202 225 255
202 225 255
203 225 255
203 225 255
203 225 255
203 225 255
203 226 255
203 226 255
203 226 255
204 226 255
204 226 255
204 226 255
204 226 255
204 226 255
204 226 255
204 226 255
205 226 255
205 226 255
205 226 255
205 227 255
205 227 255
205 227 255
205 227 255
206 227 255
206 227 255
206 227 255
206 227 255
206 227 255
206 227 255
206 227 255
206 227 255
207 227 255
207 227 255
207 228 255
207 228 255
207 228 255
207 228 255
207 228 255
207 228 255
208 228 255
208 228 255
208 228 255
208 228 255
208 228 255
208 228 255
208 228 255
208 228 255
208 228 255
209 228 255
209 229 255
209 229 255
209 229 255
209 229 255
209 229 255
209 229 255
209 229 255
209 229 255
209 229 255
209 229 255
210 229 255
210 229 255
210 229 255
210 229 255
210 229 255
210 229 255
210 229 255
210 229 255
210 229 255
211 230 255
211 230 255
210 230 255
210 229 255
210 229 255
210 229 255
210 229 255
210 229 255
210 229 255
210 229 255
210 229 255
210 229 255
210 229 255
209 229 255
209 229 255
209 229 255
209 229 255
209 229 255
209 229 255
209 229 255
209 229 255
209 229 255
209 228 255
208 228 255
208 228 255
208 228 255
208 228 255
208 228 255
208 228 255
208 228 255
208 228 255
208 228 255
207 228 255
207 228 255
207 228 255
207 228 255
207 228 255
207 228 255
207 227 255
207 227 255
206 227 255
206 227 255
206 227 255
206 227 255
206 227 255
206 227 255
206 227 255
205 227 255
205 227 255
205 227 255
205 227 255
205 227 255
205 226 255
205 226 255
205 226 255
204 226 255
204 226 255
204 226 255
204 226 255
204 226 255
204 226 255
204 226 255
203 226 255
203 226 255
203 226 255
203 225 255
203 225 255
203 225 255
203 225 255
202 225 255
202 225 255
202 225 255
202 225 255
202 225 255
202 225 255
202 225 255
202 225 255
201 225 255
201 225 255
201 225 255
201 224 255
201 224 255
201 224 255
201 224 255
201 224 255
201 224 255
201 224 255
201 224 255
200 224 255
200 224 255
200 224 255
200 224 255
200 224 255
200 224 255
200 224 255
200 224 255
200 224 255
200 224 255
200 224 255
200 224 255
200 224 255
200 224 255
200 224 255
200 224 255
200 224 255
200 224 255
200 224 255
200 224 255
200 224 255
200 224 255
200 224 255
200 224 255
201 224 255
201 224 255
201 224 255
201 224 255
201 224 255
201 224 255
201 224 255
201 224 255
201 225 255
201 225 255
201 225 255
202 225 255
202 225 255
202 225 255
202 225 255
202 225 255
202 225 255
202 225 255
202 225 255
203 225 255
203 225 255
203 225 255
203 225 255
203 226 255
203 226 255
203 226 255
204 226 255
204 226 255
204 226 255
204 226 255
204 226 255
204 226 255
204 226 255
205 226 255
205 226 255
205 226 255
205 227 255
205 227 255
205 227 255
205 227 255
206 227 255
206 227 255
206 227 255
206 227 255
206 227 255
206 227 255
206 227 255
206 227 255
207 227 255
207 227 255
207 228 255
207 228 255
207 228 255
207 228 255
207 228 255
207 228 255
208 228 255
208 228 255
208 228 255
208 228 255
208 228 255
208 228 255
208 228 255
208 228 255
208 228 255
209 228 255
209 229 255
209 229 255
209 229 255
209 229 255
209 229 255
209 229 255
209 229 255
209 229 255
209 229 255
210 229 255
210 229 255
210 229 255
210 229 255
210 229 255
210 229 255
210 229 255
210 229 255
210 229 255
210 229 255
210 230 255
211 230 255
211 230 255
211 230 255
211 230 255
211 230 255
211 230 255
211 230 255
210 230 255
210 230 255
210 229 255
210 229 255
210 229 255
210 229 255
210 229 255
210 229 255
210 229 255
210 229 255
210 229 255
210 229 255
209 229 255
209 229 255
209 229 255
209 229 255
209 229 255
209 229 255
209 229 255
209 229 255
209 229 255
208 228 255
208 228 255
208 228 255
208 228 255
208 228 255
208 228 255
208 228 255
208 228 255
208 228 255
207 228 255
207 228 255
207 228 255
207 228 255
207 228 255
207 228 255
207 227 255
207 227 255
206 227 255
206 227 255
206 227 255
206 227 255
206 227 255
206 227 255
206 227 255
206 227 255
205 227 255
205 227 255
205 227 255
205 227 255
205 226 255
205 226 255
205 226 255
204 226 255
204 226 255
204 226 255
204 226 255
204 226 255
204 226 255
204 226 255
204 226 255
203 226 255
203 226 255
203 225 255
203 225 255
203 225 255
203 225 255
203 225 255
202 225 255
202 225 255
202 225 255
202 225 255
202 225 255
202 225 255
202 225 255
202 225 255
202 225 255
201 225 255
201 225 255
201 225 255
201 224 255
201 224 255
201 224 255
201 224 255
201 224 255
201 224 255
201 224 255
201 224 255
201 224 255
201 224 255
201 224 255
201 224 255
201 224 255
201 224 255
201 224 255
201 224 255
201 224 255
201 224 255
201 224 255
201 224 255
201 224 255
201 224 255
201 224 255
201 224 255
201 224 255
201 224 255
201 224 255
201 224 255
201 224 255
201 224 255
201 225 255
201 225 255
201 225 255
202 225 255
202 225 255
202 225 255
202 225 255
202 225 255
202 225 255
202 225 255
202 225 255
202 225 255
203 225 255
203 225 255
203 225 255
203 225 255
203 226 255
203 226 255
203 226 255
203 226 255
204 226 255
204 226 255
204 226 255
204 226 255
204 226 255
204 226 255
204 226 255
205 226 255
205 226 255
205 226 255
205 227 255
205 227 255
205 227 255
205 227 255
206 227 255
206 227 255
206 227 255
206 227 255
206 227 255
206 227 255
206 227 255
206 227 255
207 227 255
207 227 255
207 228 255
207 228 255
207 228 255
207 228 255
207 228 255
207 228 255
208 228 255
208 228 255
208 228 255
208 228 255
208 228 255
208 228 255
208 228 255
208 228 255
208 228 255
209 229 255
209 229 255
209 229 255
209 229 255
209 229 255
209 229 255
209 229 255
209 229 255
209 229 255
210 229 255
210 229 255
210 229 255
210 229 255
210 229 255
210 229 255
210 229 255
210 229 255
210 229 255
210 229 255
210 230 255
211 230 255
211 230 255
211 230 255
211 230 255
211 230 255
211 230 255
211 230 255
211 230 255
211 230 255
211 230 255
211 230 255
211 230 255
211 230 255
211 230 255
211 230 255
210 230 255
210 229 255
210 229 255
210 229 255
210 229 255
210 229 255
210 229 255
210 229 255
210 229 255
210 229 255
210 229 255
209 229 255
209 229 255
209 229 255
209 229 255
209 229 255
209 229 255
209 229 255
209 229 255
209 229 255
209 228 255
208 228 255
208 228 255
208 228 255
208 228 255
208 228 255
208 228 255
208 228 255
208 228 255
208 228 255
207 228 255
207 228 255
207 228 255
207 228 255
207 228 255
207 228 255
207 227 255
207 227 255
206 227 255
206 227 255
206 227 255
206 227 255
206 227 255
206 227 255
206 227 255
205 227 255
205 227 255
205 227 255
205 227 255
205 226 255
205 226 255
205 226 255
205 226 255
204 226 255
204 226 255
204 226 255
204 226 255
204 226 255
204 226 255
204 226 255
203 226 255
203 226 255
203 226 255
203 225 255
203 225 255
203 225 255
203 225 255
203 225 255
202 225 255
202 225 255
202 225 255
202 225 255
202 225 255
202 225 255
202 225 255
202 225 255
202 225 255
202 225 255
202 225 255
201 225 255
201 225 255
201 225 255
201 225 255
201 224 255
201 224 255
201 224 255
201 224 255
201 224 255
201 224 255
201 224 255
201 224 255
201 224 255
201 224 255
201 224 255
201 224 255
201 224 255
201 224 255
201 224 255
201 225 255
201 225 255
201 225 255
201 225 255
201 225 255
202 225 255
202 225 255
202 225 255
202 225 255
202 225 255
202 225 255
202 225 255
202 225 255
202 225 255
202 225 255
202 225 255
203 225 255
203 225 255
203 225 255
203 225 255
203 225 255
203 226 255
203 226 255
203 226 255
204 226 255
204 226 255
204 226 255
204 226 255
204 226 255
204 226 255
204 226 255
204 226 255
205 226 255
205 226 255
205 226 255
205 227 255
205 227 255
205 227 255
205 227 255
206 227 255
206 227 255
206 227 255
206 227 255
206 227 255
206 227 255
206 227 255
206 227 255
207 227 255
207 228 255
207 228 255
207 228 255
207 228 255
207 228 255
207 228 255
208 228 255
208 228 255
208 228 255
208 228 255
208 228 255
208 228 255
208 228 255
208 228 255
208 228 255
209 228 255
209 229 255
209 229 255
209 229 255
209 229 255
209 229 255
209 229 255
209 229 255
209 229 255
209 229 255
210 229 255
210 229 255
210 229 255
210 229 255
210 229 255
210 229 255
210 229 255
210 229 255
210 229 255
210 229 255
211 230 255
211 230 255
211 230 255
211 230 255
211 230 255
211 230 255
211 230 255
211 230 255
211 230 255
211 230 255
212 230 255
211 230 255
211 230 255
211 230 255
211 230 255
211 230 255
211 230 255
211 230 255
211 230 255
211 230 255
211 230 255
211 230 255
211 230 255
210 230 255
210 229 255
210 229 255
210 229 255
210 229 255
210 229 255
210 229 255
210 229 255
210 229 255
210 229 255
210 229 255
209 229 255
209 229 255
209 229 255
209 229 255
209 229 255
209 229 255
209 229 255
209 229 255
209 228 255
208 228 255
208 228 255
208 228 255
208 228 255
208 228 255
208 228 255
208 228 255
208 228 255
208 228 255
207 228 255
207 228 255
207 228 255
207 228 255
207 228 255
207 228 255
207 227 255
207 227 255
206 227 255
206 227 255
206 227 255
206 227 255
206 227 255
206 227 255
206 227 255
205 227 255
205 227 255
205 227 255
205 227 255
205 227 255
205 226 255
205 226 255
205 226 255
204 226 255
204 226 255
204 226 255
204 226 255
204 226 255
204 226 255
204 226 255
204 226 255
203 226 255
203 226 255
203 226 255
203 225 255
203 225 255
203 225 255
203 225 255
203 225 255
203 225 255
202 225 255
202 225 255
202 225 255
202 225 255
202 225 255
202 225 255
202 225 255
202 225 255
202 225 255
202 225 255
202 225 255
202 225 255
202 225 255
202 225 255
202 225 255
202 225 255
202 225 255
202 225 255
202 225 255
202 225 255
202 225 255
202 225 255
202 225 255
202 225 255
202 225 255
202 225 255
202 225 255
202 225 255
202 225 255
202 225 255
202 225 255
202 225 255
202 225 255
202 225 255
202 225 255
202 225 255
203 225 255
203 225 255
203 225 255
203 225 255
203 225 255
203 225 255
203 226 255
203 226 255
203 226 255
203 226 255
204 226 255
204 226 255
204 226 255
204 226 255
204 226 255
204 226 255
204 226 255
205 226 255
205 226 255
205 226 255
205 227 255
205 227 255
205 227 255
205 227 255
205 227 255
206 227 255
206 227 255
206 227 255
206 227 255
206 227 255
206 227 255
206 227 255
207 227 255
207 227 255
207 228 255
207 228 255
207 228 255
207 228 255
207 228 255
207 228 255
208 228 255
208 228 255
208 228 255
208 228 255
208 228 255
208 228 255
208 228 255
208 228 255
208 228 255
209 229 255
209 229 255
209 229 255
209 229 255
209 229 255
209 229 255
209 229 255
209 229 255
209 229 255
210 229 255
210 229 255
210 229 255
210 229 255
210 229 255
210 229 255
210 229 255
210 229 255
210 229 255
210 229 255
210 230 255
211 230 255
211 230 255
211 230 255
211 230 255
211 230 255
211 230 255
211 230 255
211 230 255
211 230 255
211 230 255
211 230 255
211 230 255
212 230 255
212 230 255
212 230 255
212 230 255
212 230 255
212 230 255
211 230 255
211 230 255
211 230 255
211 230 255
211 230 255
211 230 255
211 230 255
211 230 255
211 230 255
211 230 255
211 230 255
211 230 255
210 230 255
210 229 255
210 229 255
210 229 255
210 229 255
210 229 255
210 229 255
209 229 255
208 228 255
208 228 255
207 227 255
207 227 255
206 227 255
205 227 255
205 226 255
204 226 255
205 227 255
204 226 255
204 226 255
204 226 255
205 226 255
205 226 255
205 226 255
206 227 255
207 227 255
207 228 255
208 228 255
208 228 255
207 228 255
207 228 255
207 228 255
207 228 255
207 228 255
207 228 255
207 227 255
207 227 255
206 227 255
206 227 255
206 227 255
206 227 255
206 227 255
206 227 255
206 227 255
206 227 255
205 227 255
205 227 255
205 227 255
205 227 255
205 226 255
205 226 255
205 226 255
205 226 255
204 226 255
204 226 255
204 226 255
204 226 255
204 226 255
204 226 255
204 226 255
204 226 255
203 226 255
203 226 255
203 226 255
203 226 255
203 225 255
203 225 255
203 225 255
203 225 255
203 225 255
203 225 255
203 225 255
202 225 255
202 225 255
202 225 255
202 225 255
202 225 255
193 216 249
172 196 235
139 164 214
137 162 214
117 144 202
104 132 195
106 134 198
96 126 192
106 134 198
117 144 203
128 154 208
160 184 227
167 191 231
187 210 245
202 225 255
202 225 255
202 225 255
202 225 255
202 225 255
203 225 255
203 225 255
203 225 255
203 225 255
203 225 255
203 225 255
203 225 255
203 226 255
203 226 255
203 226 255
203 226 255
204 226 255
204 226 255
204 226 255
204 226 255
204 226 255
204 226 255
204 226 255
204 226 255
205 226 255
205 226 255
205 226 255
205 226 255
205 227 255
205 227 255
205 227 255
205 227 255
206 227 255
206 227 255
206 227 255
206 227 255
206 227 255
206 227 255
206 227 255
206 227 255
207 227 255
207 227 255
207 228 255
207 228 255
207 228 255
207 228 255
207 228 255
207 228 255
207 227 254
205 224 249
200 216 232
191 203 208
189 200 202
177 184 175
174 180 168
172 174 146
180 184 162
173 174 144
172 172 139
172 172 137
172 173 143
174 174 143
167 169 146
174 177 154
182 184 160
181 184 168
184 191 186
190 201 206
196 209 219
205 223 246
209 228 254
210 229 255
210 229 255
210 229 255
210 229 255
210 230 255
211 230 255
211 230 255
211 230 255
211 230 255
211 230 255
211 230 255
211 230 255
211 230 255
211 230 255
211 230 255
211 230 255
211 230 255
212 230 255
212 230 255
212 230 255
212 230 255
212 230 255
212 230 255
212 230 255
212 230 255
212 230 255
212 230 255
212 230 255
212 230 255
212 230 255
212 230 255
211 230 255
211 230 255
211 230 255
211 230 255
211 230 255
211 230 255
211 230 255
211 230 255
211 230 255
210 229 255
210 229 255
208 228 255
207 227 255
205 227 255
205 226 255
203 226 255
203 225 255
202 225 255
201 224 255
200 224 255
200 224 255
199 223 255
198 223 255
198 223 255
197 222 255
198 223 255
197 222 255
196 222 255
197 222 255
197 222 255
197 222 255
198 223 255
198 223 255
199 223 255
200 224 255
201 225 255
202 225 255
205 226 255
206 227 255
207 228 255
207 228 255
207 228 255
207 228 255
207 228 255
207 228 255
207 228 255
207 227 255
207 227 255
206 227 255
206 227 255
206 227 255
206 227 255
206 227 255
206 227 255
206 227 255
206 227 255
205 227 255
205 227 255
205 227 255
205 227 255
205 226 255
205 226 255
205 226 255
205 226 255
204 226 255
204 226 255
204 226 255
204 226 255
204 226 255
204 226 255
204 226 255
204 226 255
204 226 255
203 226 255
203 226 255
203 226 255
203 226 255
203 226 255
203 225 255
203 225 255
201 224 254
176 199 238
133 158 211
93 123 191
62 99 180
62 99 180
62 99 177
62 99 180
62 99 178
62 99 178
62 99 181
62 99 179
61 98 179
62 99 181
62 99 179
61 98 176
62 99 180
62 99 181
93 123 190
143 168 217
177 200 238
202 225 255
203 225 255
203 225 255
203 226 255
203 226 255
203 226 255
203 226 255
203 226 255
204 226 255
204 226 255
204 226 255
204 226 255
204 226 255
204 226 255
204 226 255
204 226 255
204 226 255
205 226 255
205 226 255
205 226 255
205 227 255
205 227 255
205 227 255
205 227 255
205 227 255
206 227 255
206 227 255
206 227 255
206 227 255
206 227 255
206 227 255
206 227 255
206 227 255
207 227 255
207 227 255
207 228 255
207 228 255
207 228 255
207 228 255
207 228 255
207 228 255
200 218 240
195 208 218
186 194 186
180 184 166
167 166 123
173 170 113
169 166 110
172 169 112
172 170 113
171 169 113
172 170 114
172 170 114
172 170 114
173 170 114
172 170 114
173 170 114
173 171 114
175 171 114
175 171 114
174 171 113
174 171 113
175 171 113
173 169 112
177 172 113
174 169 111
171 166 109
167 162 110
176 175 144
184 188 175
192 203 210
205 221 240
210 229 254
211 230 255
211 230 255
211 230 255
211 230 255
211 230 255
211 230 255
211 230 255
211 230 255
212 230 255
212 230 255
212 230 255
212 230 255
212 230 255
212 230 255
212 230 255
212 230 255
212 230 255
212 231 255
212 231 255
212 231 255
212 231 255
212 230 255
212 230 255
212 230 255
212 230 255
212 230 255
212 230 255
212 230 255
212 230 255
212 230 255
212 230 255
211 230 255
210 230 255
209 229 255
209 228 255
206 227 255
204 226 255
203 225 255
202 225 255
201 225 255
200 224 255
200 224 255
199 223 255
198 223 255
197 222 255
196 222 255
195 221 255
195 221 255
194 221 255
194 220 255
194 220 255
193 220 255
193 220 255
193 220 255
192 220 255
192 219 255
192 220 255
192 220 255
193 220 255
193 220 255
193 220 255
194 221 255
195 221 255
196 222 255
197 222 255
199 223 255
202 225 255
204 226 255
206 227 255
207 228 255
207 228 255
207 228 255
207 228 255
207 228 255
207 228 255
207 228 255
207 227 255
207 227 255
206 227 255
206 227 255
206 227 255
206 227 255
206 227 255
206 227 255
206 227 255
206 227 255
205 227 255
205 227 255
205 227 255
205 227 255
205 226 255
205 226 255
205 226 255
205 226 255
204 226 255
204 226 255
204 226 255
204 226 255
204 226 255
204 226 255
204 226 255
204 226 255
204 226 255
204 226 255
195 217 250
155 179 223
93 123 189
61 98 178
62 99 175
62 99 177
63 100 180
62 99 180
63 99 178
62 99 180
62 99 175
62 99 177
62 99 175
62 99 178
63 99 180
62 99 177
62 99 177
62 99 176
62 99 178
63 99 178
63 100 178
62 99 176
62 99 180
89 120 188
160 183 225
194 216 249
204 226 255
204 226 255
204 226 255
204 226 255
204 226 255
204 226 255
204 226 255
204 226 255
204 226 255
204 226 255
205 226 255
205 226 255
205 226 255
205 227 255
205 227 255
205 227 255
205 227 255
205 227 255
206 227 255
206 227 255
206 227 255
206 227 255
206 227 255
206 227 255
206 227 255
206 227 255
207 227 255
207 227 255
207 228 255
207 228 255
207 228 255
207 228 255
207 228 255
207 228 255
205 225 251
191 205 218
174 183 179
171 171 132
167 165 110
171 169 113
171 169 113
171 169 114
170 169 114
169 169 114
169 169 114
169 169 114
168 169 114
168 168 114
169 169 114
169 169 114
169 169 114
169 169 114
170 169 114
170 169 114
171 170 114
171 170 114
172 170 114
172 170 114
173 171 114
173 171 114
174 171 114
174 171 114
175 172 114
176 172 114
176 172 113
177 173 114
176 171 112
174 168 110
173 166 109
172 170 133
180 182 163
191 201 207
201 217 236
212 230 255
212 230 255
212 230 255
212 230 255
212 230 255
212 230 255
212 230 255
212 230 255
212 230 255
212 230 255
212 231 255
212 231 255
212 231 255
212 231 255
213 231 255
213 231 255
213 231 255
213 231 255
213 231 255
212 231 255
212 231 255
212 231 255
212 231 255
212 230 255
212 230 255
212 230 255
211 230 255
209 229 255
208 228 255
206 227 255
205 227 255
203 226 255
202 225 255
201 224 255
200 224 255
199 223 255
199 223 255
198 223 255
197 222 255
196 222 255
195 221 255
195 221 255
193 220 255
193 220 255
192 220 255
192 220 255
191 218 254
191 219 254
191 219 254
192 219 255
191 219 254
191 219 252
191 219 254
190 218 255
189 218 255
189 218 255
189 218 255
189 218 255
189 218 255
190 218 255
190 219 255
191 219 255
192 220 255
193 220 255
195 221 255
197 222 255
201 224 255
203 226 255
207 227 255
208 228 255
208 228 255
207 228 255
207 228 255
207 228 255
207 228 255
207 228 255
207 228 255
207 227 255
207 227 255
206 227 255
206 227 255
206 227 255
206 227 255
206 227 255
206 227 255
206 227 255
206 227 255
205 227 255
205 227 255
205 227 255
205 227 255
205 227 255
205 227 255
205 226 255
205 226 255
205 226 255
205 226 255
204 226 255
204 226 255
197 219 250
150 173 220
76 109 182
62 99 178
63 99 178
62 99 174
63 100 177
63 100 177
63 100 179
63 100 177
63 99 178
63 100 179
62 99 177
62 99 178
63 99 176
63 100 179
63 100 177
63 100 177
63 99 176
62 99 175
62 99 172
63 99 174
63 99 177
62 99 175
62 99 177
63 99 177
62 99 177
81 113 186
151 174 219
199 221 251
204 226 255
204 226 255
205 226 255
205 226 255
205 226 255
205 226 255
205 227 255
205 227 255
205 227 255
205 227 255
205 227 255
205 227 255
206 227 255
206 227 255
206 227 255
206 227 255
206 227 255
206 227 255
206 227 255
206 227 255
207 227 255
207 227 255
207 228 255
207 228 255
207 228 255
207 228 255
207 228 255
207 228 255
208 228 255
207 227 254
195 208 219
174 178 156
172 170 127
169 168 112
171 170 114
170 169 114
168 168 114
168 168 114
167 168 114
167 168 114
167 168 114
166 168 114
166 168 114
166 167 114
166 168 114
167 168 114
167 168 114
167 168 114
167 168 114
167 168 114
168 168 114
168 168 114
169 169 114
169 169 114
170 169 114
170 169 114
171 170 114
172 170 114
172 170 114
173 170 114
173 171 114
174 171 114
175 172 114
175 172 114
176 172 114
177 173 114
178 173 114
180 174 114
179 173 113
175 168 110
172 164 107
178 177 146
186 195 198
208 225 246
212 230 255
212 230 255
212 231 255
212 231 255
212 231 255
212 231 255
213 231 255
213 231 255
213 231 255
213 231 255
213 231 255
213 231 255
213 231 255
213 231 255
213 231 255
213 231 255
213 231 255
213 231 255
213 231 255
213 231 255
212 231 255
211 230 255
208 228 255
207 228 255
206 227 255
204 226 255
203 226 255
202 225 255
201 225 255
200 224 255
199 223 255
198 223 255
197 222 255
196 222 255
196 221 255
194 221 255
194 221 255
195 221 254
195 221 254
197 222 252
196 222 253
196 221 249
198 222 246
198 222 246
197 221 244
198 222 246
200 223 248
199 222 245
198 222 248
195 220 238
199 223 248
199 223 250
196 221 244
196 221 241
197 222 252
194 221 252
191 218 246
192 219 250
190 218 254
189 218 253
189 218 255
190 218 255
191 219 255
193 220 255
195 221 255
197 222 255
201 224 255
204 226 255
207 228 255
208 228 255
208 228 255
208 228 255
207 228 255
207 228 255
207 228 255
207 228 255
207 228 255
207 228 255
207 227 255
207 227 255
206 227 255
206 227 255
206 227 255
206 227 255
206 227 255
206 227 255
206 227 255
206 227 255
206 227 255
206 227 255
205 227 255
205 227 255
205 227 255
205 227 255
205 227 255
171 194 233
83 115 183
62 99 178
63 99 174
63 99 178
63 99 177
63 99 173
63 100 176
62 99 170
62 99 173
62 99 176
62 99 174
63 99 174
62 99 173
63 100 174
62 99 178
62 99 170
63 99 174
63 99 175
63 100 175
63 100 177
62 99 173
63 100 176
63 100 178
63 99 174
63 99 176
62 99 170
63 100 177
63 100 178
63 100 179
76 109 183
170 193 231
205 227 255
205 227 255
205 227 255
205 227 255
205 227 255
206 227 255
206 227 255
206 227 255
206 227 255
206 227 255
206 227 255
206 227 255
206 227 255
206 227 255
206 227 255
207 227 255
207 227 255
207 228 255
207 228 255
207 228 255
207 228 255
207 228 255
207 228 255
208 228 255
208 228 255
208 228 255
200 217 237
183 192 189
164 163 118
171 169 113
170 169 114
168 168 114
168 168 114
167 168 114
166 167 114
165 167 114
165 167 114
164 167 114
164 167 114
164 167 114
164 167 114
164 167 114
165 167 114
164 167 114
165 167 114
165 167 114
165 167 114
166 167 114
166 168 114
166 168 114
167 168 114
168 168 114
168 168 114
169 169 114
169 169 114
170 169 114
170 169 114
171 170 114
172 170 114
172 170 114
173 170 114
173 171 114
174 171 114
175 171 114
176 172 114
177 172 114
178 173 114
178 173 114
179 173 114
180 174 114
180 174 113
178 171 111
168 161 109
185 189 177
199 211 221
213 231 255
213 231 255
213 231 255
213 231 255
213 231 255
213 231 255
213 231 255
213 231 255
213 231 255
213 231 255
213 231 255
213 231 255
213 231 255
213 231 255
213 231 255
213 231 255
212 231 255
211 230 255
208 228 255
207 228 255
206 227 255
205 227 255
204 226 255
202 225 255
202 225 255
201 224 255
200 224 255
199 223 255
198 223 255
197 222 255
196 222 255
197 222 253
197 222 252
199 223 252
202 224 249
202 225 253
199 222 242
201 224 249
200 223 246
202 225 250
199 222 242
202 224 249
203 225 253
201 224 246
200 223 246
201 224 253
202 224 246
200 222 242
200 222 245
200 223 250
198 222 248
199 223 250
200 223 244
200 223 252
199 222 248
197 221 238
197 221 245
195 220 237
196 222 252
193 220 252
190 218 253
189 218 254
189 218 255
191 219 255
193 220 255
196 222 255
199 223 255
204 226 255
207 228 255
208 228 255
208 228 255
208 228 255
208 228 255
208 228 255
207 228 255
207 228 255
207 228 255
207 228 255
207 228 255
207 228 255
207 228 255
207 227 255
207 227 255
206 227 255
206 227 255
206 227 255
206 227 255
206 227 255
206 227 255
206 227 255
206 227 255
201 222 252
137 161 211
63 99 175
63 100 181
64 100 179
62 99 175
62 99 175
63 99 173
62 99 172
62 99 171
63 99 170
63 100 177
63 100 175
62 99 173
62 99 173
63 99 171
62 99 174
63 100 175
62 99 172
63 100 177
62 99 175
63 99 171
63 100 178
63 100 173
62 99 172
62 98 167
63 100 178
63 99 176
63 100 178
62 98 169
63 99 172
62 99 177
63 100 178
63 99 180
128 153 204
199 220 251
206 227 255
206 227 255
206 227 255
206 227 255
206 227 255
206 227 255
206 227 255
206 227 255
207 227 255
207 227 255
207 227 255
207 228 255
207 228 255
207 228 255
207 228 255
207 228 255
207 228 255
208 228 255
208 228 255
208 228 255
208 228 255
208 228 255
194 210 227
173 177 154
169 167 113
171 170 114
170 169 114
168 168 114
166 168 114
165 167 114
165 167 114
164 167 114
164 166 114
164 166 114
163 166 114
163 166 114
163 166 114
163 166 114
163 166 114
163 166 114
164 166 114
164 166 114
164 167 114
164 167 114
165 167 114
166 167 114
166 167 114
166 168 114
166 168 114
167 168 114
168 168 114
168 168 114
169 169 114
169 169 114
170 169 114
170 169 114
171 170 114
172 170 114
172 170 114
173 171 114
174 171 114
174 171 114
175 172 114
175 172 114
176 172 114
177 173 114
178 173 114
179 173 114
180 174 114
181 174 114
181 174 113
180 172 112
173 165 107
178 176 147
193 201 202
212 230 254
213 231 255
213 231 255
213 231 255
213 231 255
213 231 255
213 231 255
214 231 255
214 231 255
214 231 255
214 231 255
214 231 255
213 231 255
211 230 255
209 229 255
208 228 255
207 227 255
205 227 255
204 226 255
203 226 255
203 225 255
201 225 255
200 224 255
200 224 255
199 223 255
198 223 255
199 223 254
199 222 249
202 224 248
202 224 248
201 224 246
201 224 245
203 225 250
203 225 250
203 225 245
203 225 246
201 224 246
200 223 241
198 221 237
197 220 228
198 221 237
200 222 242
198 221 238
198 221 238
200 223 245
199 222 242
196 219 236
198 222 245
197 220 234
195 219 234
199 223 248
196 220 238
197 222 245
197 221 242
200 223 250
198 222 249
197 221 237
198 222 245
196 221 246
197 221 246
193 220 248
191 219 250
190 218 255
190 218 255
193 220 255
195 221 255
199 223 255
204 226 255
208 228 255
208 228 255
208 228 255
208 228 255
208 228 255
208 228 255
208 228 255
208 228 255
208 228 255
207 228 255
207 228 255
207 228 255
207 228 255
207 228 255
207 228 255
207 228 255
207 227 255
207 227 255
207 227 255
206 227 255
188 209 242
101 129 191
62 99 177
63 100 180
63 100 178
63 99 175
63 99 175
63 100 173
62 99 176
63 99 175
64 100 178
63 100 173
63 99 171
64 100 173
64 100 173
62 99 170
62 99 175
63 100 177
63 100 173
63 99 174
63 100 174
63 99 171
63 100 175
63 99 172
63 99 170
62 99 172
63 99 174
62 99 170
63 99 173
63 100 176
62 99 169
62 99 172
62 99 174
63 99 176
62 98 170
62 99 174
111 138 194
183 205 240
206 227 255
207 227 255
207 227 255
207 227 255
207 228 255
207 228 255
207 228 255
207 228 255
207 228 255
207 228 255
207 228 255
208 228 255
208 228 255
208 228 255
208 228 255
208 228 255
208 228 255
208 228 255
208 228 255
197 213 230
179 184 169
171 168 112
170 169 114
168 169 114
168 168 114
166 167 114
165 167 114
164 167 114
163 166 114
163 166 114
163 166 114
163 166 114
163 166 114
162 166 114
162 166 114
162 166 114
163 166 114
163 166 114
163 166 114
163 166 114
164 166 114
164 167 114
165 167 114
164 167 114
165 167 114
165 167 114
166 168 114
166 168 114
167 168 114
167 168 114
168 168 114
168 168 114
169 169 114
169 169 114
170 169 114
171 170 114
171 170 114
172 170 114
173 170 114
173 171 114
174 171 114
174 171 114
175 172 114
176 172 114
176 172 114
177 172 114
178 173 114
179 173 114
179 173 114
180 174 114
182 175 114
177 170 111
180 172 112
176 168 109
173 167 124
194 203 207
212 229 252
214 231 255
214 231 255
214 231 255
214 231 255
214 232 255
214 231 255
214 231 255
214 231 255
212 230 255
211 230 255
209 229 255
208 228 255
206 227 255
205 227 255
204 226 255
203 226 255
202 225 255
202 225 255
201 224 255
200 224 255
199 223 253
202 225 255
203 225 249
204 225 250
203 225 248
203 225 248
203 225 249
203 225 246
205 226 252
203 224 244
202 223 238
203 224 245
200 222 237
201 223 242
199 222 238
199 222 241
201 223 244
199 222 237
200 222 238
201 223 241
201 224 245
201 224 245
199 222 238
199 222 238
200 223 244
201 223 248
199 222 238
200 223 246
200 223 249
196 219 231
200 223 248
196 220 238
196 220 236
197 220 237
197 221 240
196 220 236
197 221 241
198 222 249
198 222 244
197 221 244
192 219 248
191 219 252
190 219 255
193 220 255
196 222 255
199 223 255
204 226 255
209 228 255
209 229 255
209 228 255
208 228 255
208 228 255
208 228 255
208 228 255
208 228 255
208 228 255
208 228 255
208 228 255
208 228 255
207 228 255
207 228 255
207 228 255
207 228 255
207 228 255
183 204 240
86 117 184
63 99 172
62 99 173
63 100 175
64 100 178
63 100 174
62 99 171
63 99 172
63 99 172
62 99 168
62 99 172
63 99 172
63 100 174
63 99 175
63 99 170
62 99 169
63 99 173
63 100 170
62 99 170
62 99 172
63 99 167
64 100 172
62 99 170
63 100 174
63 100 172
65 101 177
63 99 165
63 100 171
62 98 163
63 99 169
63 100 172
63 99 168
63 99 173
63 99 175
63 100 175
63 100 176
62 99 172
86 117 184
177 199 235
207 228 255
207 228 255
207 228 255
207 228 255
207 228 255
208 228 255
208 228 255
208 228 255
208 228 255
208 228 255
208 228 255
208 228 255
208 228 255
208 228 255
209 228 255
209 229 255
205 224 246
180 184 163
172 169 112
172 170 114
169 169 114
167 168 114
166 167 114
164 167 114
164 166 114
163 166 114
163 166 114
162 166 114
162 166 114
162 166 114
162 166 114
162 166 114
162 166 114
162 166 114
162 166 114
163 166 114
163 166 114
163 166 114
164 166 114
164 167 114
164 167 114
164 167 114
165 167 114
165 167 114
166 167 114
166 167 114
167 168 114
167 168 114
168 168 114
168 169 114
169 169 114
169 169 114
170 169 114
170 169 114
171 170 114
171 170 114
172 170 114
173 170 114
173 171 114
174 171 114
174 171 114
175 171 114
175 172 114
176 172 114
177 172 114
177 173 114
178 173 114
180 174 114
180 174 114
180 174 114
182 175 114
182 175 114
181 174 113
183 174 113
174 165 107
177 175 147
201 214 227
214 231 255
214 231 255
214 232 255
214 232 255
214 232 255
213 231 255
211 230 255
210 229 255
209 228 255
208 228 255
206 227 255
205 227 255
205 226 255
204 226 255
203 225 255
202 225 255
201 224 255
201 224 253
203 225 254
205 226 253
202 224 241
206 226 250
204 225 245
203 225 245
206 227 250
205 226 249
204 225 248
201 223 237
200 222 233
201 222 236
198 221 234
201 223 241
204 225 249
204 225 246
203 224 245
200 222 236
200 222 234
204 225 249
202 224 245
202 224 244
204 226 249
201 224 244
202 223 241
202 224 241
200 223 244
203 225 248
201 223 240
200 222 244
200 223 240
200 223 241
200 223 246
200 223 242
198 221 237
199 223 248
198 222 242
195 219 231
196 220 238
196 220 237
197 221 245
200 224 250
199 223 249
197 222 249
193 220 254
191 219 255
194 220 255
197 222 255
202 225 255
207 228 255
209 229 255
209 229 255
209 229 255
209 229 255
209 229 255
209 228 255
208 228 255
208 228 255
208 228 255
208 228 255
208 228 255
208 228 255
208 228 255
208 228 255
179 201 236
63 100 177
63 100 174
62 99 170
62 99 170
61 98 167
63 99 172
63 100 172
63 99 170
64 100 174
63 100 174
63 99 166
63 99 167
63 99 171
62 98 170
63 99 169
62 98 163
63 99 166
63 99 167
63 99 170
63 100 175
63 100 171
63 99 165
63 100 171
63 100 174
63 100 173
64 100 174
63 99 170
64 100 174
63 99 168
63 99 170
63 99 171
64 100 170
64 100 177
63 100 173
62 99 168
62 98 171
64 100 175
63 99 174
63 99 171
74 107 178
170 192 231
208 228 255
208 228 255
208 228 255
208 228 255
208 228 255
208 228 255
208 228 255
208 228 255
209 228 255
209 229 255
209 229 255
209 229 255
209 229 255
209 228 254
188 198 201
174 172 126
173 170 114
170 169 114
168 168 114
166 167 114
165 167 114
164 167 114
164 166 114
163 166 114
163 166 114
162 166 114
162 166 114
162 166 114
162 166 114
162 166 114
162 166 114
162 166 114
162 166 114
163 166 114
163 166 114
163 166 114
163 166 114
164 166 114
164 167 114
164 167 114
165 167 114
165 167 114
166 167 114
166 167 114
166 168 114
167 168 114
168 168 114
168 168 114
168 169 114
169 169 114
170 169 114
170 169 114
170 169 114
171 169 114
172 170 114
172 170 114
173 171 114
174 171 114
174 171 114
175 171 114
175 171 114
176 172 114
176 172 114
177 172 114
177 172 114
179 173 114
179 174 114
180 174 114
180 174 114
181 174 114
182 175 114
183 175 114
183 175 114
181 172 112
182 172 111
170 161 104
181 181 161
212 227 246
214 232 255
214 232 255
213 231 255
211 230 255
210 229 255
209 229 255
208 228 255
207 228 255
206 227 255
205 227 255
204 226 255
203 226 255
202 225 255
202 225 255
203 225 252
204 225 245
205 225 246
205 226 245
206 226 250
208 228 250
207 227 248
205 226 246
201 223 236
203 225 245
201 223 238
204 225 244
204 225 246
202 223 242
202 224 244
204 225 246
203 225 242
204 226 249
203 224 244
204 225 245
204 225 248
204 225 248
206 227 250
202 224 244
205 226 252
204 226 249
203 225 246
205 226 252
204 226 250
205 226 250
201 223 238
201 223 242
201 223 242
198 221 236
200 223 238
202 224 244
200 223 242
202 224 244
202 224 248
200 223 245
199 222 241
198 221 236
197 221 244
199 222 248
198 221 242
199 222 244
201 224 249
196 221 248
192 219 250
193 220 255
195 221 255
199 223 255
205 227 255
209 229 255
209 229 255
209 229 255
209 229 255
209 229 255
209 229 255
209 229 255
209 229 255
209 229 255
209 229 255
209 228 255
208 228 255
182 203 238
74 107 178
63 100 172
62 99 169
63 99 172
64 100 171
63 99 167
62 99 168
64 100 173
64 100 176
63 99 170
64 100 168
63 100 170
64 100 175
63 100 173
63 99 169
63 99 167
62 99 171
63 99 168
63 99 170
63 99 165
63 99 165
63 99 166
62 98 164
63 99 173
62 99 168
63 99 170
62 99 168
62 98 163
63 100 170
62 99 167
63 99 170
63 100 173
62 99 166
63 100 170
62 99 169
63 100 172
63 99 169
63 99 171
63 99 171
63 99 169
63 100 175
65 100 172
170 191 229
208 228 255
209 228 255
209 229 255
209 229 255
209 229 255
209 229 255
209 229 255
209 229 255
209 229 255
209 229 255
209 229 255
203 221 243
183 186 164
170 166 110
172 170 114
169 169 114
167 168 114
166 167 114
165 167 114
164 167 114
164 166 114
163 166 114
163 166 114
162 166 114
162 166 114
162 166 114
162 166 114
162 166 114
162 166 114
163 166 114
163 166 114
163 166 114
163 166 114
164 166 114
164 166 114
164 167 114
164 167 114
165 167 114
165 167 114
165 167 114
166 167 114
166 168 114
167 168 114
168 168 114
168 168 114
168 168 114
169 169 114
169 169 114
170 169 114
170 169 114
171 170 114
171 170 114
171 170 114
172 170 114
173 171 114
173 171 114
174 171 114
174 171 114
175 172 114
175 171 114
176 172 114
176 172 114
177 172 114
178 173 114
178 173 114
179 173 114
180 174 114
180 174 114
180 174 114
182 175 114
183 175 114
183 175 114
184 176 114
185 176 114
185 176 113
176 166 107
178 172 130
200 211 220
213 231 255
211 230 255
210 229 255
209 229 255
208 228 255
207 228 255
206 227 255
206 227 255
205 226 255
204 226 255
203 226 255
204 226 254
204 225 244
207 227 248
207 227 249
205 226 245
207 227 252
209 228 254
206 226 244
203 224 237
204 225 242
204 224 240
205 225 242
204 225 242
203 225 244
205 225 248
206 227 249
205 226 245
204 224 240
207 227 252
203 225 242
204 225 244
206 226 250
204 224 240
205 226 248
207 227 252
205 226 244
204 225 244
204 225 246
204 225 244
204 225 244
204 225 245
207 227 253
204 225 248
205 226 246
203 224 242
205 226 254
201 223 240
203 224 244
202 224 246
202 224 248
202 224 245
202 224 245
203 225 248
202 224 245
200 222 240
201 223 244
199 223 249
199 223 248
197 220 234
199 222 245
198 222 240
198 222 252
193 220 253
195 221 255
198 223 255
203 226 255
209 229 255
210 229 255
210 229 255
210 229 255
210 229 255
210 229 255
209 229 255
209 229 255
209 229 255
209 229 255
184 204 238
62 98 163
63 99 169
63 99 169
63 99 170
63 99 169
63 99 169
62 99 166
62 99 165
63 99 173
63 99 165
63 99 167
63 99 166
63 100 170
63 99 168
63 99 167
63 99 167
63 99 169
63 99 170
64 100 167
63 100 172
62 98 161
62 98 163
63 99 164
64 100 172
63 100 173
62 99 168
63 99 168
63 99 166
62 99 166
62 99 166
63 100 173
63 100 171
63 99 171
63 99 169
64 100 173
64 100 171
63 99 168
63 99 169
63 100 173
63 99 168
62 98 167
63 100 173
62 99 170
71 103 170
191 211 242
209 229 255
209 229 255
209 229 255
209 229 255
209 229 255
210 229 255
210 229 255
210 229 255
210 229 255
203 217 232
177 177 144
174 171 114
171 170 114
169 169 114
167 168 114
166 168 114
165 167 114
165 167 114
164 166 114
163 166 114
163 166 114
163 166 114
163 166 114
163 166 114
163 166 114
163 166 114
163 166 114
163 166 114
163 166 114
163 166 114
164 166 114
164 167 114
164 167 114
165 167 114
165 167 114
165 167 114
166 167 114
166 167 114
167 168 114
167 168 114
167 168 114
168 168 114
168 169 114
169 169 114
169 169 114
169 169 114
170 169 114
170 169 114
171 170 114
172 170 114
172 170 114
172 170 114
172 170 114
173 171 114
174 171 114
175 171 114
175 171 114
176 172 114
176 172 114
177 172 114
177 172 114
177 173 114
178 173 114
179 173 114
179 173 114
180 174 114
180 174 114
181 174 114
182 175 114
183 175 114
183 175 114
184 176 114
184 176 114
185 176 114
184 175 113
177 168 108
174 164 105
211 230 255
211 230 255
210 229 255
209 229 255
208 228 255
207 228 255
206 227 255
205 227 255
205 226 255
204 226 253
206 227 252
207 227 246
206 226 246
206 226 242
209 228 248
208 228 250
206 226 245
206 226 244
204 225 240
205 225 241
205 225 241
205 226 249
205 226 244
204 225 241
205 225 241
205 225 245
204 225 240
207 227 250
206 226 248
206 226 246
204 225 244
206 226 246
205 226 244
207 227 250
205 226 244
203 224 241
206 226 249
206 226 248
204 225 245
202 223 241
205 226 248
202 223 240
206 227 249
204 226 248
204 225 244
203 225 246
204 225 246
206 227 249
202 223 242
202 223 238
206 227 250
206 226 250
203 224 245
202 223 244
204 225 248
203 225 250
203 225 250
203 225 249
200 222 237
200 222 238
199 222 246
199 222 242
201 224 249
201 224 250
194 220 249
194 221 255
198 223 255
203 225 255
209 229 255
210 229 255
210 229 255
210 229 255
210 229 255
210 229 255
210 229 255
210 229 255
199 219 247
93 122 184
62 99 167
62 99 165
63 99 166
63 99 168
63 99 167
63 99 165
63 99 161
62 98 162
63 99 168
63 99 164
63 99 166
63 99 163
61 97 155
63 99 165
62 99 165
64 100 167
63 99 167
63 99 165
63 99 164
63 100 169
63 99 165
64 100 173
63 99 163
63 99 169
62 98 159
64 100 174
63 99 164
63 100 169
63 99 163
63 99 164
63 99 169
64 100 171
62 98 163
63 99 167
63 99 164
63 99 166
62 98 165
63 99 167
64 100 171
64 100 173
63 99 167
64 100 168
64 100 169
63 99 167
77 109 178
203 222 250
210 229 255
210 229 255
210 229 255
210 229 255
210 229 255
210 229 255
210 229 255
193 203 204
174 169 112
174 171 114
171 170 114
169 169 114
168 168 114
167 168 114
166 167 114
165 167 114
165 167 114
164 167 114
164 167 114
164 166 114
163 166 114
163 166 114
163 166 114
164 166 114
164 166 114
164 166 114
164 166 114
164 167 114
165 167 114
165 167 114
165 167 114
165 167 114
166 167 114
166 168 114
166 168 114
166 168 114
167 168 114
167 168 114
168 168 114
168 169 114
169 169 114
169 169 114
170 169 114
170 169 114
171 170 114
171 170 114
172 170 114
172 170 114
172 170 114
173 171 114
173 171 114
174 171 114
174 171 114
175 171 114
176 172 114
176 172 114
176 172 114
177 173 114
176 172 114
178 173 114
178 173 114
178 173 114
180 174 114
179 173 114
180 174 114
181 174 114
182 175 114
182 175 114
182 175 114
183 175 114
184 176 114
184 176 114
185 176 114
186 177 114
186 176 113
180 171 110
211 230 255
210 229 255
210 229 255
209 228 255
208 228 255
207 228 255
206 227 255
206 227 255
206 227 254
207 227 245
209 228 252
207 227 245
208 227 248
209 228 250
208 228 248
206 226 242
205 225 240
204 225 241
204 224 236
205 225 240
204 224 238
207 227 245
206 226 241
206 226 245
204 224 237
203 224 234
204 224 241
207 227 249
206 226 244
207 227 248
207 226 245
209 228 253
207 227 250
206 226 244
207 227 248
204 225 241
205 225 244
207 227 250
206 227 250
206 226 248
207 226 244
206 226 245
207 227 252
206 226 245
205 226 246
208 228 250
206 226 241
206 226 245
204 225 242
206 226 250
205 226 246
205 226 249
205 226 250
205 226 249
204 225 245
203 225 246
205 226 252
203 225 249
202 224 245
203 225 250
199 222 238
201 223 240
198 221 231
201 223 244
201 224 245
198 222 248
195 221 255
198 223 255
202 225 255
209 229 255
211 230 255
211 230 255
211 230 255
211 230 255
211 230 255
210 230 255
126 150 200
63 99 166
63 99 169
63 99 170
63 99 166
63 99 170
63 99 168
63 99 164
63 99 168
63 99 165
62 98 161
63 99 166
62 98 156
63 99 166
63 99 167
63 99 163
64 100 172
63 99 163
64 100 169
63 99 164
63 99 165
63 99 163
63 99 164
63 99 162
63 99 165
63 98 159
62 99 165
63 99 158
63 99 161
63 99 169
63 99 167
62 98 161
63 99 165
63 98 160
63 99 167
62 98 161
64 100 171
63 99 162
63 99 164
62 98 161
63 98 166
62 98 161
62 98 162
62 98 163
63 100 172
63 99 170
63 99 168
118 143 194
210 230 255
211 230 255
211 230 255
211 230 255
211 230 255
211 230 255
190 198 193
177 172 113
174 171 114
172 170 114
170 169 114
168 168 114
168 168 114
167 168 114
166 167 114
165 167 114
165 167 114
165 167 114
165 167 114
165 167 114
164 167 114
165 167 114
165 167 114
165 167 114
165 167 114
165 167 114
165 167 114
166 167 114
166 167 114
166 167 114
166 168 114
167 168 114
167 168 114
167 168 114
168 168 114
168 168 114
169 169 114
169 169 114
169 169 114
170 169 114
170 169 114
170 169 114
171 170 114
171 170 114
172 170 114
172 170 114
173 170 114
173 171 114
173 171 114
174 171 114
174 171 114
174 171 114
175 172 114
176 172 114
176 172 114
177 172 114
177 172 114
177 173 114
178 173 114
179 173 114
179 173 114
179 173 114
180 174 114
180 174 114
180 174 114
181 174 114
181 174 114
182 175 114
182 175 114
184 175 114
184 175 114
185 176 114
184 176 114
186 177 114
187 177 114
188 177 114
211 230 255
210 229 255
209 229 255
208 228 255
208 228 255
207 228 255
206 227 255
207 227 253
208 227 245
211 229 253
209 228 249
208 227 246
209 228 248
210 229 252
205 225 237
203 223 230
206 226 240
205 225 237
206 226 242
207 226 242
206 226 241
206 226 241
207 227 244
207 227 246
207 227 246
204 224 236
208 227 246
207 226 242
208 227 246
207 226 241
208 228 249
208 227 248
205 225 244
206 225 244
207 227 248
208 228 248
209 229 252
210 229 252
208 227 249
208 228 250
208 228 248
208 227 252
207 227 248
207 226 242
206 225 240
207 227 246
205 225 242
207 227 246
208 227 249
207 227 246
208 228 250
207 227 249
204 225 244
204 225 245
205 226 248
205 226 246
203 225 245
207 227 249
204 225 244
204 225 244
202 224 242
203 224 245
202 223 242
199 222 237
199 222 236
203 224 246
201 224 250
197 222 254
199 223 255
202 225 255
209 229 255
211 230 255
211 230 255
211 230 255
211 230 255
177 197 231
63 99 171
62 98 162
64 100 171
63 99 164
63 99 169
64 100 173
63 99 165
62 98 161
64 100 167
63 99 162
63 99 169
62 98 160
63 100 170
63 99 168
61 97 150
62 98 160
64 100 166
63 99 165
63 99 166
62 98 158
63 99 164
63 99 167
63 99 164
62 98 160
62 98 158
64 100 172
63 99 158
62 98 164
62 97 152
63 99 162
63 99 166
63 99 164
63 99 160
64 100 173
64 100 169
63 100 169
62 98 160
63 99 163
62 98 158
63 99 164
63 99 166
63 99 166
63 99 169
63 99 164
63 99 164
63 99 167
61 97 157
63 99 168
179 198 231
211 230 255
211 230 255
211 230 255
211 230 255
195 202 198
178 172 113
174 171 114
172 170 114
171 170 114
170 169 114
169 169 114
168 168 114
167 168 114
167 168 114
166 168 114
166 167 114
166 167 114
166 167 114
165 167 114
165 167 114
166 167 114
166 167 114
166 168 114
166 167 114
166 167 114
167 168 114
166 168 114
167 168 114
167 168 114
167 168 114
168 168 114
168 169 114
169 169 114
169 169 114
170 169 114
170 169 114
170 169 114
171 170 114
171 170 114
171 170 114
171 170 114
172 170 114
173 171 114
173 170 114
173 171 114
174 171 114
174 171 114
174 171 114
175 172 114
175 171 114
175 172 114
177 172 114
177 172 114
177 172 114
177 173 114
178 173 114
179 173 114
178 173 114
179 173 114
180 174 114
180 174 114
180 174 114
181 174 114
181 174 114
181 174 114
182 175 114
184 175 114
183 175 114
184 176 114
185 176 114
184 176 114
185 176 114
186 177 114
186 177 114
187 177 114
211 230 255
210 229 255
210 229 255
209 229 255
208 228 255
208 228 255
209 228 253
210 229 250
210 229 250
211 230 253
211 230 252
210 228 252
212 230 253
210 228 249
204 224 230
207 226 241
206 226 237
205 225 237
208 227 245
207 226 236
208 227 242
208 227 242
207 226 240
205 225 240
209 228 250
207 227 245
210 229 249
210 229 249
208 227 245
210 229 250
208 227 244
207 226 244
207 227 242
209 228 249
211 229 253
209 228 248
209 228 248
206 226 244
209 228 250
210 229 253
210 229 254
209 228 250
208 228 246
209 228 250
208 228 249
208 228 250
208 228 248
207 227 245
207 227 246
209 228 249
205 225 238
208 228 249
206 226 249
207 227 246
207 227 245
206 226 249
205 225 248
205 226 242
202 223 238
205 226 249
204 225 245
206 227 249
204 225 246
205 226 248
203 224 242
200 222 238
203 224 245
200 223 246
198 223 253
199 223 255
204 226 255
210 229 255
212 230 255
212 230 255
204 223 250
75 108 172
63 99 168
64 100 172
64 100 170
63 99 159
63 100 169
64 100 169
63 98 159
62 98 158
62 98 159
63 99 166
64 99 165
63 99 163
62 97 152
62 98 160
61 97 151
63 99 166
62 98 158
62 98 155
63 99 166
62 98 158
63 99 162
61 97 154
63 99 163
63 99 162
63 99 161
63 99 164
62 98 162
64 100 167
63 99 164
63 98 159
63 99 164
64 100 168
62 98 154
63 99 168
64 99 159
64 100 169
63 99 159
63 99 161
63 99 164
62 98 154
64 100 165
63 99 166
63 98 162
63 99 165
63 99 163
62 98 160
63 98 166
63 99 169
72 104 168
211 229 255
212 230 255
212 230 255
191 201 206
178 173 113
176 172 114
174 171 114
172 170 114
171 170 114
169 169 114
169 169 114
169 169 114
168 168 114
168 168 114
167 168 114
167 168 114
167 168 114
167 168 114
167 168 114
167 168 114
167 168 114
167 168 114
167 168 114
168 168 114
168 168 114
168 168 114
168 168 114
169 169 114
169 169 114
169 169 114
169 169 114
170 169 114
170 169 114
170 169 114
171 170 114
171 170 114
171 170 114
172 170 114
172 170 114
173 171 114
173 170 114
174 171 114
174 171 114
174 171 114
174 171 114
175 171 114
176 172 114
176 172 114
176 172 114
176 172 114
177 172 114
177 172 114
178 173 114
178 173 114
178 173 114
179 173 114
180 174 114
179 173 114
180 174 114
180 174 114
181 174 114
181 174 114
182 175 114
183 175 114
182 175 114
183 175 114
183 175 114
184 176 114
184 176 114
185 176 114
185 176 114
186 177 114
186 177 114
187 177 114
187 177 114
211 230 255
211 230 255
210 229 255
209 229 255
209 229 255
210 229 253
211 229 252
210 229 249
210 228 244
213 231 253
213 231 254
212 231 254
210 229 246
209 227 244
209 228 245
208 227 241
207 226 239
209 228 246
209 228 246
209 228 248
210 228 248
209 228 245
208 227 242
208 227 248
208 227 248
209 227 246
210 229 250
206 225 242
209 228 248
207 225 241
207 226 241
209 228 244
211 229 250
208 227 246
211 229 250
210 228 249
209 228 246
208 227 245
209 228 245
208 227 244
208 227 246
209 228 246
208 227 244
209 228 245
208 227 246
208 227 246
209 228 249
209 228 249
208 227 248
207 226 244
208 228 246
206 225 242
207 227 246
209 228 249
207 227 249
209 228 250
208 228 250
206 227 248
207 227 246
206 226 245
205 225 244
207 227 250
202 224 240
203 224 240
205 226 246
204 225 242
202 223 241
207 227 250
202 224 246
200 224 255
201 224 255
206 227 255
211 230 255
212 231 255
150 171 213
62 98 163
64 100 168
63 99 165
63 99 167
63 99 165
62 98 156
63 99 167
62 98 157
63 99 161
63 98 158
63 99 159
62 98 153
62 98 156
63 99 164
63 99 161
62 98 154
63 99 159
63 99 162
63 99 163
63 99 160
62 98 154
62 98 158
63 99 162
63 99 162
62 98 157
63 99 164
63 99 165
63 98 157
62 97 154
63 99 163
63 99 166
63 99 161
63 99 161
63 99 162
63 99 159
62 98 155
63 99 160
63 99 164
62 98 156
62 98 156
63 99 163
62 98 160
63 99 164
63 99 160
62 98 159
63 99 165
63 99 165
62 98 161
62 97 159
62 97 154
150 170 209
212 231 255
201 211 216
179 173 113
178 173 114
175 172 114
174 171 114
172 170 114
171 170 114
170 169 114
170 169 114
169 169 114
170 169 114
169 169 114
169 169 114
169 169 114
169 169 114
168 168 114
169 169 114
169 169 114
169 169 114
169 169 114
169 169 114
170 169 114
169 169 114
170 169 114
170 169 114
170 169 114
170 169 114
171 170 114
171 170 114
171 170 114
172 170 114
172 170 114
173 171 114
173 170 114
174 171 114
173 171 114
173 171 114
174 171 114
174 171 114
174 171 114
176 172 114
175 172 114
176 172 114
176 172 114
177 172 114
177 172 114
177 173 114
177 172 114
178 173 114
178 173 114
179 173 114
179 173 114
179 173 114
180 174 114
180 174 114
181 174 114
181 174 114
181 174 114
182 175 114
182 175 114
183 175 114
184 175 114
184 176 114
183 175 114
184 176 114
185 176 114
184 176 114
185 176 114
186 177 114
186 177 114
187 177 114
187 177 114
188 177 114
211 230 255
211 230 255
210 229 255
210 229 255
211 230 254
210 229 246
211 229 249
210 229 248
212 229 248
212 230 252
212 230 250
211 229 246
211 229 248
207 226 238
209 228 244
210 229 246
212 230 252
211 229 249
207 226 241
210 228 246
210 228 245
208 227 244
212 230 252
210 229 248
209 227 245
206 225 240
211 229 248
211 229 249
209 227 245
210 229 251
209 228 245
209 228 244
210 229 250
211 229 249
209 227 248
210 228 248
210 229 249
210 229 250
210 228 249
211 229 250
210 228 246
209 228 246
210 228 246
209 228 244
209 228 249
211 230 252
210 228 250
209 227 244
209 228 250
207 226 241
211 230 255
210 229 250
210 229 249
209 228 249
210 229 253
209 228 250
207 226 245
207 227 248
207 227 246
208 228 248
208 227 248
207 227 250
206 227 246
207 227 248
205 225 241
206 226 248
205 226 246
203 224 241
204 225 245
204 225 245
201 224 254
203 226 255
208 228 255
209 227 252
80 112 174
61 97 151
63 99 165
62 98 157
63 99 164
63 99 165
63 99 163
63 99 165
62 98 158
63 99 164
63 99 162
62 97 153
62 98 157
64 100 164
63 99 158
63 99 162
62 98 156
62 98 158
62 97 155
62 97 152
63 99 157
63 99 166
63 99 163
62 98 158
63 98 156
63 99 164
62 97 153
63 98 161
63 98 155
62 98 154
63 99 162
62 98 158
63 99 163
63 99 159
63 99 158
62 98 155
63 99 163
62 97 150
63 98 160
62 98 155
63 99 166
62 98 160
62 98 154
63 99 165
63 99 165
63 99 160
62 98 160
63 99 163
63 99 166
63 98 159
63 99 165
80 109 166
202 218 241
181 175 123
179 173 114
177 173 114
175 171 114
174 171 114
173 171 114
172 170 114
172 170 114
171 170 114
171 170 114
171 170 114
171 170 114
170 169 114
170 169 114
171 170 114
170 169 114
170 169 114
170 169 114
171 170 114
171 170 114
171 170 114
171 170 114
171 170 114
171 170 114
172 170 114
173 170 114
173 170 114
173 171 114
173 171 114
173 171 114
173 171 114
174 171 114
175 171 114
174 171 114
175 171 114
175 172 114
176 172 114
176 172 114
176 172 114
176 172 114
176 172 114
177 173 114
178 173 114
178 173 114
177 173 114
178 173 114
179 173 114
179 173 114
179 173 114
180 174 114
180 174 114
180 174 114
181 174 114
181 174 114
181 174 114
181 175 114
182 175 114
182 175 114
183 175 114
183 175 114
184 176 114
184 176 114
184 176 114
185 176 114
185 176 114
185 176 114
185 176 114
186 176 114
186 177 114
187 177 114
187 177 114
187 177 114
188 178 114
212 230 255
211 230 255
211 230 255
209 228 249
213 231 254
214 231 253
211 229 244
212 230 250
212 230 252
212 230 250
213 230 252
210 228 244
209 228 245
211 229 246
212 230 250
211 229 248
210 228 242
210 229 245
214 232 255
213 230 253
211 229 248
212 230 249
209 228 247
211 229 249
212 230 250
207 225 236
207 226 238
213 230 252
209 228 245
210 228 245
211 229 248
211 229 249
211 229 250
211 229 248
212 230 249
211 230 249
212 230 252
211 229 248
212 230 253
211 229 250
211 229 249
211 229 249
210 228 249
211 230 252
211 230 250
209 228 246
211 229 250
210 228 248
209 227 245
212 230 252
210 228 249
211 230 250
210 229 248
208 227 248
209 228 248
209 228 248
208 227 246
211 230 252
208 228 246
207 227 246
210 229 252
209 228 250
207 227 248
208 227 246
208 228 253
207 227 246
206 227 248
205 225 242
204 224 238
207 227 250
206 226 246
202 225 255
205 227 255
149 172 214
62 98 158
63 99 160
62 98 155
62 98 157
63 99 162
63 99 163
64 100 165
63 99 162
62 98 162
61 97 150
61 97 152
63 99 160
62 98 154
62 98 158
63 99 163
63 98 155
62 98 156
62 98 154
63 98 155
63 99 161
63 98 158
62 98 157
62 98 155
62 98 154
63 99 158
62 98 153
62 97 151
61 97 154
63 99 157
63 98 164
63 99 157
62 97 153
63 99 160
63 99 161
63 98 158
63 99 166
63 98 157
63 99 161
63 98 158
61 97 145
63 99 158
62 97 150
63 98 158
63 99 163
63 99 160
63 99 162
62 98 161
62 97 151
63 99 163
62 98 158
62 98 163
62 95 153
136 141 143
181 175 114
180 174 114
177 172 114
176 172 114
175 171 114
172 169 113
170 168 113
170 168 113
168 166 112
171 169 113
171 169 113
171 169 114
172 170 114
172 170 114
172 170 114
173 170 114
172 170 114
173 171 114
172 170 114
172 170 114
173 170 114
173 171 114
173 170 114
173 171 114
174 171 114
174 171 114
175 171 114
175 171 114
175 171 114
175 171 114
175 171 114
176 172 114
176 172 114
176 172 114
176 172 114
176 172 114
177 173 114
178 173 114
178 173 114
178 173 114
177 173 114
178 173 114
178 173 114
178 173 114
180 174 114
180 174 114
180 174 114
181 174 114
180 174 114
181 174 114
181 174 114
182 175 114
181 174 114
182 175 114
183 175 114
182 175 114
183 175 114
184 175 114
183 175 114
185 176 114
185 176 114
185 176 114
185 176 114
186 177 114
185 176 114
186 177 114
186 177 114
186 177 114
187 177 114
188 178 114
188 177 114
189 178 114
188 178 114
212 231 255
212 230 255
211 229 252
213 230 250
213 230 249
213 231 250
213 231 250
213 231 250
212 229 249
213 230 248
213 230 250
211 229 244
211 229 245
208 226 238
209 227 241
212 230 248
211 229 244
213 231 250
210 228 244
210 228 246
210 228 242
210 228 241
213 230 250
212 230 249
210 228 242
210 228 246
210 228 244
213 231 252
209 227 245
212 230 248
213 230 252
212 229 249
213 231 253
211 229 245
212 230 248
208 227 241
210 228 244
212 230 249
214 231 254
211 229 249
211 229 249
210 228 249
212 230 250
212 230 253
213 230 250
208 226 244
211 229 249
212 230 253
213 231 253
208 227 244
211 229 253
213 231 255
211 229 248
209 228 246
209 228 245
209 228 245
211 229 250
210 229 253
208 227 245
208 227 244
210 229 252
209 228 249
209 228 246
209 228 244
207 227 242
207 227 245
206 226 241
208 227 245
207 227 249
204 225 240
205 225 242
206 226 253
205 226 255
71 105 167
62 98 159
63 99 163
63 99 164
61 97 148
63 98 159
62 98 156
63 98 157
62 97 150
61 96 147
63 99 156
62 98 154
63 99 161
62 98 155
63 99 160
63 99 157
62 98 155
61 97 155
62 97 150
63 99 161
62 98 154
62 98 153
62 98 153
63 99 160
62 98 155
62 98 160
63 98 156
63 98 155
62 98 154
62 97 149
62 97 151
61 97 148
62 97 148
63 99 162
63 99 158
63 98 157
63 98 156
62 97 151
63 98 155
63 99 158
63 98 155
63 99 163
61 97 146
62 98 154
61 97 150
62 97 149
63 98 158
62 98 158
64 100 165
62 98 157
62 98 157
63 99 162
62 97 153
89 110 140
181 174 114
180 174 114
177 172 114
173 169 112
155 154 106
154 153 104
146 146 102
149 149 104
156 155 107
159 158 108
159 159 109
167 165 111
172 169 113
174 171 114
175 171 114
174 171 114
174 171 114
174 171 114
174 171 114
175 171 114
175 171 114
175 172 114
175 171 114
176 172 114
176 172 114
175 172 114
175 172 114
176 172 114
176 172 114
177 172 114
177 172 114
177 172 114
178 173 114
178 173 114
178 173 114
179 173 114
179 173 114
179 174 114
179 173 114
180 174 114
180 174 114
180 174 114
180 174 114
181 174 114
181 174 114
181 174 114
182 175 114
182 175 114
182 175 114
182 175 114
182 175 114
183 175 114
183 175 114
183 175 114
183 175 114
184 176 114
184 176 114
185 176 114
185 176 114
185 176 114
186 177 114
185 176 114
186 177 114
186 177 114
186 177 114
186 177 114
188 177 114
188 177 114
187 177 114
188 178 114
189 178 114
189 178 114
189 178 114
213 231 255
213 231 255
213 230 253
213 230 249
213 230 248
214 231 250
213 230 249
215 232 254
215 232 253
213 230 248
212 230 246
211 229 244
210 228 240
211 228 242
211 229 244
211 229 242
212 229 245
212 229 249
210 228 244
211 229 242
212 230 246
211 229 246
210 228 242
213 231 252
213 231 252
210 228 243
211 228 244
213 230 249
213 230 249
212 230 248
212 230 248
212 229 246
213 230 249
211 229 246
213 231 252
213 230 248
213 231 250
212 229 249
213 231 252
212 229 249
211 229 245
212 229 250
209 226 244
211 229 248
212 230 252
212 229 249
211 228 246
211 229 246
209 227 245
211 229 246
212 229 248
212 230 250
209 227 244
211 229 249
213 231 254
211 229 246
210 229 248
212 230 250
211 229 249
210 228 244
213 230 253
210 228 245
210 228 249
207 226 247
209 228 250
205 224 248
207 226 244
209 228 248
206 225 240
203 222 238
209 228 249
207 227 248
179 201 229
62 98 159
63 98 158
62 98 159
62 98 156
63 99 157
63 99 159
62 98 155
62 98 153
63 98 159
62 98 153
62 98 156
63 98 152
63 99 157
62 98 153
64 100 163
62 97 152
63 99 158
63 98 156
62 98 155
63 99 165
62 98 153
62 97 149
63 99 161
63 99 158
62 98 156
63 99 156
64 100 164
63 99 164
62 98 154
62 98 154
63 99 159
62 97 151
62 98 157
62 98 152
61 96 148
61 97 149
63 98 154
62 98 155
63 99 157
63 98 150
62 98 154
62 98 153
62 98 159
63 98 157
62 97 155
63 98 155
63 98 159
62 97 149
62 97 152
62 97 156
62 96 151
62 97 153
63 97 154
62 96 158
158 157 125
174 169 112
155 153 103
137 138 97
119 122 89
102 108 83
114 118 88
113 119 89
120 124 92
143 144 102
145 146 103
157 156 107
168 165 111
172 169 113
176 172 114
176 172 114
176 172 114
176 172 114
176 172 114
176 172 114
177 172 114
177 172 114
177 172 114
177 173 114
178 173 114
178 173 114
178 173 114
179 173 114
179 173 114
179 173 114
179 173 114
179 173 114
179 173 114
179 174 114
180 174 114
181 174 114
180 174 114
181 174 114
181 174 114
182 175 114
182 175 114
182 175 114
181 174 114
182 175 114
183 175 114
182 175 114
183 175 114
183 175 114
183 175 114
184 175 114
184 176 114
184 176 114
184 176 114
185 176 114
185 176 114
185 176 114
186 177 114
186 177 114
185 176 114
186 177 114
186 177 114
186 177 114
186 177 114
187 177 114
188 178 114
187 177 114
187 177 114
188 178 114
189 178 114
190 178 114
189 178 114
190 178 114
190 178 114
214 231 255
212 230 252
215 232 253
213 230 248
215 231 252
213 230 250
215 232 252
215 232 250
215 232 253
215 231 252
210 227 240
211 229 242
211 228 242
211 229 241
211 228 241
213 230 246
210 228 240
209 227 237
210 228 238
213 230 246
213 229 249
213 230 248
211 228 241
212 230 246
213 230 244
214 231 250
215 232 253
213 230 245
211 229 242
214 231 250
210 228 242
215 232 253
214 231 250
211 229 248
213 230 250
210 227 244
212 229 250
213 230 246
210 227 246
212 229 248
213 230 252
211 229 242
214 231 252
215 231 252
212 230 250
212 229 249
215 232 253
213 230 250
212 229 246
211 229 248
212 230 248
213 230 250
211 229 248
212 229 246
213 230 248
212 230 248
210 228 241
212 230 249
213 230 250
211 229 246
213 230 249
211 229 248
203 221 234
205 223 242
204 222 238
200 219 233
202 221 241
201 219 241
199 218 237
207 226 244
207 226 245
207 226 248
149 171 204
63 99 159
64 100 166
62 97 152
63 98 158
63 99 156
62 98 152
62 98 155
63 98 155
62 98 154
63 99 161
62 98 153
63 98 157
62 97 151
63 99 157
62 97 152
61 97 144
61 96 144
62 98 154
63 98 153
62 98 154
62 98 153
63 99 156
62 97 145
63 98 156
62 97 151
62 97 144
62 97 149
62 97 148
62 97 151
61 97 144
62 97 147
62 98 151
62 97 147
63 99 158
62 97 148
62 97 144
62 98 150
63 98 157
62 97 152
62 97 148
61 97 151
62 98 155
64 99 163
62 98 155
62 98 158
63 98 154
63 98 158
62 98 155
62 98 152
63 98 154
62 97 154
62 97 156
62 98 157
62 96 155
122 130 132
130 129 89
105 109 80
82 91 73
71 81 67
73 84 72
66 79 68
87 96 79
89 98 80
116 120 89
127 130 96
138 139 100
151 150 104
169 165 111
173 169 112
178 172 114
178 173 114
179 173 114
179 173 114
179 173 114
180 174 114
179 173 114
179 173 114
180 174 114
179 174 114
180 174 114
180 174 114
181 174 114
180 174 114
180 174 114
181 174 114
181 174 114
181 174 114
181 174 114
182 175 114
182 175 114
182 175 114
182 175 114
183 175 114
183 175 114
183 175 114
183 175 114
184 176 114
184 176 114
184 176 114
184 176 114
185 176 114
185 176 114
185 176 114
185 176 114
184 176 114
186 177 114
186 177 114
186 177 114
186 177 114
187 177 114
187 177 114
187 177 114
187 177 114
188 178 114
188 178 114
188 178 114
189 178 114
189 178 114
189 178 114
188 178 114
189 178 114
189 178 114
190 179 114
189 178 114
190 178 114
190 179 114
191 179 114
214 232 255
215 232 253
215 232 252
215 232 250
215 231 249
216 232 253
216 232 252
217 233 255
216 232 252
216 232 252
211 229 241
212 230 244
213 230 244
211 228 237
215 231 249
214 231 248
214 231 248
215 231 249
214 231 249
212 229 246
214 231 246
211 228 241
213 230 246
214 231 248
213 230 245
215 232 252
213 230 244
215 232 252
214 231 250
213 230 244
213 230 246
214 231 248
211 229 245
215 232 252
214 231 250
215 232 250
212 230 248
212 229 248
212 229 246
213 230 248
211 228 248
210 227 246
211 228 248
214 231 252
210 227 245
215 232 254
208 225 242
214 231 250
214 231 249
214 231 250
215 232 255
211 229 246
213 230 248
214 231 250
213 230 248
214 231 252
213 231 250
210 228 242
212 230 246
214 231 252
212 230 246
206 223 242
199 217 240
205 222 244
206 224 244
207 225 242
202 220 242
199 218 237
202 220 239
202 221 236
204 223 237
204 223 241
92 120 172
62 98 149
62 98 156
63 98 155
62 98 152
62 98 150
63 98 157
63 98 156
63 98 155
61 96 145
62 98 150
62 98 151
62 97 150
62 97 147
62 98 154
62 98 152
62 97 145
62 98 150
62 97 150
61 97 148
62 98 151
61 96 143
63 98 155
62 97 143
62 98 151
62 98 154
62 98 152
61 97 144
63 99 157
62 97 149
63 99 159
62 97 151
62 98 153
61 96 141
63 98 153
61 96 141
62 97 151
63 98 154
63 98 153
62 98 153
62 98 152
62 98 150
62 97 147
62 98 153
62 97 144
62 98 151
62 97 148
63 98 152
63 99 157
62 98 153
61 96 149
63 98 156
62 97 152
62 96 150
62 97 156
64 94 139
84 88 64
49 62 53
48 62 54
48 63 55
51 68 61
51 67 62
52 69 64
58 75 67
75 87 74
99 107 84
119 122 91
138 138 98
162 158 107
170 165 110
180 173 114
180 174 114
181 174 114
180 174 114
181 174 114
181 174 114
181 174 114
181 174 114
182 175 114
182 175 114
182 175 114
182 175 114
182 175 114
183 175 114
183 175 114
183 175 114
183 175 114
183 175 114
183 175 114
183 175 114
184 176 114
184 176 114
184 176 114
184 176 114
185 176 114
185 176 114
185 176 114
185 176 114
185 176 114
185 176 114
185 176 114
185 176 114
186 177 114
186 177 114
187 177 114
186 177 114
187 177 114
188 177 114
188 177 114
188 177 114
188 178 114
187 177 114
188 178 114
188 178 114
188 178 114
189 178 114
188 178 114
190 178 114
189 178 114
189 178 114
190 179 114
190 178 114
190 179 114
191 179 114
190 179 114
191 179 114
191 179 114
192 179 114
214 231 253
216 233 253
216 233 253
215 232 250
216 232 250
216 232 250
217 233 253
216 232 249
217 233 254
217 233 253
213 229 241
212 229 240
213 230 242
213 230 245
214 230 245
213 230 245
215 232 250
214 230 245
215 231 248
213 230 248
215 231 249
213 230 247
215 231 249
216 232 252
214 230 247
215 232 249
214 231 246
213 230 245
215 232 250
214 231 246
214 230 249
214 230 248
213 229 249
216 232 253
215 231 250
213 230 250
210 227 242
211 227 248
216 233 254
211 228 245
214 231 250
212 229 248
214 230 250
215 231 252
212 228 248
213 230 250
212 229 248
213 230 248
215 232 252
215 232 252
212 229 249
213 230 248
213 230 248
215 231 253
214 231 250
215 232 252
213 231 249
216 232 253
213 230 248
212 229 248
208 226 241
208 225 243
200 217 233
208 225 244
206 224 239
198 216 234
208 226 244
205 223 243
210 227 244
206 224 243
207 225 240
188 207 227
62 98 153
62 98 156
62 98 155
62 97 150
62 98 151
62 97 153
62 97 148
62 97 150
63 98 156
62 98 149
63 98 159
62 98 151
63 99 159
61 96 141
62 97 150
62 97 147
62 97 148
62 98 155
63 99 158
62 97 149
62 98 152
62 97 147
63 98 156
63 98 156
62 97 148
62 97 150
63 98 154
62 97 148
62 97 151
62 97 145
62 98 152
62 98 152
62 97 149
62 97 145
61 97 144
62 97 148
62 97 147
63 99 156
62 98 161
62 98 151
63 98 154
63 98 154
62 97 148
63 98 155
62 98 155
63 98 152
62 97 151
63 98 158
62 97 149
62 97 147
62 97 148
62 97 152
62 98 151
63 98 158
62 97 149
62 96 151
48 61 56
43 56 46
44 56 46
47 60 50
47 62 53
50 65 56
51 67 57
53 70 62
57 74 70
64 80 72
95 103 84
117 121 91
142 141 99
164 159 108
176 169 112
181 174 113
183 175 114
184 176 114
183 175 114
184 176 114
183 175 114
183 175 114
183 175 114
184 176 114
184 176 114
184 176 114
184 176 114
184 176 114
185 176 114
185 176 114
185 176 114
186 177 114
185 176 114
185 176 114
186 176 114
186 177 114
187 177 114
186 177 114
186 177 114
186 177 114
187 177 114
188 177 114
187 177 114
187 177 114
188 178 114
187 177 114
188 178 114
188 178 114
188 178 114
188 178 114
188 177 114
189 178 114
188 178 114
189 178 114
188 178 114
189 178 114
189 178 114
189 178 114
191 179 114
190 179 114
190 179 114
191 179 114
190 178 114
191 179 114
191 179 114
191 179 114
191 179 114
191 179 114
191 179 114
191 179 114
192 180 114
192 180 114
217 233 255
217 233 253
216 232 250
217 233 253
218 233 254
217 233 253
217 233 252
218 233 254
218 233 254
216 232 250
216 232 249
215 231 246
215 231 248
215 231 248
216 232 249
216 232 249
215 231 248
215 231 248
214 231 246
215 231 246
214 231 246
212 229 242
214 231 248
214 230 247
215 232 249
216 232 249
216 232 250
215 231 246
215 232 249
215 232 249
215 231 248
215 231 248
214 230 246
214 230 248
214 231 250
210 226 244
215 231 252
211 227 245
214 230 252
212 228 249
212 228 249
215 231 252
214 230 252
213 229 248
213 229 248
213 229 249
214 230 249
211 228 246
215 231 248
216 232 250
215 232 252
215 232 250
213 230 248
215 232 250
214 230 245
214 231 250
214 231 249
214 230 248
212 229 241
209 226 246
209 226 246
209 226 244
207 224 242
209 226 242
207 224 240
210 227 243
207 225 238
204 222 240
197 215 230
205 222 244
203 221 236
175 194 214
62 98 154
61 96 141
62 98 152
62 97 152
62 97 150
61 96 141
62 98 156
61 97 144
62 98 149
61 96 140
62 97 148
62 98 149
62 98 152
62 98 150
63 98 153
62 97 148
63 98 155
62 98 150
62 97 150
62 97 150
62 98 155
63 98 150
62 97 147
62 98 149
61 97 145
62 98 150
62 98 152
62 97 144
61 97 141
61 97 141
61 96 136
62 97 148
61 96 141
62 97 150
63 98 158
61 97 147
61 97 141
61 96 144
62 97 144
62 98 152
62 98 151
61 96 137
63 98 147
62 97 145
63 98 153
63 98 157
63 98 154
61 97 144
62 97 149
62 98 154
62 97 145
62 98 153
61 96 141
61 96 144
60 94 135
61 95 145
45 64 77
41 52 39
40 51 40
43 54 42
48 61 50
51 65 54
52 68 60
52 69 61
53 69 61
57 74 67
74 87 76
97 103 80
131 131 92
154 151 101
170 164 109
185 176 114
185 176 114
186 176 114
185 176 114
185 176 114
185 176 114
185 176 114
185 176 114
186 177 114
186 177 114
186 176 114
186 177 114
186 177 114
187 177 114
187 177 114
187 177 114
188 177 114
187 177 114
187 177 114
188 177 114
188 177 114
188 178 114
188 177 114
188 178 114
188 178 114
189 178 114
189 178 114
188 178 114
189 178 114
188 178 114
189 178 114
189 178 114
190 178 114
190 178 114
189 178 114
189 178 114
189 178 114
190 179 114
190 178 114
190 178 114
190 179 114
190 179 114
191 179 114
190 179 114
192 179 114
191 179 114
191 179 114
192 179 114
192 179 114
191 179 114
192 180 114
192 179 114
192 180 114
193 180 114
192 179 114
193 180 114
193 180 114
218 234 254
219 234 255
219 234 255
218 234 254
219 234 255
218 233 253
217 233 252
218 234 254
218 234 254
219 234 255
218 234 253
216 232 249
216 232 248
215 231 246
215 231 244
214 230 242
214 231 244
216 232 248
215 231 246
215 231 244
214 230 241
217 233 252
214 231 246
216 232 248
216 232 249
216 232 248
215 232 248
217 233 253
216 232 249
216 232 249
215 231 248
215 231 246
217 233 250
215 230 249
215 231 248
217 232 252
213 228 248
212 228 249
215 230 252
216 232 253
215 231 252
212 227 248
208 224 244
211 227 248
215 231 250
209 225 245
212 228 246
216 232 250
215 231 250
213 229 249
214 231 248
216 232 252
216 232 252
217 233 253
217 233 254
215 231 248
215 232 250
212 229 240
212 229 246
206 223 236
209 225 244
211 227 248
209 226 239
208 225 236
210 226 244
206 223 244
206 223 239
209 225 243
205 223 236
205 222 239
211 228 248
139 160 188
62 98 150
62 97 151
61 96 144
62 97 141
62 97 152
61 96 143
62 97 142
62 97 147
62 97 147
63 98 149
63 98 152
62 97 145
61 96 137
62 98 150
62 98 152
63 98 154
63 98 152
61 97 144
61 96 140
61 96 145
62 97 149
61 96 143
64 99 160
61 96 140
62 98 148
62 97 149
62 97 145
62 97 148
62 97 142
61 96 140
62 97 148
61 97 147
62 97 147
61 96 143
61 96 141
62 98 147
62 97 147
61 96 136
61 96 140
63 98 152
62 97 145
62 97 145
63 99 158
63 98 148
62 98 151
62 97 148
61 96 142
61 96 143
63 98 151
63 98 153
61 96 142
61 96 144
62 97 149
61 95 142
61 96 142
61 95 145
48 72 95
37 48 36
41 52 38
44 56 44
47 59 45
47 59 44
51 65 55
51 67 56
53 70 62
53 70 60
64 78 65
74 87 74
125 126 90
144 141 97
163 157 104
179 170 110
186 176 113
188 178 114
188 178 114
188 177 114
188 178 114
188 178 114
188 178 114
188 178 114
189 178 114
189 178 114
188 178 114
188 178 114
189 178 114
189 178 114
189 178 114
189 178 114
189 178 114
190 178 114
190 179 114
190 178 114
190 178 114
190 178 114
190 178 114
190 178 114
190 178 114
190 179 114
191 179 114
191 179 114
190 179 114
191 179 114
191 179 114
191 179 114
190 179 114
191 179 114
191 179 114
191 179 114
191 179 114
192 179 114
191 179 114
191 179 114
192 180 114
191 179 114
192 180 114
192 180 114
193 180 114
193 180 114
192 180 114
192 180 114
192 180 114
193 180 114
193 180 114
193 180 114
193 180 114
194 180 114
193 180 113
194 180 113
219 234 255
219 234 253
219 234 255
219 234 255
219 234 254
219 234 254
218 233 252
219 234 255
219 234 255
219 235 255
219 234 255
219 234 254
218 234 253
218 233 252
215 231 244
216 232 246
215 231 242
216 232 248
212 229 237
216 232 248
215 231 245
216 232 246
215 231 245
216 232 249
217 233 250
216 232 246
217 233 250
217 233 250
216 232 246
217 233 250
216 232 248
214 230 242
217 232 252
216 232 249
216 231 250
217 232 253
218 233 254
216 231 252
215 230 251
209 225 244
215 230 250
214 229 249
215 230 250
214 229 250
216 231 252
213 228 248
214 230 246
216 232 252
215 231 248
217 233 252
218 233 253
217 233 253
218 233 253
218 234 254
218 233 254
215 232 248
214 230 242
213 229 245
214 230 248
206 223 241
209 225 244
213 229 247
204 221 236
211 227 245
209 225 242
211 228 246
209 225 243
207 223 240
209 226 238
205 222 235
206 223 240
120 143 179
62 97 144
60 96 143
61 96 137
62 97 144
61 97 145
62 97 147
61 96 143
62 97 145
62 97 145
63 98 149
62 97 144
62 97 149
62 98 152
61 97 139
62 97 143
62 97 143
61 96 140
62 98 150
62 98 149
63 98 149
62 97 149
63 98 154
61 96 141
61 96 136
62 98 151
61 96 139
62 97 148
62 98 152
62 97 151
61 97 147
62 97 142
61 96 140
63 99 156
62 98 149
62 97 147
62 97 150
62 97 147
61 97 147
61 96 141
61 97 142
61 96 136
61 96 140
60 95 136
61 96 142
62 97 142
62 97 150
63 98 150
62 97 148
61 96 150
61 97 148
62 98 152
62 98 151
63 98 152
61 95 146
60 94 136
60 93 134
53 80 111
36 44 31
40 50 38
44 56 44
47 59 44
48 61 47
49 64 55
51 65 53
53 69 60
52 69 59
54 72 64
59 76 66
109 112 82
129 129 90
167 159 103
180 170 109
188 177 113
190 178 114
190 179 114
190 178 114
190 179 114
191 179 114
190 179 114
190 179 114
190 179 114
190 179 114
190 179 114
191 179 114
191 179 114
191 179 114
191 179 114
192 179 114
191 179 114
191 179 114
191 179 114
192 179 114
191 179 114
191 179 114
192 179 114
192 179 114
192 179 114
192 180 114
191 179 114
192 180 114
192 180 114
192 180 114
192 180 114
193 180 114
193 180 114
192 180 114
193 180 114
192 180 114
193 180 114
193 180 114
193 180 114
192 180 114
192 180 114
192 179 113
194 180 113
193 180 113
193 180 114
194 180 114
194 180 114
194 181 114
194 180 114
194 180 114
194 180 113
194 180 113
194 180 113
193 179 112
195 181 114
194 181 114
220 235 255
220 235 255
220 235 255
220 235 255
220 235 255
220 235 255
220 235 255
220 235 255
220 235 255
218 233 254
218 233 253
220 235 255
220 235 255
220 235 254
220 235 255
218 233 254
220 235 255
217 232 252
217 232 250
214 229 242
216 232 245
216 231 246
217 232 250
216 232 246
218 233 250
218 234 252
217 233 249
217 232 248
217 233 249
218 233 252
217 232 248
218 233 250
218 233 252
217 232 249
213 229 244
212 227 248
213 228 248
214 229 250
213 229 248
216 232 253
212 227 248
220 235 255
213 229 250
215 230 250
215 231 251
213 228 248
217 232 249
217 232 248
219 234 255
216 231 245
218 234 253
218 233 252
217 233 249
218 233 252
217 232 248
218 233 252
216 232 246
215 231 246
214 230 249
206 222 236
206 222 238
207 223 240
207 223 239
209 225 243
210 226 244
204 220 238
204 221 237
210 226 240
206 223 231
204 220 235
203 220 230
113 136 163
62 98 148
62 97 148
61 96 139
62 97 148
62 98 145
61 96 141
62 97 142
62 97 141
62 97 142
62 97 147
60 95 136
61 96 143
62 98 148
62 98 150
61 95 134
62 97 144
62 98 148
62 98 144
62 98 148
61 96 143
61 96 140
61 96 139
62 97 145
63 98 153
60 96 139
62 97 144
61 97 143
61 96 143
60 95 137
61 96 143
63 98 153
61 96 140
61 96 141
62 97 143
61 96 143
62 97 149
61 95 133
61 96 140
62 97 144
61 96 141
62 97 147
63 98 152
60 95 131
62 97 142
63 98 155
61 96 142
62 97 149
61 96 143
61 96 136
62 96 142
61 95 136
59 93 127
61 95 140
61 95 141
61 95 139
61 95 142
51 78 115
34 43 28
36 46 30
40 51 35
44 55 39
47 59 44
49 63 49
51 65 50
51 67 56
52 68 60
52 69 56
65 79 65
108 111 80
128 127 87
164 156 102
178 168 109
187 175 112
193 180 114
193 180 114
192 179 114
192 179 114
192 180 114
192 179 114
192 180 114
193 180 114
192 180 114
193 180 114
193 180 114
192 180 114
193 180 114
193 180 113
193 180 114
193 180 114
193 180 114
193 180 113
194 180 114
193 180 113
193 180 114
193 180 114
194 180 114
193 180 113
193 180 114
193 180 113
194 180 114
194 180 114
194 180 113
193 180 113
194 180 113
194 180 113
193 180 112
194 180 113
193 180 113
194 180 113
193 180 113
194 180 113
193 180 113
194 181 114
194 181 113
195 181 113
193 180 112
194 180 113
194 180 113
194 180 113
194 180 113
194 180 113
194 180 112
194 180 112
192 179 110
192 179 110
195 181 113
191 178 108
194 180 112
220 235 255
220 235 255
220 235 255
220 235 255
220 235 255
220 235 255
220 235 255
221 235 255
220 235 255
221 235 255
220 235 255
221 235 255
220 235 255
219 234 254
219 234 255
219 234 254
219 234 254
220 235 255
220 235 255
220 235 255
220 235 255
220 235 254
220 235 254
219 234 254
220 235 254
220 235 254
217 233 248
220 235 254
220 235 254
219 234 252
218 233 249
219 234 253
220 235 255
217 232 252
216 231 252
217 232 252
218 233 254
214 229 250
216 231 252
217 232 252
214 229 250
215 230 251
212 226 246
216 231 252
216 231 251
213 228 249
210 226 243
220 235 254
218 233 249
219 234 253
219 234 250
217 233 248
218 233 249
218 233 250
217 232 245
218 233 250
219 234 252
214 230 245
214 230 248
212 228 241
210 225 244
210 226 240
207 222 236
212 227 244
211 226 241
210 225 242
210 226 245
212 227 246
215 230 247
207 222 240
212 227 246
102 127 166
62 97 145
61 97 145
60 94 126
61 97 141
61 96 136
62 97 149
61 96 139
61 96 143
61 96 136
61 96 141
62 97 145
61 97 143
60 96 140
61 97 143
62 97 145
61 97 144
62 97 145
60 95 129
61 97 143
60 95 133
63 98 154
61 96 137
62 97 142
61 96 142
61 96 139
61 96 139
60 95 136
61 96 136
62 97 143
61 96 139
62 98 149
62 97 141
61 97 141
62 97 149
61 96 139
61 96 137
62 97 142
61 96 137
61 96 140
63 98 150
62 98 149
61 96 141
62 97 141
61 96 136
61 97 149
62 97 148
61 96 137
60 95 131
61 96 142
62 98 150
61 95 139
60 94 132
61 95 137
62 97 144
61 95 143
60 93 130
56 84 126
33 41 29
37 46 32
35 45 29
43 54 39
47 60 44
48 61 45
49 63 48
51 67 51
52 68 53
52 69 55
53 70 55
87 95 73
117 118 79
163 155 102
167 158 101
186 174 109
192 179 113
194 180 112
192 179 112
193 180 112
192 179 110
193 180 112
193 180 111
193 180 112
192 179 112
193 180 112
192 179 110
193 180 112
193 179 111
193 180 112
193 180 112
192 179 110
192 179 111
191 179 110
194 180 113
192 179 109
192 179 111
192 178 108
194 180 111
194 180 113
193 180 112
192 179 110
193 180 111
195 181 113
194 180 112
193 179 110
191 178 109
193 180 110
192 179 109
193 180 112
193 179 110
193 179 110
192 179 109
192 179 110
194 180 112
193 180 111
192 179 109
194 180 111
192 179 109
193 179 109
194 180 112
193 179 110
191 178 107
193 179 109
192 179 108
193 180 110
192 179 110
193 179 110
192 179 109
193 180 110
194 180 110
221 235 255
221 235 255
221 235 255
221 235 255
220 234 255
220 234 255
221 235 255
220 234 254
220 234 254
221 235 255
221 235 255
221 235 255
221 235 255
221 235 255
221 235 255
220 234 254
221 235 255
221 235 255
220 234 255
220 234 255
221 235 255
221 235 255
221 235 255
221 235 255
221 235 255
221 235 255
221 235 255
221 235 255
221 235 255
221 235 255
221 235 255
221 235 255
217 231 252
219 233 254
218 232 253
216 230 252
215 229 250
218 232 252
216 230 251
215 229 250
217 231 251
221 235 255
209 224 245
217 231 251
218 232 252
216 230 251
218 232 253
220 234 254
221 235 255
221 235 255
221 235 255
221 235 255
220 235 254
220 235 254
220 235 254
221 235 255
220 235 254
218 232 253
214 229 248
214 228 250
216 230 251
216 231 252
211 225 247
218 233 254
214 229 250
218 232 252
218 232 253
213 228 248
208 223 244
209 224 245
212 227 247
93 120 155
61 95 137
61 96 137
62 97 148
60 95 127
62 97 145
61 96 135
61 96 134
62 96 142
60 95 129
62 97 148
61 96 140
61 96 136
61 96 134
61 96 142
61 96 139
61 96 136
62 97 142
61 95 129
61 97 141
61 97 144
60 95 133
61 97 142
61 97 143
61 96 139
60 96 134
62 97 145
61 96 142
61 95 134
61 96 136
60 95 133
60 95 137
61 96 142
61 96 141
63 98 148
60 95 131
61 96 130
61 96 136
61 96 140
61 96 142
62 97 140
61 96 140
60 95 136
62 97 144
60 95 133
61 95 131
60 94 133
59 94 123
61 95 136
62 97 150
59 93 126
61 96 139
60 94 132
60 95 135
61 96 141
59 92 130
60 94 136
57 89 125
28 35 24
36 46 30
40 52 39
43 54 35
45 57 37
46 59 36
48 61 43
49 63 45
51 67 49
53 70 57
54 72 60
77 87 64
122 121 79
152 146 89
171 161 100
187 175 104
189 176 105
191 178 107
188 176 103
188 176 102
189 177 105
190 177 105
191 178 107
191 178 106
190 178 106
191 178 107
188 176 102
187 175 101
191 178 108
191 178 106
190 177 104
190 177 106
191 178 108
187 175 102
188 176 102
188 176 103
191 178 106
187 176 102
188 176 103
190 177 105
191 178 106
188 176 101
192 179 108
188 176 102
190 177 104
188 176 103
190 177 105
192 178 107
192 179 108
191 178 108
189 176 103
189 176 103
190 177 105
194 180 110
190 178 106
193 179 109
192 179 109
192 179 108
193 180 110
190 177 105
189 177 104
192 178 108
190 177 104
188 176 102
191 178 106
190 177 104
189 176 103
189 176 103
192 178 107
192 178 107
191 178 106
221 236 255
221 236 255
221 236 255
221 236 255
221 236 255
221 236 255
221 236 255
221 236 255
221 236 255
221 236 255
221 236 255
221 236 255
221 236 255
221 236 255
221 236 255
221 236 255
221 236 255
219 234 254
221 236 255
220 235 255
221 236 255
221 236 255
221 236 255
221 236 255
221 236 255
221 236 255
221 236 255
222 236 255
221 236 255
221 236 255
221 236 255
221 236 255
220 235 255
220 235 254
215 230 251
214 229 250
217 232 252
215 229 248
213 228 248
216 231 252
215 230 252
218 233 252
217 232 253
220 234 254
213 228 248
217 232 252
215 230 251
221 236 255
222 236 255
221 236 255
221 236 255
222 236 255
221 236 255
222 236 255
221 236 255
222 236 255
221 235 255
218 233 252
214 229 248
215 230 250
216 231 250
217 232 250
212 226 247
212 227 248
215 230 250
213 228 248
216 231 250
212 227 247
213 227 248
217 232 252
211 226 247
100 125 158
62 98 147
61 97 143
61 96 142
61 96 134
61 96 135
61 96 137
62 97 141
60 95 131
62 98 149
62 97 141
61 96 144
62 97 144
61 97 144
61 96 136
61 96 136
62 97 144
61 96 136
61 96 134
61 96 134
60 95 130
62 97 142
61 97 140
61 96 139
60 95 133
61 96 135
61 96 141
61 96 143
60 95 136
62 97 141
61 96 141
60 95 131
62 97 145
60 95 127
62 97 142
61 96 136
60 94 129
61 96 135
60 95 131
61 97 142
61 96 140
61 96 139
60 95 130
61 96 139
61 96 140
61 95 138
61 97 145
61 95 140
61 96 136
61 96 136
61 96 135
61 96 138
62 97 139
60 94 133
61 96 142
60 94 130
60 93 134
54 84 114
29 36 21
36 45 27
36 46 27
44 55 35
46 57 38
46 59 39
50 63 46
48 62 40
50 67 51
51 67 52
57 72 57
77 88 61
116 116 73
141 137 78
169 160 86
173 164 89
181 170 89
185 174 97
186 175 98
182 172 93
185 174 97
186 174 97
184 173 95
182 171 91
187 175 99
184 173 96
184 172 95
183 172 93
186 174 97
188 176 101
184 173 95
182 172 92
181 171 90
183 172 92
181 171 90
183 172 94
185 174 97
186 174 97
187 175 100
187 175 100
184 173 95
184 173 95
185 173 95
181 171 90
185 173 95
185 174 97
182 172 92
188 176 102
182 171 92
189 177 103
187 175 101
185 173 96
182 172 93
187 175 100
187 175 99
188 176 101
187 175 99
186 174 97
189 176 101
185 174 97
185 174 97
187 175 99
192 178 106
182 172 93
189 176 102
187 175 99
189 176 103
185 174 97
187 175 99
188 176 101
189 177 103
222 236 255
222 236 255
222 236 255
222 236 255
222 236 255
222 236 255
222 236 255
222 236 255
222 236 255
222 236 255
222 236 255
221 235 254
222 236 255
222 236 255
221 235 255
221 235 255
221 235 254
221 235 255
222 236 255
222 236 255
222 236 255
222 236 255
222 236 255
222 236 255
222 236 255
222 236 255
222 236 255
222 236 255
222 236 255
222 236 255
222 236 255
222 236 255
221 235 253
218 232 250
218 232 250
217 232 248
213 228 245
219 233 252
216 230 249
219 233 252
219 233 252
208 223 240
216 230 249
214 229 244
211 226 245
215 229 248
217 231 246
221 235 253
219 234 249
219 234 248
220 235 252
221 235 253
219 233 246
220 234 249
219 234 249
220 234 249
220 234 249
219 233 251
216 231 250
211 226 246
217 231 252
212 227 247
215 229 250
213 227 248
213 228 246
216 230 250
218 232 251
215 229 248
215 229 248
214 228 248
214 228 247
106 130 152
60 95 124
61 97 142
61 96 143
61 96 133
60 95 130
60 95 133
61 96 141
58 92 118
60 95 129
62 97 141
62 97 143
61 96 141
60 95 131
62 97 147
60 95 131
61 96 135
60 95 137
62 97 141
60 95 133
60 95 126
60 95 130
61 95 131
61 96 141
61 96 139
61 95 139
62 97 147
61 96 136
60 94 131
61 96 136
61 96 136
60 95 137
60 95 136
61 96 139
61 96 142
61 95 137
60 95 124
60 95 134
60 95 135
61 97 144
60 95 133
61 97 145
60 94 133
60 94 125
60 95 133
60 95 133
60 95 131
62 97 142
61 96 142
59 94 125
60 94 130
61 96 140
59 94 124
60 95 134
60 95 136
59 93 130
59 91 120
52 80 101
29 36 14
37 46 25
39 49 23
42 53 34
45 58 35
47 59 38
49 63 45
49 64 44
50 66 46
52 69 54
57 74 52
93 99 61
108 111 59
144 141 67
162 155 81
170 162 84
168 162 66
176 168 83
174 166 76
172 165 74
172 165 75
178 169 84
172 164 72
175 167 79
174 166 75
175 167 80
171 164 74
178 169 84
175 167 80
178 169 84
175 167 79
180 170 89
178 169 84
181 171 90
176 167 80
180 170 86
177 168 84
177 168 83
179 170 86
180 170 87
182 171 90
180 170 88
183 172 93
178 169 85
180 170 87
182 171 90
180 170 87
181 171 90
184 173 95
180 170 87
183 172 93
181 171 89
185 173 95
182 172 91
182 172 91
183 172 93
183 172 91
183 172 91
184 173 93
185 173 95
183 172 93
183 172 93
184 173 95
181 171 88
185 173 95
184 173 95
179 169 86
185 173 95
183 172 92
182 172 91
184 173 95
223 236 255
223 236 255
223 236 255
222 236 255
222 236 255
222 236 255
222 236 255
221 235 255
222 236 255
222 236 255
222 236 255
221 235 254
221 235 253
221 235 253
221 235 250
221 235 252
221 235 252
221 235 253
218 233 245
220 234 248
219 234 248
219 233 250
221 235 252
219 234 248
219 234 248
221 235 253
220 234 249
220 234 249
219 233 246
220 234 249
216 231 237
218 233 245
219 233 246
218 233 246
218 233 251
213 228 242
219 233 248
216 230 246
213 228 241
215 229 243
216 230 247
216 230 247
215 230 242
210 224 240
215 229 242
219 233 247
219 234 246
218 233 245
219 233 245
219 234 246
220 234 250
222 236 253
219 233 246
219 234 246
220 234 248
219 234 246
222 236 254
217 232 242
215 229 248
217 231 251
217 231 250
218 232 251
213 227 246
214 228 247
215 229 248
218 232 253
214 228 248
219 232 252
208 223 244
216 230 251
215 229 248
119 140 166
60 95 130
61 96 139
60 95 129
60 95 134
60 95 131
61 96 134
60 95 131
61 96 134
61 96 134
60 95 130
60 95 127
60 95 134
61 97 140
60 95 130
59 93 122
61 96 139
62 97 141
61 96 136
61 95 137
60 95 131
60 94 130
61 95 133
60 95 130
63 97 145
62 96 140
62 97 140
60 95 126
60 94 126
61 96 130
60 95 131
62 97 144
59 94 127
61 96 137
61 96 136
60 95 125
61 96 135
62 97 144
61 96 137
60 94 129
60 95 133
60 95 124
59 94 125
61 96 136
61 96 134
59 94 131
60 95 133
60 95 129
60 95 127
60 95 132
60 94 130
59 94 126
60 94 127
61 96 137
62 96 142
61 95 132
59 91 123
52 77 106
30 38 20
31 40 20
38 48 29
41 51 27
42 53 34
43 55 32
47 61 42
51 66 47
51 67 50
50 67 48
57 72 54
81 91 51
120 122 58
134 133 57
149 146 55
159 154 58
163 159 56
167 161 62
166 161 60
167 161 62
167 162 64
173 165 73
164 160 57
174 166 75
165 160 58
166 160 60
164 159 53
170 163 69
166 161 63
169 163 66
172 164 74
167 161 64
170 163 68
172 164 72
169 163 66
168 162 65
174 166 75
173 165 74
171 164 72
167 162 64
174 166 75
177 168 81
173 165 73
173 165 75
174 166 76
174 166 75
177 168 81
177 168 82
174 166 75
177 168 81
176 167 79
176 167 79
177 168 80
178 168 82
177 168 81
179 169 85
176 167 78
178 168 82
179 169 85
177 168 80
183 172 92
177 168 83
177 168 84
180 170 86
181 170 87
181 171 88
178 169 84
184 172 93
180 170 87
185 174 95
181 171 89
223 237 255
223 236 254
222 236 254
222 236 253
221 235 249
220 234 246
221 235 250
219 233 245
220 234 248
222 236 253
219 233 247
219 233 245
216 231 238
219 233 245
215 230 238
220 234 249
217 231 242
219 233 245
217 232 243
219 233 247
220 235 249
219 233 247
221 234 251
220 234 249
219 233 248
219 234 246
220 234 246
219 234 246
218 233 244
218 233 245
217 232 241
220 234 248
217 232 238
219 234 248
220 234 251
217 232 247
213 227 243
216 230 247
217 231 248
216 230 246
216 230 247
214 228 243
217 231 246
218 232 248
215 229 243
218 232 248
221 235 249
222 236 253
219 233 246
220 234 248
221 235 250
220 234 250
221 235 250
221 235 249
220 234 248
218 233 242
220 234 249
222 236 252
216 230 248
218 231 250
212 226 246
217 230 250
213 227 246
213 227 244
218 232 251
222 235 254
221 235 253
217 231 248
214 227 246
213 227 241
202 218 215
137 157 172
61 96 141
61 96 136
61 96 142
60 94 121
59 94 121
61 96 136
60 95 130
60 95 131
61 96 136
61 96 134
60 95 133
61 96 136
61 95 131
60 95 125
60 95 127
60 94 129
61 96 136
60 95 133
63 98 147
60 94 120
60 95 127
60 95 137
60 94 130
60 94 131
61 96 133
58 93 115
60 95 124
61 96 139
62 97 144
60 94 127
61 95 134
60 95 129
61 96 143
60 95 127
60 95 134
59 94 125
61 96 141
61 96 136
60 94 126
61 96 140
61 95 133
59 94 124
61 96 140
60 95 130
59 94 130
60 95 130
61 96 134
60 96 135
61 96 131
60 95 135
59 93 125
59 93 129
59 93 123
59 92 123
60 94 129
59 92 125
47 72 74
27 34 9
33 43 25
39 48 23
40 51 29
41 53 27
46 59 38
46 60 40
49 63 38
49 65 47
49 65 45
69 81 42
85 94 45
108 113 33
133 133 39
146 145 38
152 150 34
158 155 45
156 154 34
155 153 36
158 155 41
159 156 44
161 157 48
160 157 48
157 155 34
158 155 37
162 158 52
158 156 41
161 157 49
164 159 54
161 157 48
160 156 44
161 157 48
168 162 64
163 158 52
172 164 71
161 157 49
164 159 54
164 159 56
163 159 54
163 158 52
167 161 62
167 161 61
165 160 57
162 158 49
169 162 65
174 166 75
164 159 56
166 161 60
165 160 59
168 162 64
168 162 65
169 163 67
170 163 68
167 161 62
170 163 68
171 164 70
172 165 73
174 166 76
168 162 64
177 168 82
175 167 79
174 166 75
173 165 75
175 167 78
180 170 87
179 169 85
174 166 77
178 168 82
174 166 76
177 168 81
176 167 80
213 228 228
218 232 241
218 233 242
217 232 240
219 233 242
217 232 238
221 234 248
219 233 244
217 232 238
220 234 248
220 234 248
221 235 250
222 236 252
220 234 248
217 232 243
220 234 245
218 233 242
218 232 243
217 231 238
219 233 247
219 233 244
219 233 247
218 232 241
218 232 242
219 233 246
220 234 246
220 234 246
221 235 249
218 233 245
220 234 249
219 234 248
220 234 246
220 234 248
218 233 244
220 234 248
221 235 252
219 233 245
215 229 246
218 232 248
219 233 246
213 228 239
218 232 243
216 231 243
217 231 243
219 234 246
221 235 249
221 235 249
221 235 250
220 234 246
218 233 242
221 235 250
221 235 249
222 235 250
220 234 248
221 235 249
219 234 245
221 235 248
221 235 250
215 229 244
218 232 244
204 220 220
205 221 217
201 218 201
199 217 198
195 213 187
187 207 169
187 208 152
179 202 131
169 194 84
168 193 62
167 192 82
132 157 108
60 94 124
59 93 122
59 94 121
59 93 114
60 95 130
60 95 125
61 95 136
60 95 129
60 94 122
61 96 139
61 96 136
59 94 122
60 95 131
60 95 126
60 94 125
61 96 143
61 95 133
60 95 125
61 95 131
59 94 124
60 95 130
61 96 131
60 94 127
60 95 126
60 95 129
60 95 136
60 95 130
60 95 131
62 97 144
61 95 129
60 95 129
59 94 118
61 96 134
61 95 131
61 96 133
60 95 129
62 97 140
60 95 127
61 96 134
61 95 135
61 96 133
60 94 130
60 94 130
60 95 133
61 96 131
60 95 134
62 97 142
59 93 118
60 95 131
60 94 128
59 94 128
60 94 130
60 94 129
58 91 111
60 92 124
59 91 122
48 72 92
29 35 12
30 38 16
36 45 25
38 49 23
41 53 30
45 58 36
46 61 38
47 61 35
49 64 43
51 66 42
67 80 46
88 96 36
111 115 32
130 133 30
139 140 14
148 147 19
149 149 16
150 150 19
150 149 16
148 148 16
151 150 16
153 152 28
154 152 28
150 150 19
152 151 22
156 154 36
154 153 30
154 153 25
155 154 30
153 152 28
158 156 44
157 155 34
155 153 30
158 155 37
156 154 36
158 155 41
158 155 41
159 156 41
160 157 45
158 155 41
162 158 52
162 158 51
160 156 47
159 156 42
162 158 53
160 156 45
166 160 58
161 158 49
163 158 52
163 158 53
162 158 51
164 159 56
165 160 57
167 161 63
163 158 54
166 160 59
164 159 56
168 162 65
170 163 68
172 165 73
171 164 70
168 162 63
170 163 68
170 163 68
171 164 70
170 163 69
171 164 70
173 165 75
171 164 69
172 165 73
171 164 70
191 211 157
199 218 184
199 217 182
208 224 212
217 232 237
221 235 248
221 235 249
218 233 241
216 231 234
220 234 246
219 233 242
221 235 250
220 234 245
220 234 248
219 234 245
217 232 240
216 230 241
222 236 252
220 234 245
219 233 246
218 232 245
220 234 248
220 234 246
220 234 245
218 233 241
218 233 242
222 236 252
221 235 250
221 235 252
218 233 242
221 235 249
220 234 246
219 234 246
218 232 241
219 233 245
222 236 252
219 234 244
221 235 252
221 235 248
218 233 246
218 232 243
218 232 243
219 233 242
216 231 237
215 230 236
211 227 221
210 226 221
207 224 209
203 221 196
199 217 182
199 218 188
191 211 153
188 209 157
183 206 127
185 207 137
181 204 122
177 201 99
175 199 99
167 192 54
167 192 67
168 194 67
166 191 60
165 191 84
164 190 72
166 192 67
164 190 47
166 192 70
168 193 62
168 193 72
167 192 85
167 192 94
142 167 86
59 93 117
58 93 113
61 96 129
61 95 131
61 96 134
61 96 134
58 93 108
61 96 135
59 94 121
61 96 127
59 93 114
61 95 137
61 96 141
59 94 124
61 95 133
60 95 129
60 94 131
59 93 117
59 94 117
60 95 130
59 93 117
60 95 131
60 94 127
60 95 131
60 95 130
61 96 135
59 94 121
59 94 120
60 95 127
60 95 129
59 94 129
61 97 139
58 92 117
60 95 130
59 94 131
61 96 134
61 96 131
60 94 125
59 94 127
60 95 125
59 94 125
58 93 110
58 92 114
60 95 131
60 94 118
59 94 122
62 97 143
60 94 126
61 96 134
58 91 110
60 94 121
58 92 117
59 93 124
60 94 124
58 92 123
58 90 120
39 55 58
34 42 12
31 38 15
35 44 24
40 51 26
42 54 29
46 59 34
43 56 30
44 58 31
45 59 33
55 69 41
76 85 34
101 106 26
114 117 18
124 127 18
140 140 8
146 147 0
145 145 0
147 147 0
146 147 0
148 148 0
147 147 0
147 147 0
149 149 0
150 150 0
150 150 0
151 151 0
149 148 16
149 149 0
149 149 0
150 150 0
152 151 0
149 149 11
152 151 16
150 150 0
151 150 0
151 150 0
152 151 0
153 152 25
154 152 22
153 152 22
154 153 25
156 154 30
156 154 30
155 154 30
156 154 36
156 154 34
157 155 37
159 155 39
159 156 41
157 155 36
158 155 39
159 155 44
155 154 32
160 156 48
163 159 53
161 157 47
160 156 47
164 159 54
163 158 54
163 159 53
169 163 67
164 159 54
167 161 62
167 161 63
172 164 72
171 163 70
167 161 62
169 163 66
169 163 67
169 162 65
175 167 78
175 199 76
191 212 159
192 212 161
184 207 135
183 206 127
180 203 108
185 207 135
189 210 149
192 212 161
196 215 175
201 219 188
202 220 193
205 222 199
207 224 207
205 222 201
210 226 218
209 225 217
208 225 214
209 225 212
209 225 214
207 224 216
205 222 207
210 226 219
213 228 223
205 223 204
203 221 200
203 221 198
204 222 201
197 216 179
202 220 193
201 219 189
193 213 165
194 214 173
189 210 153
186 208 135
186 208 144
185 207 140
184 206 127
181 204 111
180 203 114
178 202 95
173 197 51
170 196 36
170 196 57
170 196 57
171 197 57
170 196 44
172 197 67
172 198 72
170 196 67
169 196 44
169 194 36
169 195 84
170 196 51
170 196 67
169 195 57
168 194 51
166 191 36
169 194 57
169 195 44
167 193 57
166 192 72
164 189 40
164 189 78
163 189 70
160 186 60
167 193 84
166 191 80
166 191 72
166 191 90
169 193 74
157 183 78
59 94 124
58 92 117
60 95 130
59 94 122
60 95 126
60 95 133
59 94 120
58 93 118
60 94 118
60 95 118
59 94 125
60 94 129
60 95 135
59 94 118
60 94 125
60 95 124
58 93 115
59 94 126
60 95 125
61 95 133
61 96 129
57 91 105
59 93 121
59 94 121
60 94 124
60 94 122
60 95 126
60 94 130
59 93 121
59 93 120
59 94 122
61 96 130
59 94 124
60 94 129
61 96 131
58 92 114
61 95 129
59 94 126
60 95 126
59 93 121
61 96 136
59 94 120
60 94 124
59 93 124
58 92 118
60 95 133
61 96 136
58 92 113
59 93 118
59 93 116
60 93 129
59 93 120
58 92 116
59 92 123
58 90 111
57 88 112
32 45 39
30 38 13
33 42 10
32 42 5
38 49 17
40 52 30
39 51 27
44 58 27
46 60 39
46 60 26
67 78 33
78 86 30
92 99 24
118 121 21
123 125 14
130 132 0
136 136 0
139 140 0
141 142 0
142 143 0
149 148 0
144 144 0
149 148 0
146 147 0
148 148 0
146 146 0
149 150 0
149 148 0
147 147 0
149 149 0
149 149 0
150 150 0
149 148 0
151 151 0
151 150 0
150 150 0
151 150 0
151 151 0
151 150 0
152 151 11
150 150 0
152 151 11
153 152 11
150 150 0
151 151 11
152 151 0
151 150 11
153 152 22
154 152 28
153 152 25
155 153 28
153 152 25
155 153 30
155 153 34
154 152 28
155 153 28
156 154 36
159 155 41
157 155 36
159 156 44
161 158 49
159 156 39
162 158 53
161 157 47
162 158 49
163 158 52
161 157 47
166 161 60
164 159 57
163 159 52
170 163 67
166 160 59
169 195 0
183 205 120
192 212 164
187 209 142
183 205 131
177 201 95
178 202 105
176 200 80
178 202 105
174 199 84
173 198 72
176 200 88
175 199 97
174 199 84
173 198 72
172 197 74
175 200 88
173 198 76
171 197 51
172 197 70
171 196 57
173 198 78
171 196 65
171 196 51
171 196 51
174 199 84
171 197 57
175 200 95
173 198 76
172 197 62
172 197 67
172 198 80
171 197 67
172 197 67
171 197 62
171 196 44
171 197 67
172 198 76
169 195 36
170 196 44
170 195 44
171 197 62
172 197 62
173 198 76
171 196 51
170 196 44
170 196 44
169 195 44
170 196 44
170 196 76
170 196 67
168 194 36
170 196 51
170 195 62
170 196 36
171 197 62
171 196 67
168 194 44
168 194 62
164 190 51
168 193 72
164 190 67
167 192 80
166 191 76
170 195 72
166 191 76
165 190 80
165 190 78
165 190 74
168 193 84
165 190 94
167 192 70
73 104 111
60 94 125
60 94 124
58 92 108
59 94 121
59 94 121
59 93 118
59 94 127
59 94 115
61 95 131
59 94 118
60 95 129
59 93 121
59 94 122
59 94 124
59 93 117
59 94 121
59 93 124
59 94 125
58 92 114
59 94 124
59 93 120
59 94 121
60 95 133
61 96 134
59 94 120
59 94 118
58 93 117
60 95 129
60 95 130
59 94 121
59 93 118
58 93 114
59 93 117
60 95 124
60 94 125
59 94 122
59 93 118
59 94 125
61 96 140
60 95 124
59 94 120
59 94 120
60 94 122
58 92 113
59 92 122
59 93 122
60 94 125
59 94 123
58 92 117
58 92 107
58 92 113
59 92 120
57 89 104
56 88 103
57 85 106
47 52 12
33 40 0
36 46 16
34 44 14
38 49 18
40 51 27
39 50 25
46 56 26
48 60 31
53 63 24
70 78 23
85 90 24
94 98 8
117 118 14
119 121 8
128 130 0
131 132 0
135 135 0
136 137 0
141 141 0
139 140 0
147 146 0
143 144 0
146 147 0
148 148 0
147 147 0
148 148 0
150 150 0
148 148 0
149 149 0
151 151 0
150 150 0
149 149 0
149 149 0
150 150 0
151 150 0
151 150 0
148 149 0
151 151 0
149 149 0
151 151 0
152 151 0
151 150 0
151 150 0
151 151 0
151 151 0
149 149 0
150 150 0
151 151 0
150 150 0
152 151 0
150 150 0
152 151 11
152 151 11
152 152 19
153 152 19
155 153 25
156 154 37
156 154 34
154 153 28
152 151 25
155 153 32
156 154 32
159 156 41
160 157 44
159 156 42
157 155 37
161 157 47
163 159 53
162 158 52
164 159 54
162 158 52
169 195 0
170 196 44
185 207 133
185 207 133
184 206 130
182 205 122
179 203 108
178 201 110
181 204 117
175 200 84
173 198 62
174 199 80
175 199 76
175 200 84
174 199 80
173 198 57
173 198 72
171 196 57
171 196 51
170 195 36
171 197 51
173 198 76
171 196 60
172 197 57
171 197 62
168 194 57
172 198 82
172 197 67
171 197 57
170 196 57
171 197 62
171 197 57
170 196 25
173 198 72
172 197 72
170 196 44
170 196 51
172 197 51
171 196 51
172 198 84
169 195 44
171 196 51
171 197 57
170 196 44
171 197 57
169 195 62
170 197 62
170 196 57
169 195 36
172 198 76
170 196 72
170 196 51
170 196 67
170 196 51
169 194 44
167 193 44
168 194 36
168 193 36
167 193 72
166 191 72
170 195 80
169 194 67
163 189 31
167 192 54
166 192 74
165 191 78
164 189 60
167 193 70
168 192 72
168 193 76
173 197 103
176 200 108
122 147 100
57 91 103
58 92 115
59 93 111
58 93 108
60 95 126
60 94 122
58 92 110
57 91 105
58 92 107
59 93 110
58 93 120
59 94 118
59 94 122
60 94 125
61 96 131
60 94 125
58 92 110
60 94 122
59 93 121
60 95 129
58 92 110
59 94 120
60 95 129
59 93 113
59 93 115
59 93 124
58 92 114
59 93 117
59 93 115
60 95 126
59 94 118
59 94 120
59 94 120
60 95 129
58 92 111
60 94 127
59 93 122
58 92 113
60 94 118
58 93 115
59 93 114
60 94 125
60 95 127
59 93 118
59 94 120
59 93 115
58 91 110
60 94 122
58 92 111
58 92 111
58 91 120
59 92 124
59 92 114
56 87 94
86 102 97
90 92 12
51 54 0
43 49 5
33 40 8
40 46 12
36 47 20
38 51 24
41 52 18
49 59 22
56 64 18
79 84 18
78 84 18
94 98 0
108 109 0
112 114 0
124 126 0
132 133 0
130 131 0
134 134 0
139 139 0
140 139 0
140 140 0
140 141 0
142 143 0
145 145 0
144 144 0
146 145 0
146 146 0
147 146 0
146 146 0
147 146 0
150 149 0
149 148 0
149 148 0
150 150 0
151 151 0
152 151 0
149 149 0
150 149 0
149 148 0
151 150 0
149 150 0
151 151 0
151 150 0
150 150 0
150 150 0
150 149 0
152 151 0
151 150 0
150 150 0
150 150 0
151 150 0
151 151 0
152 151 0
152 151 0
151 151 11
151 151 11
151 151 0
151 151 11
152 151 16
153 152 25
152 152 16
153 152 25
156 154 32
155 154 30
156 154 32
156 154 32
158 155 39
161 157 47
162 158 52
159 156 42
164 159 56
169 195 0
170 195 0
181 204 117
184 206 130
181 204 117
183 205 125
180 203 114
181 204 117
175 200 84
176 200 97
174 199 76
174 199 80
174 199 76
175 199 84
175 200 92
175 200 84
177 201 95
172 197 62
171 197 57
173 199 88
174 199 80
173 198 72
173 198 76
171 197 57
172 197 57
169 195 62
172 198 72
170 196 44
172 198 67
172 198 80
170 196 57
171 196 51
171 197 76
172 197 67
171 197 57
172 198 76
172 198 84
170 196 57
171 196 57
170 196 44
171 197 67
171 196 36
169 195 57
169 195 44
171 197 57
171 197 80
171 196 44
170 196 57
169 195 44
171 197 76
170 195 51
171 197 72
170 196 62
169 195 67
168 194 72
169 195 36
168 194 57
169 195 44
166 192 67
167 193 36
169 194 67
166 192 67
165 189 57
164 189 51
163 188 72
166 191 57
165 190 74
166 191 70
169 194 76
172 196 107
171 195 92
171 195 92
145 170 74
59 94 120
58 92 102
56 90 102
58 92 113
60 94 121
58 92 110
59 94 115
60 94 124
58 92 103
58 93 107
59 93 120
58 91 114
59 93 120
59 93 114
59 93 121
59 93 121
60 94 126
58 92 111
59 94 118
57 91 107
59 93 114
58 93 114
60 94 122
60 95 129
59 93 118
60 95 126
60 95 127
58 93 114
60 95 125
60 94 122
58 92 111
57 91 105
59 93 121
59 93 118
60 94 125
59 93 120
60 95 127
57 92 108
57 91 108
59 93 117
59 93 117
58 92 114
59 93 121
58 91 108
60 94 122
58 92 110
59 93 121
58 91 107
57 91 105
57 91 107
59 93 125
57 89 97
58 91 117
55 84 98
103 109 38
105 107 0
87 88 8
66 68 8
56 59 8
49 54 16
54 57 9
48 53 8
48 53 21
54 59 20
51 59 8
78 81 0
87 89 8
102 103 0
106 107 0
119 119 0
120 121 0
126 127 0
125 127 0
124 126 0
138 138 0
137 138 0
140 140 0
143 143 0
143 143 0
145 145 0
143 143 0
146 145 0
147 147 0
142 142 0
148 147 0
144 144 0
149 148 0
147 145 0
146 146 0
148 148 0
150 149 0
147 146 0
150 150 0
150 150 0
149 149 0
150 149 0
149 148 0
152 151 0
151 151 0
151 150 0
150 150 0
151 151 0
150 148 0
149 149 0
151 150 0
151 149 0
150 150 0
150 150 0
151 150 0
151 149 0
151 151 0
150 150 0
151 150 0
151 150 0
151 151 11
151 150 0
152 151 11
152 151 11
150 150 0
152 151 11
155 153 28
152 152 11
153 152 19
156 154 32
158 155 39
162 158 49
155 154 32
169 195 0
169 195 0
172 197 51
180 203 111
181 204 117
182 205 120
180 204 114
179 202 105
182 205 131
173 198 76
176 200 97
174 199 80
173 198 62
174 199 80
175 200 92
173 199 80
172 198 72
174 199 80
173 198 67
172 198 72
173 198 82
171 196 54
174 199 92
173 199 80
171 197 57
172 197 62
170 196 51
172 198 72
171 197 62
170 196 51
171 197 57
169 195 36
172 198 84
171 197 72
170 196 36
169 195 44
171 197 57
170 195 51
171 197 57
172 198 92
170 196 51
169 195 62
170 196 51
171 196 57
170 196 72
169 195 44
170 196 57
168 194 36
169 196 51
169 195 67
168 195 62
170 196 51
168 195 51
169 195 62
168 194 62
169 195 62
167 192 57
167 192 44
168 194 57
170 195 72
164 190 57
169 194 62
161 186 57
171 196 105
170 195 76
165 190 36
165 190 62
169 193 88
165 189 80
170 195 95
173 197 105
164 188 72
163 189 0
78 108 97
58 92 117
57 91 114
59 94 120
59 93 121
58 92 117
59 94 122
59 93 117
57 92 105
59 93 114
59 94 124
58 92 105
58 93 118
59 94 120
58 92 111
59 93 117
60 94 122
58 92 121
59 93 122
59 94 126
57 91 108
59 93 120
59 93 120
61 96 136
59 93 113
59 94 120
59 93 124
58 93 120
58 93 111
59 93 120
58 92 114
57 91 114
58 91 111
57 91 114
59 93 115
60 94 122
59 93 115
57 91 110
59 93 118
58 92 111
59 93 115
58 92 100
58 92 113
59 93 120
58 91 113
58 92 111
59 93 117
58 92 113
57 90 105
57 90 113
57 90 106
59 93 117
58 91 111
69 92 93
128 128 0
118 119 0
102 102 0
86 87 0
72 70 0
54 56 0
62 62 11
41 45 0
64 66 11
83 83 11
64 66 11
69 71 0
86 86 0
98 99 0
99 101 0
110 109 0
114 114 0
125 125 0
124 125 0
131 130 0
129 130 0
133 133 0
138 137 0
140 140 0
144 144 0
140 140 0
140 139 0
144 145 0
146 145 0
144 144 0
142 142 0
146 146 0
149 146 0
147 146 0
149 148 0
149 147 0
148 147 0
149 148 0
149 148 0
149 149 0
147 148 0
151 150 0
150 149 0
149 149 0
150 150 0
151 150 0
149 149 0
150 150 0
149 149 0
151 150 0
152 151 0
150 150 0
151 151 0
150 150 0
151 150 0
151 151 0
150 149 0
150 150 0
151 150 0
151 151 0
152 151 0
150 150 0
152 151 0
151 150 0
149 150 0
152 151 11
151 151 0
153 152 16
152 151 19
152 151 11
156 154 32
152 151 19
157 154 34
169 195 0
169 195 0
168 195 0
172 198 67
179 202 108
175 199 90
182 205 120
179 202 105
179 202 102
175 200 84
177 200 84
177 201 102
177 201 95
173 198 72
172 198 72
174 199 80
172 198 67
172 198 67
172 197 57
174 200 95
172 197 57
172 198 78
171 197 62
174 199 84
170 195 82
171 197 78
170 196 36
172 197 67
172 197 62
172 198 72
171 197 67
173 199 92
172 197 51
171 197 57
172 197 72
170 196 51
170 196 57
171 197 72
172 198 92
170 196 57
170 196 51
171 196 57
170 197 62
170 196 57
170 196 57
169 195 51
169 196 62
169 196 76
169 195 51
169 195 57
168 194 51
169 196 67
165 191 51
170 196 62
167 193 51
169 194 51
170 196 72
168 193 72
165 191 67
164 189 57
166 192 51
166 191 67
170 195 95
166 192 57
168 193 95
167 193 76
162 187 51
162 187 62
166 190 88
179 202 135
170 193 92
162 188 25
164 190 0
127 153 74
58 92 110
58 92 107
57 91 99
57 91 110
57 91 102
56 91 92
58 92 114
59 93 114
58 92 102
57 91 97
60 94 124
59 93 115
58 92 110
58 92 107
57 91 103
58 92 105
59 93 121
57 91 99
59 94 118
58 92 113
57 90 102
58 92 110
59 94 122
59 94 122
59 93 125
58 91 115
59 94 118
58 92 111
57 91 99
59 93 111
57 91 102
58 92 121
58 93 110
58 92 111
59 93 118
58 93 117
58 92 117
59 93 118
58 93 117
58 92 113
59 93 118
58 91 113
58 92 115
58 91 111
58 92 105
57 90 100
58 92 108
57 90 103
57 90 105
57 90 102
56 89 93
54 85 98
122 130 60
137 135 0
121 121 0
105 105 0
93 94 0
81 80 0
67 66 0
57 59 0
72 72 0
69 68 0
76 75 3
85 83 0
82 84 0
88 88 0
104 103 0
100 102 0
112 113 0
117 117 0
122 122 0
125 124 0
128 127 0
129 130 0
128 129 0
140 140 0
137 135 0
142 141 0
143 143 0
143 142 0
135 136 0
143 142 0
143 142 0
142 141 0
145 144 0
146 145 0
147 147 0
147 146 0
145 145 0
148 147 0
148 148 0
149 147 0
150 150 0
147 147 0
150 149 0
150 150 0
149 149 0
149 149 0
149 148 0
150 149 0
150 150 0
149 148 0
148 148 0
150 150 0
150 150 0
151 150 0
151 150 0
150 150 0
150 150 0
149 149 0
152 150 0
151 150 0
151 150 0
150 150 0
151 150 0
152 151 0
150 149 0
150 150 0
151 150 0
151 151 0
151 151 0
152 151 16
152 151 16
154 152 19
154 153 22
153 152 22
169 195 0
169 195 0
171 196 0
169 195 0
172 197 57
177 201 92
179 203 105
183 206 125
182 204 120
179 203 108
178 202 102
174 199 76
177 201 102
177 201 97
174 199 76
175 200 102
174 199 88
175 200 92
173 198 80
173 198 80
172 197 67
171 196 57
173 198 80
171 197 62
171 196 76
171 197 57
171 197 62
170 196 57
171 197 72
171 197 57
171 197 62
170 196 62
172 198 84
170 196 51
169 195 51
172 198 72
170 195 51
171 197 67
170 196 67
170 196 62
171 196 36
171 198 80
168 194 36
169 195 57
171 197 67
170 196 57
167 194 62
170 196 67
168 195 62
168 193 0
168 194 36
169 195 67
168 194 57
168 195 72
166 192 72
169 195 44
168 194 76
167 193 57
169 195 57
167 193 67
169 195 95
166 191 76
166 192 80
164 188 62
168 194 80
166 191 57
164 189 62
167 192 92
169 193 99
167 190 102
152 176 25
154 180 0
165 191 0
165 190 18
68 99 107
57 90 95
58 92 111
60 95 121
58 92 108
58 92 110
59 94 122
56 90 90
57 91 110
57 90 103
58 92 114
56 90 100
58 93 114
58 92 108
58 92 111
56 90 100
58 91 111
59 94 124
58 92 114
57 90 103
59 93 111
58 92 117
59 94 118
58 92 105
58 92 110
59 93 114
56 90 97
58 91 108
58 92 111
58 92 111
58 92 113
58 92 120
56 90 97
58 92 117
59 93 115
60 94 129
58 92 100
57 90 105
58 92 111
58 92 107
58 92 110
58 91 107
57 91 105
58 91 105
57 91 105
58 92 111
58 92 110
58 91 108
57 90 105
56 88 103
53 83 71
61 91 92
162 184 0
134 134 0
131 130 0
109 107 0
110 107 0
89 86 0
80 77 0
75 75 0
72 69 0
62 63 0
87 87 0
93 90 0
83 83 0
87 87 0
90 91 0
103 104 0
108 106 0
111 110 0
119 119 0
124 123 0
127 126 0
128 126 0
132 132 0
137 137 0
130 129 0
135 135 0
134 132 0
142 141 0
140 140 0
142 140 0
145 143 0
144 143 0
142 140 0
141 140 0
143 143 0
147 147 0
143 141 0
147 145 0
148 146 0
147 146 0
149 147 0
149 148 0
148 147 0
149 148 0
149 148 0
148 146 0
150 149 0
150 149 0
149 148 0
148 147 0
151 150 0
150 149 0
149 148 0
148 146 0
150 149 0
150 149 0
150 150 0
151 150 0
150 150 0
151 150 0
150 150 0
150 148 0
150 149 0
150 150 0
150 150 0
151 151 0
151 150 0
151 150 0
151 150 0
152 151 11
151 150 0
152 151 11
153 151 11
152 151 16
171 196 25
170 195 0
169 195 0
169 195 0
170 196 25
176 200 84
174 199 84
183 205 127
185 207 135
179 203 111
176 200 92
177 201 99
179 203 111
176 201 95
174 199 76
173 198 76
176 200 95
171 197 62
170 196 60
173 198 62
173 198 76
171 196 62
174 199 92
170 196 51
171 197 51
172 198 84
172 198 76
172 197 80
171 197 57
171 196 60
170 196 74
171 197 62
172 197 62
171 197 67
169 195 51
169 195 36
170 196 67
171 197 67
170 197 80
169 195 36
168 195 51
170 196 67
171 197 67
169 195 67
169 195 44
170 196 72
170 197 76
169 196 51
167 194 51
168 194 67
167 193 57
167 194 72
167 193 57
169 196 51
168 194 72
167 193 44
170 196 67
168 194 57
168 194 44
165 192 80
166 192 62
168 194 76
168 194 72
168 194 88
170 195 80
165 190 72
167 191 92
170 194 108
167 191 84
155 180 36
161 186 0
161 187 0
167 193 0
167 193 0
121 147 65
55 88 78
57 91 95
58 92 111
56 89 90
57 90 102
58 93 110
58 92 107
58 92 118
58 92 111
57 91 100
58 92 107
56 90 102
57 91 108
58 92 105
57 91 111
58 93 113
58 92 107
57 90 103
56 90 103
58 92 115
59 93 120
58 92 111
58 91 108
57 90 103
58 92 113
56 90 99
56 89 95
56 90 97
58 91 105
59 94 120
57 90 100
57 91 102
56 90 102
57 90 102
57 91 110
58 92 115
57 91 105
59 93 118
57 91 110
56 90 97
57 90 103
57 90 103
57 90 105
58 91 111
57 90 110
58 91 105
57 90 109
57 91 102
56 88 105
54 85 98
117 139 68
165 190 0
155 171 0
125 120 0
119 115 0
105 103 0
107 103 0
93 90 0
85 82 0
76 76 0
99 94 0
92 89 0
88 88 0
99 97 0
88 89 0
108 107 0
101 99 0
112 111 0
119 116 0
123 121 0
118 118 0
122 120 0
127 125 0
131 128 0
136 133 0
134 132 0
138 135 0
140 138 0
132 131 0
142 139 0
143 142 0
142 141 0
146 145 0
141 140 0
143 143 0
144 142 0
147 145 0
146 144 0
146 145 0
148 147 0
148 145 0
148 146 0
147 146 0
147 145 0
148 147 0
150 148 0
148 146 0
148 147 0
148 147 0
150 149 0
149 148 0
148 147 0
149 148 0
150 149 0
150 149 0
149 148 0
150 149 0
149 148 0
149 148 0
150 150 0
151 150 0
149 149 0
150 149 0
148 146 0
151 150 0
152 150 0
149 149 0
151 150 0
151 151 0
151 150 0
151 150 0
152 150 0
150 150 0
151 151 0
153 152 22
169 195 0
169 195 0
169 195 0
170 195 0
171 196 0
168 194 0
174 199 80
180 203 117
180 203 108
182 205 125
179 202 108
181 204 120
175 200 95
174 199 88
175 200 92
173 198 80
174 199 88
172 198 76
175 200 95
174 199 84
173 198 72
173 199 80
173 198 72
173 199 84
172 198 72
172 197 67
172 198 80
173 198 86
172 197 62
170 196 57
173 198 80
171 197 80
171 197 62
170 195 36
171 196 51
171 197 62
169 194 44
171 198 84
169 195 51
167 194 62
170 196 62
169 196 67
169 196 51
169 195 62
170 196 44
167 193 62
167 194 44
168 195 80
168 195 67
168 194 51
167 193 44
169 195 62
169 195 76
169 195 44
168 194 62
169 195 72
167 193 44
167 193 62
168 193 62
170 196 76
168 194 72
167 192 72
168 194 57
165 190 67
166 191 99
170 195 99
171 194 105
165 189 88
158 183 62
153 177 0
162 187 0
166 192 0
165 191 0
165 190 0
162 187 31
70 100 99
56 90 99
56 89 105
57 91 107
55 88 88
57 91 108
56 90 97
56 90 99
56 90 107
56 90 97
58 92 110
57 91 100
57 91 97
56 90 95
58 92 110
57 91 111
57 91 103
58 92 110
57 90 103
58 92 102
57 91 107
58 92 110
57 90 102
56 89 110
59 93 111
56 90 97
58 92 115
57 91 103
57 91 103
58 93 117
57 91 108
58 92 111
56 90 103
55 88 84
57 90 105
57 90 105
57 91 107
56 90 92
57 91 111
57 91 103
57 91 100
57 90 102
55 87 92
58 91 111
56 89 107
56 89 94
56 89 106
54 86 85
55 87 100
68 96 85
160 182 0
165 189 0
167 190 0
148 160 0
127 121 0
113 106 0
109 104 0
90 86 0
95 92 0
73 70 0
93 89 0
89 85 0
93 90 0
95 92 0
107 105 0
98 97 0
110 106 0
114 110 0
112 108 0
115 113 0
121 118 0
121 119 0
125 123 0
132 130 0
131 129 0
128 127 0
135 133 0
138 135 0
138 135 0
137 135 0
137 134 0
141 139 0
142 142 0
142 139 0
145 143 0
145 142 0
145 143 0
144 144 0
142 139 0
146 143 0
146 144 0
148 145 0
148 147 0
148 146 0
146 145 0
148 145 0
148 146 0
148 145 0
149 148 0
149 148 0
148 147 0
148 147 0
148 146 0
149 148 0
151 148 0
149 147 0
148 147 0
150 148 0
150 149 0
150 149 0
149 148 0
149 148 0
151 149 0
149 148 0
150 150 0
150 149 0
151 150 0
150 151 0
151 149 0
150 148 0
150 150 0
151 151 0
152 150 0
151 150 0
152 151 16
169 195 0
169 195 0
170 195 0
170 195 0
168 195 0
169 195 0
170 195 0
172 197 57
174 198 80
175 200 88
178 202 99
180 204 114
177 201 99
179 203 114
175 200 95
176 200 99
176 201 99
173 198 72
170 196 67
177 202 117
173 198 72
173 198 76
172 198 67
173 199 80
175 200 99
171 197 62
174 199 80
170 196 57
171 197 62
171 196 57
170 196 67
168 195 44
171 197 84
169 195 80
171 197 62
173 198 76
169 195 57
170 196 57
169 195 51
172 198 84
170 196 67
170 196 72
170 196 62
169 195 51
169 195 62
171 196 67
169 196 67
168 194 57
168 194 67
169 195 57
167 193 36
166 192 67
165 192 72
167 192 62
168 194 36
170 196 92
171 196 67
168 193 67
168 194 67
169 194 80
166 191 57
167 191 80
169 193 76
169 194 67
164 188 80
161 185 99
170 193 84
149 174 25
159 183 0
162 186 0
164 189 0
168 194 0
165 191 0
165 191 0
164 190 0
134 159 40
55 88 86
56 89 90
55 88 97
56 89 97
57 90 99
56 90 100
56 90 94
56 90 99
57 90 103
56 90 95
56 90 95
56 90 99
56 89 95
56 90 92
57 91 107
57 91 102
57 91 102
58 92 108
58 92 103
57 90 107
57 90 102
58 93 111
56 90 95
58 92 111
56 90 90
58 92 105
56 90 94
58 92 111
57 90 103
56 90 99
56 89 95
57 91 102
58 91 105
59 92 120
55 88 94
58 91 108
56 89 94
56 90 103
56 89 99
56 90 92
56 89 92
54 86 84
57 90 111
55 88 80
56 89 102
55 87 91
54 86 93
54 85 89
133 153 54
162 183 0
163 183 0
160 181 0
161 180 0
141 150 0
111 106 0
107 101 0
99 94 0
103 99 0
77 72 0
92 89 0
99 93 0
92 91 0
86 83 0
102 97 0
101 98 0
114 110 0
121 118 0
112 109 0
119 116 0
117 113 0
125 120 0
119 116 0
128 125 0
134 127 0
132 129 0
133 131 0
136 132 0
135 133 0
142 138 0
141 137 0
138 133 0
142 138 0
142 139 0
140 137 0
142 139 0
141 140 0
144 142 0
144 141 0
144 143 0
143 141 0
146 144 0
147 143 0
146 144 0
149 147 0
144 142 0
146 144 0
147 145 0
148 145 0
149 146 0
149 147 0
146 144 0
147 146 0
147 146 0
150 147 0
149 147 0
150 149 0
149 147 0
149 147 0
150 149 0
152 150 0
147 145 0
150 147 0
151 149 0
149 149 0
150 148 0
151 150 0
152 150 0
149 149 0
150 148 0
152 150 0
151 149 0
151 150 0
150 150 0
151 150 11
168 195 0
169 195 0
169 195 0
170 195 0
169 195 0
169 195 0
169 195 0
170 195 0
171 197 62
175 200 80
176 200 99
174 199 88
180 204 120
181 204 120
180 204 120
175 199 80
175 200 88
171 197 67
175 199 95
174 199 92
172 197 67
170 196 51
171 197 72
173 199 84
171 196 72
171 197 76
172 198 80
171 196 67
171 197 76
173 198 80
171 197 62
169 195 57
171 197 80
169 195 57
171 197 51
172 197 67
171 197 72
168 195 72
169 195 51
166 192 25
170 196 76
169 195 67
169 194 36
172 198 72
168 194 72
167 193 62
171 196 57
169 196 62
168 194 80
167 192 57
167 193 25
166 192 51
170 194 57
170 195 44
171 196 62
166 191 67
165 191 72
168 193 67
170 195 72
166 191 76
168 193 84
167 192 67
174 199 84
174 197 122
167 190 84
158 182 67
147 171 25
148 172 0
155 179 0
160 185 0
166 191 0
165 190 0
161 187 0
164 190 0
161 187 0
162 188 0
91 118 74
55 88 88
55 88 86
55 88 94
55 88 88
58 92 102
58 92 108
57 90 100
54 87 80
55 87 94
57 91 100
55 89 84
57 91 102
54 87 95
56 89 97
56 90 97
58 92 113
57 91 107
55 88 97
56 90 95
57 91 107
55 89 102
55 88 94
58 92 118
57 91 95
57 91 108
56 89 107
55 89 92
57 91 100
56 89 99
56 89 92
55 89 90
58 91 103
57 91 103
55 89 94
57 90 100
56 89 95
56 89 99
57 90 110
56 89 99
57 90 105
58 92 110
55 89 90
55 88 86
55 87 94
54 86 88
54 85 91
100 120 67
152 169 0
160 178 0
157 173 0
163 179 0
158 175 0
163 179 0
134 139 0
112 103 0
106 99 0
105 99 0
97 90 0
82 78 0
91 87 0
94 88 0
99 95 0
102 97 0
104 102 0
105 102 0
105 99 0
110 109 0
118 113 0
113 109 0
117 111 0
120 115 0
118 114 0
131 127 0
137 133 0
131 127 0
136 132 0
134 131 0
136 131 0
129 125 0
139 135 0
143 138 0
137 134 0
141 137 0
143 139 0
142 138 0
146 142 0
144 141 0
146 141 0
145 141 0
144 142 0
147 141 0
146 144 0
149 146 0
147 143 0
145 143 0
147 144 0
148 146 0
148 143 0
149 146 0
147 144 0
148 146 0
147 144 0
150 148 0
148 147 0
150 148 0
150 148 0
148 146 0
147 145 0
150 148 0
150 147 0
150 148 0
150 149 0
150 148 0
146 144 0
150 148 0
151 150 0
150 150 0
149 148 0
151 150 0
150 149 0
151 150 0
151 150 0
152 151 16
169 195 0
169 195 0
168 194 0
169 195 0
169 195 0
168 194 0
170 196 0
169 195 0
169 195 0
170 196 44
175 199 84
175 200 92
176 200 92
178 202 102
179 203 118
182 205 125
174 199 76
177 201 105
174 198 95
176 200 95
172 197 57
172 198 80
175 200 102
172 197 62
170 196 72
171 196 80
172 198 80
171 196 72
169 195 44
172 197 84
169 195 62
170 195 62
170 196 51
169 195 72
167 193 67
168 195 44
169 195 76
172 197 67
170 195 51
172 197 57
168 193 51
168 195 80
170 196 72
171 197 76
169 195 76
171 197 72
170 196 88
173 198 88
170 196 72
170 196 57
168 193 62
168 193 72
170 195 51
170 195 72
170 195 84
170 195 67
170 194 67
169 193 67
172 196 84
166 190 67
172 195 84
168 191 105
174 196 114
168 192 99
163 187 72
152 176 0
151 176 0
161 185 0
160 185 0
160 186 0
165 190 0
164 189 0
163 188 0
163 188 0
164 190 0
158 182 0
158 183 0
75 104 80
56 89 95
55 87 94
56 89 88
54 87 84
57 91 99
56 89 80
56 89 97
54 87 90
56 90 100
55 88 95
54 87 95
57 91 90
56 90 94
54 87 95
55 88 82
58 91 108
55 88 90
57 91 97
56 89 99
55 88 84
58 92 108
57 90 108
56 90 100
55 89 90
57 90 105
56 89 105
55 88 99
56 90 90
56 89 97
57 91 95
56 90 97
56 89 103
55 88 94
56 89 97
57 90 102
53 86 86
54 87 94
55 88 92
54 87 95
55 88 90
55 88 82
54 86 84
56 88 96
53 85 82
74 99 72
143 160 0
154 171 0
152 166 0
156 172 0
156 169 0
149 164 0
152 166 0
155 168 0
145 150 0
111 102 0
100 92 0
102 94 0
85 78 0
83 80 0
91 83 0
101 94 0
106 101 0
101 95 0
98 94 0
110 104 0
109 101 0
120 114 0
116 110 0
120 113 0
115 111 0
126 120 0
129 122 0
126 120 0
131 128 0
134 128 0
139 134 0
135 132 0
136 132 0
135 130 0
138 133 0
132 127 0
141 136 0
139 134 0
138 134 0
142 136 0
143 139 0
140 136 0
144 139 0
146 143 0
144 139 0
146 142 0
147 145 0
145 142 0
142 139 0
146 143 0
148 145 0
146 144 0
148 144 0
149 145 0
146 142 0
148 145 0
145 140 0
149 145 0
148 145 0
149 147 0
149 145 0
149 148 0
149 147 0
148 145 0
150 148 0
151 148 0
150 148 0
151 149 0
150 147 0
150 149 0
151 149 0
151 149 0
150 149 0
150 149 0
150 149 0
151 149 0
146 145 11
171 196 0
170 195 0
170 195 0
169 194 0
169 195 0
169 195 0
167 193 0
169 195 0
168 195 0
170 195 0
169 195 0
172 197 67
173 198 76
177 201 99
176 200 92
177 201 102
184 206 137
177 201 95
176 201 102
176 200 92
174 199 95
176 201 95
174 199 92
175 200 95
172 197 67
174 199 92
169 195 67
171 196 76
174 199 84
173 199 105
170 195 62
173 198 80
171 197 72
171 197 80
173 199 84
171 197 72
171 197 88
171 196 80
172 198 84
170 195 62
169 195 72
169 194 67
170 196 92
169 194 62
171 195 62
169 194 57
169 194 44
169 194 72
168 194 72
168 193 67
171 195 57
170 195 62
167 192 62
170 194 72
173 197 80
165 189 67
171 195 80
171 195 76
169 193 84
174 198 105
168 191 122
169 192 102
159 183 84
156 179 0
147 171 0
155 179 0
162 186 0
162 187 0
161 185 0
164 189 0
162 188 0
165 189 0
161 185 0
160 185 0
153 178 0
162 186 0
157 182 0
142 167 36
62 92 74
54 87 86
54 86 72
53 86 72
52 84 80
55 88 78
54 88 70
54 87 84
55 87 90
55 88 74
56 89 100
54 87 78
55 89 84
54 87 82
55 88 80
57 90 99
55 89 88
56 89 90
57 91 102
55 88 86
56 90 99
56 89 100
55 88 95
57 91 102
56 89 94
55 88 95
55 89 88
56 89 95
55 87 92
57 91 105
57 91 103
57 90 105
54 87 84
52 84 84
55 88 84
55 88 84
56 89 97
56 89 103
56 88 101
54 86 90
53 85 76
54 86 76
54 85 90
54 82 55
132 148 18
141 156 0
147 161 0
144 159 0
141 154 0
149 163 0
150 160 0
145 155 0
147 155 0
157 166 0
139 142 0
100 92 0
97 84 0
95 83 0
95 85 0
77 70 0
99 91 0
88 82 0
99 88 0
112 103 0
98 94 0
106 101 0
117 109 0
112 108 0
116 107 0
120 111 0
130 122 0
125 120 0
127 118 0
127 121 0
135 130 0
135 129 0
137 131 0
139 133 0
135 129 0
137 131 0
139 131 0
140 134 0
129 127 0
141 136 0
143 138 0
143 139 0
144 141 0
145 139 0
144 140 0
145 138 0
144 138 0
145 140 0
144 141 0
142 136 0
147 142 0
144 140 0
146 140 0
145 142 0
148 144 0
148 144 0
149 145 0
147 145 0
149 146 0
148 144 0
147 144 0
150 148 0
149 146 0
148 145 0
148 146 0
148 144 0
149 147 0
148 146 0
150 148 0
150 148 0
150 146 0
151 149 0
150 148 0
150 148 0
150 149 0
150 149 0
145 144 0
143 140 28
169 195 0
168 194 0
169 195 0
169 195 0
169 195 0
169 195 0
169 195 0
170 196 0
169 195 0
169 195 0
169 194 0
168 194 0
168 194 25
170 196 51
173 197 72
173 198 80
175 200 88
178 202 108
178 202 111
176 200 102
176 200 92
176 200 99
171 197 76
172 197 72
173 198 84
171 197 84
171 196 67
173 199 88
173 198 95
172 197 76
169 195 51
171 197 76
169 194 76
169 194 51
171 196 80
170 195 76
170 196 62
173 198 76
172 197 80
171 196 72
169 194 76
173 198 84
173 197 67
169 194 76
169 193 57
171 196 84
171 195 62
171 195 67
170 194 72
170 195 95
171 196 99
167 191 76
167 191 62
170 194 92
169 193 62
174 198 111
170 193 102
169 192 105
167 190 88
172 195 108
168 190 88
159 184 36
156 180 0
150 174 0
159 183 0
159 183 0
168 193 0
165 189 0
162 186 0
163 188 0
164 189 0
160 184 0
159 184 0
161 186 0
150 174 0
151 175 0
151 176 0
153 177 0
125 149 36
60 90 70
50 81 72
52 84 70
55 88 90
54 87 88
56 90 99
53 86 84
53 86 74
57 91 99
55 88 84
54 87 80
55 88 74
53 85 90
54 87 78
55 88 95
54 87 86
55 89 90
56 89 100
54 87 78
55 88 78
55 88 88
56 89 95
57 91 110
54 87 80
54 87 88
56 89 92
55 89 94
56 89 94
55 88 88
55 88 88
55 87 97
56 89 95
54 87 90
55 88 86
54 86 88
55 88 86
53 86 86
54 87 92
53 85 82
54 85 94
52 83 74
54 83 72
114 133 36
130 144 0
125 138 0
138 151 0
127 138 0
136 146 0
139 149 0
141 150 0
138 145 0
140 147 0
144 148 0
137 142 0
139 138 0
108 100 0
95 84 0
96 86 0
91 81 0
104 95 0
101 90 0
100 88 0
104 96 0
109 99 0
105 96 0
106 100 0
114 104 0
112 106 0
114 106 0
122 114 0
119 112 0
123 116 0
121 115 0
131 122 0
134 128 0
131 124 0
127 119 0
136 129 0
135 129 0
136 128 0
143 135 0
133 125 0
138 133 0
135 129 0
142 135 0
145 138 0
143 135 0
140 133 0
142 135 0
142 138 0
144 138 0
144 140 0
146 143 0
147 143 0
144 138 0
148 143 0
147 140 0
147 143 0
147 144 0
145 141 0
148 146 0
148 145 0
148 145 0
149 146 0
148 144 0
148 145 0
149 144 0
151 148 0
149 146 0
147 144 0
150 146 0
148 145 0
150 147 0
149 146 0
149 146 0
150 148 0
149 148 0
147 145 0
141 139 0
141 144 11
162 182 16
169 195 0
169 195 0
170 196 25
169 195 0
169 195 0
171 196 0
168 194 0
170 195 0
168 193 0
169 195 0
169 195 0
169 195 0
170 195 0
168 193 0
170 195 25
171 197 51
178 202 105
177 201 99
171 197 51
177 201 95
177 201 95
182 204 117
179 203 117
173 198 67
178 201 95
175 200 99
173 198 76
172 198 99
174 199 80
172 197 76
174 199 99
172 197 72
175 200 95
171 196 62
172 197 62
170 195 84
170 195 80
173 198 84
171 196 62
172 196 72
170 194 51
174 198 95
171 196 51
169 193 92
174 198 76
168 193 67
170 194 67
172 197 88
169 194 102
172 195 76
171 195 80
170 194 72
170 194 84
164 188 76
175 198 127
173 196 111
177 199 114
165 189 76
162 186 51
163 187 57
148 172 0
157 181 0
154 178 0
154 177 0
162 186 0
162 186 0
155 179 0
164 188 0
159 183 0
152 176 0
153 178 0
155 179 0
157 181 0
154 179 0
146 170 0
149 173 0
144 168 0
146 170 0
133 157 0
125 149 31
55 87 76
53 85 67
54 87 74
54 87 88
54 86 90
54 87 70
54 87 97
53 85 78
53 86 70
54 86 90
54 87 76
52 84 65
55 88 95
52 84 70
54 87 88
54 86 95
55 88 88
54 87 78
54 87 84
55 88 88
56 90 95
56 89 94
54 87 90
55 88 92
54 86 90
56 89 99
54 87 80
55 87 80
54 86 88
54 86 97
56 89 94
53 85 82
54 87 70
53 85 67
53 85 80
52 84 82
53 85 86
49 79 60
51 81 85
51 81 72
103 122 25
122 136 0
129 143 0
129 138 0
126 136 0
121 130 0
129 140 0
130 137 0
117 124 0
124 128 0
128 129 0
130 131 0
124 127 0
135 135 0
131 128 0
123 115 0
88 76 0
96 83 0
84 75 0
99 86 0
92 80 0
90 81 0
101 89 0
111 100 0
103 92 0
112 104 0
114 105 0
118 109 0
125 112 0
126 118 0
127 119 0
119 111 0
124 113 0
125 116 0
132 126 0
131 122 0
129 123 0
135 126 0
134 127 0
137 130 0
138 128 0
138 132 0
141 134 0
142 135 0
143 137 0
142 133 0
141 133 0
142 136 0
143 135 0
143 136 0
146 139 0
139 132 0
146 141 0
146 138 0
146 141 0
143 138 0
147 141 0
148 143 0
146 142 0
146 143 0
146 142 0
149 144 0
147 141 0
148 142 0
150 146 0
149 145 0
148 143 0
148 146 0
150 144 0
151 147 0
150 147 0
148 145 0
149 147 0
149 147 0
150 149 0
145 141 0
140 138 0
148 158 16
164 189 0
170 195 0
169 195 0
170 196 0
169 195 0
169 195 0
169 195 0
168 194 0
169 195 0
167 193 0
169 195 0
167 193 0
169 195 0
168 194 0
168 195 0
167 194 0
169 195 0
169 195 0
170 195 25
171 196 51
174 198 84
176 200 92
178 202 105
174 199 76
176 199 102
176 199 95
182 205 130
178 202 102
179 202 102
178 201 108
175 198 88
173 197 95
176 199 95
170 194 72
172 196 67
174 198 84
171 196 67
174 198 95
170 194 62
173 198 72
171 195 67
174 198 84
171 195 72
171 195 51
170 194 84
171 195 67
171 195 72
169 194 88
169 194 72
171 196 84
171 195 99
169 194 88
167 192 76
177 200 117
176 199 102
172 196 102
169 193 99
165 189 62
159 183 51
159 183 51
154 178 0
159 183 0
158 183 0
161 185 0
159 183 0
165 189 0
157 181 0
165 189 0
158 182 0
159 184 0
159 183 0
152 176 0
147 170 0
146 170 0
143 167 0
147 171 0
143 167 0
143 165 0
142 165 0
142 166 0
141 164 0
129 153 0
110 134 44
59 88 54
53 86 74
52 83 76
53 85 76
53 85 74
53 86 76
54 86 80
55 88 92
53 85 72
53 85 84
52 85 78
53 86 78
53 85 78
55 89 99
55 88 82
54 86 80
52 84 80
55 88 86
53 85 84
55 88 84
54 86 80
53 85 82
53 86 65
55 87 90
54 86 86
54 86 80
55 87 86
51 83 67
53 86 72
54 86 86
52 85 74
54 87 72
49 79 60
51 83 70
52 84 74
52 84 78
48 77 67
51 78 57
91 106 18
111 124 0
114 129 0
114 123 0
120 132 0
117 129 0
115 123 0
110 121 0
110 118 0
111 118 0
112 120 0
106 110 0
110 115 0
129 133 0
120 117 0
118 117 0
119 117 0
113 105 0
88 82 0
86 72 0
86 72 0
87 76 0
92 81 0
95 84 0
105 93 0
107 95 0
115 105 0
115 102 0
116 105 0
120 108 0
114 105 0
118 107 0
125 115 0
126 116 0
125 117 0
139 127 0
130 121 0
127 118 0
131 121 0
127 120 0
138 128 0
135 126 0
134 127 0
141 135 0
138 129 0
138 128 0
142 133 0
143 132 0
143 134 0
142 133 0
144 134 0
143 135 0
145 138 0
144 139 0
144 138 0
147 139 0
145 136 0
147 141 0
147 140 0
148 142 0
145 138 0
145 140 0
148 140 0
148 142 0
149 144 0
149 143 0
148 144 0
148 142 0
147 142 0
147 142 0
147 141 0
149 146 0
150 146 0
149 146 0
145 142 0
139 136 0
143 147 11
159 180 0
168 194 0
170 195 0
169 195 0
168 195 0
169 195 0
168 195 0
169 195 0
169 195 0
170 195 36
170 195 0
168 194 25
168 193 0
166 192 0
168 194 0
170 195 0
169 195 0
169 195 0
166 192 0
170 195 0
169 195 0
167 192 0
166 192 0
170 195 36
173 198 67
173 197 76
172 197 76
175 199 88
175 199 92
173 197 76
177 201 102
181 204 117
180 203 120
176 200 122
178 201 99
175 198 92
175 198 92
177 200 105
176 200 99
172 196 67
172 196 80
177 200 95
174 198 80
173 197 102
170 193 72
176 199 114
176 200 108
171 195 99
172 196 80
176 200 122
173 198 102
175 198 102
176 199 117
169 193 99
168 191 84
170 195 76
170 193 72
169 193 80
165 188 51
154 178 25
160 184 0
154 178 0
151 175 0
160 185 0
159 183 0
166 191 0
161 184 0
155 179 0
156 180 0
154 178 0
161 185 0
158 182 0
158 182 0
153 177 0
156 181 0
155 180 0
145 168 0
141 164 0
146 170 0
144 167 0
134 157 0
132 156 0
130 154 0
124 146 0
131 153 0
116 139 25
59 88 57
51 83 72
48 78 60
51 83 76
51 83 82
52 85 74
52 84 65
51 83 62
54 86 84
52 84 82
52 84 84
52 84 70
53 85 74
51 82 76
53 85 72
53 85 84
54 87 76
54 86 82
53 85 80
52 84 78
53 86 72
54 87 80
55 87 97
52 84 74
54 86 78
51 83 74
53 86 84
52 85 74
50 80 72
52 84 84
52 84 65
53 84 80
52 83 72
51 82 78
48 76 60
56 84 60
90 102 18
111 122 0
93 106 0
102 116 0
110 120 0
108 117 0
103 114 0
116 129 0
110 118 0
112 119 0
108 111 0
109 115 0
109 114 0
114 113 0
108 109 0
113 110 0
109 104 0
114 113 0
106 96 0
102 91 0
105 95 0
79 62 0
81 64 0
78 63 0
100 85 0
95 84 0
104 91 0
97 85 0
102 91 0
117 104 0
114 99 0
121 108 0
121 108 0
127 113 0
130 117 0
118 105 0
127 116 0
127 112 0
124 112 0
127 117 0
135 122 0
136 123 0
132 120 0
134 125 0
137 127 0
140 129 0
142 132 0
139 127 0
141 132 0
141 131 0
141 132 0
142 133 0
145 136 0
140 130 0
141 131 0
145 137 0
143 136 0
145 138 0
143 136 0
146 140 0
146 138 0
147 141 0
148 140 0
146 139 0
145 139 0
146 140 0
147 142 0
147 142 0
147 141 0
148 143 0
148 143 0
148 145 0
148 144 0
146 141 0
142 139 0
138 142 0
155 173 0
169 195 0
169 194 0
169 194 0
169 195 0
169 194 0
169 195 0
169 195 0
169 194 0
170 195 0
170 195 0
169 194 0
170 196 0
170 195 0
168 194 25
168 194 0
168 194 0
169 194 0
169 195 0
169 194 0
170 195 0
168 194 0
168 193 0
169 195 0
168 194 0
168 193 0
168 192 0
168 193 0
169 194 25
173 198 72
177 200 102
174 198 84
172 196 67
173 197 76
176 200 92
174 198 88
178 201 108
179 201 117
174 198 84
172 196 80
181 203 117
176 199 111
176 200 111
177 200 117
175 198 108
177 201 102
176 198 114
174 196 111
176 200 105
175 198 102
172 196 84
176 199 108
174 198 95
174 197 99
169 193 88
170 193 80
164 187 62
161 186 44
155 179 0
158 181 0
161 186 0
162 186 0
161 185 0
157 181 0
162 187 0
167 191 0
161 185 0
158 181 0
160 185 0
153 177 0
156 180 0
153 177 0
156 180 0
156 181 0
145 169 0
139 162 0
147 170 0
132 156 0
148 172 0
127 150 0
141 164 0
144 168 0
136 159 0
125 147 0
132 155 0
120 143 0
121 143 0
136 158 0
110 131 18
72 95 57
49 79 65
49 80 54
52 84 67
52 84 76
52 85 67
52 83 78
50 81 54
53 85 72
50 82 54
52 85 70
52 85 70
51 82 72
54 86 80
50 81 57
53 85 70
51 82 62
52 83 70
55 89 94
53 85 78
54 86 80
54 87 82
52 83 78
53 86 84
51 82 82
53 85 84
51 81 76
52 84 62
50 81 72
52 83 82
46 75 54
47 77 44
46 74 54
63 83 40
90 102 18
84 97 0
84 93 0
95 106 0
94 106 0
99 112 0
105 115 0
101 112 0
103 112 0
106 115 0
92 101 0
107 111 0
94 99 0
116 120 0
99 104 0
108 111 0
104 101 0
102 104 0
100 98 0
104 99 0
91 85 0
92 82 0
89 81 0
82 68 0
63 50 0
77 62 0
88 76 0
94 80 0
98 81 0
107 91 0
113 97 0
106 94 0
110 97 0
118 106 0
118 107 0
115 102 0
127 116 0
122 107 0
130 117 0
122 110 0
133 121 0
132 121 0
130 118 0
135 122 0
133 121 0
134 123 0
136 125 0
140 126 0
136 124 0
141 131 0
140 125 0
143 134 0
140 129 0
140 129 0
140 127 0
143 132 0
143 133 0
140 132 0
147 139 0
144 134 0
145 135 0
146 138 0
146 138 0
149 142 0
146 139 0
147 140 0
144 137 0
147 140 0
146 139 0
148 141 0
149 142 0
148 144 0
143 137 0
140 135 0
140 143 0
156 175 0
168 193 0
169 193 0
170 194 0
169 195 0
169 195 0
169 194 0
169 193 0
169 195 0
169 195 0
169 195 0
170 196 0
169 195 0
170 195 0
169 195 0
170 195 0
168 194 0
169 195 0
169 195 0
170 195 0
169 195 0
169 195 0
169 195 0
169 194 0
170 195 0
170 195 0
167 192 0
169 194 0
171 196 0
167 193 0
169 194 0
167 192 0
167 192 0
169 194 0
170 195 25
171 196 25
170 194 62
171 195 51
172 196 80
172 196 67
175 199 105
171 195 84
175 198 84
174 197 99
175 198 88
177 200 92
174 197 88
170 193 92
174 198 99
170 195 72
172 196 84
173 196 92
168 192 67
171 194 67
163 186 25
165 188 44
155 179 0
159 182 0
159 184 0
160 184 0
155 178 0
153 177 0
159 184 0
164 188 0
162 187 0
161 186 0
160 184 0
159 183 0
158 182 0
155 179 0
153 176 0
156 180 0
153 178 0
140 164 0
146 169 0
154 178 0
137 161 0
141 164 0
141 164 0
143 167 0
139 162 0
133 156 0
137 160 0
134 156 0
126 149 0
130 152 0
128 151 0
108 130 0
113 135 0
117 138 0
94 113 0
100 120 0
80 102 51
50 78 67
44 73 54
48 78 65
51 82 65
51 83 62
51 82 74
48 78 65
50 81 60
52 83 65
49 80 57
50 81 51
50 81 62
51 83 60
51 83 65
48 78 57
52 84 88
52 83 80
51 82 72
52 84 82
50 80 67
50 82 65
50 81 76
51 81 74
50 81 65
49 80 47
48 78 57
48 78 70
48 78 60
47 75 67
49 74 57
60 74 18
90 101 0
87 99 0
75 86 0
79 88 0
109 122 0
92 103 0
98 110 0
106 116 0
92 99 0
97 110 0
102 112 0
94 104 0
107 115 0
106 115 0
97 106 0
105 111 0
101 102 0
95 98 0
96 96 0
97 101 0
92 91 0
90 87 0
93 87 0
80 72 0
80 69 0
83 72 0
60 48 0
63 48 0
77 61 0
75 58 0
85 70 0
103 85 0
105 87 0
111 94 0
111 92 0
112 93 0
113 97 0
114 99 0
122 107 0
121 109 0
125 108 0
125 109 0
125 112 0
131 117 0
134 121 0
132 116 0
133 119 0
134 123 0
133 119 0
138 127 0
136 123 0
143 132 0
141 132 0
141 128 0
142 131 0
139 127 0
141 127 0
140 129 0
141 132 0
142 131 0
141 128 0
143 132 0
146 137 0
142 133 0
143 133 0
144 134 0
146 139 0
146 137 0
146 138 0
145 138 0
141 136 0
142 138 0
137 133 0
143 147 0
157 175 0
168 193 0
169 194 0
167 191 0
168 193 0
167 192 0
167 192 0
168 193 0
169 194 0
170 194 0
170 195 0
169 195 0
170 195 0
170 195 0
168 194 0
169 195 0
170 195 0
169 195 0
168 194 0
168 194 0
170 195 0
169 195 0
168 193 25
169 194 0
169 195 0
169 194 0
170 195 0
168 194 0
170 195 0
168 194 0
167 192 0
167 192 0
170 194 0
169 194 0
172 196 0
167 192 0
167 192 0
168 193 0
170 194 0
168 193 0
169 194 0
163 188 0
164 188 0
166 191 0
167 192 25
167 192 36
171 194 44
167 192 44
170 194 51
170 194 57
166 190 25
164 188 0
164 189 0
164 188 0
160 185 0
162 187 0
162 186 0
163 186 0
162 186 0
165 189 0
163 186 0
162 186 0
162 187 0
164 190 0
162 187 0
163 188 0
161 185 0
156 179 0
159 183 0
156 180 0
157 182 0
157 180 0
151 175 0
154 177 0
144 168 0
150 174 0
146 170 0
149 173 0
145 169 0
138 162 0
140 163 0
142 165 0
147 170 0
136 159 0
135 158 0
133 155 0
123 146 0
121 143 0
113 135 0
108 128 0
117 138 0
99 120 0
107 127 0
91 110 0
96 113 0
81 99 18
69 89 36
51 78 47
48 78 65
48 78 47
47 77 60
48 78 54
48 78 70
50 81 65
51 82 60
50 82 51
50 82 62
49 80 60
49 81 57
47 76 54
51 83 65
50 81 51
50 82 57
51 82 72
52 83 80
49 79 67
49 79 62
47 77 51
48 77 70
46 76 60
47 76 57
45 73 51
43 70 44
50 71 47
78 89 0
70 80 0
83 94 0
74 87 0
87 96 0
94 104 0
93 105 0
92 104 0
100 112 0
88 98 0
96 108 0
95 108 0
91 100 0
92 100 0
98 107 0
91 97 0
112 119 0
100 106 0
115 117 0
107 110 0
104 104 0
97 96 0
101 102 0
106 102 0
96 90 0
94 88 0
99 93 0
83 77 0
81 73 0
78 69 0
63 50 0
53 35 0
66 49 0
79 61 0
82 66 0
99 79 0
107 90 0
105 88 0
113 93 0
115 97 0
113 96 0
122 105 0
123 106 0
127 109 0
122 105 0
131 113 0
129 112 0
131 117 0
133 117 0
133 118 0
135 123 0
135 122 0
135 121 0
136 120 0
136 122 0
138 124 0
135 122 0
138 125 0
142 129 0
139 127 0
141 129 0
140 128 0
139 127 0
141 131 0
144 132 0
144 133 0
144 137 0
143 133 0
144 134 0
141 130 0
136 128 0
141 135 0
142 144 0
152 164 0
162 184 0
167 190 0
166 188 0
165 188 0
168 193 0
165 188 0
168 191 0
168 192 0
168 193 0
169 194 0
168 193 0
168 193 0
169 195 0
170 196 0
171 196 0
170 195 0
170 195 0
168 194 0
170 195 0
169 195 0
169 195 0
169 195 0
166 192 0
169 194 0
168 193 0
168 195 0
169 195 0
169 194 0
169 195 0
169 194 0
171 195 0
167 192 0
171 195 0
170 195 0
168 193 0
171 195 0
170 196 0
169 194 0
170 194 0
173 197 0
167 192 0
168 192 0
168 192 0
171 195 0
166 191 0
170 194 0
167 191 0
169 193 0
166 190 0
167 191 0
170 195 0
167 191 0
168 191 0
165 189 0
167 191 0
168 191 0
164 188 0
167 191 0
159 183 0
165 189 0
165 189 0
157 182 0
165 189 0
162 186 0
162 186 0
164 188 0
161 184 0
155 178 0
155 179 0
160 183 0
151 174 0
153 176 0
158 182 0
156 180 0
151 174 0
147 172 0
149 173 0
142 166 0
145 168 0
141 164 0
137 161 0
140 164 0
143 166 0
142 165 0
140 163 0
138 161 0
134 156 0
129 152 0
127 149 0
114 136 0
113 134 0
112 133 0
102 123 0
102 122 0
94 113 0
84 101 0
79 96 0
93 110 0
77 92 0
61 77 0
65 83 18
40 67 31
44 73 31
46 75 54
46 75 54
46 75 40
49 79 60
47 77 54
47 77 65
46 75 54
46 76 36
48 79 47
51 82 70
47 76 60
49 79 60
47 78 44
47 76 60
46 75 65
46 75 57
47 76 62
45 73 54
41 67 54
39 64 51
31 49 25
57 68 0
64 73 0
54 64 0
67 76 0
73 85 0
83 92 0
98 109 0
95 107 0
94 108 0
99 111 0
103 115 0
105 117 0
99 113 0
97 108 0
103 115 0
111 122 0
110 121 0
108 114 0
111 120 0
101 111 0
93 102 0
106 111 0
95 99 0
108 111 0
104 107 0
95 94 0
89 88 0
96 95 0
98 93 0
99 93 0
88 82 0
82 71 0
88 81 0
77 67 0
71 59 0
64 51 0
66 51 0
64 48 0
76 59 0
92 72 0
100 82 0
102 82 0
113 91 0
116 98 0
113 93 0
118 98 0
119 101 0
124 105 0
122 103 0
123 105 0
133 115 0
130 111 0
128 111 0
127 109 0
135 118 0
137 124 0
134 118 0
135 120 0
132 117 0
135 120 0
137 121 0
136 122 0
141 130 0
140 128 0
140 125 0
141 128 0
143 131 0
141 130 0
141 129 0
137 124 0
133 127 0
142 148 0
150 158 0
165 185 0
165 184 0
167 188 0
167 187 0
168 191 0
165 188 0
168 190 0
167 189 0
169 192 0
166 191 0
166 190 0
168 192 0
168 191 0
167 191 0
167 191 0
168 194 0
169 194 0
169 194 0
168 194 0
170 196 0
167 192 0
169 195 0
168 195 0
168 195 0
169 195 0
168 194 0
170 195 0
168 194 0
170 195 0
168 193 0
169 194 0
169 195 0
167 193 0
171 196 0
168 193 0
171 196 0
170 195 0
171 195 0
169 193 0
170 195 0
171 195 0
170 194 0
169 193 0
170 194 0
172 196 0
170 194 0
167 192 0
170 194 0
168 192 0
169 193 0
166 190 0
166 189 0
170 194 0
167 191 0
166 190 0
168 192 0
166 190 0
166 190 0
164 189 0
168 193 0
164 189 0
165 190 0
159 183 0
169 193 0
163 187 0
163 187 0
160 184 0
166 190 0
160 184 0
160 184 0
157 181 0
158 182 0
160 184 0
157 181 0
155 178 0
153 177 0
155 179 0
145 168 0
147 171 0
148 171 0
146 170 0
145 169 0
144 168 0
137 162 0
138 162 0
143 167 0
136 159 0
138 162 0
132 155 0
131 154 0
126 148 0
121 143 0
115 137 0
104 126 0
114 136 0
103 122 0
109 128 0
86 104 0
99 118 0
83 99 0
76 94 0
79 95 0
72 86 0
59 72 0
63 75 0
38 52 0
49 68 25
37 62 44
42 69 31
41 68 40
45 73 51
43 70 44
45 75 31
43 71 40
43 70 44
45 74 57
44 71 47
43 70 47
42 69 51
42 69 44
43 70 47
40 66 44
44 71 44
32 52 18
42 52 25
46 53 0
46 54 0
56 65 0
54 63 0
64 76 0
74 86 0
82 94 0
80 91 0
88 99 0
80 94 0
99 111 0
94 106 0
89 103 0
102 115 0
99 111 0
111 126 0
99 110 0
107 120 0
114 125 0
115 125 0
110 120 0
109 118 0
102 107 0
102 112 0
107 113 0
115 122 0
115 118 0
101 100 0
111 110 0
111 112 0
110 109 0
95 94 0
103 100 0
103 95 0
83 75 0
90 82 0
93 81 0
82 69 0
85 73 0
79 66 0
72 57 0
59 45 0
72 56 0
77 58 0
81 64 0
97 78 0
99 78 0
104 83 0
108 89 0
116 97 0
112 93 0
122 101 0
114 93 0
124 104 0
129 108 0
122 102 0
129 113 0
130 111 0
130 112 0
130 113 0
133 119 0
136 120 0
135 118 0
139 124 0
131 114 0
131 117 0
127 113 0
133 123 0
138 133 0
141 137 0
149 157 0
156 167 0
164 181 0
165 181 0
162 180 0
165 183 0
166 186 0
165 184 0
166 187 0
166 186 0
166 187 0
168 188 0
168 189 0
167 189 0
166 189 0
167 190 0
168 191 0
168 193 0
167 190 0
168 190 0
169 195 0
171 196 0
170 196 0
169 195 0
169 195 0
170 195 0
168 195 0
168 194 0
167 193 0
168 194 0
168 194 0
168 193 0
169 194 0
169 195 0
167 192 0
169 194 0
171 196 0
168 194 0
171 196 0
170 195 0
167 192 0
171 196 0
167 191 0
171 195 0
168 192 0
170 194 0
170 194 0
169 194 0
166 191 0
168 192 0
169 194 0
169 194 0
169 193 0
165 189 0
166 190 0
169 193 0
170 194 0
168 192 0
167 191 0
169 193 0
168 192 0
165 189 0
167 191 0
165 189 0
165 189 0
165 189 0
165 188 0
161 185 0
163 187 0
163 188 0
163 187 0
161 185 0
159 184 0
160 184 0
153 177 0
161 185 0
151 176 0
157 181 0
163 187 0
149 173 0
152 175 0
149 173 0
152 177 0
152 177 0
156 180 0
148 172 0
139 163 0
140 163 0
144 168 0
135 158 0
137 160 0
135 158 0
125 148 0
131 154 0
127 148 0
122 145 0
114 137 0
119 141 0
119 139 0
119 141 0
107 129 0
98 117 0
108 127 0
95 113 0
76 93 0
72 90 0
87 103 0
70 84 0
69 84 0
62 74 0
45 58 0
50 61 0
38 47 0
51 61 0
36 51 40
42 56 18
34 56 31
39 61 31
33 56 36
44 66 40
35 60 31
38 63 31
38 63 36
32 53 25
45 60 0
32 45 18
33 39 0
25 34 0
44 53 0
47 53 0
62 67 0
61 73 0
57 69 0
60 72 0
66 76 0
73 85 0
77 88 0
80 93 0
91 107 0
94 109 0
98 110 0
105 117 0
95 108 0
94 107 0
103 115 0
106 120 0
105 115 0
118 129 0
116 130 0
103 115 0
115 124 0
111 120 0
107 119 0
111 118 0
110 118 0
122 128 0
108 116 0
103 109 0
108 111 0
111 115 0
110 113 0
108 109 0
104 105 0
102 99 0
104 98 0
101 95 0
109 104 0
107 101 0
97 87 0
91 81 0
87 73 0
96 81 0
82 64 0
88 73 0
82 66 0
85 73 0
90 75 0
80 62 0
89 72 0
89 77 0
97 77 0
101 84 0
107 87 0
107 88 0
112 93 0
103 82 0
114 96 0
114 97 0
117 101 0
127 112 0
128 117 0
132 122 0
130 121 0
130 124 0
141 136 0
147 152 0
149 154 0
160 167 0
163 173 0
159 170 0
162 172 0
164 180 0
164 178 0
163 178 0
164 178 0
162 178 0
165 182 0
166 185 0
165 185 0
165 184 0
166 188 0
166 188 0
166 188 0
166 189 0
167 189 0
168 190 0
166 189 0
167 190 0
167 190 0
168 191 0
169 195 0
169 195 0
168 194 0
168 194 0
170 195 0
168 194 0
168 194 0
169 194 0
168 194 0
170 195 0
167 193 0
170 196 0
170 195 0
168 193 0
169 195 0
168 194 0
170 195 0
169 194 0
168 194 0
170 195 0
170 194 0
171 196 0
169 194 0
170 194 0
170 195 0
170 195 0
168 193 0
171 194 0
171 195 0
169 193 0
169 193 0
169 194 0
169 194 0
167 192 0
170 195 0
166 191 0
167 191 0
165 189 0
170 194 0
165 189 0
165 188 0
166 190 0
164 187 0
163 188 0
165 189 0
167 192 0
163 187 0
165 190 0
162 187 0
165 189 0
159 184 0
158 181 0
162 186 0
160 184 0
160 183 0
150 175 0
157 181 0
154 179 0
150 175 0
153 177 0
153 177 0
153 177 0
149 173 0
147 171 0
151 175 0
148 172 0
143 166 0
138 162 0
144 169 0
135 159 0
132 156 0
132 155 0
135 158 0
139 163 0
133 156 0
125 147 0
104 126 0
115 136 0
116 137 0
112 133 0
113 133 0
114 134 0
100 120 0
92 111 0
91 109 0
79 97 0
74 92 0
63 80 0
82 98 0
58 73 0
74 87 0
60 72 0
44 55 0
47 56 0
35 45 0
35 44 0
38 45 0
35 43 0
28 36 0
42 49 0
34 42 0
37 44 0
39 47 0
45 52 0
33 39 0
59 69 0
39 49 0
48 58 0
54 65 0
57 67 0
56 68 0
64 75 0
69 82 0
72 84 0
64 78 0
76 87 0
80 90 0
86 100 0
89 103 0
91 103 0
86 100 0
93 106 0
98 112 0
112 125 0
87 101 0
109 122 0
108 122 0
102 115 0
120 133 0
105 119 0
108 120 0
118 129 0
113 125 0
120 129 0
111 122 0
122 132 0
107 115 0
116 121 0
117 120 0
115 117 0
116 117 0
111 114 0
110 113 0
117 114 0
113 116 0
119 113 0
114 109 0
118 112 0
116 109 0
110 101 0
104 94 0
109 99 0
107 97 0
109 97 0
100 88 0
100 85 0
98 88 0
104 89 0
95 79 0
106 94 0
102 88 0
102 89 0
109 95 0
115 102 0
124 115 0
123 113 0
128 117 0
129 120 0
138 134 0
138 137 0
140 135 0
144 138 0
146 145 0
148 147 0
153 158 0
158 162 0
156 161 0
158 167 0
158 167 0
158 169 0
160 172 0
162 176 0
161 174 0
160 173 0
164 177 0
161 176 0
166 180 0
165 183 0
165 183 0
165 181 0
164 182 0
165 182 0
165 187 0
165 186 0
166 187 0
167 186 0
167 188 0
167 188 0
166 186 0
167 190 0
169 195 0
169 195 0
169 195 0
170 195 0
168 194 0
168 193 0
168 194 0
169 195 0
169 194 0
168 194 0
167 192 0
169 194 0
170 195 0
167 193 0
169 194 0
168 193 0
167 193 0
169 194 0
169 194 0
170 195 0
171 195 0
170 195 0
169 194 0
171 195 0
170 195 0
171 195 0
169 193 0
170 194 0
167 191 0
171 194 0
169 193 0
169 193 0
169 194 0
167 191 0
170 193 0
170 194 0
168 192 0
168 192 0
166 190 0
168 193 0
167 191 0
168 192 0
166 190 0
167 191 0
168 193 0
163 187 0
162 185 0
164 187 0
162 186 0
161 186 0
164 189 0
157 181 0
149 174 0
159 184 0
149 173 0
154 178 0
158 182 0
155 179 0
148 172 0
153 177 0
148 173 0
145 169 0
151 174 0
151 174 0
144 168 0
141 165 0
147 172 0
143 167 0
140 164 0
136 160 0
138 162 0
128 151 0
131 155 0
130 153 0
119 141 0
128 151 0
123 145 0
119 140 0
117 137 0
108 129 0
106 128 0
99 118 0
104 122 0
93 112 0
82 101 0
93 111 0
90 108 0
82 99 0
75 90 0
74 88 0
75 89 0
54 68 0
64 77 0
55 66 0
51 63 0
56 66 0
75 85 0
54 63 0
44 54 0
44 53 0
41 50 0
42 51 0
44 53 0
51 60 0
51 62 0
55 65 0
56 68 0
48 59 0
78 89 0
75 88 0
70 84 0
52 64 0
80 91 0
87 100 0
83 96 0
80 96 0
94 109 0
90 103 0
90 106 0
92 107 0
97 111 0
107 123 0
105 119 0
112 127 0
108 121 0
111 123 0
119 137 0
97 111 0
110 124 0
104 119 0
117 130 0
126 137 0
116 130 0
123 136 0
116 129 0
113 125 0
122 127 0
117 122 0
126 134 0
115 120 0
117 124 0
112 118 0
124 133 0
122 129 0
123 126 0
111 113 0
121 118 0
122 118 0
121 118 0
108 102 0
118 113 0
115 109 0
120 114 0
118 110 0
117 106 0
117 109 0
113 101 0
110 100 0
113 102 0
107 93 0
116 103 0
115 103 0
121 109 0
120 108 0
120 109 0
122 109 0
129 121 0
130 123 0
134 127 0
135 128 0
140 132 0
143 140 0
146 143 0
148 144 0
142 142 0
148 148 0
154 160 0
153 156 0
156 158 0
154 157 0
158 165 0
162 169 0
160 171 0
162 175 0
161 174 0
162 174 0
164 179 0
166 178 0
163 180 0
163 176 0
165 183 0
166 183 0
163 182 0
166 184 0
166 184 0
167 185 0
164 183 0
166 188 0
168 189 0
166 189 0
168 194 0
170 195 0
167 192 0
169 195 0
171 196 0
169 195 0
169 194 0
168 193 0
171 195 0
171 196 0
170 195 0
167 193 0
170 195 0
169 194 0
168 194 0
172 196 0
167 193 0
168 193 0
169 194 0
168 192 0
170 195 0
169 193 0
168 192 0
167 192 0
170 194 0
171 195 0
171 195 0
168 192 0
171 195 0
168 192 0
169 193 0
168 193 0
168 194 0
167 191 0
166 191 0
167 192 0
165 190 0
170 194 0
169 193 0
166 191 0
164 188 0
166 191 0
162 186 0
167 191 0
162 186 0
167 191 0
165 188 0
163 188 0
163 188 0
154 178 0
157 181 0
159 182 0
152 176 0
158 182 0
153 178 0
159 182 0
154 178 0
146 170 0
155 179 0
148 173 0
156 180 0
159 184 0
141 165 0
148 173 0
140 164 0
143 167 0
146 170 0
143 167 0
135 158 0
141 165 0
145 168 0
133 156 0
119 143 0
131 154 0
136 159 0
124 147 0
119 141 0
129 153 0
122 144 0
107 128 0
108 129 0
118 139 0
100 120 0
107 127 0
100 119 0
98 116 0
88 105 0
72 88 0
70 88 0
80 96 0
70 85 0
48 64 0
69 84 0
67 81 0
63 76 0
61 73 0
53 64 0
67 80 0
49 58 0
56 67 0
56 67 0
49 60 0
66 79 0
37 49 0
61 73 0
55 68 0
66 78 0
62 75 0
53 66 0
68 82 0
63 77 0
77 92 0
80 93 0
68 80 0
79 94 0
85 100 0
98 112 0
90 106 0
90 105 0
94 109 0
101 117 0
101 116 0
107 123 0
104 121 0
104 120 0
118 135 0
116 131 0
111 128 0
115 132 0
112 124 0
121 135 0
113 125 0
120 133 0
121 135 0
123 135 0
110 123 0
126 141 0
122 132 0
115 122 0
109 118 0
124 135 0
123 133 0
123 131 0
128 131 0
119 126 0
127 130 0
130 134 0
125 127 0
126 129 0
126 130 0
126 127 0
125 122 0
122 120 0
127 125 0
125 120 0
123 118 0
129 123 0
126 119 0
119 110 0
124 113 0
119 108 0
123 113 0
121 113 0
123 113 0
118 103 0
131 122 0
122 111 0
132 124 0
128 121 0
130 123 0
131 124 0
138 133 0
141 136 0
142 136 0
148 149 0
148 150 0
148 150 0
152 155 0
153 159 0
154 156 0
155 161 0
156 160 0
157 165 0
160 169 0
161 171 0
162 173 0
159 169 0
165 180 0
161 173 0
164 177 0
165 180 0
164 181 0
164 179 0
165 184 0
167 186 0
165 184 0
166 188 0
166 186 0
164 183 0
164 184 0
169 195 0
170 196 0
168 194 0
169 195 0
170 196 0
167 192 0
170 195 0
168 194 0
169 195 0
170 195 0
170 196 0
169 194 0
167 192 0
165 190 0
171 196 0
170 194 0
168 193 0
167 192 0
167 192 0
170 195 0
168 193 0
169 193 0
171 195 0
168 193 0
170 193 0
170 194 0
166 190 0
170 193 0
171 195 0
169 193 0
171 195 0
167 191 0
170 194 0
168 192 0
169 193 0
171 195 0
162 185 0
168 192 0
163 187 0
163 188 0
163 187 0
163 187 0
162 186 0
161 185 0
163 188 0
156 180 0
164 189 0
163 188 0
159 184 0
161 185 0
156 180 0
156 180 0
156 180 0
155 179 0
162 186 0
159 183 0
153 177 0
150 174 0
149 172 0
144 168 0
147 171 0
148 172 0
141 165 0
144 168 0
148 173 0
146 170 0
141 165 0
139 163 0
138 161 0
134 158 0
127 151 0
132 155 0
132 155 0
132 155 0
129 152 0
121 144 0
123 146 0
108 130 0
117 138 0
109 131 0
110 130 0
110 131 0
106 126 0
111 131 0
99 118 0
92 111 0
88 107 0
91 110 0
76 92 0
90 107 0
72 88 0
82 99 0
77 93 0
93 109 0
48 64 0
65 78 0
64 80 0
60 73 0
58 72 0
73 88 0
66 79 0
55 68 0
74 87 0
79 93 0
73 87 0
69 83 0
64 78 0
60 74 0
57 73 0
66 78 0
69 84 0
83 96 0
73 90 0
93 108 0
92 110 0
88 103 0
98 113 0
109 126 0
96 111 0
107 126 0
92 108 0
102 119 0
104 119 0
117 133 0
113 129 0
120 137 0
105 122 0
112 129 0
106 123 0
115 132 0
123 139 0
123 139 0
116 133 0
133 148 0
124 138 0
120 130 0
127 141 0
124 133 0
112 121 0
129 139 0
129 138 0
129 141 0
130 141 0
135 143 0
135 141 0
132 139 0
130 138 0
124 129 0
132 135 0
121 124 0
126 130 0
134 137 0
130 132 0
131 132 0
129 129 0
133 131 0
131 129 0
126 118 0
123 119 0
134 128 0
126 123 0
135 132 0
135 127 0
138 134 0
134 126 0
134 126 0
139 131 0
131 124 0
137 130 0
131 124 0
132 125 0
139 137 0
141 137 0
144 143 0
144 141 0
145 147 0
152 154 0
150 150 0
152 151 0
152 155 0
152 159 0
153 155 0
157 163 0
163 174 0
157 165 0
160 167 0
162 172 0
160 173 0
161 172 0
159 167 0
164 179 0
164 180 0
158 170 0
164 178 0
166 183 0
165 181 0
165 184 0
167 183 0
165 186 0
164 184 0
168 193 0
170 195 0
169 194 0
169 195 0
165 192 0
170 195 0
169 195 0
168 193 0
168 194 0
170 195 0
169 194 0
168 194 0
169 194 0
171 196 0
170 195 0
171 195 0
167 191 0
168 192 0
169 193 0
167 192 0
170 194 0
172 196 0
168 193 0
171 195 0
167 192 0
168 192 0
168 191 0
172 196 0
169 193 0
168 192 0
169 193 0
166 189 0
166 190 0
170 193 0
165 190 0
165 189 0
170 195 0
169 193 0
163 186 0
165 189 0
165 189 0
163 187 0
162 186 0
162 186 0
166 191 0
159 183 0
162 186 0
160 185 0
163 187 0
154 179 0
162 186 0
157 182 0
152 176 0
161 186 0
153 177 0
158 183 0
150 173 0
147 172 0
152 176 0
150 174 0
145 169 0
147 171 0
146 170 0
146 170 0
143 168 0
142 166 0
140 163 0
140 164 0
147 171 0
138 163 0
130 153 0
138 162 0
131 154 0
119 141 0
117 139 0
127 149 0
125 148 0
118 140 0
122 144 0
121 143 0
103 125 0
102 122 0
110 131 0
106 126 0
97 117 0
93 112 0
103 122 0
98 117 0
103 122 0
83 99 0
83 100 0
68 85 0
79 96 0
84 102 0
81 98 0
66 81 0
67 82 0
65 79 0
78 94 0
67 83 0
78 93 0
84 99 0
68 83 0
78 93 0
78 92 0
74 88 0
77 92 0
70 85 0
85 102 0
87 103 0
82 97 0
85 101 0
79 96 0
89 104 0
96 112 0
97 113 0
102 118 0
90 108 0
102 117 0
97 115 0
104 121 0
104 120 0
114 129 0
104 119 0
117 134 0
117 132 0
116 133 0
118 137 0
116 133 0
126 143 0
113 129 0
125 140 0
127 143 0
128 142 0
117 132 0
122 135 0
131 146 0
120 134 0
123 137 0
122 135 0
126 139 0
123 133 0
128 136 0
131 140 0
129 138 0
136 143 0
132 141 0
136 143 0
137 142 0
132 138 0
130 136 0
131 133 0
140 145 0
133 138 0
134 138 0
135 134 0
137 136 0
131 129 0
140 140 0
136 130 0
130 128 0
137 131 0
138 133 0
132 125 0
135 130 0
128 121 0
135 132 0
137 133 0
140 139 0
139 132 0
143 140 0
143 139 0
143 139 0
143 143 0
138 134 0
144 142 0
152 153 0
148 147 0
150 152 0
151 153 0
154 157 0
158 163 0
154 157 0
154 162 0
157 166 0
159 167 0
158 169 0
160 170 0
160 171 0
161 173 0
160 171 0
164 177 0
164 179 0
161 173 0
163 177 0
165 180 0
163 178 0
164 181 0
163 179 0
166 187 0
169 195 0
169 194 0
168 194 0
168 194 0
167 192 0
168 194 0
169 194 0
168 194 0
170 195 0
169 194 0
170 195 0
168 192 0
172 196 0
168 193 0
169 194 0
171 195 0
170 195 0
171 195 0
169 194 0
168 193 0
172 196 0
172 196 0
166 190 0
172 196 0
166 190 0
170 195 0
170 194 0
170 195 0
168 192 0
168 192 0
168 192 0
165 190 0
162 186 0
167 191 0
162 186 0
169 194 0
162 188 0
167 191 0
162 186 0
164 188 0
166 190 0
166 191 0
166 190 0
160 184 0
162 186 0
165 190 0
161 185 0
164 188 0
155 180 0
163 187 0
156 181 0
155 179 0
153 177 0
159 184 0
150 174 0
149 174 0
155 179 0
154 179 0
152 176 0
150 174 0
152 177 0
155 181 0
143 167 0
143 168 0
137 161 0
135 158 0
147 171 0
137 161 0
143 167 0
142 166 0
129 153 0
137 161 0
135 158 0
135 158 0
123 146 0
128 151 0
116 137 0
117 139 0
125 147 0
118 140 0
113 133 0
114 136 0
113 133 0
96 116 0
99 119 0
110 130 0
106 125 0
99 118 0
89 109 0
98 117 0
90 108 0
85 104 0
87 105 0
90 110 0
81 98 0
86 104 0
81 98 0
77 93 0
75 89 0
80 96 0
88 104 0
73 89 0
73 88 0
77 93 0
92 109 0
90 106 0
81 97 0
94 111 0
84 100 0
91 109 0
90 107 0
92 109 0
85 103 0
93 110 0
94 110 0
101 118 0
106 123 0
99 118 0
112 128 0
108 126 0
102 121 0
105 122 0
100 118 0
112 131 0
116 133 0
115 134 0
118 136 0
120 138 0
125 143 0
121 138 0
123 140 0
124 141 0
133 150 0
124 141 0
129 144 0
136 153 0
123 137 0
129 143 0
132 144 0
132 146 0
136 150 0
127 141 0
137 148 0
129 142 0
127 139 0
134 146 0
141 153 0
137 145 0
132 139 0
131 139 0
134 142 0
146 155 0
142 145 0
137 142 0
141 145 0
132 136 0
139 141 0
138 138 0
139 136 0
144 143 0
139 138 0
138 137 0
132 130 0
138 135 0
138 139 0
142 140 0
136 135 0
141 143 0
145 143 0
145 147 0
140 137 0
145 144 0
143 141 0
147 146 0
150 154 0
145 144 0
147 148 0
151 152 0
149 147 0
148 151 0
147 150 0
150 153 0
154 160 0
157 161 0
158 162 0
157 162 0
161 171 0
158 165 0
158 167 0
158 169 0
158 170 0
161 167 0
159 172 0
161 175 0
161 172 0
160 172 0
163 179 0
163 179 0
163 180 0
167 183 0
170 195 0
170 194 0
169 194 0
167 193 0
170 195 0
169 194 0
170 195 0
171 196 0
168 193 0
169 194 0
169 194 0
168 193 0
168 193 0
170 195 0
168 193 0
169 193 0
168 192 0
170 194 0
169 192 0
171 195 0
169 193 0
169 194 0
168 193 0
171 196 0
166 191 0
170 194 0
167 192 0
168 192 0
166 190 0
165 189 0
168 192 0
172 196 0
165 189 0
166 191 0
168 193 0
166 191 0
168 192 0
161 186 0
162 187 0
166 191 0
164 188 0
166 190 0
161 185 0
164 188 0
164 189 0
160 185 0
158 183 0
161 186 0
159 183 0
157 181 0
155 179 0
153 178 0
150 175 0
150 174 0
153 177 0
149 173 0
151 176 0
155 180 0
153 178 0
152 176 0
143 167 0
140 165 0
138 162 0
137 160 0
144 169 0
138 162 0
146 170 0
145 169 0
141 165 0
132 156 0
139 162 0
128 151 0
133 157 0
129 152 0
127 150 0
130 154 0
122 144 0
132 155 0
122 144 0
124 146 0
130 152 0
112 134 0
115 137 0
111 132 0
100 121 0
100 120 0
104 124 0
109 129 0
103 124 0
100 118 0
97 115 0
99 118 0
91 108 0
80 98 0
100 118 0
87 105 0
91 108 0
84 102 0
85 102 0
90 108 0
74 90 0
75 92 0
89 106 0
82 98 0
88 106 0
80 98 0
100 117 0
108 127 0
87 105 0
91 110 0
96 114 0
100 118 0
101 119 0
104 123 0
98 117 0
105 123 0
108 125 0
116 134 0
113 133 0
122 142 0
106 123 0
113 131 0
111 129 0
115 132 0
112 130 0
103 121 0
122 140 0
115 133 0
118 134 0
129 147 0
120 137 0
120 138 0
123 140 0
123 139 0
125 143 0
125 141 0
124 140 0
123 136 0
125 140 0
130 146 0
138 153 0
131 146 0
131 146 0
136 148 0
136 152 0
141 154 0
137 148 0
137 147 0
137 148 0
144 156 0
142 154 0
139 146 0
138 142 0
136 145 0
142 151 0
140 146 0
151 157 0
139 142 0
143 147 0
136 136 0
147 150 0
136 137 0
140 142 0
144 147 0
140 138 0
142 139 0
143 144 0
139 135 0
149 155 0
142 144 0
144 143 0
146 146 0
147 145 0
148 149 0
150 153 0
148 149 0
148 147 0
147 147 0
152 154 0
151 151 0
148 149 0
151 156 0
153 157 0
152 153 0
151 154 0
158 163 0
159 166 0
162 172 0
158 162 0
159 170 0
162 172 0
159 170 0
159 171 0
164 177 0
164 174 0
162 175 0
160 172 0
162 175 0
163 179 0
164 181 0
169 194 0
168 194 0
169 194 0
171 196 0
171 196 0
169 194 0
170 195 0
170 194 0
167 193 0
170 195 0
170 195 0
169 194 0
168 193 0
167 192 0
170 195 0
170 194 0
169 193 0
167 192 0
167 193 0
169 193 0
170 194 0
169 194 0
169 194 0
170 194 0
165 190 0
170 194 0
166 191 0
168 192 0
164 189 0
166 191 0
167 191 0
165 189 0
166 190 0
167 191 0
163 188 0
165 189 0
167 192 0
168 192 0
160 184 0
163 187 0
165 190 0
163 187 0
163 188 0
163 187 0
162 186 0
156 181 0
160 184 0
156 181 0
159 183 0
160 185 0
161 186 0
157 182 0
158 182 0
153 177 0
149 174 0
157 181 0
152 176 0
154 179 0
145 169 0
152 177 0
148 173 0
145 169 0
143 168 0
142 166 0
141 166 0
148 173 0
143 167 0
139 163 0
138 161 0
141 165 0
136 159 0
135 159 0
124 148 0
132 156 0
127 150 0
130 153 0
134 156 0
122 145 0
124 146 0
115 136 0
120 142 0
113 135 0
115 138 0
111 131 0
108 130 0
113 134 0
114 133 0
108 128 0
104 125 0
97 117 0
98 118 0
99 119 0
96 115 0
95 114 0
84 103 0
89 107 0
97 115 0
91 110 0
93 112 0
101 121 0
84 103 0
91 108 0
99 115 0
80 97 0
105 123 0
99 116 0
89 106 0
94 113 0
88 106 0
92 111 0
97 116 0
108 126 0
95 112 0
107 126 0
106 126 0
109 127 0
102 121 0
107 125 0
113 133 0
119 139 0
118 136 0
116 136 0
122 142 0
112 132 0
125 145 0
118 135 0
114 133 0
126 147 0
123 143 0
130 146 0
129 146 0
123 141 0
115 134 0
133 150 0
125 142 0
133 149 0
134 153 0
128 145 0
128 146 0
129 145 0
137 153 0
139 152 0
135 148 0
133 146 0
137 153 0
140 151 0
138 150 0
139 152 0
137 149 0
144 156 0
135 148 0
130 138 0
146 155 0
140 149 0
148 161 0
144 154 0
141 145 0
145 149 0
147 154 0
145 151 0
142 144 0
145 145 0
144 148 0
135 137 0
141 142 0
140 142 0
144 146 0
143 145 0
143 143 0
151 150 0
146 149 0
147 148 0
147 149 0
148 150 0
149 150 0
150 153 0
147 147 0
152 154 0
155 156 0
150 152 0
153 155 0
152 156 0
150 151 0
155 158 0
154 160 0
151 157 0
156 160 0
157 163 0
157 163 0
157 164 0
158 167 0
158 165 0
160 168 0
158 168 0
159 171 0
162 175 0
166 178 0
161 174 0
165 181 0
164 178 0
168 194 0
170 195 0
166 191 0
169 195 0
169 195 0
170 194 0
170 195 0
170 194 0
171 196 0
170 195 0
169 194 0
167 192 0
169 193 0
171 196 0
172 196 0
165 189 0
170 194 0
167 191 0
168 192 0
170 194 0
167 191 0
166 191 0
165 190 0
168 192 0
168 193 0
170 194 0
162 187 0
170 194 0
165 189 0
167 191 0
168 193 0
165 189 0
164 188 0
168 193 0
161 186 0
163 188 0
162 187 0
165 190 0
163 187 0
165 189 0
162 187 0
162 186 0
163 187 0
159 183 0
158 183 0
161 186 0
158 183 0
152 177 0
159 183 0
159 184 0
157 181 0
154 179 0
150 174 0
154 179 0
154 179 0
161 186 0
148 173 0
150 174 0
144 169 0
148 173 0
142 165 0
158 183 0
152 176 0
145 169 0
142 167 0
137 161 0
138 161 0
139 163 0
131 156 0
131 156 0
139 163 0
137 160 0
133 157 0
138 161 0
117 140 0
134 157 0
130 153 0
125 148 0
122 145 0
121 144 0
115 137 0
124 147 0
117 139 0
116 138 0
113 134 0
116 137 0
114 136 0
116 138 0
103 124 0
114 134 0
106 126 0
89 110 0
107 128 0
107 126 0
95 114 0
103 122 0
103 121 0
96 114 0
99 118 0
90 110 0
94 113 0
97 115 0
103 122 0
97 116 0
98 116 0
91 111 0
95 113 0
98 117 0
99 118 0
98 117 0
101 119 0
105 125 0
110 128 0
103 121 0
105 125 0
106 125 0
123 141 0
105 125 0
108 128 0
123 143 0
108 128 0
118 137 0
119 138 0
122 140 0
114 131 0
114 134 0
127 146 0
129 148 0
124 143 0
130 149 0
134 152 0
133 152 0
128 147 0
130 150 0
127 145 0
135 154 0
138 156 0
125 141 0
135 152 0
135 151 0
140 158 0
139 155 0
140 155 0
137 152 0
141 158 0
141 157 0
133 148 0
147 159 0
130 141 0
145 157 0
141 157 0
145 156 0
140 151 0
135 144 0
137 148 0
141 152 0
141 149 0
145 158 0
146 156 0
146 151 0
145 150 0
142 146 0
145 152 0
149 154 0
153 163 0
141 145 0
143 147 0
146 149 0
146 152 0
145 148 0
145 148 0
150 151 0
149 150 0
144 147 0
152 161 0
150 154 0
150 153 0
154 159 0
151 154 0
153 155 0
155 162 0
156 160 0
157 161 0
154 157 0
155 159 0
156 162 0
157 166 0
162 170 0
159 167 0
153 157 0
159 166 0
158 168 0
161 170 0
158 166 0
162 174 0
158 168 0
157 168 0
161 176 0
161 174 0
164 177 0
170 195 0
168 194 0
168 194 0
168 193 0
168 193 0
166 191 0
169 194 0
168 193 0
168 193 0
171 196 0
169 194 0
170 195 0
168 193 0
167 191 0
169 193 0
166 191 0
167 192 0
169 193 0
170 195 0
165 190 0
166 191 0
168 192 0
169 192 0
168 193 0
170 195 0
165 189 0
166 191 0
167 192 0
163 188 0
163 188 0
169 193 0
164 188 0
170 194 0
167 191 0
166 191 0
165 190 0
159 184 0
163 188 0
161 186 0
161 186 0
160 186 0
160 185 0
157 181 0
158 183 0
158 182 0
162 187 0
157 182 0
159 184 0
148 173 0
158 183 0
159 184 0
157 182 0
150 175 0
152 176 0
154 178 0
153 178 0
153 178 0
148 174 0
148 173 0
148 173 0
140 164 0
148 174 0
143 168 0
145 171 0
135 159 0
145 169 0
137 162 0
145 170 0
147 172 0
135 159 0
134 158 0
134 159 0
139 163 0
137 160 0
125 148 0
134 157 0
141 163 0
134 157 0
127 151 0
114 136 0
122 144 0
128 150 0
117 139 0
123 146 0
110 132 0
113 135 0
106 128 0
117 140 0
113 135 0
110 131 0
109 130 0
95 113 0
107 128 0
105 125 0
109 130 0
109 128 0
118 137 0
96 116 0
112 132 0
102 121 0
109 128 0
102 121 0
107 128 0
92 111 0
107 127 0
117 139 0
99 119 0
109 127 0
102 122 0
110 129 0
103 124 0
114 134 0
113 132 0
119 138 0
100 120 0
121 140 0
111 131 0
125 146 0
118 138 0
109 128 0
111 131 0
119 137 0
123 143 0
126 146 0
119 140 0
127 148 0
115 134 0
125 143 0
129 148 0
141 162 0
135 154 0
130 149 0
131 150 0
126 144 0
126 144 0
143 161 0
137 155 0
138 158 0
138 155 0
128 145 0
132 149 0
143 162 0
136 152 0
137 148 0
139 158 0
143 160 0
140 156 0
142 159 0
142 156 0
145 159 0
146 161 0
144 160 0
145 158 0
141 154 0
146 157 0
140 152 0
145 154 0
151 161 0
144 152 0
141 148 0
149 158 0
150 162 0
143 152 0
151 156 0
143 151 0
148 158 0
150 155 0
143 145 0
143 146 0
149 152 0
147 150 0
147 152 0
151 158 0
150 155 0
147 152 0
149 152 0
150 152 0
152 157 0
156 163 0
153 156 0
151 154 0
158 161 0
155 160 0
154 161 0
158 165 0
158 167 0
156 162 0
156 164 0
157 165 0
155 160 0
159 171 0
158 166 0
158 167 0
160 169 0
162 170 0
162 173 0
163 177 0
161 173 0
162 176 0
163 176 0
171 195 0
170 194 0
169 194 0
170 195 0
169 194 0
170 195 0
169 194 0
167 191 0
167 192 0
170 194 0
170 195 0
170 194 0
169 193 0
167 192 0
169 194 0
170 195 0
170 195 0
167 192 0
171 195 0
169 193 0
168 193 0
170 195 0
171 195 0
170 194 0
165 191 0
166 191 0
166 191 0
166 190 0
164 188 0
166 191 0
167 191 0
166 191 0
162 187 0
164 189 0
162 187 0
161 185 0
165 190 0
163 188 0
161 186 0
159 184 0
159 184 0
157 182 0
157 182 0
165 189 0
157 182 0
159 184 0
159 183 0
155 180 0
157 182 0
158 183 0
155 180 0
155 179 0
154 179 0
153 178 0
147 172 0
152 176 0
155 179 0
154 179 0
152 178 0
146 171 0
145 170 0
153 178 0
142 167 0
135 159 0
147 172 0
135 158 0
138 163 0
138 161 0
133 156 0
137 161 0
143 167 0
135 158 0
140 164 0
128 152 0
134 157 0
132 156 0
132 155 0
127 149 0
116 139 0
121 144 0
124 147 0
125 148 0
122 143 0
104 126 0
123 146 0
127 149 0
124 146 0
129 151 0
112 133 0
100 120 0
112 133 0
113 133 0
102 123 0
114 135 0
104 125 0
116 138 0
110 130 0
104 126 0
104 123 0
104 125 0
100 120 0
112 132 0
109 130 0
103 124 0
111 131 0
108 129 0
111 131 0
108 128 0
99 118 0
102 123 0
103 121 0
109 130 0
110 130 0
94 113 0
119 139 0
125 147 0
116 136 0
116 136 0
118 140 0
115 135 0
128 149 0
122 142 0
129 149 0
122 143 0
129 152 0
134 156 0
125 145 0
118 137 0
123 142 0
135 153 0
134 155 0
129 148 0
137 157 0
134 153 0
144 162 0
139 157 0
136 155 0
138 158 0
133 149 0
136 156 0
135 151 0
143 161 0
138 153 0
137 155 0
145 160 0
142 159 0
147 162 0
141 154 0
143 158 0
142 156 0
148 163 0
141 156 0
140 156 0
146 162 0
146 159 0
147 160 0
142 154 0
144 155 0
149 159 0
146 161 0
153 163 0
151 163 0
149 160 0
151 159 0
151 160 0
146 157 0
144 152 0
152 158 0
151 158 0
150 156 0
146 151 0
148 151 0
152 158 0
149 154 0
152 157 0
155 163 0
155 160 0
155 163 0
154 161 0
154 158 0
156 162 0
154 158 0
156 162 0
158 162 0
158 162 0
152 156 0
158 165 0
158 167 0
160 169 0
161 169 0
160 169 0
164 174 0
159 164 0
162 174 0
157 165 0
160 171 0
159 170 0
160 169 0
164 177 0
164 175 0
168 194 0
168 193 0
168 194 0
170 194 0
171 195 0
166 191 0
170 195 0
167 191 0
170 195 0
169 194 0
170 195 0
167 192 0
169 194 0
170 195 0
168 193 0
167 192 0
167 192 0
165 190 0
169 194 0
169 194 0
166 191 0
168 193 0
166 190 0
165 190 0
169 193 0
164 189 0
163 188 0
165 190 0
166 190 0
166 191 0
162 187 0
164 189 0
164 189 0
161 187 0
160 185 0
163 188 0
163 188 0
157 181 0
161 186 0
161 186 0
157 182 0
163 188 0
155 181 0
161 186 0
159 184 0
154 179 0
158 183 0
151 176 0
160 184 0
155 180 0
153 178 0
150 175 0
155 181 0
153 178 0
149 175 0
157 182 0
155 180 0
153 178 0
152 177 0
152 177 0
148 173 0
148 173 0
147 172 0
148 173 0
151 176 0
151 175 0
139 163 0
137 162 0
150 174 0
136 160 0
145 169 0
132 156 0
130 155 0
127 150 0
138 162 0
138 162 0
131 154 0
135 159 0
132 156 0
127 149 0
132 155 0
130 153 0
126 148 0
115 138 0
121 143 0
125 147 0
123 145 0
117 139 0
125 148 0
130 152 0
108 130 0
121 144 0
105 126 0
114 137 0
105 127 0
131 152 0
114 135 0
113 133 0
113 134 0
107 128 0
107 125 0
103 124 0
119 141 0
114 134 0
110 132 0
108 127 0
114 135 0
112 132 0
112 133 0
115 135 0
126 148 0
114 135 0
112 132 0
120 142 0
123 143 0
124 146 0
118 140 0
119 139 0
125 147 0
114 134 0
117 138 0
127 148 0
127 149 0
132 153 0
119 138 0
133 154 0
135 156 0
134 155 0
132 154 0
130 149 0
134 154 0
130 151 0
124 143 0
129 150 0
135 158 0
146 165 0
138 154 0
130 150 0
130 149 0
139 158 0
144 162 0
152 172 0
138 154 0
128 147 0
141 158 0
150 169 0
144 161 0
130 146 0
141 158 0
138 152 0
138 154 0
143 156 0
140 156 0
147 160 0
148 162 0
150 166 0
143 156 0
142 155 0
139 149 0
149 160 0
148 160 0
150 159 0
144 156 0
155 168 0
148 157 0
153 162 0
144 154 0
152 161 0
148 156 0
148 154 0
151 159 0
154 162 0
149 155 0
149 161 0
155 164 0
150 158 0
149 154 0
155 161 0
154 160 0
153 156 0
155 161 0
157 165 0
157 166 0
155 163 0
159 167 0
158 167 0
153 159 0
153 162 0
157 165 0
156 161 0
158 167 0
157 163 0
159 168 0
161 171 0
160 169 0
160 170 0
161 176 0
158 168 0
162 174 0
157 168 0
171 196 0
168 193 0
169 194 0
170 195 0
166 191 0
169 194 0
171 195 0
168 193 0
170 195 0
170 194 0
167 192 0
170 195 0
169 193 0
169 194 0
164 189 0
165 190 0
168 193 0
166 190 0
166 191 0
166 191 0
167 192 0
165 190 0
167 192 0
166 191 0
166 190 0
165 189 0
167 192 0
162 187 0
164 189 0
162 187 0
164 189 0
167 192 0
162 187 0
162 186 0
162 187 0
164 189 0
162 188 0
159 185 0
164 188 0
156 181 0
158 183 0
158 182 0
156 182 0
158 183 0
156 182 0
158 183 0
156 182 0
147 171 0
154 179 0
159 184 0
153 177 0
157 183 0
155 180 0
153 178 0
148 173 0
159 184 0
145 170 0
149 173 0
150 174 0
156 181 0
144 169 0
144 169 0
146 170 0
145 170 0
137 162 0
148 174 0
146 170 0
135 160 0
133 157 0
139 163 0
137 161 0
139 164 0
142 167 0
130 153 0
133 157 0
129 153 0
133 157 0
136 159 0
130 154 0
126 149 0
136 159 0
135 159 0
127 151 0
134 157 0
130 153 0
115 138 0
114 136 0
132 155 0
124 147 0
121 143 0
118 140 0
120 141 0
121 143 0
115 136 0
111 132 0
114 136 0
118 139 0
123 145 0
113 135 0
114 134 0
117 138 0
114 135 0
123 145 0
114 136 0
108 128 0
108 129 0
117 139 0
112 132 0
117 137 0
117 139 0
118 140 0
122 143 0
121 143 0
127 149 0
130 153 0
119 140 0
121 142 0
123 143 0
118 139 0
119 139 0
125 147 0
129 150 0
118 139 0
131 153 0
126 146 0
132 154 0
131 151 0
126 147 0
125 144 0
125 143 0
139 159 0
134 155 0
136 155 0
135 157 0
137 156 0
133 152 0
141 162 0
135 153 0
147 167 0
142 162 0
136 156 0
140 160 0
139 159 0
133 151 0
147 165 0
151 169 0
142 160 0
148 166 0
140 157 0
147 165 0
150 166 0
149 164 0
150 167 0
137 152 0
146 162 0
146 163 0
138 154 0
152 167 0
149 164 0
144 161 0
151 162 0
143 156 0
150 161 0
151 163 0
151 162 0
150 159 0
149 162 0
153 166 0
152 163 0
148 158 0
145 155 0
152 163 0
155 164 0
159 171 0
149 157 0
159 167 0
148 156 0
147 154 0
153 162 0
154 162 0
155 165 0
149 156 0
154 162 0
157 165 0
157 164 0
157 165 0
157 166 0
156 164 0
158 166 0
156 166 0
160 171 0
158 167 0
157 166 0
158 168 0
160 170 0
157 165 0
160 169 0
159 171 0
161 173 0
163 176 0
169 194 0
167 192 0
169 194 0
167 192 0
169 194 0
170 195 0
168 193 0
165 189 0
168 193 0
166 192 0
169 194 0
168 193 0
169 194 0
170 194 0
169 194 0
167 192 0
166 191 0
169 194 0
168 193 0
169 194 0
167 192 0
169 194 0
167 192 0
167 192 0
163 188 0
163 188 0
163 188 0
164 189 0
163 188 0
157 182 0
163 189 0
157 182 0
158 183 0
162 187 0
164 189 0
157 183 0
165 190 0
162 187 0
161 186 0
154 178 0
159 184 0
158 183 0
158 183 0
161 187 0
155 180 0
159 185 0
157 182 0
162 188 0
156 180 0
149 174 0
152 177 0
155 180 0
157 182 0
150 175 0
153 178 0
151 176 0
156 181 0
153 178 0
152 177 0
147 171 0
151 176 0
143 168 0
142 165 0
144 168 0
150 175 0
145 170 0
146 171 0
143 167 0
147 171 0
140 164 0
137 161 0
144 169 0
141 165 0
135 158 0
138 162 0
137 161 0
135 157 0
141 166 0
126 149 0
128 152 0
124 148 0
127 149 0
129 152 0
124 147 0
133 156 0
132 155 0
122 144 0
134 158 0
123 146 0
124 146 0
119 140 0
122 145 0
114 136 0
121 142 0
114 136 0
110 132 0
123 145 0
113 134 0
125 148 0
113 135 0
115 136 0
110 132 0
115 137 0
127 150 0
121 143 0
123 144 0
120 142 0
121 142 0
118 140 0
125 147 0
118 139 0
114 136 0
134 156 0
123 146 0
127 148 0
127 148 0
126 148 0
118 139 0
136 158 0
128 150 0
127 148 0
129 150 0
138 159 0
123 143 0
128 150 0
126 147 0
137 158 0
133 153 0
130 149 0
129 148 0
147 168 0
140 162 0
141 163 0
137 158 0
126 146 0
148 170 0
141 162 0
139 158 0
144 162 0
144 165 0
143 161 0
145 164 0
148 169 0
143 163 0
140 161 0
141 158 0
150 170 0
145 162 0
138 157 0
139 157 0
145 161 0
145 162 0
146 162 0
151 171 0
140 159 0
146 162 0
146 160 0
147 160 0
149 162 0
147 160 0
153 165 0
147 159 0
142 152 0
148 162 0
154 168 0
151 164 0
152 165 0
152 166 0
157 171 0
155 165 0
153 164 0
152 164 0
154 163 0
154 163 0
152 163 0
156 164 0
155 165 0
154 162 0
156 166 0
155 165 0
155 162 0
155 164 0
152 157 0
158 165 0
159 167 0
158 165 0
153 160 0
155 161 0
157 168 0
159 173 0
156 163 0
160 170 0
157 167 0
153 161 0
158 169 0
160 171 0
160 172 0
160 170 0
161 172 0
162 173 0
167 192 0
170 195 0
170 194 0
169 194 0
171 196 0
170 194 0
166 191 0
170 195 0
169 194 0
168 194 0
170 195 0
169 194 0
169 194 0
169 193 0
165 191 0
168 193 0
169 194 0
164 189 0
162 187 0
166 191 0
169 194 0
165 190 0
166 191 0
171 195 0
166 191 0
162 188 0
166 190 0
164 189 0
164 189 0
162 188 0
165 191 0
166 190 0
162 188 0
161 186 0
161 186 0
164 188 0
161 186 0
160 186 0
163 188 0
160 185 0
156 181 0
165 190 0
162 188 0
161 186 0
155 180 0
155 181 0
154 179 0
160 185 0
152 177 0
155 180 0
154 179 0
151 177 0
142 166 0
143 168 0
150 176 0
152 177 0
150 174 0
149 173 0
157 182 0
154 178 0
148 172 0
150 175 0
149 174 0
147 171 0
144 169 0
148 173 0
141 166 0
137 161 0
143 168 0
142 167 0
142 166 0
141 166 0
132 155 0
139 162 0
142 167 0
150 174 0
142 167 0
128 152 0
133 156 0
143 168 0
134 157 0
135 159 0
125 147 0
136 160 0
125 148 0
131 154 0
126 149 0
123 145 0
116 139 0
126 148 0
128 151 0
132 155 0
133 154 0
119 141 0
127 149 0
119 141 0
116 138 0
126 148 0
121 142 0
117 139 0
120 141 0
123 143 0
120 142 0
111 133 0
129 153 0
126 148 0
126 148 0
129 151 0
123 146 0
126 146 0
124 146 0
121 143 0
116 137 0
121 142 0
119 140 0
130 154 0
139 161 0
133 155 0
121 142 0
123 144 0
134 157 0
131 153 0
135 156 0
129 150 0
130 151 0
123 146 0
137 158 0
138 162 0
132 154 0
124 143 0
142 162 0
142 164 0
139 160 0
143 162 0
133 152 0
132 153 0
145 167 0
142 162 0
140 160 0
142 164 0
148 168 0
146 166 0
142 161 0
143 163 0
145 166 0
139 159 0
146 167 0
148 167 0
148 168 0
149 166 0
150 168 0
148 167 0
146 163 0
146 164 0
149 168 0
148 165 0
146 162 0
150 164 0
147 164 0
142 158 0
149 163 0
153 168 0
146 162 0
150 165 0
155 169 0
152 165 0
154 164 0
148 162 0
156 168 0
150 163 0
151 162 0
153 162 0
153 162 0
148 158 0
153 164 0
155 164 0
151 162 0
152 162 0
157 167 0
152 165 0
152 159 0
157 168 0
161 172 0
154 161 0
153 161 0
157 166 0
155 164 0
159 168 0
160 169 0
158 173 0
156 168 0
157 165 0
160 170 0
163 173 0
158 168 0
159 169 0
158 166 0
158 169 0
158 168 0
158 171 0
169 195 0
169 194 0
168 194 0
169 195 0
170 195 0
164 190 0
166 190 0
168 193 0
167 192 0
168 194 0
166 191 0
170 194 0
169 195 0
164 189 0
164 189 0
167 192 0
162 188 0
167 192 0
164 188 0
169 194 0
165 190 0
164 190 0
166 191 0
162 187 0
164 189 0
162 187 0
162 187 0
164 189 0
161 187 0
159 184 0
161 187 0
163 189 0
165 190 0
160 186 0
161 186 0
161 186 0
158 184 0
159 184 0
162 187 0
161 186 0
162 187 0
156 181 0
160 185 0
159 185 0
159 185 0
154 179 0
155 180 0
158 183 0
154 178 0
152 177 0
148 172 0
151 176 0
158 183 0
154 179 0
147 173 0
156 182 0
152 177 0
144 169 0
152 177 0
150 175 0
155 180 0
147 172 0
151 176 0
144 168 0
147 171 0
136 161 0
135 160 0
146 170 0
144 168 0
140 163 0
141 165 0
139 164 0
145 170 0
146 170 0
144 168 0
143 167 0
137 161 0
128 151 0
136 159 0
136 159 0
131 155 0
128 151 0
135 158 0
136 160 0
130 154 0
138 160 0
131 154 0
130 152 0
123 147 0
132 156 0
129 152 0
136 159 0
134 157 0
122 145 0
125 147 0
119 141 0
122 143 0
125 148 0
126 148 0
134 158 0
126 148 0
120 142 0
135 156 0
123 146 0
124 146 0
124 146 0
116 138 0
128 150 0
117 138 0
119 140 0
130 152 0
128 148 0
116 139 0
127 148 0
125 147 0
130 152 0
136 158 0
125 146 0
121 143 0
130 152 0
131 152 0
137 158 0
129 150 0
130 152 0
132 153 0
128 150 0
134 155 0
134 153 0
138 160 0
143 164 0
145 168 0
140 162 0
135 156 0
134 157 0
141 163 0
139 162 0
140 162 0
145 166 0
134 155 0
136 156 0
138 159 0
141 161 0
136 156 0
148 167 0
143 162 0
144 163 0
141 160 0
138 158 0
147 166 0
139 156 0
142 161 0
149 165 0
147 162 0
144 163 0
151 169 0
144 159 0
147 164 0
149 165 0
154 171 0
149 165 0
149 165 0
151 166 0
151 169 0
149 167 0
144 159 0
152 168 0
152 165 0
153 167 0
151 164 0
158 171 0
154 167 0
152 164 0
155 167 0
152 165 0
152 164 0
152 165 0
154 166 0
159 172 0
149 161 0
148 159 0
152 164 0
152 164 0
157 167 0
157 168 0
157 169 0
159 170 0
156 167 0
154 161 0
158 169 0
158 172 0
159 173 0
154 162 0
158 167 0
159 169 0
161 175 0
162 173 0
162 172 0
158 168 0
160 171 0
162 172 0
171 196 0
166 191 0
169 194 0
166 191 0
169 194 0
166 191 0
169 194 0
167 192 0
166 191 0
169 194 0
163 188 0
166 192 0
169 194 0
168 193 0
167 193 0
167 193 0
167 192 0
165 190 0
165 190 0
166 191 0
163 189 0
163 188 0
167 192 0
163 188 0
165 191 0
158 184 0
165 190 0
158 183 0
162 188 0
163 190 0
160 185 0
159 184 0
158 184 0
156 181 0
166 192 0
163 188 0
161 187 0
160 186 0
158 182 0
157 183 0
160 185 0
160 185 0
159 184 0
159 184 0
153 178 0
150 174 0
157 182 0
160 185 0
159 185 0
154 179 0
164 189 0
156 180 0
151 176 0
156 181 0
155 181 0
154 179 0
156 181 0
153 178 0
148 174 0
145 170 0
146 171 0
142 168 0
139 164 0
149 174 0
142 167 0
143 168 0
143 167 0
144 167 0
150 175 0
150 173 0
144 168 0
143 167 0
137 160 0
137 161 0
132 156 0
136 160 0
146 171 0
141 164 0
130 155 0
138 161 0
133 157 0
133 157 0
134 158 0
134 157 0
136 159 0
121 145 0
133 155 0
133 156 0
135 157 0
128 151 0
138 161 0
132 155 0
127 151 0
122 145 0
125 147 0
133 155 0
127 149 0
129 152 0
132 155 0
116 138 0
125 147 0
128 151 0
133 155 0
129 151 0
115 138 0
124 146 0
132 154 0
124 147 0
128 150 0
119 141 0
143 167 0
129 152 0
116 138 0
127 150 0
129 151 0
137 159 0
126 148 0
122 143 0
133 153 0
129 151 0
128 151 0
131 154 0
138 160 0
132 153 0
121 142 0
137 159 0
125 146 0
130 149 0
124 146 0
135 157 0
138 160 0
133 154 0
140 161 0
147 168 0
139 159 0
142 162 0
148 169 0
140 160 0
142 162 0
145 166 0
149 169 0
147 168 0
144 164 0
149 168 0
149 169 0
147 166 0
153 172 0
149 169 0
145 163 0
146 165 0
139 156 0
148 167 0
147 163 0
150 170 0
153 173 0
151 170 0
152 170 0
152 169 0
152 171 0
155 170 0
150 167 0
154 169 0
150 166 0
155 172 0
155 170 0
154 170 0
152 167 0
154 169 0
156 173 0
153 168 0
155 170 0
156 168 0
155 170 0
157 169 0
153 164 0
153 165 0
155 164 0
157 168 0
152 165 0
153 165 0
152 164 0
160 173 0
155 165 0
158 171 0
158 172 0
162 174 0
153 166 0
157 168 0
158 171 0
158 167 0
158 167 0
161 173 0
159 172 0
164 174 0
162 174 0
159 172 0
160 168 0
162 176 0
160 173 0
160 175 0
170 195 0
168 194 0
166 192 0
166 191 0
166 191 0
167 193 0
167 192 0
167 191 0
167 192 0
167 192 0
166 191 0
167 192 0
168 193 0
167 192 0
168 193 0
168 193 0
165 190 0
160 186 0
165 191 0
164 189 0
158 183 0
167 193 0
166 191 0
163 189 0
166 191 0
163 189 0
166 191 0
159 185 0
160 185 0
163 188 0
164 190 0
163 188 0
157 182 0
158 183 0
162 188 0
159 185 0
163 188 0
158 184 0
162 189 0
157 182 0
156 182 0
159 183 0
157 182 0
156 182 0
157 182 0
157 183 0
154 179 0
155 180 0
160 186 0
154 180 0
155 179 0
159 184 0
157 183 0
164 189 0
154 179 0
149 174 0
146 171 0
144 169 0
155 180 0
154 179 0
150 174 0
150 175 0
145 169 0
152 177 0
146 170 0
147 172 0
148 172 0
143 168 0
148 174 0
142 166 0
146 171 0
145 170 0
137 160 0
137 162 0
143 167 0
147 171 0
135 159 0
135 159 0
131 154 0
138 162 0
128 152 0
127 151 0
132 156 0
140 164 0
141 165 0
139 163 0
133 156 0
133 155 0
136 158 0
125 147 0
134 157 0
135 158 0
123 145 0
139 162 0
124 147 0
133 155 0
120 144 0
132 156 0
129 150 0
126 149 0
126 150 0
126 148 0
128 151 0
126 148 0
125 148 0
133 156 0
120 143 0
129 152 0
132 154 0
135 158 0
128 150 0
128 150 0
129 152 0
133 154 0
126 149 0
124 147 0
140 163 0
132 154 0
124 146 0
128 150 0
131 154 0
132 155 0
126 149 0
132 154 0
138 161 0
136 160 0
136 158 0
139 162 0
134 157 0
133 155 0
142 164 0
139 162 0
134 155 0
143 165 0
139 161 0
150 173 0
138 158 0
142 163 0
139 161 0
137 157 0
140 161 0
142 163 0
143 164 0
140 159 0
147 166 0
144 164 0
146 166 0
148 168 0
145 166 0
147 169 0
144 161 0
151 168 0
142 163 0
143 163 0
147 165 0
151 168 0
149 167 0
148 165 0
156 174 0
150 168 0
157 175 0
156 173 0
148 164 0
156 173 0
155 172 0
153 168 0
155 170 0
154 167 0
157 175 0
155 172 0
145 160 0
155 168 0
154 169 0
161 175 0
155 169 0
155 169 0
154 168 0
159 176 0
153 167 0
152 166 0
160 172 0
155 169 0
152 166 0
149 160 0
158 169 0
157 171 0
156 168 0
159 172 0
156 167 0
156 168 0
160 173 0
158 171 0
159 172 0
160 175 0
160 174 0
156 168 0
159 171 0
160 172 0
160 172 0
159 173 0
167 193 0
165 190 0
167 192 0
169 194 0
167 191 0
169 194 0
168 194 0
166 191 0
169 193 0
170 196 0
165 190 0
164 189 0
166 192 0
167 192 0
164 189 0
164 189 0
164 190 0
164 189 0
168 193 0
164 190 0
165 190 0
168 194 0
164 190 0
162 188 0
165 191 0
159 184 0
159 184 0
160 186 0
160 185 0
160 185 0
162 188 0
161 186 0
157 181 0
160 185 0
158 183 0
159 184 0
158 183 0
160 186 0
157 183 0
158 184 0
156 181 0
160 186 0
159 185 0
155 180 0
158 184 0
158 183 0
150 176 0
161 187 0
156 181 0
159 184 0
151 177 0
156 181 0
151 176 0
156 181 0
151 176 0
152 177 0
145 171 0
148 173 0
147 172 0
150 175 0
145 169 0
148 173 0
149 174 0
150 175 0
145 170 0
142 166 0
141 166 0
150 175 0
151 176 0
141 165 0
144 169 0
147 172 0
149 173 0
146 170 0
149 174 0
143 167 0
137 161 0
147 171 0
134 158 0
134 158 0
140 163 0
130 154 0
134 158 0
138 162 0
133 157 0
139 161 0
138 162 0
135 158 0
141 165 0
132 156 0
129 152 0
130 154 0
132 155 0
132 153 0
133 157 0
119 142 0
126 149 0
123 146 0
133 157 0
127 151 0
131 154 0
129 152 0
120 142 0
117 139 0
132 155 0
136 159 0
136 158 0
133 155 0
133 156 0
135 158 0
129 151 0
142 165 0
127 149 0
130 153 0
128 150 0
130 152 0
126 148 0
132 154 0
144 167 0
133 157 0
136 158 0
135 158 0
136 159 0
136 159 0
143 167 0
131 152 0
143 166 0
135 156 0
136 158 0
142 164 0
134 155 0
147 171 0
139 162 0
150 171 0
137 159 0
136 158 0
145 165 0
145 169 0
134 156 0
144 166 0
141 162 0
141 162 0
141 163 0
149 172 0
151 172 0
140 160 0
147 168 0
142 164 0
156 178 0
146 167 0
147 168 0
142 161 0
152 171 0
141 160 0
156 177 0
150 168 0
150 169 0
149 167 0
147 167 0
151 171 0
149 168 0
153 170 0
150 169 0
151 170 0
150 167 0
153 170 0
149 166 0
157 174 0
153 170 0
156 172 0
154 168 0
156 173 0
155 171 0
155 170 0
158 171 0
157 174 0
154 169 0
155 171 0
151 166 0
156 173 0
154 168 0
156 172 0
158 175 0
158 170 0
156 171 0
156 171 0
156 168 0
158 171 0
162 176 0
157 168 0
158 172 0
156 167 0
157 170 0
160 171 0
160 173 0
156 169 0
160 172 0
161 175 0
162 178 0
162 179 0
169 194 0
168 193 0
163 187 0
166 191 0
166 191 0
168 193 0
162 188 0
168 194 0
166 191 0
167 192 0
166 191 0
164 190 0
164 189 0
167 192 0
167 192 0
165 190 0
161 187 0
166 191 0
164 190 0
161 186 0
162 188 0
165 191 0
164 190 0
162 188 0
165 190 0
164 190 0
161 186 0
164 189 0
159 185 0
154 180 0
162 187 0
161 186 0
160 186 0
161 186 0
162 188 0
163 188 0
156 181 0
160 185 0
161 187 0
158 184 0
156 181 0
160 185 0
162 187 0
159 185 0
154 179 0
155 180 0
159 185 0
161 186 0
154 179 0
153 178 0
159 184 0
159 183 0
153 179 0
155 180 0
156 181 0
149 174 0
148 174 0
151 176 0
153 178 0
155 181 0
154 180 0
146 171 0
148 173 0
138 163 0
148 173 0
145 170 0
149 174 0
143 168 0
139 163 0
146 172 0
145 169 0
142 167 0
137 161 0
135 160 0
146 170 0
144 169 0
147 171 0
147 171 0
143 167 0
136 160 0
136 160 0
143 166 0
142 167 0
144 166 0
140 164 0
138 162 0
136 161 0
144 167 0
138 161 0
127 151 0
139 162 0
131 154 0
131 155 0
121 144 0
129 152 0
136 159 0
129 152 0
137 161 0
130 153 0
138 162 0
125 148 0
126 148 0
124 147 0
133 156 0
133 156 0
126 150 0
127 150 0
140 163 0
131 155 0
122 145 0
120 143 0
137 160 0
134 157 0
134 156 0
136 159 0
135 157 0
129 152 0
140 163 0
129 151 0
135 157 0
126 149 0
134 156 0
142 166 0
139 161 0
130 151 0
142 163 0
142 165 0
136 159 0
141 163 0
141 163 0
142 164 0
144 166 0
141 162 0
139 160 0
146 166 0
143 166 0
140 163 0
145 168 0
147 168 0
139 161 0
147 169 0
147 167 0
147 168 0
137 159 0
153 175 0
145 167 0
152 173 0
150 172 0
147 167 0
151 171 0
154 176 0
152 176 0
150 170 0
148 167 0
141 162 0
146 167 0
154 175 0
154 172 0
153 172 0
157 176 0
146 163 0
154 173 0
152 172 0
154 171 0
156 174 0
152 169 0
154 171 0
157 174 0
156 172 0
153 169 0
153 170 0
154 169 0
149 165 0
154 169 0
157 174 0
151 167 0
162 177 0
156 170 0
159 175 0
156 171 0
157 173 0
158 173 0
162 175 0
157 174 0
158 173 0
154 168 0
155 165 0
156 165 0
158 170 0
163 177 0
155 168 0
160 177 0
156 169 0
161 179 0
159 171 0
156 166 0
162 175 0
157 172 0
161 173 0
155 169 0
169 194 0
166 192 0
163 189 0
163 189 0
167 192 0
167 192 0
167 192 0
171 196 0
168 193 0
167 192 0
164 190 0
167 192 0
163 188 0
164 189 0
166 192 0
161 187 0
164 190 0
164 189 0
164 189 0
162 188 0
163 188 0
164 190 0
163 188 0
160 186 0
164 190 0
164 189 0
158 184 0
163 189 0
163 188 0
165 190 0
161 186 0
164 190 0
156 182 0
160 186 0
157 183 0
159 184 0
156 182 0
160 185 0
165 191 0
160 185 0
152 177 0
158 183 0
156 181 0
158 184 0
156 181 0
155 180 0
146 170 0
156 182 0
157 182 0
156 182 0
156 182 0
151 176 0
155 180 0
150 175 0
151 176 0
154 179 0
151 176 0
151 176 0
156 181 0
156 181 0
154 179 0
148 173 0
145 170 0
152 176 0
150 174 0
154 179 0
151 175 0
144 169 0
149 174 0
147 172 0
153 178 0
144 168 0
142 166 0
143 168 0
142 167 0
140 165 0
138 162 0
137 162 0
132 155 0
135 159 0
138 162 0
140 165 0
134 158 0
140 165 0
141 164 0
139 162 0
133 157 0
140 164 0
124 148 0
139 163 0
128 151 0
142 165 0
130 154 0
133 156 0
140 164 0
136 160 0
137 161 0
139 162 0
136 160 0
133 156 0
134 158 0
138 162 0
123 146 0
139 162 0
134 157 0
128 152 0
133 156 0
135 158 0
121 144 0
133 156 0
131 154 0
131 154 0
132 155 0
136 159 0
142 165 0
137 160 0
131 152 0
137 160 0
134 156 0
136 159 0
141 162 0
136 160 0
140 163 0
141 163 0
150 172 0
146 169 0
138 162 0
141 164 0
147 170 0
131 154 0
144 165 0
136 158 0
139 163 0
140 162 0
142 165 0
139 160 0
147 170 0
147 169 0
141 163 0
144 166 0
142 163 0
147 168 0
143 163 0
142 164 0
151 172 0
150 172 0
150 172 0
147 168 0
148 168 0
149 169 0
143 164 0
149 169 0
142 165 0
155 176 0
149 166 0
158 179 0
156 175 0
145 165 0
154 174 0
152 172 0
145 163 0
152 171 0
153 172 0
156 178 0
150 167 0
150 169 0
157 177 0
155 173 0
155 173 0
155 172 0
151 167 0
156 175 0
149 166 0
156 173 0
156 172 0
159 175 0
156 171 0
157 172 0
154 169 0
158 174 0
157 172 0
157 171 0
159 174 0
156 170 0
160 176 0
158 174 0
157 172 0
158 174 0
160 172 0
158 171 0
159 173 0
160 177 0
153 168 0
162 178 0
162 177 0
158 172 0
159 171 0
161 176 0
159 173 0
160 175 0
