P3
200 100
255
170 195 0
170 195 0
168 194 0
169 195 0
168 195 0
170 195 0
169 195 0
170 195 0
171 196 0
169 195 0
169 195 0
170 195 0
170 195 0
170 196 0
170 195 0
169 195 0
168 194 0
170 195 0
169 195 0
170 195 0
169 195 0
168 195 0
169 195 0
170 196 0
168 194 0
170 195 0
169 195 0
169 195 0
170 196 0
169 195 0
169 195 0
169 195 0
170 196 0
169 195 0
169 195 0
169 195 0
169 195 0
170 195 0
169 195 0
169 195 0
170 195 0
170 196 0
171 196 0
170 195 0
169 195 0
169 195 0
169 195 0
170 195 0
169 195 0
169 195 0
169 195 0
169 195 0
170 196 0
171 196 0
168 195 0
169 195 0
169 195 0
169 195 0
169 195 0
169 195 0
169 195 0
168 195 0
168 194 0
170 195 0
171 196 25
169 195 0
169 195 0
169 195 0
170 196 0
169 195 0
168 195 0
170 196 0
168 195 0
169 195 0
170 196 0
169 195 0
170 195 0
170 196 0
170 196 0
170 195 0
168 195 0
170 195 0
169 195 0
169 195 0
170 196 0
169 195 0
169 195 0
170 195 0
169 195 0
169 195 0
169 195 0
170 195 0
170 196 0
170 195 0
168 195 0
168 194 0
169 195 0
169 195 0
170 195 0
169 195 0
169 195 0
169 195 0
169 195 0
169 195 0
170 195 0
170 195 0
170 196 0
169 195 0
170 195 0
169 195 0
170 195 0
170 195 0
169 195 0
169 195 0
170 195 0
168 195 0
168 195 0
169 195 0
169 195 0
170 195 0
170 195 0
168 194 0
169 195 0
169 195 0
169 195 0
169 195 0
169 194 0
169 195 0
169 195 0
170 196 0
170 195 0
169 195 0
169 195 0
170 195 0
169 195 0
169 195 0
168 194 0
169 194 0
169 195 0
169 195 0
169 195 0
170 196 0
169 195 0
170 195 0
169 195 0
169 195 0
169 195 0
169 195 0
170 195 0
169 195 0
168 195 0
169 195 0
170 195 0
171 196 0
170 196 0
171 196 0
169 195 0
169 195 0
169 195 0
170 195 0
169 195 0
168 194 0
168 195 0
170 196 0
169 195 0
168 195 0
169 195 0
169 195 0
170 195 0
170 195 0
169 195 0
169 195 0
169 195 0
169 195 0
169 195 0
169 195 0
169 195 0
169 195 0
169 195 0
169 195 0
168 194 0
169 195 0
170 195 0
170 195 0
169 195 0
170 196 0
170 196 0
169 195 0
169 195 0
168 195 0
169 195 0
169 195 0
170 195 0
169 195 0
170 195 0
170 196 0
170 196 0
170 196 0
170 195 0
169 195 0
169 195 0
169 195 0
169 195 0
169 195 0
170 195 0
169 195 0
169 195 0
169 195 0
170 196 0
170 195 0
169 195 0
169 195 0
170 195 0
169 195 0
169 195 0
170 195 0
169 195 0
170 195 0
170 195 0
169 195 0
169 195 0
170 195 0
169 195 0
169 195 0
170 195 0
170 196 0
170 195 0
170 195 0
169 195 0
170 195 0
170 195 0
170 195 0
169 195 0
170 196 0
168 194 0
170 195 0
169 195 0
170 195 0
170 195 0
170 195 0
170 195 0
170 196 0
170 196 0
169 195 0
169 195 0
169 195 0
170 195 0
169 195 0
168 195 0
170 195 0
168 195 0
169 195 0
169 195 0
168 194 0
169 195 0
170 196 0
169 195 0
170 196 0
169 195 25
170 195 0
170 195 0
170 196 36
170 196 0
172 197 57
170 196 25
169 195 25
170 196 0
171 196 36
169 195 0
170 195 0
171 196 25
169 195 0
169 195 0
170 195 0
171 196 0
169 195 0
169 195 0
169 195 0
169 195 0
170 196 0
169 195 0
169 195 0
169 195 0
170 196 0
168 194 0
170 196 0
169 194 0
169 195 0
169 195 0
169 195 0
169 195 0
170 195 0
169 195 0
170 196 0
169 195 0
170 195 0
170 195 0
168 195 0
169 195 0
169 195 0
169 195 0
168 195 0
168 195 0
169 195 0
170 196 0
170 195 0
170 195 0
170 196 0
169 195 0
169 195 0
168 195 0
169 195 0
169 195 0
169 195 0
169 195 0
169 195 0
169 195 0
170 196 0
169 195 0
169 195 0
169 195 0
169 195 0
168 195 0
169 195 0
170 195 0
170 195 0
169 195 0
169 195 0
169 195 0
170 195 0
169 195 0
169 195 0
169 195 0
170 195 0
170 195 0
168 195 0
169 195 0
169 195 0
169 195 0
170 195 0
169 195 0
169 195 0
169 194 0
169 195 0
170 196 0
170 195 0
168 195 0
170 195 0
169 195 0
168 195 0
169 195 0
169 195 0
170 195 0
170 195 0
168 194 0
170 195 0
169 195 0
169 195 0
168 194 0
170 195 0
168 195 0
169 195 0
169 195 0
169 195 0
168 195 0
168 194 0
169 195 0
168 195 0
170 196 0
168 195 0
169 195 0
170 195 0
169 195 0
169 195 0
170 196 0
169 195 0
169 195 0
169 195 0
168 194 0
169 195 0
170 195 0
169 195 0
169 195 0
170 195 0
169 195 0
170 196 0
169 195 0
169 195 0
169 195 0
168 195 0
169 195 0
169 195 0
170 196 0
170 196 0
169 195 0
170 196 0
170 195 0
170 196 0
169 195 0
170 195 0
170 195 0
169 195 0
170 195 0
170 196 0
169 195 0
169 195 0
169 195 0
168 195 0
169 195 0
169 195 0
169 195 0
169 195 0
170 195 0
170 195 0
169 195 0
170 196 0
170 195 0
170 195 0
170 195 0
169 195 0
169 195 0
169 195 0
170 195 0
169 195 0
170 195 0
169 195 0
169 195 0
170 196 0
170 195 0
170 195 0
168 195 0
169 195 0
170 196 0
169 195 0
169 195 0
170 196 0
168 195 0
170 195 0
168 195 0
169 195 0
170 195 0
170 196 0
169 195 0
169 195 0
169 195 0
169 194 0
169 195 0
170 195 0
169 195 0
170 195 0
170 195 0
170 195 0
170 196 0
169 195 0
169 195 0
171 196 25
170 195 0
169 195 0
171 196 36
170 196 36
172 197 51
173 198 72
174 199 72
174 198 67
175 199 80
177 201 88
173 198 72
172 197 51
175 199 67
174 199 72
172 198 62
171 197 44
171 197 51
170 195 25
170 196 25
169 195 0
167 194 0
170 195 0
168 195 0
170 195 0
169 195 0
169 195 0
169 195 0
169 195 0
170 195 0
170 195 0
170 195 0
169 195 0
168 195 0
170 195 0
169 195 0
169 195 0
169 195 0
169 195 0
169 195 0
169 195 0
169 195 0
170 195 0
169 195 0
170 195 0
171 196 0
169 195 0
170 196 0
169 195 0
169 195 0
169 195 0
168 194 0
169 195 0
169 195 0
168 194 0
169 195 0
170 196 0
169 195 0
169 195 0
170 195 0
170 196 0
169 195 0
169 195 0
170 195 0
169 195 0
169 195 0
170 195 0
169 195 0
168 195 0
169 195 0
169 195 0
169 195 0
170 195 0
169 195 0
169 195 0
170 195 0
169 195 0
169 195 0
169 195 0
170 196 0
170 195 0
170 195 0
168 195 0
169 195 0
169 195 0
169 195 0
170 196 0
168 195 0
169 195 0
168 195 0
168 195 0
170 195 0
170 195 0
169 195 0
169 195 0
169 195 0
169 195 0
170 195 0
170 195 0
169 195 0
169 195 0
169 195 0
168 195 0
170 195 0
168 195 0
169 195 0
169 195 0
168 195 0
170 195 0
170 195 0
169 195 0
170 196 0
169 195 0
169 195 0
168 194 0
171 196 0
170 195 0
169 195 0
169 195 0
169 195 0
170 195 0
169 195 0
170 195 0
169 195 0
170 195 0
170 195 0
170 196 0
170 196 0
170 195 0
168 194 0
169 195 0
169 195 0
170 195 0
169 195 0
169 195 0
169 195 0
170 196 0
169 195 0
169 195 0
169 195 0
169 195 0
170 196 0
169 195 0
170 195 0
169 195 0
170 195 0
170 195 0
169 195 0
171 196 0
168 194 0
171 196 0
170 195 0
168 195 0
169 195 0
170 196 0
169 195 0
169 195 0
170 196 0
169 195 0
169 195 0
169 195 0
170 195 0
170 195 0
169 195 0
170 196 0
170 195 0
168 195 0
169 195 0
169 195 0
168 195 0
169 195 0
170 195 0
169 195 0
170 195 0
169 195 0
170 195 0
169 195 0
168 194 0
169 195 0
169 195 0
169 195 0
169 195 0
169 195 0
169 195 0
169 195 0
169 195 0
169 195 0
169 195 0
170 195 0
169 195 0
168 195 0
170 196 0
170 196 0
170 195 0
169 195 0
170 196 0
170 195 0
170 196 0
169 195 25
169 195 0
170 196 36
170 196 25
174 199 67
179 202 95
175 199 80
177 201 95
177 201 99
175 199 80
176 200 88
180 203 111
178 201 99
178 202 95
177 201 92
180 204 114
179 202 102
174 198 67
174 199 72
174 199 76
172 197 62
171 196 44
171 196 36
169 195 0
168 194 0
169 195 0
168 194 0
170 195 0
169 195 0
169 195 0
169 195 0
169 195 0
168 195 0
170 195 0
169 195 0
169 195 0
169 195 0
170 195 0
171 196 0
169 195 0
168 195 0
168 194 0
170 195 0
169 195 0
169 195 0
170 195 0
170 196 0
170 195 0
169 195 0
170 195 0
170 196 0
170 195 0
169 195 0
169 195 0
171 196 0
168 195 0
169 195 0
169 195 0
170 195 0
169 195 0
170 196 0
170 195 0
169 195 0
169 195 0
169 195 0
169 195 0
169 195 0
169 195 0
170 196 0
169 195 0
169 195 0
170 195 0
170 195 0
169 195 0
169 195 0
170 196 0
168 195 0
168 195 0
169 195 0
170 195 0
169 195 0
170 195 0
169 195 0
169 195 0
169 195 0
169 195 0
170 196 0
169 195 0
169 195 0
170 195 0
169 195 0
170 195 0
169 195 0
170 195 0
169 195 0
167 194 0
170 196 0
169 195 0
168 195 0
170 196 0
170 195 0
169 195 0
169 195 0
169 195 0
169 195 0
170 195 0
170 195 0
170 195 0
170 195 0
169 195 0
169 195 0
169 195 0
169 195 0
168 194 0
170 196 0
170 195 0
171 196 0
168 194 0
169 195 0
170 195 0
168 195 0
170 195 0
171 196 0
169 195 0
170 195 0
169 195 0
170 195 0
168 194 0
169 195 0
169 195 0
170 196 0
169 195 0
169 195 0
169 195 0
167 194 0
170 195 0
169 195 0
169 195 0
168 194 0
170 195 0
168 194 0
170 195 0
170 195 0
169 195 0
169 195 0
169 195 0
169 195 0
169 195 0
169 195 0
171 196 0
170 196 0
169 195 0
169 195 0
170 195 0
169 195 0
170 195 0
170 195 0
169 195 0
169 195 0
169 195 0
169 195 0
168 194 0
169 195 0
169 195 0
170 196 0
170 195 0
169 195 0
169 195 0
169 195 0
169 195 0
169 195 0
170 195 0
169 195 0
169 195 0
169 195 0
168 195 0
170 196 0
169 195 0
169 195 0
169 195 0
169 195 0
169 195 0
170 195 0
170 195 0
170 195 0
170 195 0
169 195 0
169 195 0
169 195 0
170 195 0
170 196 0
170 195 0
169 195 0
170 195 0
170 195 0
169 195 0
168 195 0
170 195 0
171 196 36
170 196 0
171 196 44
172 197 57
178 202 92
180 203 108
176 200 88
179 202 102
178 201 102
182 204 117
182 205 127
181 204 114
184 206 130
178 202 102
178 202 105
181 204 111
181 204 114
186 208 137
179 202 102
176 200 84
177 201 92
174 199 76
180 203 105
174 199 62
171 196 25
170 195 25
171 196 36
168 194 0
169 195 0
169 195 0
169 195 0
169 195 0
168 195 0
170 195 0
171 196 0
170 196 0
170 196 0
168 194 0
169 195 0
170 196 0
169 195 0
169 195 0
171 196 0
168 194 0
169 195 0
167 194 0
170 195 0
168 195 0
170 195 0
168 194 0
169 195 0
169 195 0
169 195 0
169 195 0
169 195 0
169 195 0
170 195 0
170 195 0
170 195 0
170 195 0
169 195 0
169 195 0
169 195 0
170 195 0
169 195 0
169 195 0
169 195 0
169 195 0
170 195 0
169 195 0
170 195 0
169 195 0
169 195 0
170 196 0
169 195 0
170 195 0
170 195 0
170 195 0
168 195 0
169 195 0
169 195 0
170 195 0
169 195 0
168 195 0
170 195 0
168 195 0
169 195 0
170 196 0
169 195 0
169 195 0
168 195 0
169 195 0
169 195 0
170 195 0
170 195 0
171 196 0
169 195 0
170 195 0
169 195 0
170 195 0
170 195 0
170 196 0
169 195 0
170 195 0
169 195 0
168 195 0
170 195 0
170 196 0
169 195 0
168 195 0
170 196 0
168 195 0
169 195 0
170 196 0
170 195 0
170 195 0
170 195 0
168 195 0
170 195 0
169 195 0
168 195 0
168 195 0
170 195 0
169 195 0
169 195 0
169 195 0
170 195 0
169 195 0
170 195 0
169 195 0
170 195 0
169 195 0
170 196 0
169 195 0
169 195 0
169 195 0
169 195 0
169 195 0
169 195 0
170 195 0
168 194 0
169 195 0
170 195 0
169 195 0
169 195 0
169 195 0
169 195 0
169 195 0
169 195 0
169 195 0
170 195 0
169 195 0
169 195 0
169 195 0
170 195 0
170 196 0
169 195 0
169 195 0
170 195 0
169 195 0
170 195 0
168 195 0
168 195 0
171 196 0
170 195 0
169 195 0
169 195 0
169 195 0
169 195 0
170 196 0
169 195 0
168 195 0
170 195 0
170 196 0
169 195 0
169 195 0
169 195 0
170 196 0
168 195 0
169 195 0
169 195 0
168 195 0
169 195 0
169 195 0
169 195 0
170 196 0
169 195 0
168 195 0
168 195 0
168 195 0
169 195 0
169 195 0
170 195 0
169 195 0
169 195 0
170 195 0
169 195 0
170 195 0
168 195 0
171 196 0
171 196 36
172 197 36
173 198 72
179 202 95
181 204 114
181 204 117
177 201 95
182 204 111
181 204 120
180 203 111
182 205 122
181 204 117
183 205 127
182 205 125
182 204 120
183 205 127
181 204 117
188 209 142
177 201 92
177 201 99
179 203 105
179 203 117
176 200 88
174 199 80
177 201 88
172 197 57
171 196 44
170 196 36
169 195 0
168 194 0
170 195 0
170 195 0
170 196 0
168 194 0
170 195 0
169 195 0
169 195 0
170 196 0
170 195 0
169 195 0
169 195 0
169 195 0
169 195 0
169 195 0
170 196 0
170 195 0
169 195 0
169 195 0
168 195 0
169 195 0
170 195 0
168 194 0
169 195 0
169 195 0
170 195 0
169 195 0
170 195 0
169 195 0
169 195 0
169 195 0
170 195 0
169 195 0
171 196 0
169 195 0
169 195 0
170 196 0
170 196 0
168 194 0
169 195 0
169 195 0
169 195 0
170 195 0
169 195 0
169 195 0
170 196 0
170 195 0
168 195 0
169 195 0
170 196 0
169 195 0
170 195 0
169 195 0
169 195 0
169 195 0
168 195 0
170 195 0
169 195 0
170 195 0
170 195 0
168 195 0
170 196 0
170 195 0
169 195 0
170 196 0
169 195 0
170 195 0
169 195 0
170 195 0
168 195 0
169 195 0
169 195 0
170 195 0
169 195 0
169 195 0
170 196 0
169 195 0
170 195 0
169 195 0
169 195 0
170 195 0
170 196 0
170 195 0
169 195 0
169 195 0
170 196 0
169 195 0
170 195 0
169 195 0
169 195 0
170 195 0
169 195 0
169 195 0
169 195 0
170 195 0
169 195 0
170 195 0
170 196 0
170 196 0
169 195 0
170 196 0
169 195 0
170 195 0
170 195 0
169 195 0
169 195 0
170 195 0
169 195 0
171 196 0
170 196 0
168 194 0
170 196 0
168 195 0
169 195 0
170 195 0
169 195 0
170 195 0
170 195 0
171 196 0
171 196 0
170 195 0
169 195 0
170 196 0
171 196 0
168 194 0
169 195 0
169 195 0
169 195 0
169 195 0
170 196 0
169 195 0
169 195 0
169 195 0
169 195 0
169 195 0
169 195 0
170 195 0
168 194 0
169 195 0
169 195 0
170 196 0
170 196 0
170 196 0
170 196 0
169 195 0
168 194 0
169 195 0
169 195 0
169 195 0
170 195 0
169 195 0
170 195 0
170 195 0
168 194 0
169 195 0
169 195 0
170 195 0
170 196 0
169 195 0
170 196 0
169 195 0
169 195 0
169 195 0
169 195 0
169 195 0
169 195 0
170 196 0
169 195 0
171 196 25
170 196 36
172 197 51
175 199 80
173 198 62
180 204 111
180 203 114
180 203 114
180 203 114
189 210 149
182 205 127
186 208 142
186 208 140
186 208 147
184 207 140
187 209 147
188 210 153
185 208 140
189 211 161
187 209 149
184 206 130
183 205 127
183 206 133
182 205 122
183 206 130
182 205 120
179 202 105
178 201 95
176 200 88
174 199 72
175 199 76
173 198 72
169 195 25
169 195 0
169 195 0
169 195 0
169 195 0
170 195 0
168 195 0
168 195 0
170 195 0
169 195 0
169 195 0
170 196 0
169 195 0
170 195 0
170 195 0
169 195 0
168 195 0
170 195 0
169 195 0
170 195 0
169 195 0
168 195 0
170 195 0
170 195 0
170 195 0
169 195 0
168 194 0
169 195 0
170 195 0
168 194 0
169 195 0
168 195 0
168 195 0
170 195 0
170 195 0
168 195 0
169 195 0
169 195 0
169 195 0
169 195 0
169 195 0
170 195 0
169 195 0
169 195 0
168 195 0
168 195 0
170 196 0
169 195 0
168 195 0
170 196 0
169 195 0
169 194 0
169 195 0
167 193 0
169 195 0
169 195 0
169 195 0
170 195 0
170 196 0
170 195 0
170 195 0
169 195 0
169 195 0
168 195 0
169 195 0
169 195 0
169 195 0
170 195 0
169 195 0
169 195 0
169 195 0
170 195 0
169 195 0
169 195 0
169 195 0
169 195 0
170 195 0
169 195 0
169 195 0
168 194 0
170 196 0
169 195 0
169 195 0
170 195 0
169 195 0
169 195 0
169 195 0
169 195 0
169 195 0
169 195 0
168 195 0
169 195 0
169 195 0
169 195 0
170 196 0
168 194 0
170 195 0
170 195 0
170 195 0
169 195 0
168 194 0
169 195 0
170 196 0
169 195 0
169 195 0
169 195 0
170 195 0
170 195 0
170 196 0
168 195 0
169 194 0
170 196 0
170 195 0
170 195 0
171 196 0
168 195 0
170 196 0
170 195 0
168 195 0
169 195 0
169 195 0
171 196 0
169 195 0
170 196 0
169 195 0
169 195 0
170 196 0
168 195 0
169 195 0
169 195 0
169 195 0
169 195 0
169 195 0
170 196 0
169 195 0
170 195 0
169 195 0
169 195 0
169 195 0
169 195 0
170 195 0
169 195 0
168 195 0
170 196 0
170 195 0
169 195 0
169 195 0
169 195 0
169 194 0
169 195 0
170 196 0
169 195 0
169 195 0
169 195 0
170 195 0
169 195 0
169 195 0
169 195 0
167 194 0
170 195 0
169 195 0
169 195 0
169 195 0
169 195 0
169 195 0
169 195 0
170 196 0
170 195 25
171 196 36
171 196 36
174 198 67
180 203 114
181 204 117
181 204 111
184 207 133
181 204 111
183 206 133
184 207 140
189 210 153
190 211 163
189 210 157
188 209 151
189 211 159
188 209 149
188 210 161
185 207 137
189 211 159
182 204 127
184 207 135
184 207 140
187 209 153
186 208 140
185 207 135
184 206 135
182 205 127
180 203 114
178 202 105
177 201 95
175 200 80
175 199 76
172 197 62
170 196 44
170 195 0
168 195 0
171 196 0
171 196 0
169 195 0
170 195 0
169 195 0
168 195 0
168 195 0
169 195 0
169 195 0
170 195 0
170 195 0
169 195 0
170 195 0
169 195 0
169 195 0
170 196 0
169 195 0
169 195 0
169 195 0
170 195 0
169 195 0
170 196 0
169 195 0
169 195 0
170 195 0
169 195 0
170 196 0
169 195 0
169 195 0
169 195 0
169 195 0
169 195 0
169 194 0
169 195 0
169 195 0
169 195 0
170 195 0
170 195 0
169 195 0
170 195 0
169 195 0
169 195 0
169 195 0
169 195 0
168 194 0
170 195 0
169 195 0
170 196 0
169 195 0
170 195 0
169 195 0
169 195 0
168 195 0
170 195 0
169 195 0
169 195 0
169 195 0
169 195 0
170 196 0
169 195 0
170 196 0
169 195 0
170 195 0
170 195 0
169 195 0
169 195 0
170 195 0
169 195 0
169 195 0
169 195 0
169 195 0
169 195 0
169 195 0
168 195 0
169 195 0
170 195 0
169 195 0
169 195 0
169 195 0
169 195 0
169 195 0
169 195 0
169 195 0
170 195 0
169 195 0
169 195 0
170 196 0
169 195 0
170 195 0
170 195 0
170 196 0
169 195 0
169 195 0
168 194 0
169 195 0
169 195 0
170 195 0
168 195 0
169 195 0
169 195 0
169 195 0
168 194 0
168 195 0
169 195 0
168 195 0
169 195 0
170 196 0
169 195 0
170 195 0
169 195 0
171 196 0
170 195 0
169 195 0
169 195 0
169 195 0
169 195 0
169 195 0
170 195 0
169 195 0
168 195 0
169 195 0
169 195 0
169 195 0
170 195 0
170 195 0
169 195 0
169 195 0
169 195 0
170 195 0
170 195 0
169 195 0
169 195 0
169 195 0
169 195 0
170 196 0
171 196 0
170 196 0
170 195 0
170 196 0
170 195 0
169 195 0
168 194 0
169 195 0
169 195 0
170 195 0
169 195 0
168 195 0
169 195 0
169 195 0
168 195 0
169 195 0
170 195 0
168 195 0
169 195 0
169 195 0
169 195 0
170 195 0
169 195 0
168 194 0
170 195 0
168 195 0
170 195 0
170 196 25
171 196 44
174 199 67
179 202 99
177 201 88
180 203 114
182 205 120
188 210 151
188 209 147
185 207 135
187 209 149
186 209 149
188 210 157
185 208 147
188 210 155
191 212 167
190 212 169
190 212 165
188 210 161
192 213 171
190 211 159
188 210 155
190 211 165
187 209 155
186 208 144
186 208 147
190 211 157
187 209 147
184 206 135
181 204 114
182 205 127
177 201 88
177 201 88
176 200 92
177 201 88
173 198 72
172 198 62
170 196 25
170 195 0
169 195 0
169 195 0
170 195 0
170 195 0
169 195 0
171 196 0
169 195 0
169 195 0
169 195 0
169 195 0
170 195 0
169 194 0
169 195 0
168 194 0
170 196 0
169 195 0
170 196 0
169 195 0
168 195 0
170 195 0
169 195 0
169 195 0
170 195 0
170 195 0
169 195 0
169 195 0
169 195 0
170 195 0
169 195 0
170 195 0
170 195 0
169 195 0
169 195 0
170 196 0
169 195 0
170 195 0
170 195 0
169 195 0
169 195 0
169 195 0
169 195 0
169 195 0
169 195 0
170 195 0
170 195 0
169 195 0
169 195 0
169 195 0
169 195 0
169 195 0
168 194 0
169 195 0
170 196 0
170 195 0
169 195 0
169 195 0
169 195 0
169 195 0
169 195 0
169 195 0
170 196 0
168 194 0
170 195 0
169 195 0
169 195 0
169 195 0
170 196 0
169 195 0
169 195 0
169 195 0
169 195 0
169 195 0
169 195 0
169 195 0
170 196 0
169 195 0
169 195 0
168 195 0
170 195 0
170 195 0
170 195 0
168 195 0
170 196 0
169 195 0
170 195 0
169 195 0
169 195 0
170 195 0
168 195 0
169 195 0
169 195 0
169 195 0
169 195 0
169 195 0
168 195 0
169 195 0
169 195 0
170 195 0
169 195 0
169 195 0
170 195 0
170 195 0
169 195 0
169 195 0
169 195 0
169 195 0
168 195 0
170 195 0
169 195 0
169 195 0
170 195 0
170 196 0
169 195 0
169 195 0
169 195 0
168 195 0
169 195 0
170 196 0
169 195 0
168 195 0
170 195 0
170 195 0
169 195 0
169 195 0
170 196 0
169 195 0
170 195 0
169 195 0
169 195 0
170 195 0
169 195 0
170 196 0
168 195 0
170 195 0
171 196 0
169 195 0
169 195 0
170 195 0
170 195 0
169 195 0
170 195 0
170 195 0
169 195 0
169 195 0
170 195 0
169 195 0
170 196 0
170 195 0
170 195 0
170 196 0
169 195 0
170 195 0
170 195 0
170 196 0
170 195 0
170 195 0
169 195 0
170 195 0
169 195 0
169 195 0
169 195 0
171 196 44
176 200 80
177 201 92
177 201 92
180 204 114
183 205 125
183 206 135
190 211 159
185 207 137
188 209 151
191 212 167
186 209 151
193 213 173
192 214 179
192 213 173
185 208 149
185 208 147
190 212 175
187 209 153
194 214 179
190 212 163
188 210 157
186 208 153
184 206 144
187 209 155
185 208 149
187 210 155
186 209 149
185 208 140
184 206 133
189 210 151
183 206 133
175 199 80
176 200 99
176 200 84
174 199 72
173 198 57
173 198 62
171 196 36
168 194 0
169 195 0
168 194 0
169 195 0
168 195 0
167 194 0
169 195 0
170 195 0
170 195 0
169 195 0
170 196 0
170 195 0
169 195 0
170 195 0
169 195 0
169 195 0
170 195 0
169 195 0
169 195 0
170 195 0
168 195 0
169 195 0
169 195 0
169 195 0
170 196 0
170 195 0
170 195 0
169 195 0
169 194 0
169 195 0
170 195 0
168 194 0
169 194 0
170 195 0
167 194 0
168 194 0
169 195 0
170 195 0
168 195 0
170 195 0
169 195 0
170 195 0
169 195 0
169 195 0
169 195 0
169 194 0
170 195 0
169 195 0
168 194 0
169 195 0
170 196 0
169 195 0
169 195 0
170 195 0
169 195 0
169 195 0
169 195 0
168 195 0
170 195 0
171 196 0
169 195 0
169 195 0
169 195 0
170 195 0
169 195 0
170 196 0
170 196 0
169 195 0
169 195 0
170 195 0
169 195 0
169 195 0
170 195 0
170 195 0
169 195 0
169 195 0
169 195 0
171 196 0
169 195 0
170 195 0
171 196 0
168 195 0
170 195 0
170 195 0
170 195 0
169 195 0
170 195 0
169 195 0
169 195 0
169 195 0
169 195 0
169 195 0
169 195 0
169 195 0
169 195 0
169 195 0
170 195 0
169 195 0
170 195 0
170 195 0
168 195 0
169 195 0
170 195 0
171 196 0
170 195 0
170 196 0
169 195 0
169 195 0
170 195 0
169 195 0
169 195 0
169 195 0
169 195 0
169 195 0
169 195 0
168 195 0
170 195 0
169 195 0
169 195 0
168 195 0
169 195 0
169 195 0
169 195 0
170 196 0
169 195 0
169 195 0
169 195 0
169 195 0
169 195 0
169 195 0
168 195 0
170 195 0
170 196 0
169 195 0
169 195 0
170 195 0
170 195 0
169 195 0
168 195 0
170 195 0
169 194 0
169 195 0
171 196 0
170 195 0
169 195 0
169 195 0
169 195 0
168 194 0
170 195 0
170 195 0
171 196 0
169 195 0
169 195 0
170 195 0
170 195 0
169 195 0
171 196 0
169 195 0
169 195 0
171 197 44
171 196 44
173 198 67
180 203 111
181 204 114
177 201 99
184 206 133
184 206 130
187 208 144
188 209 149
191 212 165
191 212 163
187 209 153
187 209 155
188 210 157
193 214 179
187 209 153
188 210 159
186 208 151
186 210 167
184 206 149
182 205 137
183 206 137
185 208 151
187 209 161
183 206 137
186 209 159
190 212 167
190 212 165
186 208 147
188 210 151
183 206 135
182 205 122
186 208 142
180 203 108
180 203 111
175 199 84
175 200 84
176 200 88
174 198 62
171 196 44
169 195 25
169 195 0
168 194 0
170 195 0
169 195 0
170 195 0
169 195 0
170 196 0
169 195 0
168 195 0
170 195 0
169 195 0
170 195 0
170 195 0
169 195 0
169 195 0
169 195 0
169 195 0
168 195 0
170 195 0
169 195 0
169 195 0
169 195 0
170 195 0
169 195 0
169 195 0
169 195 0
170 196 0
169 195 0
171 196 0
169 195 0
168 194 0
169 195 0
170 195 0
170 196 0
170 195 0
169 195 0
169 195 0
169 195 0
171 196 0
170 195 0
169 195 0
169 195 0
169 195 0
169 195 0
168 195 0
169 195 0
168 194 0
170 195 0
169 195 0
169 195 0
170 195 0
169 195 0
169 195 0
169 195 0
169 195 0
169 195 0
170 195 0
170 196 0
169 195 0
170 195 0
170 195 0
170 195 0
170 195 0
170 195 0
169 195 0
169 195 0
168 195 0
170 195 0
170 195 0
168 194 0
169 195 0
168 195 0
170 195 0
170 195 0
168 195 0
170 196 0
169 195 0
169 195 0
169 195 0
169 195 0
169 195 0
170 195 0
169 195 0
170 195 0
169 195 0
170 196 0
169 195 0
170 196 0
168 195 0
168 195 0
169 195 0
170 195 0
170 196 0
169 195 0
169 195 0
169 195 0
168 195 0
170 195 0
168 195 0
169 195 0
169 195 0
168 195 0
169 195 0
169 195 0
168 195 0
169 195 0
170 196 0
170 195 0
169 195 0
169 195 0
170 196 0
170 196 0
168 195 0
169 195 0
169 195 0
171 196 0
170 195 0
169 195 0
170 195 0
169 195 0
169 195 0
168 195 0
169 195 0
169 195 0
170 196 0
170 195 0
169 195 0
169 195 0
169 195 0
169 195 0
169 195 0
169 195 0
170 196 0
170 195 0
169 195 0
169 195 0
170 195 0
169 195 0
169 195 0
169 195 0
169 195 0
168 194 0
169 195 0
169 195 0
169 195 0
168 194 0
170 196 0
170 195 0
169 195 0
170 196 0
168 195 0
170 195 0
169 195 0
170 195 0
170 195 0
169 195 0
168 194 0
169 195 25
172 197 57
174 199 67
175 199 76
176 200 92
176 200 80
182 205 122
188 209 147
186 208 144
189 210 159
188 210 155
187 208 151
191 212 167
187 209 151
187 210 159
184 208 153
184 207 142
179 203 130
183 206 140
182 205 130
179 204 127
179 203 127
180 204 120
176 201 108
179 204 125
180 203 127
185 208 144
181 204 125
185 208 153
181 205 133
184 207 140
188 210 153
188 210 155
190 211 163
188 210 151
184 206 135
181 204 117
176 201 95
178 201 95
177 201 88
175 199 80
171 196 44
172 197 44
168 194 0
169 195 0
169 195 0
169 195 0
170 196 0
169 195 0
169 195 0
169 195 0
169 195 0
170 195 0
170 195 0
169 195 0
169 195 0
168 194 0
168 194 0
169 194 0
169 195 0
170 196 0
168 194 0
168 194 0
168 194 0
170 195 0
168 195 0
169 195 0
169 195 0
170 195 0
170 196 0
170 196 0
169 195 0
168 195 0
170 195 0
170 195 0
170 195 0
169 195 0
169 195 0
170 195 0
169 195 0
168 194 0
169 195 0
169 195 0
168 194 0
169 195 0
169 195 0
170 195 0
169 195 0
169 195 0
169 195 0
170 196 0
170 196 0
168 194 0
169 195 0
170 196 0
170 195 0
168 194 0
170 195 0
169 195 0
169 195 0
168 194 0
168 195 0
169 195 0
171 196 0
169 195 0
169 195 0
168 195 0
169 195 0
168 195 0
168 194 0
169 195 0
169 195 0
169 195 0
169 195 0
170 195 0
170 195 0
170 195 0
169 195 0
169 195 0
170 195 0
169 195 0
169 195 0
170 195 0
169 195 0
169 195 0
168 194 0
169 195 0
170 195 0
169 195 0
168 195 0
168 195 0
170 195 0
168 195 0
169 195 0
169 195 0
170 195 0
170 195 0
168 195 0
169 195 0
169 195 0
169 195 0
170 195 0
170 195 0
169 195 0
170 195 0
169 195 0
169 195 0
169 195 0
169 195 0
169 195 0
169 195 0
169 195 0
169 195 0
170 195 0
169 195 0
169 195 0
169 195 0
170 195 0
170 195 0
168 195 0
169 195 0
170 195 0
169 195 0
169 195 0
170 195 0
170 195 0
168 195 0
169 195 0
169 195 0
169 195 0
169 195 0
170 195 0
169 195 0
169 195 0
169 195 0
169 195 0
169 195 0
170 195 0
169 195 0
169 195 0
169 195 0
168 195 0
170 196 0
170 195 0
169 195 0
169 195 0
168 195 0
170 195 0
168 195 0
169 195 0
169 195 0
169 195 0
169 195 0
171 196 0
169 195 0
170 195 0
169 195 0
170 195 0
169 195 0
170 195 0
171 197 36
172 197 57
179 202 95
179 202 102
182 204 114
186 208 140
186 208 140
192 213 165
195 215 184
189 210 155
191 213 171
185 208 157
184 207 140
184 207 135
180 204 122
177 202 111
177 202 120
178 202 108
179 203 117
174 198 92
176 201 102
177 202 117
174 199 108
176 202 114
178 202 105
176 201 95
180 204 125
180 204 127
180 204 120
183 206 137
186 209 153
189 210 155
185 208 144
186 209 153
185 207 137
183 206 133
179 202 114
183 206 127
174 198 62
175 200 80
174 199 80
174 199 72
171 197 44
170 196 25
170 195 0
169 195 0
168 195 0
170 195 0
169 195 0
171 196 0
169 195 0
168 195 0
169 195 0
169 195 0
169 195 0
169 195 0
169 195 0
168 195 0
169 195 0
169 195 0
170 195 0
169 195 0
168 195 0
170 195 0
170 195 0
170 195 0
169 194 0
169 195 0
170 196 0
170 196 0
169 195 0
169 195 0
168 195 0
170 196 0
170 195 0
170 195 0
171 196 0
169 195 0
168 195 0
169 195 0
169 195 0
170 195 0
170 196 0
169 195 0
169 195 0
170 195 0
169 195 0
170 195 0
170 195 0
168 194 0
169 195 0
170 195 0
168 195 0
170 195 0
169 195 0
169 195 0
169 195 0
170 195 0
169 195 0
170 195 0
170 195 0
169 195 0
170 195 0
170 196 0
169 195 0
170 196 0
169 195 0
170 195 0
170 195 0
170 196 0
169 195 0
170 195 0
169 195 0
169 195 0
168 194 0
169 195 0
169 195 0
169 195 0
169 195 0
168 194 0
168 195 0
169 195 0
168 194 0
170 195 0
169 195 0
170 195 0
169 195 0
169 195 0
169 195 0
168 194 0
170 195 0
169 195 0
170 195 0
169 195 0
169 195 0
170 196 0
169 195 0
168 195 0
169 195 0
169 195 0
170 195 0
170 195 0
170 196 0
169 195 0
169 195 0
168 195 0
170 196 0
170 195 0
169 195 0
168 194 0
169 195 0
169 195 0
169 195 0
169 195 0
170 195 0
169 195 0
169 195 0
169 195 0
170 195 0
171 196 0
169 195 0
169 195 0
169 195 0
168 195 0
169 195 0
170 196 0
169 195 0
169 195 0
169 195 0
169 195 0
169 195 0
169 195 0
171 196 0
168 195 0
169 195 0
170 195 0
171 196 0
169 195 0
170 196 0
170 195 0
170 195 0
168 194 0
171 196 0
169 195 0
168 195 0
170 195 0
169 195 0
170 196 0
169 195 0
170 195 0
169 195 0
171 196 0
170 195 0
170 195 0
171 196 0
170 195 0
170 195 0
169 195 0
169 195 25
171 196 25
172 197 57
177 201 95
175 200 80
177 201 95
184 206 130
188 209 149
186 208 137
185 207 144
186 208 144
190 211 167
184 207 144
184 207 149
178 203 117
179 203 125
177 201 114
178 202 105
176 201 111
173 199 95
177 202 114
176 201 102
174 199 95
175 200 99
174 199 92
175 200 99
173 199 92
176 201 102
173 198 76
176 201 99
178 203 120
179 204 137
181 204 135
178 202 114
184 207 142
183 206 130
184 206 133
186 207 135
178 202 108
179 202 102
176 201 95
176 201 95
179 202 102
175 199 80
173 198 67
171 196 44
169 195 25
169 195 0
169 195 0
168 194 0
169 195 0
170 195 0
169 195 0
170 195 0
169 195 0
170 195 0
169 194 0
168 195 0
170 195 0
170 195 0
169 195 0
168 195 0
169 194 0
169 195 0
169 195 0
169 195 0
168 194 0
168 194 0
169 195 0
169 195 0
170 195 0
168 194 0
170 195 0
169 195 0
169 195 0
170 195 0
170 195 0
168 195 0
169 194 0
169 195 0
170 195 0
169 195 0
169 195 0
168 194 0
168 195 0
169 195 0
169 195 0
169 195 0
169 195 0
169 195 0
169 195 0
169 195 0
170 195 0
170 195 0
170 196 0
169 195 0
170 196 0
168 195 0
168 194 0
170 195 0
169 195 0
170 196 0
169 195 0
170 196 0
170 196 0
170 196 0
168 195 0
170 195 0
169 195 0
169 195 0
169 195 0
169 195 0
170 195 0
169 195 0
169 195 0
169 195 0
169 195 0
171 196 0
169 195 0
169 195 0
167 194 0
169 195 0
169 195 0
169 195 0
170 196 0
169 195 0
169 195 0
169 195 0
168 195 0
170 195 0
168 195 0
169 195 0
170 195 0
171 196 0
169 195 0
169 195 0
170 195 0
169 195 0
169 195 0
168 195 0
170 195 0
169 195 0
168 195 0
169 195 0
170 196 0
170 195 0
169 195 0
169 195 0
169 195 0
170 195 0
168 195 0
169 195 0
170 195 0
168 195 0
169 195 0
169 195 0
169 195 0
168 195 0
169 195 0
170 195 0
170 196 0
170 195 0
170 195 0
170 195 0
170 196 0
170 195 0
168 195 0
170 195 0
169 195 0
170 195 0
169 195 0
169 195 0
170 195 0
169 195 0
170 196 0
170 195 0
169 195 0
170 195 0
169 195 0
169 195 0
169 195 0
170 195 0
170 195 0
169 195 0
170 195 0
169 195 0
168 195 0
169 195 0
169 195 0
169 195 0
170 196 0
169 195 0
169 195 0
169 195 0
169 194 0
169 195 0
169 195 0
169 195 0
169 195 0
169 195 0
170 195 0
172 197 51
177 200 80
175 199 76
181 204 114
181 204 117
189 210 151
187 209 149
183 206 127
186 208 151
188 209 159
183 206 147
180 204 122
178 202 121
176 200 102
179 203 114
175 200 105
176 201 95
173 199 92
174 199 92
167 194 57
172 198 92
172 198 84
170 196 62
171 197 67
171 197 80
171 197 57
170 196 80
173 198 92
174 199 88
174 199 95
174 199 84
172 197 76
180 204 120
181 205 133
185 208 142
186 209 153
190 211 161
184 206 133
187 209 144
177 201 92
181 204 111
176 200 84
179 202 105
173 198 67
171 196 44
171 197 36
170 196 25
169 195 0
169 195 0
168 194 0
169 195 0
169 195 0
170 196 0
169 195 0
170 195 0
169 195 0
170 196 0
167 194 0
170 195 0
168 194 0
169 195 0
168 194 0
169 195 0
168 195 0
168 194 0
170 196 0
169 195 0
169 195 0
169 194 0
169 195 0
169 195 0
169 195 0
169 195 0
169 195 0
172 196 0
169 195 0
169 194 0
169 195 0
169 195 0
170 196 0
170 196 0
170 196 0
169 195 0
170 195 0
168 194 0
169 195 0
169 195 0
169 194 0
168 195 0
169 195 0
170 196 0
168 195 0
168 194 0
169 195 0
170 195 0
169 195 0
168 194 0
169 195 0
169 195 0
169 195 0
170 195 0
169 195 0
169 195 0
169 195 0
169 195 0
169 195 0
169 195 0
169 195 0
169 195 0
169 195 0
170 196 0
169 195 0
169 195 0
170 195 0
169 195 0
170 195 0
169 195 0
169 195 0
170 195 0
170 195 0
170 195 0
169 195 0
170 195 0
170 195 0
169 195 0
170 195 0
170 195 0
169 195 0
169 195 0
168 194 0
169 195 0
170 195 0
170 195 0
170 196 0
169 195 0
170 195 0
169 195 0
170 196 0
170 195 0
170 195 0
170 196 0
168 195 0
169 195 0
170 195 0
169 195 0
170 195 0
170 195 0
170 195 0
169 195 0
169 195 0
170 195 0
170 195 0
169 195 0
169 195 0
169 195 0
170 195 0
170 195 0
170 195 0
169 195 0
170 195 0
170 195 0
170 196 0
169 195 0
170 195 0
168 195 0
169 195 0
169 195 0
169 195 0
170 195 0
169 195 0
169 195 0
169 195 0
168 194 0
169 195 0
170 195 0
169 195 0
170 195 0
169 195 0
169 195 0
169 195 0
170 195 0
170 195 0
170 195 0
169 195 0
170 195 0
170 195 0
169 195 0
169 195 0
168 195 0
169 195 0
168 195 0
169 195 0
169 195 0
169 195 0
169 195 0
169 195 0
170 195 0
169 195 0
169 195 0
171 196 36
172 197 57
175 199 80
178 202 99
181 204 117
188 210 151
184 206 135
187 209 147
188 210 153
186 208 147
185 208 147
182 205 135
180 204 130
173 197 80
173 198 84
173 198 92
170 196 67
174 200 102
175 200 95
170 195 67
170 196 67
170 196 62
170 196 72
169 196 84
169 195 67
170 197 67
170 196 76
171 197 62
169 196 62
173 199 95
172 198 76
173 198 76
174 199 84
176 200 95
176 200 102
180 204 122
181 204 122
182 205 127
184 207 140
180 203 117
184 206 130
176 200 84
180 203 108
177 201 92
174 198 72
172 197 57
172 197 44
169 195 0
168 194 0
168 194 0
169 195 0
169 194 0
169 195 0
169 195 0
169 195 0
169 195 0
169 194 0
170 195 0
170 195 0
169 195 0
170 195 0
169 195 0
170 196 0
168 194 0
170 196 0
169 194 0
170 195 0
169 195 0
169 195 0
170 196 0
169 195 0
167 194 0
170 195 0
170 195 0
170 195 0
170 195 0
168 194 0
169 195 0
169 195 0
169 195 0
170 196 0
170 195 0
170 195 0
169 195 0
170 195 0
169 195 0
169 195 0
169 195 0
170 195 0
168 195 0
169 195 0
169 195 0
169 195 0
170 195 0
167 193 0
170 195 0
170 195 0
170 196 0
169 195 0
169 195 0
167 194 0
169 195 0
169 195 0
168 195 0
171 196 0
170 195 0
170 195 0
169 195 0
168 194 0
169 194 0
168 194 0
169 195 0
169 195 0
168 194 0
169 195 0
171 196 0
169 195 0
169 195 0
169 195 0
169 195 0
168 195 0
169 194 0
170 195 0
170 196 0
170 195 0
169 195 0
170 195 0
169 195 0
171 196 0
171 196 0
169 194 0
169 195 0
170 195 0
170 195 0
170 195 0
169 195 0
169 195 0
169 195 0
170 195 0
169 195 0
170 195 0
169 195 0
170 195 0
169 195 0
170 195 0
169 195 0
169 195 0
169 195 0
169 195 0
169 195 0
170 195 0
169 195 0
169 195 0
169 195 0
170 196 0
170 196 0
170 195 0
168 195 0
169 195 0
169 195 0
169 195 0
170 196 0
170 195 0
169 195 0
168 194 0
168 194 0
169 195 0
169 195 0
170 196 0
169 195 0
169 195 0
170 195 0
170 196 0
170 195 0
169 195 0
169 195 0
170 196 0
169 195 0
169 195 0
169 195 0
168 195 0
169 195 0
168 194 0
169 195 0
169 195 0
170 195 0
169 195 0
168 194 0
169 195 0
170 195 0
169 195 0
169 195 0
170 195 0
170 195 0
169 195 0
169 195 0
169 195 0
171 196 0
169 195 0
170 195 0
169 195 25
172 197 51
178 201 95
181 204 111
180 203 108
186 208 144
179 203 117
186 208 147
183 206 135
190 211 167
179 203 120
180 204 122
175 200 102
173 198 80
173 198 62
171 197 72
167 193 62
169 195 51
170 196 67
168 194 57
169 195 67
171 197 76
168 194 67
169 196 72
171 197 76
170 196 51
169 195 57
170 196 76
170 196 62
172 198 84
170 196 51
172 198 67
170 196 76
175 200 99
173 198 76
177 202 114
181 204 117
184 207 137
188 209 149
181 204 114
181 204 122
180 204 120
177 201 95
174 199 76
177 200 84
173 198 62
171 196 44
171 196 25
168 194 0
168 194 0
169 194 0
169 195 0
169 194 0
170 195 0
170 195 0
169 195 0
169 195 0
168 194 0
169 195 0
170 196 0
169 195 0
170 195 0
168 194 0
171 196 0
170 196 0
169 194 0
170 195 0
169 195 0
169 195 0
169 195 0
168 194 0
170 195 0
169 195 0
169 195 0
169 195 0
170 196 0
170 195 0
169 195 0
169 195 0
169 195 0
169 194 0
169 195 0
169 195 0
169 195 0
168 194 0
169 194 0
170 195 0
170 195 0
169 195 0
169 195 0
168 195 0
168 194 0
170 195 0
168 194 0
170 195 0
168 194 0
169 195 0
169 195 0
170 195 0
169 195 0
170 195 0
169 195 0
170 195 0
170 195 0
168 194 0
168 194 0
168 195 0
169 195 0
170 195 0
169 195 0
169 195 0
170 196 0
169 195 0
171 196 0
169 195 0
170 195 0
169 195 0
169 195 0
170 196 0
168 194 0
169 195 0
168 194 0
168 194 0
170 195 0
169 195 0
169 195 0
170 195 0
169 195 0
168 195 0
170 195 0
168 195 0
168 195 0
169 195 0
170 195 0
170 195 0
171 196 0
169 195 0
169 195 0
168 195 0
169 195 0
171 196 0
169 195 0
170 195 0
168 195 0
169 195 0
169 195 0
170 195 0
170 196 0
169 195 0
169 195 0
168 195 0
169 195 0
171 196 0
169 195 0
169 195 0
170 195 0
170 196 0
168 194 0
169 195 0
169 195 0
169 195 0
170 196 0
168 195 0
170 195 0
170 195 0
170 195 0
169 195 0
169 195 0
168 195 0
170 195 0
170 196 0
169 195 0
170 196 0
169 195 0
170 195 0
169 195 0
169 195 0
170 195 0
170 195 0
168 195 0
169 195 0
170 195 0
170 196 0
169 195 0
170 196 0
168 195 0
169 195 0
169 195 0
169 195 0
168 195 0
170 195 0
170 195 0
170 195 0
169 195 0
170 195 0
169 195 0
169 195 0
170 195 0
170 195 0
169 195 0
170 196 44
176 200 88
173 198 62
177 201 88
186 208 140
180 203 114
189 211 155
189 210 157
185 207 147
181 205 127
176 201 105
174 199 84
171 196 80
171 196 57
170 196 67
166 192 72
168 194 62
170 195 25
167 194 76
169 195 62
169 195 72
169 195 80
171 197 72
168 195 51
171 198 88
171 197 76
169 196 72
171 197 62
171 197 62
168 194 62
169 196 62
173 198 76
171 197 80
170 197 67
175 200 92
175 200 88
172 198 67
177 202 108
181 204 122
184 206 133
177 201 99
182 205 125
177 201 92
175 199 80
175 199 80
171 197 62
175 199 76
170 195 36
170 195 0
169 194 0
169 195 0
168 195 0
168 194 0
169 195 0
168 195 0
168 194 0
169 194 0
168 194 0
170 196 0
168 194 0
170 195 0
170 195 0
169 195 0
169 195 0
169 194 0
170 196 0
170 195 0
169 195 0
170 196 0
169 195 0
170 195 0
169 195 0
168 195 0
169 195 0
169 195 0
169 195 0
170 195 0
169 195 0
170 196 0
169 195 0
168 195 0
169 195 0
168 194 0
169 195 0
169 195 0
170 195 0
170 196 0
169 195 0
169 195 0
168 194 0
169 195 0
170 196 0
170 196 0
169 195 0
171 196 0
169 195 0
170 195 0
170 195 0
170 195 0
168 195 0
170 195 0
170 195 0
169 195 0
169 195 0
169 195 0
170 195 0
169 195 0
170 195 0
169 195 0
168 194 0
169 195 0
170 195 0
170 196 0
169 195 0
170 195 0
169 195 0
169 194 0
169 195 0
169 194 0
168 194 0
169 195 0
171 196 0
169 195 0
169 195 0
170 195 0
169 195 0
169 195 0
170 196 0
170 195 0
170 196 0
169 195 0
169 195 0
167 193 0
169 195 0
170 196 0
169 195 0
169 195 0
169 195 0
169 195 0
169 195 0
170 195 0
170 195 0
170 196 0
169 195 0
170 195 0
169 195 0
170 196 0
169 195 0
169 195 0
170 195 0
169 195 0
169 195 0
171 196 0
169 195 0
169 195 0
171 196 0
169 195 0
169 195 0
169 195 0
169 195 0
170 196 0
169 195 0
169 195 0
170 195 0
169 195 0
170 195 0
168 195 0
169 195 0
169 195 0
169 195 0
168 194 0
169 195 0
170 195 0
170 195 0
170 195 0
167 194 0
169 195 0
168 195 0
168 195 0
169 195 0
169 195 0
170 195 0
169 195 0
170 195 0
170 195 0
169 195 0
170 196 0
169 195 0
168 195 0
169 195 0
170 195 0
168 195 0
169 195 0
169 195 0
169 195 0
170 195 0
171 196 0
169 195 0
170 196 0
170 196 36
174 198 67
175 199 76
177 201 88
180 203 108
183 205 122
183 205 122
185 207 135
185 207 137
178 202 111
173 197 76
173 198 84
173 198 84
171 196 57
170 196 67
172 198 84
170 196 72
168 194 54
170 196 57
171 197 72
170 196 74
171 198 88
168 195 72
168 194 62
171 197 80
170 197 92
169 196 76
170 197 84
169 195 57
170 196 62
171 197 57
172 198 72
171 197 57
172 198 76
172 198 92
171 197 67
172 197 72
174 199 84
178 202 102
178 202 108
179 203 122
177 201 92
175 200 92
175 200 84
177 201 99
176 200 88
172 197 57
170 196 44
169 195 0
168 194 25
170 195 0
169 195 0
169 195 0
169 195 0
169 194 0
169 195 0
169 195 0
169 195 0
169 195 0
169 195 0
168 195 0
170 195 0
170 195 0
169 195 0
170 195 0
168 194 0
167 193 0
169 195 0
170 195 0
169 195 0
169 194 0
169 195 0
170 195 0
170 196 0
169 194 0
167 193 0
169 195 0
170 195 0
169 195 0
168 194 0
170 196 0
169 195 0
168 194 0
169 195 0
169 195 0
169 194 0
169 195 0
168 195 0
169 195 0
168 195 0
167 194 0
170 195 0
168 194 0
169 195 0
168 194 0
169 195 0
170 196 0
169 195 0
169 195 0
169 194 0
168 195 0
169 195 0
171 196 0
170 196 0
168 195 0
170 196 0
169 195 0
170 195 0
168 194 0
169 195 0
168 194 0
168 194 0
169 195 0
169 195 0
169 195 0
169 195 0
170 196 0
170 195 0
168 194 0
169 195 0
171 196 0
169 195 0
169 195 0
170 195 0
169 195 0
168 195 0
170 196 0
170 195 0
170 195 0
169 195 0
169 195 0
169 195 0
169 195 0
169 195 0
170 195 0
169 195 0
168 195 0
169 194 0
169 195 0
169 195 0
168 195 0
170 196 0
169 195 0
168 195 0
170 195 0
170 195 0
170 195 0
170 195 0
169 195 0
168 195 0
170 195 0
169 195 0
168 195 0
170 195 0
169 195 0
169 195 0
170 196 0
169 195 0
169 195 0
170 195 0
170 195 0
168 195 0
170 195 0
170 196 0
170 195 0
169 195 0
169 195 0
170 195 0
170 196 0
170 195 0
168 195 0
169 195 0
168 194 0
169 195 0
169 195 0
170 196 0
168 194 0
169 195 0
169 195 0
169 195 0
170 195 0
169 195 0
169 195 0
169 194 0
169 195 0
169 195 0
169 195 0
170 195 0
168 195 0
167 194 0
170 195 0
168 195 0
170 195 0
169 195 0
169 195 0
170 195 0
170 195 0
169 195 0
170 195 0
170 196 0
171 196 25
174 198 72
176 200 84
176 200 80
176 200 88
178 202 99
183 205 122
182 205 122
180 203 114
175 200 95
174 199 88
171 196 57
169 195 51
171 197 102
170 195 80
171 197 80
171 196 62
167 193 76
166 192 72
168 194 84
166 192 44
171 197 72
169 195 47
168 194 62
170 197 84
169 195 57
170 197 67
170 196 36
171 196 57
169 195 80
171 197 57
172 198 80
172 199 99
171 197 67
171 197 57
172 198 76
174 199 88
172 197 67
173 198 84
172 198 72
179 202 108
178 202 105
180 203 111
178 202 105
177 200 95
176 200 80
172 197 57
171 197 51
170 196 36
169 195 36
170 196 25
170 195 0
169 195 0
169 195 0
168 195 0
170 195 0
169 195 0
169 194 0
169 195 0
165 192 0
167 193 0
169 195 0
169 195 0
169 195 0
168 195 0
169 195 0
167 193 0
170 195 0
170 195 0
169 195 0
169 195 0
169 195 0
169 195 0
170 195 0
170 195 0
170 195 0
169 195 0
170 195 0
169 195 0
169 195 0
170 195 0
168 194 0
170 196 0
169 195 0
168 194 0
169 195 0
169 194 0
169 195 0
169 194 0
170 195 0
169 195 0
169 195 0
170 195 0
167 194 0
169 195 0
169 195 0
170 195 0
169 195 0
170 195 0
168 194 0
169 195 0
169 195 0
169 195 0
170 196 0
169 195 0
170 196 0
169 195 0
170 195 0
169 195 0
170 195 0
170 195 0
169 195 0
169 195 0
170 195 0
170 195 0
168 195 0
169 195 0
168 195 0
170 195 0
169 195 0
168 195 0
169 195 0
169 195 0
169 195 0
170 195 0
169 194 0
169 195 0
170 195 0
169 195 0
169 195 0
169 195 0
169 195 0
170 196 0
169 195 0
170 196 0
170 195 0
169 195 0
169 195 0
170 195 0
170 195 0
168 194 0
169 195 0
171 196 0
169 195 0
169 195 0
169 194 0
170 195 0
168 194 0
169 195 0
170 196 0
168 194 0
169 195 0
169 195 0
170 195 0
168 194 0
169 195 0
169 195 0
170 195 0
169 195 0
169 195 0
170 195 0
169 195 0
169 195 0
170 195 0
169 195 0
169 195 0
169 195 0
170 195 0
170 195 0
169 195 0
168 195 0
169 195 0
169 195 0
168 195 0
169 195 0
170 196 0
169 195 0
169 195 0
170 195 0
170 195 0
170 195 0
168 195 0
171 196 0
169 195 0
169 195 0
169 195 0
169 195 0
169 195 0
169 195 0
169 195 0
170 196 0
169 195 0
170 196 0
170 195 0
169 195 0
169 195 0
169 195 0
169 195 0
170 195 0
170 196 25
174 199 72
173 198 72
175 200 80
177 201 88
177 201 107
182 205 122
182 204 122
184 206 133
179 203 111
175 200 99
173 198 76
169 195 67
170 196 36
170 195 65
171 196 67
168 194 57
168 194 51
169 195 62
170 196 72
166 193 60
171 198 92
169 194 60
166 192 60
167 193 44
167 194 72
167 194 76
171 197 72
170 197 80
172 197 67
171 196 76
171 197 67
171 197 80
171 197 76
170 196 51
172 198 80
172 198 76
174 199 99
173 198 76
173 198 76
172 197 62
177 201 111
179 202 114
176 201 95
181 204 117
174 199 76
177 201 92
175 200 84
174 199 72
171 196 51
170 195 36
168 195 0
168 195 0
168 195 0
170 195 0
169 195 0
168 194 0
169 195 0
170 195 0
166 192 0
170 195 0
169 195 0
169 195 0
168 195 0
169 195 0
168 194 0
170 195 0
169 195 0
169 195 0
169 195 0
168 194 0
168 194 0
169 195 0
170 196 0
169 195 0
170 195 0
168 195 0
168 194 0
170 195 0
170 195 0
168 195 0
170 195 0
169 195 0
168 195 0
167 194 0
170 196 0
170 195 0
168 194 0
170 195 0
170 196 0
169 195 0
169 195 0
169 195 0
170 195 0
170 195 0
170 195 0
169 195 0
168 194 0
169 195 0
168 194 0
169 195 0
168 194 0
170 195 0
168 194 0
168 194 0
169 195 0
168 195 0
169 195 0
169 195 0
168 194 0
169 194 0
168 194 0
169 195 0
169 195 0
170 196 0
169 195 0
169 195 0
170 195 0
169 195 0
169 195 0
170 196 0
168 194 0
169 195 0
169 195 0
168 195 0
170 195 0
169 195 0
171 196 0
168 194 0
169 195 0
170 195 0
170 195 0
170 195 0
170 195 0
170 196 0
169 195 0
170 195 0
170 195 0
170 196 0
170 196 0
169 195 0
169 195 0
170 195 0
170 196 0
169 195 0
171 196 0
170 195 0
170 195 0
169 195 0
169 195 0
170 195 0
170 195 0
169 195 0
170 195 0
169 195 0
169 195 0
169 195 0
169 195 0
168 195 0
169 195 0
170 195 0
170 195 0
170 195 0
169 195 0
169 194 0
170 196 0
169 195 0
169 195 0
169 195 0
170 195 0
171 196 0
169 195 0
169 195 0
169 195 0
170 195 0
169 195 0
168 195 0
170 195 0
169 195 0
169 195 0
168 195 0
170 195 0
169 195 0
170 196 0
169 195 0
170 195 0
169 195 0
169 195 0
169 195 0
169 195 0
169 195 0
169 195 0
169 195 0
170 195 0
169 195 0
169 195 0
170 196 0
170 196 0
169 195 0
168 195 0
169 195 36
174 198 67
171 197 57
175 199 76
176 201 95
178 202 105
181 204 117
180 203 120
179 203 120
172 197 67
173 198 84
172 197 80
172 197 78
171 197 67
171 197 84
170 196 67
171 197 76
167 193 74
169 195 62
170 196 72
171 196 74
170 196 72
169 195 62
170 196 57
168 194 60
171 196 80
170 196 60
169 194 62
171 196 72
169 196 80
170 196 67
171 197 76
172 198 88
170 196 72
169 195 57
170 196 62
172 197 76
171 197 88
173 199 84
172 197 62
172 198 67
175 200 92
178 202 105
177 201 99
177 201 92
180 203 105
172 197 67
174 198 67
172 197 62
170 196 36
171 196 62
171 196 36
168 194 0
168 194 0
170 196 0
169 195 0
169 195 0
169 195 0
169 194 18
169 195 0
167 192 25
169 195 0
168 194 18
169 194 18
169 195 0
170 196 0
169 195 0
168 194 0
168 194 0
169 195 0
169 195 0
169 195 0
169 195 0
169 195 0
170 195 0
169 195 0
169 195 0
170 196 0
169 194 0
169 195 0
168 195 0
169 195 0
169 195 0
167 193 0
170 195 0
169 195 0
168 194 0
170 195 0
169 195 0
168 195 0
169 195 0
168 194 0
169 195 0
169 194 0
169 195 0
168 194 0
168 194 0
170 195 0
170 195 0
169 195 0
170 195 0
168 194 0
169 195 0
170 195 0
170 195 0
169 195 0
171 196 0
169 195 0
169 195 0
170 196 0
169 195 0
169 195 0
169 195 0
170 195 0
170 195 0
169 195 0
169 195 0
169 195 0
170 195 0
169 195 0
171 196 0
168 195 0
169 195 0
170 196 0
169 195 0
170 195 0
169 195 0
170 195 0
168 195 0
169 195 0
169 195 0
169 195 0
169 195 0
168 194 0
169 195 0
170 195 0
170 195 0
168 195 0
169 194 0
170 195 0
169 195 0
170 195 0
170 195 0
169 195 0
169 195 0
170 195 0
170 195 0
169 195 0
168 195 0
169 195 0
169 194 0
169 195 0
170 195 0
168 195 0
169 195 0
170 195 0
170 195 0
169 195 0
169 195 0
169 195 0
170 195 0
169 195 0
169 195 0
169 195 0
169 195 0
169 195 0
170 195 0
170 195 0
168 195 0
169 195 0
170 196 0
170 195 0
170 195 0
170 196 0
170 195 0
168 195 0
170 195 0
169 195 0
168 194 0
169 195 0
168 195 0
169 195 0
170 196 0
169 195 0
169 195 0
169 195 0
168 194 0
169 195 0
169 195 0
169 195 0
170 195 0
169 195 0
169 195 0
169 195 0
169 195 0
169 195 0
169 195 0
169 195 0
169 194 0
169 194 0
169 195 25
172 197 51
170 195 0
174 198 72
174 199 76
177 201 92
183 206 130
181 204 127
180 203 114
174 199 92
172 197 72
169 195 47
172 198 72
170 196 60
167 193 80
173 198 84
169 195 62
168 195 57
169 194 65
168 194 62
168 194 62
168 194 72
171 197 72
168 194 78
171 197 67
170 196 95
171 197 62
172 198 72
172 198 88
172 198 84
171 196 62
172 198 88
173 199 80
171 197 67
172 197 62
171 197 62
170 196 44
170 196 80
171 196 57
172 197 62
172 197 67
175 200 88
177 201 102
176 200 88
180 203 108
177 201 92
175 200 76
172 197 62
172 197 57
171 196 44
169 195 25
169 195 0
169 195 0
169 195 18
165 191 36
160 186 62
155 181 78
148 174 94
134 161 118
128 156 125
119 147 137
125 153 127
127 155 125
141 167 107
143 169 102
156 182 74
162 188 54
165 191 36
167 193 25
169 194 0
170 195 0
170 195 0
171 196 0
169 195 0
166 192 0
169 195 0
169 195 0
170 195 0
170 196 0
170 195 0
169 195 0
168 194 0
169 195 0
167 193 0
169 195 0
170 195 0
169 194 0
167 193 0
168 194 0
170 196 0
167 193 0
169 195 0
169 195 0
169 195 0
169 195 0
169 195 0
170 195 0
169 194 0
169 195 0
169 195 0
170 195 0
167 193 0
170 195 0
169 195 0
170 195 0
169 195 0
169 195 0
170 195 0
170 196 0
170 196 0
168 194 0
169 195 0
169 195 0
168 194 0
168 194 0
169 195 0
169 194 0
170 195 0
168 195 0
169 195 0
169 194 0
169 195 0
169 195 0
169 195 0
170 195 0
169 195 0
170 195 0
170 195 0
169 195 0
170 195 0
168 194 0
169 195 0
170 195 0
169 195 0
169 195 0
169 195 0
168 195 0
170 195 0
171 196 0
168 195 0
168 195 0
169 195 0
169 195 0
168 194 0
169 195 0
171 196 0
170 195 0
169 195 0
168 194 0
169 195 0
169 195 0
169 195 0
169 195 0
169 195 0
169 195 0
169 195 0
170 195 0
170 195 0
170 195 0
168 195 0
170 195 0
169 195 0
169 195 0
169 195 0
169 195 0
169 195 0
170 196 0
169 195 0
170 195 0
169 195 0
168 195 0
168 195 0
170 195 0
169 195 0
170 195 0
169 194 0
170 196 0
170 195 0
169 195 0
169 195 0
169 195 0
169 195 0
169 195 0
170 195 0
170 196 0
170 195 0
169 195 0
170 196 0
169 195 0
169 195 0
169 195 0
169 195 0
169 195 0
169 195 0
168 195 0
168 194 0
170 195 0
168 195 0
168 195 0
169 195 0
169 195 0
170 196 25
172 197 51
174 198 67
178 201 92
178 202 105
181 204 122
178 202 111
174 198 92
172 197 57
170 195 62
172 198 80
169 195 67
167 193 60
170 196 51
171 196 72
168 194 54
167 194 74
167 193 60
166 191 65
169 195 72
168 194 54
170 196 80
170 196 57
170 196 67
172 198 80
170 196 70
170 196 67
171 197 72
171 196 76
172 197 62
170 196 67
175 200 108
172 197 84
172 197 72
173 199 80
172 197 76
174 199 88
172 198 72
171 197 76
174 198 72
173 198 76
176 201 95
176 200 84
180 204 114
173 198 72
173 198 67
174 199 72
169 194 44
172 197 57
168 194 25
161 187 54
153 179 82
114 143 141
104 134 151
82 115 168
64 100 178
60 98 181
60 98 181
60 98 181
60 98 181
60 98 181
60 98 181
60 98 181
59 97 181
70 105 176
86 118 166
104 133 153
125 152 131
142 168 105
163 189 51
168 194 25
168 194 0
169 195 0
167 194 0
168 195 0
169 195 0
169 195 0
168 194 0
169 195 0
170 196 0
169 195 0
170 195 0
169 195 0
169 195 0
170 195 0
168 194 0
170 195 0
170 195 0
168 194 0
166 193 0
168 194 0
170 195 0
168 195 0
169 194 0
168 194 0
169 195 0
169 194 0
168 193 0
169 195 0
168 195 0
170 196 0
170 195 0
169 195 0
168 194 0
169 195 0
169 195 0
168 194 0
169 195 0
169 195 0
169 195 0
169 195 0
169 195 0
168 195 0
169 195 0
169 195 0
171 196 0
169 195 0
170 195 0
170 195 0
169 195 0
169 195 0
170 195 0
169 195 0
168 195 0
169 195 0
170 195 0
169 195 0
168 194 0
169 195 0
170 195 0
170 195 0
168 194 0
170 195 0
169 195 0
169 195 0
169 195 0
169 194 0
169 195 0
170 195 0
170 195 0
169 195 0
169 195 0
170 195 0
169 195 0
170 195 0
169 195 0
169 195 0
169 195 0
170 195 0
170 195 0
169 195 0
170 196 0
170 195 0
171 196 0
169 195 0
169 195 0
170 196 0
171 196 0
169 195 0
169 195 0
169 195 0
168 194 0
169 195 0
168 194 0
170 195 0
169 195 0
169 195 0
170 195 0
170 195 0
169 195 0
168 195 0
170 195 0
171 196 0
169 195 0
169 195 0
170 195 0
169 195 0
170 196 0
170 195 0
169 195 0
169 195 0
169 195 0
169 195 0
170 196 0
170 196 0
170 196 0
170 195 0
169 195 0
170 195 0
169 195 0
169 195 0
168 195 0
169 195 0
169 195 0
168 194 0
169 194 0
169 195 0
170 195 0
169 194 0
170 195 25
172 197 57
173 198 72
173 198 67
176 200 92
174 199 84
175 199 80
179 202 105
173 198 76
174 199 84
175 200 95
172 197 80
171 196 76
171 197 76
171 197 62
170 195 84
170 196 57
169 194 78
168 194 74
169 194 65
167 192 57
165 191 62
167 193 51
172 198 84
168 194 72
168 194 62
169 195 76
169 195 65
170 196 67
171 197 76
170 196 57
173 199 88
172 197 84
170 197 76
171 196 51
172 198 72
172 197 80
173 199 88
176 200 102
172 197 72
175 199 80
172 197 62
173 198 84
174 199 80
173 198 72
175 200 84
175 199 76
172 197 76
169 194 65
157 182 90
141 168 107
102 132 154
67 103 177
61 98 181
60 98 181
61 98 181
60 98 181
60 98 181
60 98 181
60 97 181
60 98 181
60 97 181
60 97 181
60 98 181
60 97 181
60 97 181
60 98 181
60 98 181
60 98 181
68 103 177
91 122 162
128 156 126
161 187 60
162 189 47
169 195 0
168 194 0
169 195 0
168 194 0
169 195 0
170 195 0
170 195 0
168 194 0
170 195 0
170 196 0
169 195 0
168 195 0
170 195 0
169 194 0
169 195 0
170 195 0
168 194 0
170 195 0
169 195 0
170 195 0
170 196 0
169 194 0
169 195 0
169 195 0
169 195 0
169 195 0
169 195 0
168 194 0
169 194 0
168 194 0
170 196 0
168 195 0
168 195 0
169 195 0
169 195 0
170 195 0
168 195 0
167 193 0
169 195 0
170 196 0
169 195 0
169 195 0
170 195 0
170 196 0
169 195 0
169 195 0
169 195 0
169 195 0
169 195 0
171 196 0
170 196 0
170 195 0
169 195 0
170 195 0
170 195 0
169 195 0
170 195 0
169 195 0
170 195 0
168 195 0
169 195 0
169 195 0
170 195 0
169 195 0
168 195 0
169 195 0
168 194 0
170 196 0
170 196 0
168 194 0
169 195 0
170 195 0
169 195 0
169 195 0
169 195 0
169 195 0
170 195 0
169 195 0
169 195 0
169 194 0
170 195 0
170 196 0
169 195 0
170 195 0
169 195 0
171 196 0
170 195 0
169 195 0
169 195 0
170 195 0
170 196 0
169 195 0
169 195 0
170 195 0
168 195 0
169 195 0
170 195 0
169 195 0
170 195 0
170 196 0
170 195 0
168 194 0
170 196 0
170 195 0
169 195 0
170 195 0
170 195 0
170 195 0
169 195 0
170 196 0
170 196 0
169 195 0
169 195 0
169 195 0
170 195 0
170 195 0
169 195 0
169 195 0
169 195 0
170 195 0
168 194 0
170 195 0
170 195 0
169 195 0
169 195 0
169 195 0
170 196 25
172 197 57
174 198 72
174 199 67
176 200 84
178 202 95
177 201 95
171 197 62
172 197 67
170 196 62
170 196 54
171 197 51
172 198 76
169 195 60
173 198 72
170 195 84
169 194 54
165 191 51
167 193 54
171 196 68
165 191 70
168 194 65
169 195 62
165 191 62
170 196 67
172 197 80
168 194 74
173 199 80
171 197 57
170 196 74
170 196 62
172 197 62
172 198 62
172 198 84
174 199 76
172 197 57
171 197 62
172 198 88
169 195 70
173 198 76
173 198 92
172 197 76
173 197 99
174 199 88
172 197 62
174 199 76
170 195 51
161 187 76
131 158 122
83 115 168
61 99 181
61 98 181
60 98 181
60 97 181
60 98 181
60 97 181
60 97 181
60 97 181
60 97 181
60 98 181
60 98 181
60 97 181
59 97 181
60 97 181
59 97 181
60 98 181
60 97 181
60 98 181
60 97 181
60 98 181
60 97 181
60 98 181
83 116 168
125 153 130
153 179 76
167 192 31
171 196 0
169 194 0
169 195 0
169 195 0
169 195 0
169 195 0
168 194 0
169 194 0
170 195 0
169 195 0
169 195 0
170 195 0
168 193 0
169 195 0
168 195 0
168 194 0
169 195 0
168 195 0
168 194 0
169 195 0
168 195 0
169 195 0
170 195 0
169 195 0
169 195 0
169 195 0
169 195 0
170 195 0
169 194 0
168 194 0
169 195 0
168 195 0
170 195 0
169 195 0
167 194 0
169 195 0
169 195 0
168 194 0
169 195 0
168 194 0
170 195 0
169 195 0
171 196 0
169 195 0
168 195 0
169 195 0
170 195 0
169 195 0
169 195 0
169 195 0
169 195 0
170 195 0
168 194 0
170 195 0
168 194 0
169 195 0
169 195 0
169 195 0
170 195 0
169 195 0
169 195 0
169 195 0
169 194 0
170 195 0
169 195 0
168 195 0
170 195 0
169 195 0
169 195 0
169 195 0
168 194 0
169 195 0
168 195 0
170 196 0
169 195 0
169 195 0
170 195 0
169 195 0
170 195 0
169 195 0
170 195 0
169 195 0
167 194 0
170 196 0
169 195 0
170 195 0
169 195 0
170 195 0
169 195 0
170 196 0
169 195 0
170 195 0
169 195 0
170 195 0
169 195 0
169 195 0
168 194 0
168 195 0
170 196 0
169 195 0
170 196 0
170 195 0
170 195 0
169 195 0
170 195 0
168 194 0
168 194 0
169 195 0
169 195 0
170 195 0
170 195 0
169 195 0
170 195 0
169 195 0
168 195 0
170 196 0
170 195 0
171 196 0
169 195 0
168 195 0
169 195 0
168 194 0
171 196 0
169 195 0
169 195 0
173 198 57
173 198 62
171 196 44
174 199 76
177 201 95
174 199 84
175 199 88
175 199 88
173 199 80
173 198 72
171 196 72
170 196 67
172 197 76
172 197 84
170 195 70
170 196 70
168 194 51
169 195 60
170 195 72
167 193 86
170 196 74
168 194 90
167 193 57
169 194 70
173 198 86
172 197 67
169 195 70
172 198 76
173 198 80
173 198 80
170 196 51
171 196 51
173 198 72
170 196 76
172 197 70
173 198 76
169 194 72
172 197 57
171 196 70
170 195 74
171 197 78
173 198 62
173 198 67
172 197 84
167 193 72
140 166 125
83 115 167
60 98 180
61 98 181
60 98 181
61 98 181
60 98 181
60 98 181
60 98 181
60 98 181
60 97 181
60 97 181
60 98 181
60 98 181
60 97 181
60 97 181
60 97 181
60 98 181
60 97 181
60 97 181
60 98 181
60 97 181
60 98 181
60 98 181
60 98 181
61 98 181
61 98 181
61 98 181
89 120 163
136 163 115
162 188 54
169 195 18
170 195 0
168 194 0
169 195 0
168 194 0
169 195 0
170 195 0
168 194 0
169 195 0
169 195 0
171 196 0
169 194 0
170 195 0
168 194 0
170 196 0
169 195 0
170 196 0
168 194 0
169 195 0
169 195 0
168 194 0
169 195 0
168 195 0
168 195 0
168 195 0
169 195 0
169 195 0
170 195 0
170 195 0
169 195 0
169 195 0
170 196 0
169 195 0
170 195 0
170 195 0
170 196 0
169 195 0
169 195 0
167 194 0
169 195 0
168 194 0
170 195 0
168 194 0
169 195 0
168 194 0
168 195 0
170 195 0
170 196 0
169 195 0
170 196 0
170 195 0
169 195 0
169 195 0
168 194 0
169 195 0
169 195 0
169 195 0
168 195 0
169 195 0
170 195 0
169 195 0
170 196 0
168 194 0
170 195 0
169 195 0
170 196 0
169 195 0
170 195 0
170 195 0
169 195 0
169 195 0
169 195 0
170 195 0
170 195 0
169 195 0
170 196 0
171 196 0
169 195 0
169 195 0
168 195 0
168 194 0
169 195 0
169 195 0
169 195 0
169 195 0
169 195 0
169 195 0
168 195 0
169 195 0
170 196 0
168 194 0
170 195 0
169 195 0
170 196 0
169 195 0
169 195 0
170 196 0
168 195 0
169 195 0
170 195 0
168 194 0
170 195 0
170 196 0
170 195 0
170 195 0
169 195 0
169 195 0
168 195 0
169 195 0
169 195 0
168 195 0
169 195 0
170 195 0
170 195 0
170 195 0
168 194 0
169 195 0
170 195 0
170 195 0
169 195 0
169 195 0
169 195 0
169 195 0
169 195 0
170 196 44
169 195 25
174 199 67
174 198 76
174 199 72
175 200 92
173 198 76
173 198 67
172 197 72
173 198 76
173 198 92
171 197 72
170 195 54
171 197 67
171 196 88
171 196 74
168 194 67
171 196 74
169 195 72
171 196 67
169 194 74
170 196 86
170 195 90
170 196 57
173 198 87
172 198 102
171 197 84
170 196 72
173 198 78
172 197 72
174 199 80
169 195 70
170 196 72
172 197 90
170 195 67
170 196 76
169 194 86
167 192 76
171 196 72
170 196 72
168 194 62
171 196 72
170 195 74
157 183 97
105 134 155
62 99 180
61 98 180
61 98 180
60 98 180
61 98 181
60 98 181
61 98 181
60 98 181
60 98 181
60 98 181
59 97 181
60 97 181
60 97 181
59 97 181
60 98 181
60 98 181
59 97 181
60 97 181
60 98 181
60 98 181
60 98 181
60 98 181
60 97 181
60 98 181
61 98 181
60 98 181
60 98 181
60 98 181
62 99 181
63 100 179
104 133 150
155 182 74
170 195 18
169 195 0
169 195 0
169 194 0
170 195 0
169 195 0
169 195 0
170 195 0
170 195 0
168 194 0
170 195 0
169 195 0
169 195 0
169 195 0
168 194 0
169 195 0
169 194 0
168 195 0
170 195 0
168 195 0
169 195 0
170 195 0
168 194 0
169 195 0
168 195 0
168 194 0
169 195 0
170 196 0
169 195 0
169 195 0
169 195 0
169 194 0
170 195 0
169 195 0
170 195 0
169 195 0
170 195 0
170 195 0
168 195 0
169 194 0
170 195 0
170 195 0
169 195 0
170 195 0
170 195 0
169 195 0
169 195 0
169 195 0
169 195 0
169 195 0
169 195 0
170 196 0
169 195 0
169 195 0
169 195 0
170 195 0
169 195 0
169 195 0
169 195 0
168 195 0
170 195 0
169 195 0
169 195 0
167 194 0
169 195 0
169 195 0
169 195 0
170 196 0
170 195 0
168 195 0
168 194 0
169 195 0
169 195 0
169 195 0
169 195 0
169 195 0
170 196 0
170 196 0
169 195 0
171 196 0
170 195 0
169 195 0
168 195 0
168 195 0
170 195 0
169 195 0
170 195 0
169 195 0
170 196 0
169 195 0
169 195 0
170 195 0
169 195 0
169 195 0
169 195 0
170 195 0
169 195 0
171 196 0
171 196 0
170 195 0
169 195 0
169 195 0
169 195 0
168 195 0
169 195 0
170 195 0
168 195 0
169 195 0
170 195 0
170 195 0
168 194 0
169 195 0
170 196 0
170 195 0
169 195 0
168 194 0
168 194 0
169 195 0
170 196 0
170 195 0
168 194 0
170 195 0
169 195 0
171 196 44
172 197 57
170 196 25
172 197 51
173 198 70
174 199 76
174 199 84
175 199 76
173 198 67
174 199 76
172 198 72
173 198 76
172 197 72
171 197 82
171 196 57
173 198 76
171 197 51
172 197 86
167 193 51
170 196 80
167 193 47
172 197 92
167 193 57
168 194 67
169 194 78
170 196 72
171 197 88
173 198 72
169 195 70
175 199 84
174 199 92
168 194 57
171 196 74
167 193 65
170 195 91
166 191 65
166 191 95
168 194 57
167 193 54
169 195 82
166 191 70
167 192 80
149 175 110
83 115 165
61 98 181
60 98 181
61 98 181
61 98 181
61 98 181
60 98 181
60 98 181
61 98 181
61 98 181
60 98 181
60 98 181
60 98 181
60 97 181
60 98 181
60 97 181
60 97 181
60 98 181
60 97 181
60 97 181
60 97 181
60 98 181
60 98 181
61 98 181
60 98 181
60 98 181
61 98 181
60 98 181
60 98 180
61 98 181
61 98 181
61 98 180
62 99 178
89 120 163
141 167 105
166 192 40
169 195 0
168 194 0
169 195 0
168 194 0
168 194 0
169 195 0
169 195 0
169 195 0
168 194 0
168 194 0
167 193 0
169 195 0
169 195 0
167 193 0
169 195 0
170 195 0
168 194 0
169 195 0
169 195 0
169 195 0
168 194 0
168 194 0
169 195 0
170 195 0
169 195 0
169 195 0
169 194 0
170 195 0
169 195 0
168 194 0
169 195 0
170 196 0
169 195 0
169 195 0
168 195 0
170 195 0
169 194 0
170 195 0
169 195 0
168 194 0
170 196 0
168 194 0
169 195 0
169 195 0
170 196 0
171 196 0
168 194 0
169 195 0
170 195 0
169 195 0
169 195 0
170 195 0
172 196 0
169 195 0
170 195 0
169 195 0
169 195 0
170 195 0
170 195 0
170 195 0
170 195 0
169 195 0
171 196 0
168 194 0
168 195 0
170 195 0
169 195 0
169 195 0
169 195 0
169 195 0
169 195 0
169 195 0
169 195 0
168 194 0
171 196 0
169 194 0
169 195 0
169 195 0
169 195 0
168 194 0
170 195 0
169 195 0
171 196 0
170 195 0
167 194 0
169 195 0
169 195 0
171 196 0
169 195 0
170 195 0
170 195 0
169 195 0
169 195 0
169 195 0
169 195 0
170 195 0
168 194 0
170 195 0
168 195 0
169 195 0
168 194 0
168 194 0
170 195 0
169 195 0
168 194 0
169 195 0
169 195 0
168 194 0
169 195 0
170 195 0
170 195 0
169 195 0
169 195 0
169 195 0
169 195 0
169 195 0
169 195 0
168 194 0
169 195 0
168 194 0
169 195 31
171 197 44
171 196 36
173 198 57
169 195 44
175 199 67
171 197 51
176 200 92
174 198 76
173 198 84
173 198 72
173 198 72
172 197 67
173 198 78
173 199 80
170 195 82
173 198 88
172 197 76
173 198 82
169 195 40
170 196 51
170 195 72
170 196 51
171 197 108
172 197 67
171 198 80
173 198 67
172 197 76
170 196 72
175 199 80
173 198 84
174 199 97
165 191 76
169 194 70
165 191 65
163 189 51
166 192 65
168 194 62
168 194 54
166 191 65
165 190 72
167 192 82
141 166 130
71 105 171
61 99 181
61 99 180
61 98 181
60 98 181
61 99 181
61 98 181
60 98 180
60 98 181
60 98 181
61 98 181
60 97 181
60 98 181
60 98 181
60 97 181
59 97 181
60 98 181
60 97 181
60 98 181
60 97 181
59 97 181
60 98 181
60 97 181
59 97 181
60 98 181
61 98 181
60 98 181
60 98 181
60 98 181
60 98 181
61 98 181
60 98 181
61 98 181
62 99 181
62 99 181
72 107 174
134 161 117
160 187 51
169 195 0
169 195 0
169 195 0
167 193 0
168 194 0
170 195 0
168 194 0
169 195 0
169 195 0
168 194 0
167 193 0
168 194 0
169 195 0
169 195 0
169 195 0
168 194 0
168 195 0
169 195 0
168 194 0
168 194 0
169 195 0
169 194 0
168 194 0
169 195 0
168 195 0
169 195 0
169 195 0
169 195 0
169 195 0
169 195 0
169 195 0
170 195 0
167 193 0
169 195 0
169 195 0
171 196 0
169 195 0
169 195 0
169 195 0
169 195 0
170 195 0
170 195 0
169 194 0
169 195 0
169 195 0
170 195 0
170 196 0
169 195 0
169 195 0
170 195 0
168 195 0
168 195 0
170 195 0
168 194 0
169 195 0
170 196 0
169 195 0
169 195 0
169 195 0
169 195 0
169 195 0
170 196 0
169 195 0
169 195 0
168 194 0
170 195 0
169 195 0
171 196 0
169 195 0
170 196 0
169 195 0
169 195 0
170 196 0
169 195 0
169 195 0
169 195 0
169 195 0
169 195 0
168 194 0
169 195 0
169 195 0
169 195 0
170 195 0
171 196 0
170 195 0
170 195 0
169 195 0
169 195 0
170 196 0
170 195 0
169 195 0
170 195 0
169 195 0
168 195 0
168 195 0
169 195 0
169 195 0
169 195 0
168 195 0
168 194 0
169 195 0
169 195 0
170 196 0
169 195 0
168 194 0
169 195 0
170 196 0
169 195 0
169 195 0
169 195 0
169 195 0
169 195 0
168 195 0
169 195 0
170 195 0
170 195 0
169 195 0
169 195 0
169 195 0
169 195 0
169 195 0
170 196 36
170 195 25
173 198 62
171 197 51
171 196 51
173 198 67
172 198 62
176 200 76
177 200 103
171 196 78
173 198 76
177 201 102
172 197 80
172 198 78
174 198 95
172 197 78
173 199 80
174 199 80
170 195 83
169 195 74
170 196 60
171 196 79
173 198 88
169 195 92
171 197 76
172 198 72
169 195 67
171 196 76
171 196 72
170 195 82
168 194 76
167 192 67
166 192 51
165 191 88
165 191 74
166 192 65
166 191 86
167 193 72
166 192 65
136 163 121
72 106 176
62 99 181
62 99 180
62 99 181
61 98 181
61 98 180
61 98 179
61 98 181
60 98 181
61 98 181
60 98 181
60 98 181
60 98 181
60 98 181
60 98 181
60 98 181
60 98 181
60 97 181
60 98 181
60 98 181
60 98 181
60 98 181
60 97 181
60 98 181
60 98 181
60 98 181
60 98 181
60 98 181
60 98 181
60 98 181
61 98 180
61 98 180
61 98 181
61 99 181
61 98 180
62 99 180
62 99 178
65 101 174
135 162 110
166 192 36
170 195 0
168 194 0
169 195 0
168 193 0
169 195 0
168 194 0
168 194 0
168 194 0
169 195 0
170 195 0
169 195 0
168 194 0
168 194 0
167 193 0
167 193 0
170 195 0
169 195 0
170 195 0
168 194 0
168 194 0
169 195 0
170 195 0
169 195 0
169 195 0
169 195 0
167 193 0
168 193 0
170 195 0
169 195 0
169 195 0
169 195 0
169 195 0
170 196 0
168 194 0
169 195 0
170 196 0
169 194 0
168 195 0
171 196 0
167 193 0
168 194 0
169 195 0
168 194 0
169 195 0
169 195 0
169 195 0
170 195 0
169 195 0
170 195 0
170 195 0
169 194 0
170 195 0
170 195 0
168 194 0
170 196 0
169 195 0
168 194 0
170 195 0
169 195 0
169 194 0
170 195 0
169 194 0
169 195 0
170 195 0
170 195 0
168 195 0
169 195 0
168 195 0
168 195 0
169 195 0
169 195 0
168 194 0
170 195 0
170 196 0
169 195 0
170 195 0
170 195 0
169 195 0
168 194 0
168 195 0
171 196 0
169 195 0
169 195 0
170 195 0
169 195 0
169 195 0
167 194 0
168 195 0
169 195 0
169 195 0
170 195 0
170 196 0
170 195 0
170 196 0
169 195 0
168 195 0
169 195 0
169 195 0
169 195 0
168 194 0
169 195 0
169 195 0
169 195 0
169 195 0
169 195 0
169 195 0
169 194 0
169 195 0
169 195 0
168 195 0
170 195 0
169 195 0
168 195 0
169 195 0
169 194 0
169 195 0
169 195 0
168 194 0
169 195 0
171 196 0
169 195 0
171 196 57
171 196 36
171 196 44
171 196 51
175 200 84
175 199 80
174 199 72
174 199 72
172 197 62
174 198 72
171 196 62
175 200 88
178 202 105
173 198 102
175 199 88
168 193 57
172 198 92
173 198 76
173 198 67
175 200 95
172 197 80
171 196 82
172 197 67
171 197 70
169 195 36
172 197 76
173 198 90
172 197 80
166 191 78
165 190 74
170 195 88
167 193 51
168 193 60
168 193 67
165 190 70
161 186 80
164 189 80
131 158 126
69 104 179
62 99 181
62 99 177
62 99 180
61 98 179
61 98 181
61 98 181
61 98 181
61 98 180
61 98 180
61 98 181
61 98 181
60 98 181
60 97 180
60 98 180
60 98 181
60 97 181
60 98 181
60 98 181
60 97 181
60 98 181
60 98 181
60 97 181
60 98 180
60 98 181
60 98 181
60 98 181
60 98 180
61 98 181
60 98 180
61 98 181
61 98 181
60 98 180
61 98 180
61 98 179
61 98 181
61 99 180
62 99 180
62 99 179
76 109 171
127 155 124
167 193 25
169 194 0
168 194 0
168 194 0
169 195 0
167 193 0
169 195 0
169 194 0
169 195 0
169 195 0
169 195 0
168 194 0
169 195 0
169 195 0
169 194 0
170 195 0
170 196 0
170 196 0
168 194 0
168 194 0
168 194 0
168 195 0
170 195 0
169 195 0
169 195 0
169 195 0
170 195 0
167 193 0
170 195 0
169 195 0
170 196 0
169 195 0
170 195 0
169 195 0
169 195 0
169 195 0
169 195 0
168 195 0
168 194 0
169 195 0
169 194 0
169 194 0
169 195 0
170 196 0
169 195 0
169 195 0
169 195 0
168 194 0
169 195 0
169 195 0
169 195 0
169 195 0
168 194 0
169 195 0
169 195 0
168 195 0
169 195 0
169 195 0
170 196 0
170 196 0
169 195 0
169 195 0
170 195 0
168 194 0
170 195 0
170 195 0
169 194 0
169 195 0
169 195 0
168 195 0
169 195 0
169 195 0
169 195 0
170 196 0
168 194 0
169 195 0
169 195 0
171 196 0
170 196 0
170 195 0
169 195 0
169 195 0
170 195 0
169 195 0
170 195 0
169 195 0
169 195 0
169 195 0
170 196 0
169 195 0
169 195 0
169 195 0
171 196 0
169 195 0
170 195 0
169 195 0
169 195 0
169 195 0
170 195 0
169 195 0
169 195 0
170 195 0
169 195 0
170 196 0
170 196 0
169 195 0
168 195 0
170 196 0
168 194 0
169 195 0
169 195 0
169 195 0
169 195 0
170 195 0
168 194 0
168 194 0
169 195 0
170 196 0
170 195 0
169 195 25
169 195 0
170 196 36
169 195 36
173 198 62
172 197 57
172 198 62
174 198 67
172 197 67
172 197 67
173 198 72
175 200 95
175 200 84
173 198 72
177 201 108
175 200 92
171 197 74
171 196 65
169 194 76
170 195 75
173 198 80
174 200 95
171 196 62
173 199 84
169 195 72
170 196 67
172 198 88
171 196 57
168 194 65
170 196 76
168 193 57
164 190 62
169 194 65
166 192 76
168 193 100
165 190 74
165 190 54
166 191 86
134 160 124
70 105 176
62 99 178
62 99 180
63 100 181
61 99 180
61 99 180
61 98 181
61 98 181
61 98 180
61 98 181
61 98 181
61 98 181
60 98 181
61 99 181
60 98 181
60 98 181
60 98 181
60 97 181
60 97 181
61 98 181
60 98 181
60 97 180
60 98 181
60 98 181
60 98 181
60 98 181
61 98 181
61 98 181
60 98 181
60 98 181
61 98 179
61 98 180
60 97 179
61 98 179
61 98 179
61 98 180
61 98 179
62 99 180
62 99 178
62 99 177
62 99 180
79 112 167
144 170 97
168 194 0
170 196 0
170 196 0
168 194 0
167 194 0
169 195 0
168 195 0
167 193 0
170 195 0
169 195 0
169 195 0
168 195 0
169 195 0
169 195 0
170 195 0
170 195 0
170 195 0
168 194 0
167 193 0
169 195 0
169 195 0
168 194 0
169 195 0
168 194 0
169 194 0
169 195 0
170 195 0
168 195 0
169 195 0
168 194 0
169 195 0
170 195 0
168 194 0
169 195 0
169 195 0
170 195 0
169 195 0
169 195 0
169 194 0
167 193 0
168 194 0
168 194 0
169 195 0
169 195 0
169 195 0
169 195 0
168 195 0
169 195 0
169 194 0
169 195 0
170 196 0
170 195 0
170 195 0
168 195 0
170 195 0
169 195 0
168 195 0
168 195 0
169 194 0
168 195 0
168 194 0
169 195 0
170 195 0
168 194 0
169 195 0
169 195 0
170 195 0
170 195 0
170 195 0
169 195 0
169 195 0
169 195 0
170 195 0
170 195 0
169 195 0
168 194 0
169 195 0
170 195 0
170 195 0
170 195 0
170 195 0
170 195 0
170 195 0
170 195 0
169 195 0
170 195 0
168 195 0
169 195 0
170 195 0
170 196 0
169 195 0
170 196 0
170 195 0
170 196 0
169 195 0
169 195 0
168 195 0
169 195 0
168 194 0
168 194 0
170 195 0
170 196 0
169 195 0
169 195 0
169 195 0
169 195 0
167 193 0
168 194 0
169 195 0
170 196 0
169 194 0
168 194 0
169 195 0
168 194 0
168 194 0
170 195 0
170 195 0
169 195 0
169 195 0
168 194 0
168 194 0
171 196 44
172 197 36
170 196 36
170 196 25
170 196 54
169 195 36
172 197 67
172 197 57
174 199 76
172 197 67
174 198 76
174 199 82
176 200 95
169 194 72
171 197 92
173 197 86
172 197 82
174 199 84
172 197 76
172 197 94
173 198 82
172 197 80
171 196 67
175 200 95
172 198 90
168 193 65
168 194 62
167 192 80
166 191 70
162 187 88
166 191 57
161 187 70
165 191 60
165 190 62
150 175 118
84 116 163
62 99 178
62 99 178
62 99 179
62 99 178
61 99 181
62 99 181
61 98 180
61 98 181
61 98 179
61 98 181
61 98 181
60 98 180
61 98 180
60 98 181
61 98 181
61 98 181
61 98 181
60 98 179
60 98 181
60 98 179
61 98 181
60 98 181
60 98 181
60 98 181
61 98 181
60 98 180
60 98 180
60 98 179
61 98 180
60 98 181
60 98 180
61 99 181
60 98 181
61 98 178
61 98 178
61 98 179
61 98 179
61 98 177
62 98 177
63 99 180
62 98 176
62 99 176
81 113 162
153 179 76
169 194 0
170 195 0
167 193 0
170 195 0
167 193 0
170 195 0
168 194 0
168 195 0
168 193 0
167 193 0
168 194 0
169 194 0
170 195 0
167 193 0
168 193 0
169 195 0
170 195 0
169 195 0
170 195 0
167 193 0
168 194 0
169 195 0
168 194 0
168 194 0
169 195 0
168 194 0
169 195 0
168 193 0
169 195 0
171 196 0
169 195 0
170 196 0
169 195 0
169 195 0
169 194 0
168 194 0
170 196 0
168 194 0
169 194 0
168 194 0
169 195 0
167 193 0
169 195 0
169 195 0
168 195 0
170 195 0
169 195 0
169 195 0
170 195 0
170 195 0
169 195 0
171 196 0
169 195 0
169 195 0
169 195 0
170 195 0
167 194 0
170 196 0
170 195 0
169 195 0
170 195 0
170 195 0
169 195 0
169 195 0
170 195 0
169 195 0
169 195 0
169 195 0
169 195 0
169 195 0
171 196 0
169 195 0
168 194 0
169 195 0
171 196 0
170 196 0
170 195 0
170 196 0
169 195 0
169 195 0
170 196 0
170 195 0
169 195 0
170 196 0
169 195 0
168 194 0
169 195 0
169 195 0
169 195 0
170 196 0
170 195 0
169 195 0
169 194 0
171 196 0
170 195 0
169 195 0
169 195 0
169 195 0
168 194 0
170 196 0
169 195 0
169 195 0
169 194 0
169 195 0
170 195 0
169 195 0
168 194 0
168 194 0
171 196 0
170 195 0
170 195 0
171 196 0
168 195 0
170 195 0
168 195 0
168 194 0
169 195 0
169 195 0
170 196 25
170 196 36
170 196 25
171 196 57
171 196 44
173 197 67
174 198 67
174 198 67
172 197 51
176 200 92
174 199 84
177 201 102
177 201 99
172 197 97
176 200 99
172 197 62
174 199 88
172 197 95
174 199 92
174 198 94
179 202 111
173 198 78
171 196 72
174 198 72
171 196 57
170 196 76
175 199 88
166 193 65
167 193 62
171 196 57
164 189 82
160 186 84
162 188 88
166 192 54
163 188 60
161 186 94
104 133 154
63 100 181
62 99 179
62 99 178
62 99 181
62 99 179
62 99 181
62 99 180
61 99 181
62 99 180
61 99 181
61 99 181
61 99 181
61 98 180
61 98 181
61 98 181
61 98 181
61 98 180
60 98 181
61 99 181
61 98 181
61 98 180
60 98 181
61 98 180
61 98 181
60 98 180
61 98 181
60 98 181
60 98 181
60 98 179
61 99 181
60 98 180
60 98 181
61 98 180
61 98 179
61 98 180
61 98 178
61 98 178
61 98 179
61 98 178
62 99 180
62 99 181
62 99 178
62 99 174
62 99 176
103 133 147
162 188 54
168 194 0
167 193 0
169 195 0
167 194 0
168 194 0
168 194 0
169 195 0
168 193 0
169 195 0
167 193 0
169 194 0
168 194 0
169 195 0
168 194 0
169 195 0
169 195 0
169 195 0
168 195 0
170 195 0
168 194 0
168 194 0
170 195 0
169 194 0
168 195 0
168 194 0
169 195 0
169 194 0
169 194 0
169 195 0
169 195 0
169 195 0
169 195 0
169 195 0
169 195 0
169 195 0
170 195 0
168 194 0
168 195 0
170 195 0
169 195 0
170 195 0
170 195 0
169 195 0
167 193 0
169 195 0
170 195 0
168 194 0
169 195 0
169 195 0
170 196 0
170 195 0
170 196 0
170 196 0
170 195 0
169 195 0
169 195 0
170 195 0
170 196 0
169 195 0
170 195 0
171 196 0
169 195 0
170 195 0
169 195 0
169 195 0
169 195 0
169 195 0
169 195 0
170 196 0
169 195 0
169 195 0
169 195 0
170 195 0
168 195 0
169 195 0
169 195 0
168 194 0
169 195 0
169 195 0
169 195 0
169 195 0
169 195 0
169 195 0
169 195 0
169 195 0
169 195 0
169 195 0
168 194 0
169 195 0
170 196 0
169 195 0
169 195 0
168 194 0
170 195 0
169 194 0
171 196 0
169 195 0
168 195 0
168 194 0
170 195 0
168 194 0
169 195 0
169 195 0
169 195 0
169 195 0
170 195 0
168 194 0
169 194 0
169 195 0
170 195 0
167 194 0
171 196 0
169 195 0
168 195 0
169 195 0
169 195 0
170 195 0
168 194 0
169 195 25
167 193 0
169 195 0
169 194 51
173 197 57
172 197 51
174 199 80
173 198 76
174 198 76
172 197 57
172 196 67
173 198 67
175 200 102
173 198 80
170 195 84
173 198 76
170 196 62
175 200 99
173 198 67
171 196 51
170 195 72
170 196 67
172 197 84
174 198 67
174 199 102
170 195 80
171 196 80
169 195 78
167 192 74
165 191 65
159 185 80
163 189 84
167 192 82
167 193 84
125 151 127
63 99 175
62 99 172
63 100 180
62 99 179
62 99 181
62 99 178
62 99 178
61 99 180
62 99 181
62 99 180
61 98 181
61 98 181
62 99 181
61 99 180
61 99 180
61 99 179
61 98 181
61 98 181
61 98 181
60 98 181
61 98 181
61 98 181
61 98 180
61 98 181
61 98 179
60 98 181
61 98 181
60 98 181
61 98 180
61 98 179
60 98 179
61 98 179
61 98 180
61 98 180
61 98 180
61 98 178
61 98 180
61 97 176
62 99 178
61 98 178
61 98 178
62 99 180
62 99 176
62 99 176
62 98 173
62 99 175
137 164 99
168 194 18
168 195 0
167 193 0
168 194 0
168 194 0
165 191 0
169 195 0
169 194 0
168 194 0
167 193 0
170 195 0
167 193 0
168 193 0
169 194 0
169 195 0
167 193 0
168 194 0
168 193 0
169 195 0
169 195 0
171 196 0
169 195 0
167 193 0
168 194 0
168 194 0
168 194 0
169 195 0
169 195 0
169 195 0
169 195 0
169 195 0
168 194 0
170 195 0
169 194 0
169 195 0
167 194 0
169 195 0
169 195 0
169 195 0
170 195 0
169 195 0
170 195 0
169 195 0
169 195 0
169 195 0
168 195 0
170 195 0
169 195 0
170 195 0
170 196 0
169 195 0
168 195 0
169 195 0
170 195 0
170 196 0
169 195 0
169 195 0
169 195 0
169 195 0
171 196 0
170 195 0
169 195 0
169 195 0
170 195 0
169 195 0
169 195 0
170 196 0
169 195 0
169 195 0
170 195 0
170 195 0
169 194 0
170 195 0
169 195 0
170 195 0
169 195 0
169 195 0
170 195 0
169 195 0
169 195 0
169 195 0
170 196 0
170 195 0
168 195 0
170 196 0
168 194 0
170 195 0
169 195 0
170 196 0
168 194 0
169 194 0
169 195 0
170 195 0
169 195 0
169 195 0
169 195 0
168 195 0
169 195 0
170 195 0
170 195 0
169 195 0
169 195 0
169 195 0
169 195 0
168 194 0
169 195 0
168 194 0
170 195 0
170 195 0
167 194 0
169 195 0
167 193 0
169 195 0
168 194 0
169 195 0
170 196 0
169 195 0
170 196 25
170 195 0
172 197 44
171 196 44
171 197 51
169 195 36
168 194 18
171 197 51
172 197 62
172 197 72
173 197 76
172 197 67
172 197 57
173 197 72
177 201 102
173 198 80
172 197 80
170 195 78
170 196 51
174 199 80
176 200 88
176 200 92
171 196 62
171 195 51
173 199 95
172 197 72
170 195 95
169 194 70
170 195 65
166 191 62
165 190 65
167 193 57
163 188 65
165 190 67
156 182 102
77 110 162
62 98 169
63 99 178
63 100 178
62 99 179
62 99 177
62 99 180
62 99 181
61 98 180
62 99 180
61 98 180
61 99 181
61 98 180
61 98 180
62 99 181
61 99 181
61 98 181
61 99 181
61 99 181
61 98 181
61 98 181
61 98 181
61 98 181
60 98 181
61 98 180
61 98 181
61 99 181
61 98 179
61 98 181
61 98 179
61 98 179
61 98 181
61 98 181
60 98 179
61 98 180
61 98 177
61 97 177
61 98 177
61 98 179
61 98 179
61 98 177
62 98 178
62 98 177
62 98 175
61 98 176
62 98 173
62 98 169
89 119 157
154 180 68
169 194 0
168 194 0
168 193 0
168 194 0
168 194 0
168 194 0
167 192 0
169 195 0
169 195 0
168 194 0
167 193 0
168 194 0
167 193 0
168 194 0
169 195 0
167 193 0
166 193 0
167 193 0
168 194 0
168 194 0
167 193 0
168 193 0
168 195 0
167 192 0
169 194 0
169 194 0
169 195 0
170 195 0
169 194 0
169 195 0
168 194 0
170 195 0
169 195 0
168 194 0
170 195 0
169 194 0
168 195 0
169 195 0
170 195 0
170 195 0
169 195 0
169 195 0
169 195 0
169 195 0
169 195 0
168 194 0
169 195 0
170 196 0
169 195 0
170 195 0
169 195 0
168 195 0
169 195 0
169 195 0
169 195 0
169 195 0
169 195 0
169 195 0
170 195 0
168 194 0
169 195 0
169 195 0
169 195 0
169 195 0
169 194 0
169 195 0
171 196 0
169 195 0
169 195 0
169 195 0
170 195 0
169 195 0
168 194 0
169 195 0
171 196 0
170 195 0
169 195 0
169 195 0
169 195 0
169 195 0
169 194 0
170 196 0
169 195 0
170 195 0
169 195 0
170 195 0
170 196 0
169 195 0
169 195 0
169 195 0
169 195 0
167 194 0
169 195 0
170 195 0
169 195 0
168 193 0
168 194 0
169 195 0
170 195 0
168 195 0
168 195 0
170 195 0
169 195 0
170 195 0
169 195 0
170 195 0
170 195 0
169 195 0
170 195 0
169 195 0
169 195 0
171 196 0
169 195 0
169 195 0
168 194 0
168 194 0
169 195 0
171 196 25
170 196 36
170 196 44
171 196 44
172 197 51
172 197 57
172 197 51
173 198 62
171 196 62
172 197 67
172 198 67
175 199 80
172 197 62
175 199 88
173 198 76
173 198 62
171 197 51
173 197 76
173 198 80
172 197 80
171 196 67
172 197 67
171 196 57
171 196 67
174 199 84
171 196 80
169 194 99
166 191 70
161 186 76
163 189 57
162 188 60
166 190 62
166 191 80
124 151 140
62 99 173
63 99 174
62 99 174
62 99 178
62 99 178
62 99 177
62 99 177
62 99 180
62 99 178
62 99 180
62 99 181
62 99 179
61 99 180
61 98 178
61 98 181
61 99 181
61 98 181
61 98 181
61 98 179
61 98 180
61 98 179
61 98 180
61 99 181
62 99 180
61 98 179
61 98 181
61 98 181
60 98 181
60 98 179
60 97 176
61 98 180
61 98 179
61 98 179
61 98 178
61 98 178
61 98 178
61 98 177
61 97 175
61 98 178
60 97 177
61 97 173
61 97 174
61 98 176
62 98 175
62 99 178
62 99 176
62 98 171
63 99 171
128 155 119
164 190 36
168 193 0
167 192 0
168 194 0
168 195 0
169 195 0
166 192 0
168 194 0
168 193 0
168 194 0
169 195 0
168 194 0
167 193 0
169 194 0
169 195 0
167 192 0
168 193 16
168 193 16
170 195 11
169 193 0
168 194 11
169 194 11
168 194 0
169 194 11
169 194 0
170 195 0
169 195 0
168 194 0
169 195 0
169 195 0
170 195 0
170 195 0
167 193 0
170 195 0
169 195 0
170 195 0
169 195 0
169 195 0
169 195 0
169 195 0
170 195 0
169 195 0
169 195 0
170 195 0
169 195 0
170 196 0
169 195 0
168 194 0
170 195 0
169 195 0
169 195 0
169 195 0
169 195 0
167 193 0
169 195 0
171 196 0
170 195 0
170 195 0
171 196 0
168 194 0
169 195 0
169 195 0
168 194 0
169 195 0
170 196 0
168 194 0
169 195 0
170 195 0
170 195 0
171 196 0
170 195 0
170 195 0
168 194 0
170 195 0
170 195 0
169 195 0
169 195 0
168 195 0
171 196 0
169 195 0
168 195 0
169 195 0
170 195 0
170 195 0
169 195 0
169 195 0
169 195 0
169 195 0
168 195 0
169 195 0
169 195 0
169 195 0
169 195 0
168 195 0
169 195 0
169 195 0
168 195 0
169 195 0
167 193 0
170 195 0
168 195 0
169 195 0
169 195 0
169 195 0
169 195 0
169 195 0
170 196 0
168 195 0
170 195 0
169 195 0
168 194 0
169 195 0
170 195 0
170 195 0
168 194 0
170 195 0
169 194 0
170 196 25
169 194 0
170 196 25
168 194 36
169 195 36
170 196 36
171 196 51
171 196 51
175 199 67
170 196 51
171 196 62
172 197 67
175 199 84
172 196 67
171 196 57
170 196 51
170 195 51
172 197 62
171 196 67
171 197 67
172 197 80
173 198 95
169 195 57
172 197 67
168 193 57
172 197 76
166 191 80
164 190 65
166 191 74
168 192 78
158 184 70
161 186 76
149 174 113
70 105 170
63 99 170
63 99 175
62 99 174
62 99 175
63 100 180
62 99 179
62 99 178
62 99 181
61 98 178
62 99 180
62 99 178
61 99 180
61 99 181
61 98 181
62 99 181
61 99 181
62 99 179
61 99 181
61 99 180
61 99 181
61 98 177
61 98 180
61 98 181
61 98 181
60 98 177
61 98 180
61 98 179
61 98 181
61 98 179
61 98 179
61 98 179
61 98 178
61 99 181
60 98 178
61 98 179
61 98 177
61 98 177
62 98 178
60 97 175
61 97 174
61 98 178
61 98 174
62 98 176
61 98 176
61 97 173
62 98 172
62 98 172
62 98 172
86 117 159
151 178 82
168 193 0
169 195 0
168 194 0
165 191 0
166 192 0
167 193 0
167 192 0
167 193 0
166 191 0
168 194 11
168 193 11
167 192 11
169 195 0
167 192 19
166 192 0
170 194 16
169 193 11
167 192 19
167 192 22
166 193 11
169 192 28
169 194 16
170 194 16
169 194 19
169 193 16
168 192 19
168 193 16
169 193 16
169 194 16
169 194 11
170 196 0
168 195 0
169 195 0
168 194 0
170 195 0
169 195 0
168 194 0
169 195 0
169 195 0
168 195 0
169 195 0
169 195 0
170 195 0
169 195 0
168 194 0
170 195 0
169 195 0
170 195 0
167 193 0
169 195 0
171 196 0
169 195 0
169 195 0
168 195 0
169 195 0
170 196 0
169 195 0
170 195 0
170 195 0
170 195 0
168 195 0
169 195 0
171 196 0
169 195 0
169 195 0
170 196 0
169 195 0
170 195 0
169 195 0
169 195 0
169 195 0
169 195 0
170 195 0
170 195 0
169 195 0
169 195 0
169 195 0
169 195 0
169 195 0
169 194 0
169 194 0
168 194 0
170 195 0
169 194 0
170 195 0
170 195 0
170 196 0
168 195 0
171 196 0
169 195 0
170 195 0
170 196 0
169 195 0
170 195 0
170 195 0
169 195 0
169 195 0
169 195 0
169 195 0
169 195 0
168 194 0
169 195 0
168 194 0
169 194 0
169 195 0
169 195 0
167 193 0
168 195 0
168 194 0
169 195 0
169 195 0
169 194 0
168 194 0
169 195 0
166 192 0
169 195 0
169 195 0
169 195 25
170 196 36
172 197 51
171 196 44
171 197 57
172 197 57
171 196 36
171 197 51
172 196 62
173 198 80
174 199 76
171 196 62
170 196 67
170 196 62
171 197 76
173 198 80
172 197 67
172 197 76
174 199 80
170 196 80
168 194 51
172 197 62
171 196 62
169 195 62
167 192 47
170 195 67
166 191 65
165 190 44
162 187 70
165 191 75
164 190 80
129 155 125
62 99 174
63 100 173
63 99 173
63 99 176
62 99 177
63 99 178
63 99 177
62 99 177
63 100 178
62 99 178
61 99 178
62 99 181
62 99 181
62 99 180
61 99 178
62 99 179
62 99 181
61 98 179
62 99 181
62 99 180
61 98 178
61 98 180
62 99 180
61 98 179
61 99 180
62 99 179
61 99 180
61 98 181
61 98 179
62 99 178
61 98 176
61 98 178
61 98 178
61 98 175
61 97 177
60 97 177
62 99 180
62 98 175
61 97 175
61 97 175
61 97 174
61 98 177
61 98 177
61 97 172
61 97 172
62 98 173
62 98 171
61 96 165
63 99 170
63 99 170
124 151 118
165 192 0
168 193 0
167 193 0
167 193 0
166 192 0
169 195 0
166 191 0
168 192 16
169 192 28
168 193 11
167 191 22
168 191 22
167 189 32
169 192 28
169 192 22
169 190 37
168 192 25
170 192 32
170 191 37
171 190 41
167 192 19
168 192 25
171 193 32
170 193 30
169 192 25
170 193 32
168 192 11
170 193 25
168 192 22
168 194 0
168 193 0
169 195 0
169 194 0
168 194 0
169 194 0
169 195 0
167 193 0
171 196 0
168 194 0
168 194 0
169 195 0
168 194 0
168 193 0
168 194 0
169 194 0
167 193 0
170 195 0
170 195 0
168 194 0
168 195 0
170 195 0
168 194 0
169 195 0
169 195 0
169 195 0
169 195 0
170 196 0
169 195 0
170 195 0
168 194 0
169 195 0
168 194 0
169 195 0
169 195 0
168 194 0
170 195 0
169 195 0
170 195 0
170 195 0
169 195 0
170 195 0
169 195 0
169 195 0
169 195 0
170 195 0
169 195 0
169 195 0
169 195 0
169 195 0
168 194 0
170 195 0
169 195 0
168 194 0
169 195 0
170 195 0
169 195 0
167 194 0
169 195 0
169 195 0
169 195 0
169 195 0
168 194 0
169 195 0
168 194 0
168 195 0
168 194 0
169 195 0
168 194 0
169 195 0
170 196 0
171 196 0
169 195 0
170 195 0
169 195 0
169 195 0
170 195 0
169 195 0
169 195 0
168 195 0
170 195 0
169 194 0
170 195 0
168 194 0
169 195 0
169 195 0
168 194 0
169 195 25
169 195 25
171 196 44
171 196 36
172 197 44
170 195 36
173 198 76
170 195 36
172 196 67
170 196 76
169 194 36
171 196 57
170 195 62
171 197 62
172 197 67
171 196 51
171 196 76
168 193 0
172 197 76
168 194 51
169 194 76
166 191 51
169 194 67
171 196 72
174 198 67
170 195 44
167 192 65
165 190 92
167 192 65
165 190 65
166 192 70
155 180 91
100 128 148
62 99 169
62 98 170
62 99 172
63 100 179
63 99 177
61 98 170
63 99 178
62 99 179
62 99 176
62 99 176
62 99 180
62 99 178
62 99 180
62 99 177
62 99 180
62 99 181
62 99 179
62 99 177
62 99 180
62 99 179
62 99 181
62 98 176
62 99 179
61 99 179
62 99 180
61 98 180
62 99 179
62 99 180
61 98 178
61 98 179
61 98 178
61 98 178
62 99 178
61 98 180
61 98 179
61 97 175
60 97 175
61 97 174
61 97 174
60 96 171
61 96 171
60 96 172
60 96 170
61 96 170
61 97 170
61 97 171
61 97 171
61 96 168
62 97 171
61 96 157
92 122 149
159 185 37
168 193 0
166 191 11
166 190 11
169 193 19
168 192 19
169 193 22
169 192 28
170 191 37
169 189 42
167 189 28
169 190 34
167 191 19
171 191 45
167 190 28
167 189 32
171 191 44
170 190 44
172 188 54
170 191 36
170 189 47
169 190 41
170 191 37
173 192 42
172 193 36
170 190 41
168 190 37
170 192 32
170 194 22
169 193 22
169 193 25
167 192 16
170 195 11
169 193 19
167 193 0
170 195 0
170 195 0
169 194 0
169 195 0
168 194 0
169 195 0
168 194 0
168 194 0
169 195 0
169 194 0
169 195 0
170 196 0
168 194 0
169 195 0
168 195 0
170 195 0
169 195 0
169 195 0
169 195 0
169 195 0
168 193 0
169 195 0
169 195 0
169 194 0
169 195 0
169 195 0
169 195 0
169 195 0
169 195 0
170 195 0
170 195 0
169 195 0
170 195 0
169 195 0
168 195 0
170 195 0
168 195 0
170 196 0
170 195 0
170 195 0
169 195 0
171 196 0
168 195 0
169 195 0
168 195 0
169 195 0
169 195 0
170 196 0
168 194 0
169 194 0
170 195 0
170 195 0
169 195 0
169 195 0
170 195 0
169 195 0
169 195 0
168 194 0
170 195 0
169 195 0
169 195 0
167 194 0
170 195 0
169 195 0
169 195 0
170 196 0
170 195 0
169 195 0
168 194 0
169 194 0
168 194 0
169 195 0
167 193 0
169 195 0
168 194 0
169 194 0
169 195 0
169 194 0
168 194 0
169 195 0
168 194 0
171 196 25
170 196 44
170 195 51
172 197 62
170 196 25
169 195 25
174 198 72
172 197 51
169 194 57
172 197 72
170 195 36
173 197 72
173 198 80
173 198 84
170 195 67
171 196 67
173 198 57
170 195 72
170 195 80
168 193 44
169 195 62
172 197 76
171 196 57
168 194 76
167 191 57
167 192 51
170 195 74
164 190 86
164 189 65
163 188 57
163 188 47
145 171 88
67 102 172
63 99 168
62 99 169
63 100 175
63 100 177
63 99 176
63 100 179
63 100 179
62 99 175
62 98 174
61 98 178
62 99 180
62 99 178
63 99 180
62 99 178
62 99 177
62 99 179
62 99 181
62 99 179
61 99 178
62 99 180
61 98 179
61 98 179
62 99 178
62 99 179
62 99 179
61 98 179
62 99 179
62 98 179
61 98 176
62 98 178
62 98 177
62 98 177
61 98 178
61 98 176
61 97 175
62 98 177
61 97 174
62 97 172
61 97 175
61 96 169
61 97 171
61 97 173
60 95 165
60 94 165
61 95 167
61 97 169
60 95 164
61 96 165
62 96 165
63 98 169
67 100 158
151 177 70
168 193 8
164 189 0
165 189 19
170 194 24
169 193 22
170 193 30
168 188 36
170 190 41
170 190 39
168 189 37
165 185 41
168 184 56
170 189 47
174 190 52
170 188 45
169 187 49
171 187 52
171 188 51
171 187 54
169 188 49
168 186 47
172 190 53
169 186 54
172 191 45
171 189 48
170 189 44
172 190 47
170 194 22
169 191 34
172 191 42
170 194 19
170 194 25
170 194 19
168 192 16
168 192 16
169 194 0
169 195 0
167 193 0
169 195 0
168 194 0
169 195 0
170 195 0
169 195 0
169 195 0
168 195 0
169 195 0
167 193 0
169 195 0
169 195 0
170 195 0
169 195 0
169 195 0
170 196 0
170 195 0
170 195 0
170 195 0
168 194 0
168 194 0
169 195 0
168 195 0
170 195 0
169 195 0
169 194 0
170 195 0
169 195 0
167 193 0
170 195 0
169 195 0
169 195 0
170 195 0
170 195 0
169 195 0
170 195 0
169 195 0
169 195 0
169 195 0
169 195 0
168 194 0
169 195 0
169 195 0
169 195 0
169 195 0
170 195 0
170 195 0
170 195 0
168 195 0
169 195 0
169 195 0
170 195 0
170 195 0
170 195 0
169 195 0
168 195 0
170 196 0
170 195 0
168 194 0
169 195 0
169 195 0
170 195 0
168 195 0
171 196 0
169 195 0
169 195 0
168 194 0
170 196 0
167 194 0
169 195 0
169 195 0
169 195 0
169 195 0
169 195 0
170 195 0
166 193 0
168 194 0
170 196 25
168 194 0
166 192 0
171 196 25
169 195 36
171 196 44
171 196 36
172 197 62
172 197 67
171 196 72
174 199 84
170 195 62
171 196 76
169 195 44
173 198 84
167 193 44
171 196 57
172 196 44
170 195 72
172 196 62
167 192 57
168 194 51
169 194 51
172 197 76
166 191 80
166 191 62
168 193 67
166 191 60
168 193 60
160 184 67
164 190 65
159 184 74
132 158 115
63 99 173
64 100 176
63 99 172
63 99 171
62 99 175
62 99 174
63 99 175
63 99 173
62 99 176
62 99 175
62 99 178
62 99 178
62 99 175
63 100 179
62 99 176
62 99 177
62 99 178
61 99 178
62 99 179
62 99 179
62 99 179
62 99 178
62 99 180
62 99 179
61 98 176
62 99 177
61 99 180
61 98 176
62 99 177
61 99 179
61 98 177
61 97 174
61 98 178
62 98 174
61 97 174
61 98 176
62 99 178
61 97 175
61 98 177
61 98 175
60 96 169
59 94 167
60 95 166
61 96 170
60 95 166
61 95 167
61 96 169
60 93 157
62 96 166
61 95 161
61 96 164
62 96 158
122 145 125
167 190 37
166 192 11
169 191 34
167 187 40
169 189 41
169 188 43
168 187 41
164 182 44
172 190 51
171 188 51
166 184 48
170 185 54
173 187 58
171 189 48
172 185 65
172 185 69
172 186 59
176 189 63
169 187 53
173 184 66
173 188 60
174 187 62
173 187 59
172 190 49
171 189 48
171 190 49
173 190 52
172 192 44
170 189 48
169 191 37
169 191 34
169 191 30
170 191 32
170 193 32
169 194 11
167 191 16
170 195 11
169 194 0
168 194 0
167 193 0
168 194 0
169 194 0
169 195 0
168 194 0
169 195 0
170 195 0
169 195 0
170 196 0
168 195 0
170 195 0
169 194 0
168 194 0
170 195 0
169 195 0
170 196 0
169 195 0
169 195 0
170 195 0
169 195 0
169 195 0
169 195 0
168 194 0
170 195 0
169 195 0
169 195 0
168 194 0
169 195 0
170 196 0
170 195 0
169 194 0
169 194 0
169 195 0
169 195 0
171 196 0
169 195 0
170 195 0
169 195 0
170 195 0
168 195 0
169 194 0
170 196 0
169 195 0
168 195 0
169 195 0
169 195 0
169 195 0
169 195 0
169 194 0
168 195 0
168 194 0
168 195 0
168 194 0
169 195 0
167 194 0
170 195 0
169 195 0
169 195 0
169 195 0
169 195 0
170 196 0
170 195 0
170 195 0
168 194 0
169 195 0
169 195 0
169 195 0
169 195 0
170 196 0
170 195 0
167 194 0
169 195 0
169 195 0
168 194 0
168 194 0
168 194 0
169 195 0
170 196 0
169 195 0
169 195 25
170 195 36
171 196 36
170 195 44
174 198 67
169 194 51
168 193 51
169 195 57
176 200 80
172 197 57
170 195 62
168 193 44
170 195 76
170 196 62
172 197 80
171 196 76
168 194 67
171 195 51
169 195 57
169 194 76
169 194 67
169 193 51
169 194 76
168 193 76
162 186 54
165 190 74
166 191 70
163 188 90
100 128 135
62 98 157
63 100 175
63 100 172
62 99 168
62 99 171
63 99 173
63 99 174
63 99 176
63 99 176
62 99 175
62 99 178
62 99 176
62 99 178
62 99 176
62 99 176
63 99 178
63 99 178
62 99 179
61 99 176
62 99 174
62 99 176
62 99 178
62 99 179
61 99 180
62 99 179
62 98 176
62 99 178
61 98 176
61 98 177
62 99 177
61 98 176
62 98 178
61 98 176
62 99 177
61 97 172
62 98 177
61 98 174
61 98 176
61 96 169
61 97 173
62 98 176
59 93 163
60 94 164
60 95 164
60 94 161
59 92 156
60 94 160
60 94 164
61 95 162
60 94 158
68 99 159
66 96 152
102 128 135
160 183 43
167 187 40
170 187 50
168 186 47
168 187 42
167 183 53
171 187 52
172 189 54
172 187 57
171 185 61
172 186 59
172 185 62
174 186 69
176 187 71
173 185 67
173 186 65
171 186 62
174 186 67
172 186 61
175 186 72
172 188 58
172 185 66
172 185 66
174 188 64
169 186 54
173 187 60
172 187 58
171 189 52
172 190 47
172 192 45
172 192 45
173 191 48
170 192 34
171 191 41
167 190 25
168 192 19
168 193 19
169 194 11
169 194 11
167 193 11
168 194 0
170 196 0
169 195 0
170 195 0
168 194 0
170 196 0
169 195 0
169 195 0
168 194 0
169 195 0
169 195 0
168 194 0
169 195 0
169 195 0
170 195 0
168 194 0
169 195 0
169 195 0
169 195 0
169 195 0
170 195 0
169 195 0
170 195 0
168 194 0
170 195 0
169 195 0
169 195 0
169 195 0
169 195 0
169 195 0
169 195 0
169 195 0
170 196 0
169 195 0
169 195 0
168 194 0
169 195 0
169 195 0
168 195 0
170 196 0
169 195 0
169 195 0
170 195 0
169 194 0
168 195 0
170 195 0
169 195 0
169 195 0
169 195 0
169 195 0
168 194 0
169 195 0
169 195 0
169 195 0
168 194 0
170 195 0
168 195 0
170 195 0
169 195 0
170 196 0
168 195 0
169 195 0
170 195 0
169 195 0
169 195 0
170 195 0
169 195 0
168 194 0
168 194 0
168 194 0
169 195 0
169 194 0
169 194 0
169 195 0
169 194 0
168 195 0
170 195 0
170 195 0
170 195 0
170 195 57
169 194 36
168 194 51
173 197 44
168 193 36
170 195 51
173 197 62
173 197 57
173 197 80
170 194 57
171 195 44
170 194 62
170 194 62
172 196 80
168 194 57
172 197 88
166 192 51
168 193 67
171 196 76
168 193 44
168 192 57
166 192 88
167 192 76
166 191 74
164 189 76
162 186 36
153 177 72
77 109 144
63 100 167
63 100 170
63 99 168
63 99 169
63 99 171
63 99 175
63 99 176
62 99 171
62 99 176
62 99 174
62 99 173
63 100 178
61 98 177
62 99 175
62 99 179
62 99 180
62 99 180
63 100 179
63 100 180
63 99 178
62 99 179
62 99 180
63 99 178
61 98 176
62 99 178
61 98 175
62 98 177
62 98 177
62 99 176
61 98 173
61 98 178
61 98 176
61 98 177
62 98 173
61 97 170
61 96 168
61 97 171
60 95 167
60 96 169
61 96 172
61 96 168
61 95 165
60 94 164
60 93 159
59 92 158
59 93 160
59 93 156
61 94 162
59 92 156
70 98 156
70 97 149
64 96 153
83 109 141
153 173 71
169 189 43
167 188 40
169 186 56
167 184 49
169 184 57
167 184 49
173 185 63
171 183 70
174 187 63
172 184 66
169 180 65
173 183 70
171 183 71
171 182 68
174 185 72
171 182 71
173 181 76
174 186 71
174 183 77
175 186 70
175 186 70
175 184 72
172 182 73
175 185 71
172 184 69
171 186 61
172 188 60
171 183 62
173 189 54
171 186 57
173 191 52
170 189 45
173 193 41
170 190 41
172 193 36
169 193 25
170 194 22
171 194 22
169 194 19
169 195 0
168 195 0
168 195 0
170 195 0
168 194 0
169 195 0
168 194 0
169 194 0
169 195 0
168 194 0
169 195 0
167 193 0
169 195 0
169 195 0
169 194 0
169 195 0
171 196 0
169 195 0
169 195 0
170 195 0
170 195 0
170 195 0
167 193 0
169 195 0
170 195 0
169 195 0
169 195 0
170 196 0
169 195 0
169 195 0
169 195 0
169 195 0
169 195 0
169 195 0
168 194 0
169 195 0
168 194 0
169 194 0
170 195 0
169 195 0
169 195 0
169 195 0
169 195 0
168 194 0
170 195 0
170 195 0
169 195 0
169 195 0
169 195 0
169 195 0
170 195 0
169 195 0
168 195 0
169 195 0
169 195 0
169 195 0
170 195 0
168 195 0
167 194 0
168 194 0
170 195 0
168 194 0
168 195 0
169 195 0
169 195 0
170 195 0
169 194 0
168 194 0
169 194 0
169 194 0
169 195 0
168 194 0
169 195 0
168 193 0
170 195 0
170 195 0
170 196 25
168 194 0
169 194 25
170 195 0
168 193 25
172 197 67
171 196 44
171 195 57
167 192 51
172 197 62
172 197 57
173 197 62
170 194 51
175 199 80
172 196 44
171 196 57
171 196 92
171 196 57
170 195 72
170 195 51
168 194 72
171 195 51
169 194 67
166 191 51
163 188 57
166 191 78
162 187 57
168 192 67
165 189 76
149 175 105
64 99 155
63 99 166
62 98 160
63 100 175
63 99 168
63 99 166
63 99 171
64 100 172
63 100 174
63 100 178
63 100 178
62 99 172
63 99 172
62 99 176
63 99 177
62 99 176
62 99 178
62 99 177
63 99 176
63 100 178
63 100 179
62 99 175
63 99 177
62 99 178
62 99 178
62 99 175
63 99 178
62 98 173
63 99 179
62 99 177
61 97 171
61 98 176
61 97 173
61 97 171
61 97 172
61 97 174
61 96 171
59 94 164
61 96 167
60 95 163
61 96 167
59 94 163
59 93 157
60 93 161
60 93 160
58 91 154
60 92 152
59 91 152
57 88 141
64 95 155
64 92 141
71 98 148
76 100 143
98 116 138
144 166 81
167 185 52
162 181 47
168 181 65
171 183 65
168 182 62
172 180 72
172 183 71
172 182 71
174 180 83
171 180 78
175 183 77
173 180 78
172 181 78
175 183 78
174 180 83
171 181 74
172 179 77
170 178 75
175 184 79
174 182 79
174 182 80
175 181 84
172 182 74
177 182 84
173 185 66
174 186 68
173 184 68
171 185 57
173 184 68
171 188 49
174 189 56
172 188 56
171 190 44
174 190 54
173 192 44
168 191 25
169 192 25
171 194 28
169 193 19
168 193 0
169 195 0
169 195 0
170 195 0
168 194 0
169 194 0
168 194 0
169 194 0
169 195 0
169 194 0
169 195 0
169 195 0
169 194 0
170 195 0
168 194 0
170 195 0
167 193 0
169 195 0
170 195 0
169 195 0
169 195 0
170 195 0
168 194 0
170 195 0
169 195 0
169 195 0
169 195 0
170 196 0
168 194 0
168 194 0
169 195 0
170 195 0
169 195 0
169 195 0
168 195 0
170 196 0
169 195 0
169 195 0
168 194 0
169 195 0
171 196 0
171 196 0
168 194 0
170 195 0
169 195 0
169 195 0
168 195 0
168 194 0
168 194 0
168 195 0
169 195 0
169 195 0
170 196 0
168 194 0
171 196 0
171 195 0
169 195 0
170 196 0
169 195 0
168 194 0
169 194 0
169 194 0
169 195 0
168 195 0
170 195 0
167 194 0
169 195 0
169 195 0
168 194 0
168 194 0
170 196 0
168 194 0
168 194 0
168 194 0
168 194 0
170 196 0
168 193 0
170 195 25
169 194 0
167 194 0
170 195 25
171 196 36
170 195 44
171 196 84
172 197 51
170 194 51
170 195 51
171 195 44
173 197 67
172 196 67
170 195 36
170 194 67
169 194 72
171 196 72
169 193 84
173 197 67
168 192 67
167 191 62
170 195 67
163 187 67
169 193 51
168 193 51
167 192 57
166 191 67
163 187 51
144 169 121
63 99 160
64 100 165
63 99 170
62 98 161
63 99 172
63 99 170
63 100 173
63 100 176
63 99 174
63 99 174
63 99 175
62 99 173
62 99 172
63 100 177
63 100 176
63 100 180
63 99 174
63 100 180
63 100 180
62 99 177
62 98 173
62 99 177
63 99 173
63 100 180
63 99 177
62 99 176
61 98 173
62 98 174
62 99 176
62 99 175
62 98 172
62 98 173
62 98 172
61 97 172
60 95 166
62 99 177
61 96 165
61 97 169
60 95 168
60 95 165
61 95 165
59 93 159
60 93 158
60 93 159
59 92 155
59 91 152
59 91 152
58 88 141
61 91 146
57 88 137
77 100 145
81 102 137
95 111 141
103 116 139
136 152 105
165 182 50
167 179 66
166 178 65
169 180 73
169 176 77
175 182 80
172 180 75
172 178 80
173 179 79
176 183 83
176 178 91
177 180 87
172 176 87
175 179 84
174 178 90
177 178 88
176 179 90
175 181 85
172 178 83
175 177 90
172 176 90
175 181 85
173 181 77
169 177 76
172 180 78
172 181 72
174 184 72
173 186 64
170 185 56
172 185 62
173 186 65
173 187 65
170 187 52
171 188 51
173 193 44
170 189 41
170 192 28
169 192 28
168 190 28
171 194 28
170 194 16
169 195 0
169 195 0
170 195 0
169 195 0
167 193 0
169 195 0
168 194 0
169 195 0
170 196 0
169 195 0
170 195 0
170 195 0
168 194 0
169 194 0
169 194 0
169 195 0
169 195 0
169 195 0
169 195 0
169 195 0
168 194 0
169 195 0
168 195 0
170 195 0
169 195 0
168 194 0
169 195 0
168 194 0
169 195 0
169 195 0
170 195 0
170 196 0
169 195 0
169 195 0
169 195 0
169 195 0
170 196 0
169 195 0
170 195 0
170 195 0
168 195 0
170 195 0
168 195 0
168 195 0
168 194 0
169 195 0
169 195 0
169 195 0
168 194 0
170 196 0
170 195 0
168 194 0
168 194 0
169 195 0
170 195 0
169 195 0
169 195 0
168 195 0
168 195 0
170 196 0
168 194 0
170 195 0
169 195 0
169 194 0
170 195 0
169 195 0
169 195 0
168 194 0
168 194 0
170 195 0
168 194 0
169 195 0
169 194 0
170 195 0
169 195 0
169 195 0
169 195 0
169 194 25
171 196 36
170 195 25
171 196 51
170 195 36
169 194 36
166 192 25
170 195 76
171 195 67
172 196 67
173 196 51
171 195 67
171 196 51
168 193 76
167 192 44
172 196 84
172 196 67
167 191 36
171 195 84
169 193 72
165 189 62
168 192 44
161 185 51
160 184 51
165 189 72
164 189 57
124 150 105
64 100 167
63 100 168
62 98 162
64 100 170
63 99 169
63 99 172
63 99 168
62 98 168
62 99 171
63 99 173
62 99 174
63 100 173
63 99 173
63 100 176
62 99 173
62 99 172
63 100 177
63 100 178
62 99 178
63 99 174
62 98 174
61 98 174
62 99 174
62 98 173
63 100 178
62 98 171
62 98 172
61 97 172
62 98 173
62 99 174
62 98 175
63 99 177
61 96 166
62 98 173
61 97 172
61 96 165
62 96 165
62 96 168
60 94 160
60 94 159
61 95 165
60 93 160
58 91 156
59 92 154
58 89 146
58 88 143
58 90 151
57 86 137
62 88 133
73 95 136
82 101 138
74 94 130
86 103 131
89 106 136
136 148 99
165 181 66
166 181 58
165 175 71
165 173 76
174 179 86
172 178 79
174 179 83
176 178 89
174 177 86
179 178 97
174 177 90
176 176 97
175 175 93
176 176 96
174 175 95
171 177 81
177 177 97
175 176 95
176 180 92
176 177 93
169 173 85
175 179 88
173 177 83
172 177 85
176 181 84
175 181 84
174 182 79
174 182 79
174 181 76
176 184 76
175 186 68
173 187 61
173 187 60
171 187 53
171 188 51
173 187 58
170 190 39
170 191 34
170 192 34
170 193 32
168 193 19
170 193 19
168 193 11
170 195 0
168 194 0
169 195 0
169 195 0
169 195 0
169 195 0
168 194 0
169 195 0
169 194 0
168 194 0
169 195 0
170 195 0
169 195 0
169 194 0
169 195 0
169 195 0
169 195 0
170 196 0
168 194 0
170 196 0
169 195 0
169 195 0
168 194 0
169 195 0
170 196 0
169 195 0
169 195 0
169 195 0
168 195 0
168 194 0
169 195 0
170 195 0
169 195 0
170 195 0
169 195 0
168 194 0
169 195 0
170 195 0
169 195 0
169 195 0
168 194 0
168 194 0
169 195 0
168 194 0
169 195 0
168 195 0
169 195 0
168 194 0
168 194 0
170 196 0
169 195 0
170 195 0
170 195 0
168 194 0
169 195 0
168 193 0
168 194 0
169 195 0
167 193 0
168 193 0
168 194 0
167 194 0
168 194 0
168 194 0
169 195 0
170 195 0
169 195 0
169 194 0
169 195 0
170 195 0
168 193 0
168 193 0
168 194 0
169 194 0
168 194 0
169 194 0
170 195 36
170 196 36
168 194 0
172 196 44
169 195 36
171 195 36
171 196 44
169 194 57
170 195 62
171 196 57
171 195 62
167 191 57
166 190 44
169 194 51
168 193 44
169 193 62
169 194 84
167 191 57
171 195 67
164 188 62
163 188 80
161 186 51
170 194 72
164 188 62
152 176 51
131 156 117
62 98 153
63 99 165
63 99 166
62 98 158
63 99 166
62 98 163
64 100 172
63 100 170
64 100 175
63 99 173
62 98 168
62 99 169
63 99 172
62 98 167
64 100 178
63 99 176
62 99 174
63 99 174
63 100 174
62 99 174
63 99 176
63 100 177
63 99 173
63 99 174
63 99 174
62 99 173
63 99 176
62 99 175
63 100 177
61 98 172
61 97 173
62 98 173
62 98 170
62 97 172
62 97 170
61 96 171
61 95 162
62 97 168
61 96 167
61 94 159
61 95 163
59 92 154
59 91 154
60 92 155
58 90 151
57 87 141
60 89 139
62 89 138
65 90 133
71 93 128
76 95 127
93 104 110
105 116 130
101 113 122
137 144 107
163 174 70
167 176 77
168 174 76
164 169 82
172 174 87
172 175 86
172 176 86
173 175 89
174 173 93
177 175 97
173 172 101
175 175 96
175 175 97
175 171 99
175 172 102
175 173 98
174 174 100
175 176 96
176 176 97
173 173 93
177 176 96
174 177 89
174 175 95
175 175 97
174 177 92
177 176 94
173 178 84
173 177 89
175 180 84
173 181 75
174 183 73
174 185 72
174 185 71
172 185 62
172 188 56
171 186 56
173 192 44
173 190 48
169 189 37
171 191 39
170 191 34
168 192 16
169 194 22
170 194 16
170 195 0
170 195 0
169 194 0
168 194 0
167 193 0
169 195 0
170 195 0
168 194 0
168 194 0
170 195 0
168 195 0
169 195 0
170 195 0
170 196 0
170 195 0
169 195 0
168 195 0
170 195 0
169 195 0
168 194 0
168 194 0
168 194 0
169 195 0
169 195 0
169 195 0
169 195 0
169 194 0
169 195 0
169 195 0
169 195 0
169 195 0
169 195 0
169 195 0
170 196 0
169 195 0
169 195 0
169 195 0
169 195 0
169 195 0
169 195 0
169 195 0
169 195 0
168 195 0
170 195 0
169 195 0
168 195 0
169 195 0
169 195 0
169 195 0
168 195 0
169 195 0
169 195 0
169 195 0
171 196 0
168 195 0
168 194 0
169 195 0
169 195 0
168 195 0
167 194 0
169 194 0
168 194 0
167 194 0
168 194 0
167 193 0
167 193 0
169 195 0
169 194 0
168 194 0
167 192 0
168 194 0
168 193 0
168 193 0
169 195 0
169 195 0
171 196 0
168 192 25
167 193 36
170 195 36
170 194 25
171 196 57
172 197 62
168 193 0
170 195 36
167 192 51
173 196 57
171 195 51
170 194 72
167 190 62
168 192 62
166 190 72
164 188 51
168 192 80
164 189 57
164 188 51
168 192 72
165 189 76
162 186 62
160 183 51
163 186 54
119 144 114
63 98 155
63 99 160
63 99 159
63 98 158
62 98 164
63 99 170
63 99 170
62 98 165
64 100 171
63 99 171
62 99 170
62 99 172
63 99 171
63 99 170
63 100 174
63 99 169
63 99 174
62 99 172
63 100 176
62 99 176
63 99 174
62 99 175
63 99 176
63 99 172
63 99 176
63 99 175
62 99 177
62 98 172
62 98 172
62 98 173
62 98 170
62 99 173
63 98 169
61 97 170
61 95 164
61 96 163
61 95 166
60 95 161
60 94 163
60 92 155
59 91 152
58 90 149
58 90 151
57 88 144
57 88 144
55 84 131
58 85 129
66 90 133
76 96 129
95 107 125
81 99 128
89 103 119
110 118 121
111 119 120
136 143 113
152 164 76
163 170 81
162 168 80
168 171 88
170 172 90
175 174 95
176 177 93
174 173 96
174 173 98
174 173 93
178 173 108
174 171 103
177 172 108
176 173 101
178 175 105
175 172 101
173 171 105
174 172 102
175 173 100
173 171 98
176 172 103
174 173 97
176 173 103
178 177 98
177 176 98
171 175 88
175 178 91
176 178 93
174 177 85
177 180 88
173 182 75
175 183 78
174 183 74
176 188 69
171 187 49
171 186 58
171 185 63
173 189 58
174 189 57
170 191 32
171 193 36
170 192 34
170 193 25
170 195 16
168 193 0
169 195 0
168 194 0
168 194 0
169 195 0
169 194 0
168 194 0
170 196 0
169 194 0
170 195 0
169 195 0
168 194 0
170 196 0
169 195 0
169 195 0
168 195 0
170 195 0
170 195 0
169 195 0
170 195 0
170 195 0
170 195 0
168 194 0
169 195 0
169 195 0
169 194 0
170 195 0
169 195 0
170 195 0
170 195 0
168 195 0
167 194 0
170 196 0
170 196 0
168 195 0
170 195 0
169 195 0
170 196 0
169 195 0
169 195 0
168 195 0
169 195 0
169 195 0
169 195 0
169 195 0
167 194 0
168 194 0
167 194 0
168 194 0
169 195 0
168 194 0
168 194 0
170 195 0
168 193 0
169 195 0
169 194 0
170 196 0
169 195 0
169 195 0
169 195 0
168 194 0
168 194 0
168 195 0
167 193 0
169 195 0
169 194 0
167 193 0
170 196 0
167 193 0
169 195 0
170 195 0
171 195 0
169 194 0
168 194 0
170 195 0
169 194 0
168 193 0
171 196 25
170 196 0
169 194 25
170 195 25
167 193 25
171 196 44
169 193 51
169 194 44
172 196 67
168 192 67
167 192 36
166 190 25
168 192 57
166 191 44
168 192 57
167 190 44
168 192 72
160 184 36
163 187 62
164 187 72
163 187 62
165 189 62
155 179 60
117 143 118
63 98 155
64 100 165
62 98 161
63 98 162
63 99 169
63 99 165
63 99 168
63 99 170
63 98 161
62 98 164
63 99 170
64 100 173
63 100 172
62 99 172
62 98 167
63 99 173
63 100 173
62 99 170
63 99 164
63 99 174
62 98 169
63 99 173
62 98 170
63 99 173
63 100 176
62 98 168
63 99 177
63 99 176
62 97 169
62 98 173
61 97 166
62 98 169
61 96 164
62 96 164
61 95 164
60 94 161
61 95 159
59 92 155
59 91 153
59 93 159
59 92 158
58 88 144
57 86 135
56 85 136
56 85 137
55 83 129
69 91 127
70 90 123
82 96 115
90 102 119
93 105 116
102 112 121
120 124 107
110 118 114
141 146 100
161 167 82
159 166 81
169 172 85
161 162 92
168 165 98
170 168 101
173 170 98
177 174 103
177 172 106
178 172 108
176 171 107
176 171 106
174 170 106
175 171 107
176 172 109
175 171 107
176 171 106
176 172 108
174 171 108
174 170 108
178 172 109
176 171 107
176 172 104
176 173 102
173 174 94
175 174 99
177 175 101
176 174 97
177 179 92
175 178 87
175 179 87
174 182 78
176 180 87
175 183 80
174 183 67
174 187 62
172 183 62
171 189 49
170 188 44
171 192 41
170 190 41
170 193 25
171 191 39
169 193 16
168 193 11
168 193 0
169 195 0
169 195 0
169 195 0
168 193 0
169 194 0
169 195 0
168 194 0
168 194 0
169 195 0
169 194 0
168 194 0
169 195 0
168 194 0
169 195 0
169 195 0
169 195 0
169 195 0
168 194 0
169 195 0
169 195 0
169 195 0
169 195 0
169 195 0
169 194 0
169 195 0
168 194 0
169 195 0
170 196 0
168 195 0
168 194 0
169 195 0
169 195 0
169 195 0
169 195 0
169 195 0
169 195 0
170 195 0
169 195 0
169 195 0
168 194 0
170 196 0
169 195 0
168 194 0
168 194 0
167 194 0
169 195 0
169 195 0
169 194 0
168 194 0
169 195 0
169 194 0
170 196 0
169 195 0
169 195 0
170 195 0
168 194 0
169 195 0
171 196 0
170 195 0
169 194 0
168 193 0
168 194 0
169 195 0
170 195 0
167 193 0
170 196 0
169 194 0
168 193 0
170 195 0
168 194 0
170 195 0
170 195 0
171 196 0
169 194 0
169 194 0
168 194 0
167 192 0
172 195 25
167 192 0
172 196 51
168 192 36
169 194 36
167 191 36
169 193 51
169 193 57
171 195 67
165 189 36
165 189 36
167 191 51
163 188 62
170 195 57
162 187 44
167 191 44
158 182 44
161 186 57
163 188 36
152 176 36
152 176 57
130 156 107
60 95 141
62 98 157
63 98 158
63 99 162
62 98 161
63 99 163
63 99 161
63 99 163
63 99 169
62 98 166
63 100 170
63 99 169
63 99 171
63 99 167
63 99 170
63 99 171
62 98 165
63 99 172
63 99 170
62 98 164
62 99 168
63 100 173
62 98 167
64 100 174
63 99 172
63 100 176
62 99 175
63 99 171
63 98 172
61 97 164
62 97 165
61 96 166
62 97 166
61 96 165
61 96 164
61 95 161
61 94 159
60 93 157
60 93 159
59 92 153
58 90 150
58 89 145
57 87 139
56 86 137
55 83 130
67 86 115
62 84 117
89 101 118
77 93 114
86 98 111
93 103 103
106 113 106
125 128 114
121 124 110
133 137 102
155 160 87
163 163 94
167 166 99
163 161 97
172 169 100
172 166 104
172 167 107
175 170 107
178 172 109
176 171 108
176 171 110
177 172 111
176 171 110
177 172 113
176 172 113
175 171 111
179 173 113
177 172 109
177 172 112
174 171 110
177 172 110
174 170 109
175 170 108
176 171 108
175 173 104
179 175 101
175 173 101
175 175 96
177 177 97
175 174 94
173 176 89
176 177 93
170 177 79
174 182 78
173 183 69
173 181 75
173 186 63
174 186 66
175 189 61
172 190 48
173 190 47
170 190 41
166 187 30
169 190 36
168 191 22
168 193 0
169 194 11
168 194 0
169 195 0
169 195 0
169 195 0
169 195 0
170 195 0
169 195 0
168 194 0
167 194 0
170 195 0
169 194 0
169 195 0
169 195 0
170 195 0
168 194 0
169 195 0
170 195 0
169 195 0
169 195 0
169 195 0
169 194 0
169 195 0
169 195 0
168 194 0
169 195 0
169 195 0
168 194 0
168 195 0
170 195 0
169 195 0
169 195 0
168 195 0
170 196 0
169 195 0
169 195 0
169 194 0
170 195 0
170 195 0
168 195 0
168 195 0
169 195 0
170 195 0
169 195 0
169 195 0
169 195 0
168 194 0
168 194 0
169 195 0
168 194 0
169 195 0
169 195 0
169 195 0
170 195 0
169 195 0
168 194 0
169 195 0
169 195 0
169 195 0
168 194 0
169 195 0
169 194 0
168 194 0
168 194 0
169 195 0
168 193 0
168 193 0
168 194 0
167 192 0
168 194 0
169 194 0
170 195 0
169 193 0
168 194 0
169 193 0
171 196 0
170 194 0
167 191 0
171 196 25
168 193 0
169 193 44
173 197 44
168 193 36
168 192 25
165 189 36
167 192 36
169 192 36
163 187 25
167 190 44
167 191 44
163 187 25
168 192 67
164 187 44
162 186 62
157 181 36
166 190 51
166 190 57
156 180 44
131 157 108
60 96 136
61 97 152
63 99 162
63 98 156
63 99 160
62 98 161
63 100 168
62 98 162
63 99 167
63 99 164
63 99 166
63 99 164
63 99 168
62 98 165
63 98 164
63 100 170
64 100 172
62 99 176
63 99 171
63 99 173
62 99 170
62 99 169
63 99 166
63 99 168
63 99 172
62 98 166
62 97 167
63 99 173
62 97 166
62 98 169
61 96 165
62 96 163
62 96 165
61 95 164
61 96 162
61 95 159
59 92 147
59 91 152
59 92 156
58 88 139
58 89 146
56 87 139
56 86 138
56 84 129
57 84 127
68 89 122
71 89 114
80 95 115
92 102 108
99 106 105
109 114 103
105 112 107
121 125 105
131 132 102
146 147 96
157 155 101
155 156 95
165 163 100
171 166 104
173 168 108
172 167 110
178 172 110
176 171 112
178 173 112
177 172 113
176 172 113
178 173 114
178 173 113
178 173 114
174 171 113
174 171 114
177 172 113
175 172 113
173 170 113
174 171 113
174 170 110
176 172 112
177 172 110
177 172 111
176 171 110
176 171 107
175 172 104
172 170 97
176 175 99
174 173 95
176 176 94
177 178 90
174 176 84
173 179 81
172 181 75
172 179 75
173 184 69
177 187 72
173 183 68
174 188 58
171 186 54
171 190 45
174 190 51
170 191 36
168 191 25
170 193 22
166 191 0
168 194 0
168 194 0
168 194 0
169 195 0
169 194 0
169 195 0
169 195 0
169 194 0
170 195 0
170 195 0
170 195 0
169 195 0
169 195 0
168 194 0
170 195 0
168 195 0
169 195 0
167 193 0
170 196 0
170 195 0
168 194 0
169 195 0
169 195 0
170 195 0
170 195 0
169 195 0
170 195 0
169 195 0
169 195 0
169 194 0
169 195 0
169 195 0
170 195 0
168 194 0
170 195 0
169 194 0
167 194 0
169 194 0
169 195 0
170 196 0
170 196 0
168 194 0
169 195 0
168 195 0
168 194 0
169 195 0
169 195 0
169 195 0
168 195 0
169 195 0
168 194 0
169 195 0
168 194 0
169 195 0
169 195 0
169 195 0
167 193 0
167 193 0
168 194 0
169 194 0
169 195 0
168 194 0
170 196 0
168 194 0
167 193 0
167 192 0
169 195 0
168 194 0
169 194 0
168 193 0
169 195 0
170 195 0
167 192 0
170 195 0
166 191 0
167 192 0
169 193 0
168 193 0
167 191 0
168 192 36
168 192 57
168 192 25
165 190 0
169 194 36
169 193 51
166 191 36
166 190 25
164 188 0
167 191 36
166 189 51
165 189 57
161 186 36
163 187 51
165 188 57
163 188 51
158 182 36
165 189 44
129 154 86
62 97 152
62 98 151
63 99 159
62 98 155
63 99 159
63 98 159
63 99 161
62 98 162
63 98 160
63 99 166
63 99 163
63 100 169
63 99 169
62 99 166
62 98 165
63 99 171
63 99 169
64 100 170
63 99 170
63 99 168
63 99 169
62 99 167
62 98 162
62 98 168
62 98 164
63 99 170
63 99 174
63 98 171
62 98 167
62 97 167
62 97 166
62 97 163
61 96 163
61 95 161
61 95 159
60 92 151
60 93 154
59 92 156
59 89 139
56 85 135
58 89 141
57 86 135
54 82 127
57 82 119
74 91 120
73 91 116
78 92 109
81 92 95
92 102 112
105 109 97
116 119 102
123 125 101
117 120 95
136 135 101
143 145 105
149 147 99
162 157 105
165 161 106
167 163 107
171 167 107
173 167 108
175 170 113
176 172 113
177 172 113
176 172 113
177 172 114
174 171 114
173 171 114
174 171 114
172 170 114
172 170 114
174 171 114
173 171 114
173 171 114
175 171 114
174 171 113
175 172 113
176 172 114
174 171 112
176 171 109
176 171 109
174 169 105
176 171 104
175 173 101
175 174 95
176 175 99
175 175 94
176 180 90
176 178 89
176 182 83
176 181 83
174 181 72
174 183 69
176 186 70
174 185 67
175 186 63
174 190 52
171 190 44
171 190 44
168 191 25
168 192 22
167 191 19
167 191 11
168 194 0
169 194 0
170 195 0
169 195 0
168 194 0
168 194 0
168 194 0
168 194 0
167 193 0
169 194 0
168 195 0
168 193 0
169 195 0
169 194 0
169 195 0
170 195 0
170 195 0
168 194 0
169 195 0
169 195 0
169 195 0
170 195 0
169 194 0
169 195 0
170 196 0
169 195 0
170 195 0
170 196 0
168 195 0
168 194 0
169 194 0
170 195 0
168 194 0
170 196 0
169 195 0
169 195 0
169 195 0
171 196 0
170 195 0
170 195 0
170 195 0
169 195 0
169 195 0
169 195 0
169 195 0
168 194 0
168 194 0
168 193 0
169 195 0
167 193 0
167 194 0
169 195 0
168 194 0
168 193 0
169 195 0
169 195 0
169 194 0
168 194 0
167 193 0
169 195 0
168 194 0
169 195 0
169 195 0
167 193 0
168 194 0
169 195 0
169 195 0
170 194 0
167 193 0
168 194 0
169 194 0
166 191 0
168 193 0
170 195 0
170 195 0
171 195 0
165 189 0
166 190 0
167 191 36
168 192 25
166 191 25
168 192 0
164 188 25
168 192 25
167 191 0
160 185 36
164 188 36
166 191 36
160 185 25
161 185 36
158 183 44
159 183 36
161 184 36
158 182 25
165 188 51
160 185 0
138 163 62
63 98 137
62 98 150
62 98 156
63 99 160
62 98 155
62 97 149
63 99 161
63 99 165
63 99 167
62 98 160
63 99 164
62 98 157
62 98 159
62 98 161
64 100 171
62 99 164
62 98 160
63 99 165
63 99 167
64 100 174
63 99 169
62 99 169
62 98 165
63 99 168
62 98 163
62 98 169
62 98 164
62 98 169
62 97 166
62 98 166
62 98 168
61 96 161
60 94 158
61 94 157
61 94 155
61 93 154
59 89 136
59 92 150
60 91 148
57 88 140
57 87 140
56 85 136
60 83 119
53 79 116
64 85 114
78 92 105
83 96 114
84 94 101
110 113 98
108 114 107
108 112 91
117 118 93
129 130 99
135 134 97
153 151 100
154 152 99
161 157 105
168 163 108
169 164 108
173 168 112
176 171 113
172 168 112
175 172 114
175 171 114
174 171 114
172 170 114
173 171 114
172 170 114
173 170 114
170 169 114
170 169 114
170 169 114
171 170 114
171 170 114
174 171 114
172 170 114
172 170 114
176 172 114
175 171 113
174 171 114
177 172 112
177 172 113
177 171 107
178 171 108
178 173 105
176 172 101
178 176 101
175 173 96
175 176 88
174 178 88
171 177 79
174 179 74
176 183 78
173 184 68
175 185 71
175 188 61
172 186 56
172 187 54
169 188 41
170 190 39
168 191 22
168 192 19
167 193 0
168 193 0
169 194 0
167 194 0
168 194 0
167 193 0
169 194 0
169 195 0
166 192 0
170 195 0
168 194 0
168 194 0
168 194 0
170 195 0
168 195 0
169 195 0
168 194 0
169 195 0
169 195 0
169 195 0
169 194 0
167 194 0
169 195 0
169 195 0
168 195 0
169 195 0
169 195 0
169 195 0
169 195 0
169 195 0
169 195 0
168 194 0
169 194 0
169 195 0
169 195 0
169 195 0
168 195 0
169 195 0
169 195 0
169 194 0
168 194 0
169 195 0
169 195 0
169 195 0
167 194 0
170 195 0
165 192 0
169 195 0
169 194 0
168 194 0
169 195 0
169 195 0
169 195 0
167 193 0
169 194 0
168 194 0
169 195 0
169 195 0
169 194 0
170 195 0
169 195 0
168 195 0
170 195 0
168 193 0
170 195 0
169 195 0
168 193 0
169 194 0
167 192 0
167 192 0
168 193 0
170 195 0
166 191 0
170 196 0
167 192 0
170 194 0
168 193 0
168 193 0
166 190 0
164 188 0
166 190 0
168 192 25
167 191 0
169 194 36
162 186 0
167 190 0
167 190 44
165 188 36
155 179 0
169 193 44
163 188 0
157 180 0
160 185 36
157 181 0
152 175 25
160 185 25
156 179 25
143 168 44
90 118 129
62 97 148
62 97 149
61 97 151
63 99 159
62 97 155
63 99 159
61 97 150
62 98 153
63 99 159
63 99 162
63 99 161
62 98 161
61 97 156
63 99 166
64 100 169
62 98 163
63 99 166
63 99 168
63 99 168
63 99 166
63 99 169
63 98 167
62 98 165
62 97 161
62 98 161
62 97 158
62 97 160
62 98 160
62 97 161
61 95 155
61 94 153
61 95 155
62 96 166
60 92 145
60 94 157
59 91 146
59 90 143
57 88 139
56 86 134
56 85 128
57 83 123
60 81 110
75 90 111
71 87 106
80 91 98
97 103 92
100 104 85
99 105 93
105 109 94
120 122 99
129 128 92
142 140 100
139 138 99
153 149 101
156 153 104
151 149 103
164 160 108
171 167 111
173 169 112
177 172 114
175 171 113
174 171 114
174 171 114
173 170 114
171 170 114
170 169 114
171 170 114
170 169 114
171 170 114
170 169 114
170 169 114
169 169 114
170 169 114
171 170 114
170 169 114
171 170 114
172 170 114
173 171 114
176 172 113
175 171 114
174 171 112
176 172 113
179 173 113
179 172 106
175 172 102
175 170 104
176 175 98
177 175 95
177 178 92
177 178 90
174 178 84
179 185 79
175 182 78
172 181 71
173 186 61
174 185 68
172 186 58
168 185 45
171 189 47
172 190 37
170 192 28
169 192 22
168 192 19
170 195 0
168 194 0
169 195 0
168 194 0
169 195 0
170 195 0
169 195 0
168 194 0
170 195 0
168 194 0
169 194 0
169 195 0
168 194 0
169 195 0
167 193 0
170 195 0
168 194 0
169 195 0
169 195 0
169 195 0
169 194 0
168 194 0
169 195 0
170 195 0
170 196 0
169 195 0
168 195 0
170 195 0
168 194 0
169 195 0
169 195 0
169 195 0
168 194 0
170 195 0
169 194 0
169 195 0
169 195 0
169 194 0
169 195 0
169 194 0
169 195 0
168 194 0
169 195 0
167 194 0
168 194 0
169 195 0
169 195 0
168 194 0
170 196 0
170 195 0
169 195 0
169 194 0
169 195 0
170 195 0
166 192 0
168 194 0
169 195 0
168 194 0
168 193 0
169 194 0
169 194 0
169 195 0
168 193 0
169 194 0
168 194 0
169 194 0
168 193 0
169 194 0
168 193 0
168 192 0
169 194 0
166 190 0
168 192 0
167 192 0
165 191 0
168 192 0
165 190 0
168 192 0
170 195 0
170 194 0
167 192 0
164 189 0
167 191 0
160 185 0
166 190 0
164 189 0
158 182 0
159 183 0
155 180 0
163 188 25
159 183 36
159 183 0
154 178 0
156 179 0
157 181 0
153 178 31
102 129 115
61 97 141
61 97 147
62 97 152
63 99 156
63 99 157
62 98 156
62 98 154
63 99 160
62 97 150
63 99 162
63 99 161
62 98 162
63 99 162
63 99 163
63 99 164
62 98 161
63 99 163
62 98 157
63 99 167
63 99 169
63 99 169
63 99 167
62 97 157
63 99 165
63 98 164
62 97 160
63 98 168
62 96 152
61 96 159
62 97 160
60 93 148
61 94 156
61 93 150
60 92 147
60 93 151
59 90 141
57 87 139
57 85 133
55 81 118
61 87 128
54 80 117
68 87 115
75 91 115
76 90 110
92 99 93
107 110 91
98 103 89
108 110 85
123 124 95
128 128 95
139 137 95
140 139 97
148 145 102
151 148 102
161 158 106
164 160 108
167 163 110
175 170 113
175 171 113
176 171 114
174 171 114
172 170 114
172 170 114
172 170 114
171 169 114
169 169 114
169 169 114
168 168 114
168 168 114
168 168 114
169 169 114
168 169 114
168 168 114
169 169 114
169 169 114
170 169 114
170 169 114
171 170 114
173 171 114
173 171 114
177 172 114
177 172 113
176 171 112
178 172 112
178 172 109
179 173 105
176 172 100
179 174 104
179 177 95
178 177 94
178 178 92
176 180 81
172 180 70
178 185 75
176 182 74
177 185 72
169 183 58
171 187 49
172 190 47
169 189 37
166 189 25
169 192 19
170 194 11
169 194 11
166 193 0
168 194 0
169 195 0
170 195 0
169 194 0
170 195 0
167 193 0
169 194 0
169 195 0
169 195 0
168 194 0
168 193 0
169 195 0
169 195 0
168 194 0
169 195 0
168 194 0
170 195 0
169 195 0
170 195 0
169 194 0
169 195 0
169 195 0
170 195 0
168 195 0
168 195 0
170 195 0
169 195 0
169 195 0
169 195 0
168 195 0
169 195 0
168 194 0
168 195 0
169 195 0
168 195 0
169 195 0
169 195 0
169 194 0
171 196 0
169 194 0
169 194 0
166 193 0
168 194 0
168 194 0
168 194 0
168 194 0
169 194 0
169 195 0
166 192 0
168 194 0
168 194 0
170 195 0
167 193 0
168 194 0
169 195 0
169 195 0
169 194 0
169 195 0
168 193 0
169 194 0
168 195 0
170 195 0
167 192 0
170 195 0
168 194 0
166 192 0
166 191 0
167 193 0
171 196 0
165 191 0
167 193 0
167 192 0
169 194 0
167 192 0
165 189 0
168 193 0
168 192 0
165 190 0
168 193 0
162 186 0
167 192 0
165 189 0
159 183 0
163 187 0
160 184 0
161 185 0
158 183 0
160 184 0
159 182 0
161 185 0
154 177 0
153 176 0
155 179 0
156 181 18
121 146 97
62 97 142
61 96 135
61 96 149
62 97 147
62 97 150
63 99 156
63 99 161
62 98 156
63 98 159
62 98 155
62 98 159
62 98 156
63 99 164
63 99 164
63 99 157
62 98 155
63 99 165
63 99 169
63 99 162
62 98 157
63 99 167
63 99 167
63 99 165
62 98 163
62 97 160
64 99 170
62 97 161
61 96 156
62 97 162
62 97 163
61 95 157
60 93 147
61 94 154
59 90 142
59 90 138
59 89 138
58 88 141
56 83 123
55 83 128
59 85 126
58 80 109
68 87 109
85 96 103
87 94 82
83 92 91
92 98 88
108 111 90
113 113 85
118 118 87
131 130 91
141 139 97
149 146 100
147 145 101
157 154 105
167 164 110
166 162 109
170 166 111
172 169 113
174 170 113
175 171 114
174 171 114
172 170 114
171 170 114
170 169 114
170 169 114
169 169 114
169 169 114
168 168 114
168 169 114
167 168 114
167 168 114
168 168 114
166 168 114
168 168 114
169 169 114
169 169 114
170 169 114
171 170 114
172 170 114
173 170 114
175 171 114
176 172 113
176 172 113
178 173 113
177 172 111
179 172 109
177 172 108
176 171 101
177 174 99
177 175 93
175 177 88
175 179 84
173 179 75
178 181 87
176 182 75
171 184 61
173 184 63
173 185 58
169 185 47
169 189 36
170 190 34
167 189 22
168 192 16
169 192 25
169 193 11
169 194 0
170 196 0
169 194 0
168 193 0
169 194 0
170 195 0
169 195 0
171 196 0
169 195 0
168 194 0
168 193 0
169 194 0
169 195 0
167 193 0
170 195 0
168 193 0
168 194 0
169 195 0
169 195 0
169 195 0
168 195 0
170 195 0
168 194 0
170 196 0
168 194 0
169 195 0
169 195 0
169 195 0
169 195 0
169 195 0
170 195 0
168 194 0
169 195 0
169 194 0
169 195 0
169 195 0
169 195 0
170 196 0
169 195 0
167 193 0
168 194 0
168 194 0
169 194 0
168 194 0
169 195 0
169 195 0
170 195 0
168 194 0
170 195 0
169 194 0
167 193 0
170 195 0
167 194 0
168 194 0
168 194 0
168 194 0
169 194 0
170 195 0
166 192 0
169 195 0
171 195 0
168 194 0
167 192 0
167 193 0
168 193 0
170 195 0
167 192 0
169 194 0
169 193 0
168 193 0
166 190 0
167 192 0
167 192 0
166 192 0
169 193 0
166 192 0
166 190 0
160 185 0
164 188 0
167 192 0
163 188 0
161 185 0
163 188 0
162 186 0
164 188 0
162 187 0
159 182 0
158 182 0
160 183 0
156 181 0
154 178 0
144 168 0
155 179 0
151 175 0
145 168 51
69 102 131
62 98 148
61 96 139
61 97 148
62 97 150
62 97 151
62 98 153
62 98 153
63 98 155
61 97 150
61 97 153
62 97 153
62 97 151
62 98 158
63 99 162
63 99 162
63 98 158
63 98 158
62 98 161
62 98 164
63 99 166
63 98 161
62 98 160
63 98 161
62 98 159
62 96 154
62 97 161
61 96 154
62 96 155
62 96 154
61 96 155
61 94 150
59 92 146
58 90 137
59 90 144
58 88 138
57 86 131
54 79 109
55 80 112
70 90 119
65 85 108
66 82 98
89 98 101
89 99 104
102 106 90
102 105 87
122 122 90
129 127 93
133 131 92
138 135 93
146 144 100
148 146 101
158 155 105
160 157 107
167 163 110
170 165 110
172 168 112
174 170 113
175 172 114
175 172 114
173 171 114
171 170 114
171 170 114
170 169 114
168 168 114
169 169 114
168 168 114
167 168 114
167 168 114
167 168 114
167 168 114
166 167 114
167 168 114
167 168 114
167 168 114
168 168 114
169 169 114
170 169 114
170 169 114
172 170 114
174 171 114
174 171 114
178 173 114
178 173 114
176 172 112
179 173 109
179 173 111
177 171 103
177 171 103
177 173 100
175 176 86
176 177 87
174 177 84
176 181 80
176 178 84
174 182 70
173 184 65
173 187 58
172 189 47
171 188 49
168 187 34
168 191 16
169 191 28
170 192 22
166 192 0
168 193 0
169 195 0
168 194 0
169 195 0
169 195 0
170 195 0
168 193 0
170 195 0
168 194 0
168 194 0
170 195 0
169 194 0
169 195 0
170 195 0
169 194 0
168 195 0
169 195 0
167 192 0
169 194 0
168 195 0
169 195 0
168 194 0
168 195 0
170 195 0
169 195 0
169 195 0
168 194 0
169 195 0
170 196 0
168 194 0
170 196 0
170 196 0
169 195 0
168 194 0
169 195 0
169 195 0
170 195 0
170 195 0
169 195 0
169 195 0
169 195 0
167 193 0
170 195 0
169 195 0
168 193 0
169 195 0
168 194 0
167 193 0
168 194 0
168 194 0
168 194 0
168 194 0
169 195 0
167 193 0
168 193 0
168 194 0
167 194 0
169 195 0
167 193 0
167 193 0
168 194 0
168 194 0
168 194 0
168 194 0
168 193 0
168 193 0
168 193 0
165 190 0
167 192 0
168 193 0
166 191 0
164 189 0
168 193 0
167 192 0
166 191 0
166 191 0
167 191 0
164 189 0
165 189 0
164 189 0
164 189 0
164 188 0
156 181 0
161 185 0
164 189 0
163 187 0
153 176 0
154 179 0
157 181 0
160 184 0
153 177 0
155 179 0
152 176 0
150 174 0
151 175 36
87 116 117
61 96 136
60 94 121
61 96 141
62 97 148
63 98 153
62 98 152
64 99 160
62 97 148
63 99 157
62 98 156
61 97 150
62 98 158
62 98 157
62 98 154
63 99 161
63 98 159
62 97 153
62 97 151
62 98 160
63 98 162
62 98 161
63 99 162
64 99 168
63 98 160
62 96 154
62 96 155
63 98 160
60 94 145
62 95 152
61 93 146
59 91 142
61 94 151
60 92 143
59 90 140
56 87 128
57 86 130
55 82 120
58 82 111
60 83 116
71 89 114
89 97 94
84 95 99
102 105 85
109 110 88
117 116 86
124 123 90
129 128 92
139 137 97
146 143 98
150 147 100
144 142 99
162 158 107
165 161 109
173 167 111
174 169 112
176 171 114
175 171 113
175 171 114
174 171 114
173 171 114
171 170 114
170 169 114
169 169 114
168 168 114
167 168 114
167 168 114
167 168 114
166 167 114
166 167 114
166 167 114
166 168 114
167 168 114
166 167 114
167 168 114
168 168 114
167 168 114
168 168 114
170 169 114
172 170 114
172 170 114
172 170 114
176 172 114
178 173 114
178 173 113
178 173 113
179 173 110
180 174 109
179 173 103
177 172 100
178 176 98
178 178 90
177 176 93
177 181 84
176 181 77
175 181 78
172 181 67
174 185 64
174 185 62
170 187 42
170 189 36
169 190 30
168 187 32
167 188 19
167 191 19
169 194 11
168 194 0
168 194 0
169 195 0
169 194 0
169 195 0
168 194 0
168 194 0
169 195 0
169 195 0
168 193 0
169 195 0
168 194 0
169 195 0
169 194 0
169 194 0
170 196 0
169 195 0
170 196 0
168 194 0
169 195 0
170 195 0
170 195 0
169 195 0
169 195 0
169 195 0
169 195 0
169 195 0
168 195 0
168 194 0
169 195 0
169 195 0
168 194 0
168 194 0
169 195 0
168 194 0
169 195 0
169 195 0
169 195 0
169 195 0
170 195 0
169 194 0
169 195 0
169 195 0
170 195 0
169 195 0
169 195 0
168 194 0
167 193 0
166 192 0
169 195 0
167 194 0
169 195 0
168 194 0
168 194 0
168 193 0
169 195 0
168 194 0
167 193 0
167 193 0
167 194 0
169 194 0
165 191 0
167 192 0
171 195 0
167 193 0
166 191 0
167 192 0
164 190 0
166 192 0
166 191 0
168 193 0
162 188 0
165 190 0
164 188 0
164 189 0
165 190 0
166 191 0
162 187 0
165 190 0
167 191 0
164 189 0
164 189 0
162 187 0
160 184 0
155 180 0
156 180 0
155 179 0
155 178 0
158 182 0
150 174 0
149 173 0
144 168 0
150 173 0
141 164 25
121 146 76
60 95 130
60 95 130
60 95 130
61 97 144
62 97 149
61 97 147
62 97 145
61 97 145
62 97 145
63 98 154
62 97 150
62 98 158
62 98 156
63 99 161
61 97 150
62 97 149
63 98 156
63 99 159
61 97 153
63 99 162
62 97 152
62 98 160
62 97 156
62 97 157
62 96 149
61 95 145
61 95 148
61 94 142
61 94 149
60 93 146
60 92 138
59 89 131
59 89 135
59 90 141
58 86 129
59 88 135
57 84 121
54 79 111
71 86 93
73 87 99
78 88 88
86 94 94
91 97 83
110 112 88
116 116 85
123 122 86
134 131 90
144 141 96
153 149 101
145 143 99
156 153 104
171 165 110
168 163 109
172 167 111
177 172 113
176 172 114
177 173 114
174 171 114
173 171 114
172 170 114
171 169 114
169 169 114
170 169 114
168 168 114
168 168 114
167 168 114
166 168 114
165 167 114
166 167 114
166 167 114
166 167 114
166 167 114
166 167 114
166 167 114
168 169 114
168 168 114
168 168 114
169 169 114
170 169 114
170 169 114
174 171 114
173 171 114
176 172 114
177 172 114
180 174 114
180 173 109
180 173 111
177 172 104
179 172 104
175 172 97
176 172 97
176 174 91
178 178 89
177 179 84
174 178 74
173 180 70
171 179 68
171 182 59
171 185 53
172 187 51
172 190 44
170 191 25
168 191 11
167 192 11
168 192 11
168 194 0
169 194 0
170 195 0
170 195 0
168 195 0
168 194 0
169 195 0
169 195 0
170 195 0
170 195 0
170 195 0
169 195 0
169 194 0
168 195 0
168 194 0
170 196 0
169 195 0
169 195 0
169 195 0
169 195 0
170 195 0
169 195 0
168 194 0
168 195 0
169 194 0
169 195 0
169 195 0
169 195 0
169 195 0
169 195 0
169 194 0
169 195 0
168 194 0
168 194 0
170 195 0
168 194 0
168 194 0
168 195 0
169 195 0
170 195 0
169 195 0
169 195 0
168 194 0
167 194 0
169 195 0
168 195 0
169 195 0
167 193 0
168 193 0
168 194 0
166 192 0
168 194 0
167 193 0
170 195 0
169 194 0
168 195 0
168 194 0
169 194 0
167 193 0
166 192 0
168 194 0
169 195 0
167 192 0
167 192 0
164 190 0
166 192 0
168 193 0
167 193 0
166 191 0
169 194 0
166 192 0
165 191 0
164 188 0
165 190 0
161 186 0
159 184 0
163 188 0
162 187 0
160 185 0
161 186 0
165 190 0
160 185 0
160 185 0
159 185 0
160 185 0
156 182 0
156 180 0
155 178 0
149 174 0
155 180 0
144 168 0
143 167 0
147 171 0
145 169 0
132 157 54
80 110 103
61 96 139
60 95 135
59 94 121
61 96 142
61 96 137
61 96 139
61 96 144
63 99 156
63 99 157
61 96 135
61 96 144
60 95 132
64 99 166
62 97 150
61 96 145
62 97 152
63 98 156
62 97 154
62 98 156
62 98 152
62 97 149
62 97 150
62 97 155
60 94 144
60 94 138
61 95 152
61 95 145
60 92 144
61 95 151
60 91 136
58 89 126
58 88 130
58 88 127
55 82 114
55 82 114
58 82 106
69 88 107
67 83 101
88 97 89
82 92 94
101 105 92
96 100 81
107 108 81
133 129 90
126 125 86
130 127 88
139 136 95
149 145 99
158 154 104
161 156 105
169 164 110
168 164 110
179 173 113
176 171 113
175 171 114
175 172 114
176 172 114
173 171 114
172 170 114
170 169 114
170 169 114
169 169 114
168 168 114
167 168 114
166 168 114
166 167 114
165 167 114
165 167 114
166 167 114
165 167 114
166 167 114
166 167 114
167 168 114
166 168 114
168 168 114
169 169 114
169 169 114
171 170 114
170 169 114
173 171 114
174 171 114
175 172 114
177 173 114
178 173 113
180 174 113
181 174 111
179 173 110
179 172 104
176 170 99
178 174 95
176 175 90
174 173 85
179 180 88
178 179 83
178 182 80
172 182 62
175 186 63
170 182 57
172 185 53
171 189 45
167 188 25
168 191 19
168 192 16
169 193 0
168 193 0
167 193 0
168 194 0
169 194 0
169 195 0
169 195 0
169 195 0
170 195 0
170 196 0
168 194 0
171 196 0
168 194 0
168 194 0
169 194 0
168 194 0
169 194 0
169 195 0
169 195 0
169 195 0
169 195 0
169 195 0
169 195 0
169 195 0
170 195 0
169 195 0
170 195 0
165 191 0
168 195 0
170 195 0
169 195 0
170 196 0
169 194 0
168 194 0
168 194 0
169 194 0
169 195 0
169 195 0
169 195 0
168 194 0
168 195 0
167 193 0
170 196 0
169 195 0
169 195 0
169 195 0
168 194 0
167 194 0
169 194 0
168 193 0
168 194 0
168 194 0
169 195 0
169 195 0
169 194 0
166 192 0
167 193 0
167 193 0
167 192 0
168 194 0
167 193 0
169 195 0
166 192 0
167 193 0
165 191 0
165 191 0
167 193 0
163 188 0
165 191 0
170 195 0
168 193 0
167 193 0
168 193 0
165 191 0
163 188 0
166 192 0
164 189 0
161 186 0
163 188 0
161 186 0
154 178 0
159 184 0
156 180 0
155 179 0
159 183 0
152 176 0
161 185 0
150 174 0
157 181 0
154 179 0
153 177 0
151 176 0
149 174 0
141 166 0
147 170 0
141 164 0
100 126 84
59 93 118
61 96 130
60 95 134
61 96 139
62 97 142
61 96 134
61 96 137
61 96 141
61 96 139
60 95 134
60 95 137
61 97 143
63 98 155
62 98 155
60 95 133
62 97 146
61 97 148
63 98 156
62 97 154
61 96 148
61 96 145
61 95 140
61 94 142
60 94 137
62 96 154
61 94 141
60 92 134
60 92 141
60 92 138
59 90 139
59 90 133
58 88 129
57 85 126
56 84 115
59 83 114
66 84 95
66 85 103
80 91 93
80 91 94
96 101 89
95 98 79
113 113 83
114 114 83
110 110 79
131 128 89
145 141 95
148 145 99
154 150 102
162 157 105
164 160 107
164 160 108
176 170 112
176 170 112
179 173 114
177 172 114
176 172 114
173 171 114
173 171 114
172 170 114
170 169 114
170 169 114
168 168 114
168 168 114
167 168 114
167 168 114
166 167 114
166 167 114
165 167 114
165 167 114
165 167 114
166 167 114
166 167 114
166 168 114
167 168 114
167 168 114
168 168 114
169 169 114
170 169 114
172 170 114
172 170 114
172 170 114
175 171 114
176 172 114
179 173 113
179 173 114
182 174 111
182 174 111
177 170 101
180 173 106
179 174 98
177 173 95
175 173 91
175 178 80
176 178 81
173 179 70
174 186 62
173 183 63
170 184 53
172 187 49
167 182 48
169 186 42
170 192 25
168 190 22
167 190 0
167 192 0
167 193 0
169 195 0
170 195 0
166 191 0
168 194 0
168 195 0
169 194 0
168 194 0
167 193 0
168 194 0
168 194 0
168 194 0
168 194 0
169 194 0
168 195 0
170 195 0
168 193 0
170 195 0
169 195 0
169 195 0
169 194 0
170 196 0
168 195 0
168 194 0
169 195 0
170 195 0
168 195 0
168 194 0
167 193 0
169 195 0
169 195 0
168 195 0
168 194 0
169 195 0
168 194 0
169 195 0
169 194 0
170 196 0
169 194 0
167 194 0
169 195 0
170 195 0
168 194 0
168 193 0
169 194 0
169 195 0
168 194 0
168 194 0
169 194 0
169 195 0
166 192 0
169 195 0
166 192 0
169 194 0
168 194 0
165 191 0
169 194 0
168 194 0
165 191 0
169 194 0
165 191 0
167 193 0
164 190 0
169 194 0
165 191 0
166 192 0
166 192 0
164 189 0
168 193 0
167 192 0
163 188 0
165 190 0
165 190 0
166 191 0
166 192 0
162 187 0
163 188 0
161 187 0
160 185 0
159 184 0
160 185 0
162 187 0
160 184 0
155 180 0
152 177 0
155 180 0
151 176 0
147 171 0
151 175 0
149 173 0
156 180 0
143 167 0
141 165 0
144 168 0
125 149 47
70 101 107
58 91 117
60 95 134
62 97 144
61 96 139
61 95 137
60 95 131
62 97 142
60 95 133
60 95 135
61 96 144
60 95 136
62 97 147
62 98 152
61 97 143
62 97 153
62 97 147
62 97 146
62 97 153
61 96 142
61 96 147
61 95 145
62 96 151
62 96 150
62 96 147
60 92 136
60 93 135
60 92 133
59 91 135
59 89 126
59 90 133
58 88 128
56 84 116
54 81 108
59 84 113
60 82 97
67 85 99
96 103 87
82 91 86
101 104 78
115 115 90
105 108 84
117 117 83
128 126 88
136 133 90
160 153 102
153 148 100
157 152 102
159 155 105
173 167 110
173 168 111
176 170 112
179 173 113
177 172 114
177 172 114
174 171 114
175 172 114
173 171 114
172 170 114
170 169 114
169 169 114
168 168 114
168 168 114
168 168 114
167 168 114
167 168 114
166 167 114
166 168 114
166 167 114
166 167 114
166 167 114
166 167 114
166 167 114
167 168 114
167 168 114
168 168 114
170 169 114
169 169 114
171 170 114
173 170 114
173 171 114
176 172 114
176 172 114
179 174 114
179 173 114
180 173 111
181 174 109
181 173 108
179 172 106
178 172 99
173 171 87
178 174 93
177 178 80
175 177 82
175 180 74
175 183 66
174 184 64
170 181 59
170 182 53
171 186 47
169 189 32
170 190 32
167 189 19
166 189 11
167 191 16
169 194 0
166 192 0
168 194 0
170 195 0
168 194 0
168 194 0
168 193 0
170 195 0
168 195 0
167 193 0
169 194 0
168 194 0
168 194 0
169 195 0
170 195 0
169 195 0
169 194 0
170 195 0
169 195 0
169 195 0
170 195 0
168 195 0
168 195 0
170 195 0
169 195 0
169 195 0
169 195 0
169 195 0
170 195 0
169 195 0
169 195 0
169 195 0
169 195 0
170 195 0
169 195 0
168 194 0
168 194 0
168 194 0
169 195 0
169 195 0
169 195 0
169 194 0
167 193 0
167 193 0
167 193 0
170 195 0
168 194 0
168 194 0
168 194 0
167 193 0
166 192 0
168 194 0
169 195 0
168 194 0
166 192 0
167 194 0
165 191 0
166 192 0
168 194 0
167 193 0
168 194 0
168 193 0
170 195 0
169 195 0
168 193 0
166 192 0
165 191 0
162 187 0
164 190 0
165 190 0
164 190 0
161 187 0
165 190 0
165 191 0
165 190 0
165 190 0
162 188 0
160 185 0
157 182 0
162 187 0
156 181 0
161 186 0
153 178 0
154 179 0
155 180 0
153 177 0
149 174 0
154 179 0
151 176 0
149 174 0
144 169 0
140 163 0
143 167 0
136 159 0
141 165 0
112 138 65
61 95 121
56 90 92
59 93 115
60 95 133
60 95 133
60 94 134
61 96 140
61 96 140
60 95 131
61 96 140
61 96 142
61 96 143
61 96 145
62 97 148
63 98 155
62 97 148
60 95 141
61 96 145
62 97 150
60 95 137
61 96 148
61 95 137
62 96 150
60 94 142
60 93 137
60 92 131
59 91 132
61 94 144
58 87 120
59 89 126
57 86 113
57 84 117
55 81 103
52 76 93
66 82 92
77 91 94
92 100 89
89 95 73
95 98 69
119 117 82
116 116 85
118 118 78
137 134 90
142 139 93
152 147 97
151 147 100
169 162 107
169 163 108
169 164 109
176 169 111
180 173 113
180 174 114
179 173 114
177 172 114
177 172 114
174 171 114
174 171 114
172 170 114
172 170 114
169 169 114
170 169 114
167 168 114
168 168 114
167 168 114
166 168 114
166 168 114
166 167 114
166 167 114
166 168 114
166 168 114
167 168 114
166 168 114
167 168 114
168 168 114
168 168 114
169 169 114
170 169 114
172 170 114
172 170 114
173 171 114
174 171 114
176 172 114
178 173 114
179 173 113
180 174 112
183 175 112
181 173 109
179 172 105
178 172 99
177 172 95
181 177 96
177 174 90
174 174 84
179 180 84
172 178 69
173 179 69
173 183 64
174 186 61
169 183 48
171 189 39
168 190 28
167 189 25
165 188 22
169 193 0
169 194 0
168 193 0
169 195 0
169 193 0
169 195 0
169 195 0
170 195 0
169 195 0
169 195 0
169 195 0
169 195 0
170 196 0
169 195 0
169 194 0
169 195 0
169 194 0
168 194 0
168 194 0
169 195 0
168 195 0
169 195 0
168 194 0
169 195 0
168 194 0
168 195 0
168 193 0
170 195 0
167 193 0
170 195 0
169 195 0
169 195 0
168 194 0
169 195 0
168 193 0
168 194 0
168 194 0
168 193 0
168 194 0
169 195 0
167 193 0
168 194 0
168 194 0
169 195 0
170 195 0
170 195 0
169 195 0
167 194 0
170 195 0
166 192 0
167 193 0
168 194 0
168 195 0
168 193 0
166 192 0
167 193 0
167 192 0
167 193 0
167 193 0
168 194 0
169 195 0
168 194 0
168 192 0
168 193 0
167 193 0
164 190 0
168 193 0
165 191 0
165 190 0
164 189 0
166 192 0
163 188 0
162 187 0
166 192 0
164 189 0
162 187 0
166 192 0
164 189 0
155 180 0
164 189 0
158 183 0
159 185 0
156 180 0
157 182 0
153 178 0
160 184 0
152 177 0
152 177 0
148 171 0
145 169 0
143 168 0
144 168 0
139 164 0
139 163 0
141 165 0
139 163 0
132 155 40
78 106 92
58 92 117
59 94 127
60 95 130
61 96 140
59 94 124
60 95 131
61 96 140
61 96 137
61 96 137
59 94 120
60 95 134
62 97 142
61 95 131
61 96 140
62 97 141
61 96 145
62 97 151
60 94 137
62 96 149
61 96 146
61 96 143
60 94 130
58 90 119
60 93 135
60 93 140
59 92 130
58 89 128
58 89 129
56 85 120
58 88 124
57 85 113
63 88 112
57 79 100
66 86 90
71 87 90
82 91 78
96 101 78
108 109 74
110 111 72
123 120 78
125 123 84
131 127 84
154 148 96
157 151 99
165 158 102
179 169 110
170 163 108
177 169 111
176 169 111
178 172 113
181 174 114
178 173 114
176 172 114
177 172 114
176 172 114
173 171 114
172 170 114
170 169 114
170 169 114
170 169 114
169 169 114
168 168 114
168 168 114
167 168 114
166 168 114
166 168 114
167 168 114
167 168 114
166 168 114
166 168 114
168 168 114
168 168 114
168 168 114
169 169 114
170 169 114
171 170 114
172 170 114
173 171 114
173 171 114
175 172 114
177 172 114
177 173 114
180 174 113
181 174 114
181 174 110
183 174 109
182 174 110
180 173 103
178 172 95
175 170 94
178 175 90
177 174 88
172 175 72
173 178 72
177 184 72
173 182 65
174 185 59
169 183 48
169 185 42
168 186 37
168 187 34
168 189 22
169 194 11
169 194 0
168 195 0
169 195 0
168 193 0
170 195 0
168 193 0
169 194 0
168 194 0
168 194 0
170 195 0
169 194 0
169 195 0
169 194 0
170 195 0
168 195 0
169 195 0
169 194 0
167 193 0
168 194 0
169 194 0
168 194 0
168 194 0
170 195 0
168 194 0
168 194 0
168 195 0
170 195 0
170 195 0
168 194 0
168 194 0
171 196 0
170 195 0
169 195 0
169 195 0
169 195 0
170 196 0
170 195 0
169 195 0
169 194 0
169 195 0
168 194 0
168 194 0
169 194 0
169 195 0
168 194 0
168 194 0
168 195 0
168 194 0
166 192 0
169 195 0
169 194 0
166 193 0
168 194 0
167 193 0
168 194 0
170 195 0
168 194 0
169 194 0
165 191 0
169 194 0
170 195 0
167 194 0
168 194 0
166 192 0
164 190 0
166 191 0
166 192 0
165 191 0
162 188 0
161 186 0
163 188 0
162 188 0
164 190 0
164 190 0
164 189 0
163 189 0
156 181 0
162 187 0
158 183 0
159 184 0
158 183 0
153 178 0
162 187 0
153 178 0
150 175 0
146 171 0
152 176 0
150 174 0
146 170 0
144 167 0
144 168 0
145 168 0
143 167 0
135 159 0
135 158 0
134 158 0
122 145 40
77 107 103
57 91 102
59 94 118
60 94 122
61 96 136
57 92 105
60 94 130
60 95 127
61 96 133
61 96 140
59 94 126
60 95 140
60 94 125
61 95 137
59 94 134
61 95 133
62 97 146
61 96 141
61 95 135
60 95 129
60 94 136
60 93 133
60 93 132
59 92 131
60 93 140
59 91 128
59 90 127
59 91 131
57 87 120
57 87 115
55 83 114
58 82 97
67 85 88
73 86 74
77 90 80
94 101 76
103 105 78
107 110 82
124 123 79
126 125 81
132 129 84
140 136 90
150 145 94
158 153 100
167 160 104
168 161 103
176 168 110
179 172 111
180 172 112
181 174 114
180 174 114
178 173 114
178 173 114
177 172 114
176 172 114
175 172 114
173 171 114
171 170 114
170 169 114
169 169 114
169 169 114
169 169 114
168 168 114
167 168 114
167 168 114
167 168 114
167 168 114
168 168 114
166 168 114
167 168 114
169 169 114
169 169 114
170 169 114
170 169 114
170 169 114
171 170 114
173 170 114
173 171 114
175 171 114
175 172 114
177 172 114
179 173 114
180 174 114
180 174 113
182 174 110
182 174 109
182 173 109
182 173 103
178 172 98
179 174 96
174 172 84
177 176 88
173 175 80
176 180 75
173 178 70
170 179 57
171 181 57
171 181 59
169 183 47
167 186 32
168 189 28
166 188 16
167 190 11
167 192 0
168 193 0
168 193 0
168 194 0
169 194 0
169 194 0
169 195 0
169 194 0
169 195 0
168 194 0
167 193 0
169 194 0
167 194 0
169 194 0
170 195 0
169 194 0
170 195 0
169 194 0
169 195 0
170 195 0
170 195 0
169 195 0
169 194 0
169 195 0
168 195 0
169 195 0
168 194 0
170 196 0
169 195 0
170 195 0
169 194 0
168 194 0
169 194 0
169 195 0
167 193 0
166 192 0
166 192 0
168 194 0
168 194 0
167 193 0
169 195 0
169 195 0
167 194 0
169 194 0
169 194 0
168 194 0
165 191 0
169 194 0
168 194 0
168 194 0
167 193 0
167 192 0
167 193 0
167 193 0
166 191 0
166 192 0
169 195 0
168 194 0
168 194 0
167 193 0
169 194 0
166 192 0
168 193 0
166 192 0
163 188 0
167 193 0
168 195 0
165 191 0
164 190 0
165 191 0
165 191 0
163 189 0
165 190 0
160 186 0
156 182 0
160 186 0
165 190 0
164 189 0
158 183 0
159 183 0
158 183 0
155 180 0
158 183 0
154 179 0
156 181 0
151 176 0
158 182 0
153 178 0
151 176 0
148 173 0
146 170 0
148 172 0
142 166 0
139 163 0
134 157 0
125 147 0
123 146 0
100 123 57
66 98 111
57 91 108
58 93 115
59 93 118
58 92 115
58 93 117
57 91 105
60 95 130
61 96 135
58 93 118
60 94 130
61 95 133
61 96 134
60 95 129
61 95 140
60 94 124
59 94 136
61 95 135
60 94 130
60 93 129
59 92 123
61 94 132
59 92 129
58 90 123
59 91 123
58 89 120
60 91 131
56 84 111
54 83 100
55 82 104
61 83 102
74 92 100
75 90 82
79 90 76
100 104 84
101 106 75
127 125 81
124 122 76
128 126 80
135 132 85
158 151 93
153 147 92
158 153 98
171 163 104
174 166 105
180 171 110
180 172 111
182 174 113
182 175 114
182 175 114
180 174 114
179 173 114
176 172 114
176 172 114
177 172 114
173 171 114
172 170 114
173 171 114
170 169 114
170 169 114
169 169 114
169 169 114
169 169 114
169 169 114
168 168 114
167 168 114
169 169 114
167 168 114
169 169 114
169 169 114
168 168 114
169 169 114
169 169 114
171 170 114
171 170 114
172 170 114
175 171 114
176 172 114
176 172 114
177 173 114
179 173 114
180 174 114
182 175 114
180 173 111
181 174 110
183 175 109
179 171 101
180 171 99
177 172 94
178 172 95
177 174 88
179 178 86
171 173 73
173 180 64
170 179 60
172 184 54
170 184 52
170 184 48
169 186 36
168 187 34
167 189 19
165 188 16
168 192 11
168 193 0
168 194 0
169 194 0
168 194 0
169 194 0
169 194 0
168 193 0
170 195 0
168 194 0
165 191 0
170 195 0
169 195 0
167 194 0
169 194 0
169 194 0
169 194 0
169 194 0
169 194 0
168 195 0
168 194 0
169 195 0
169 194 0
168 194 0
168 194 0
168 194 0
168 195 0
169 195 0
170 195 0
169 194 0
168 195 0
168 194 0
170 195 0
168 193 0
168 194 0
169 195 0
168 194 0
168 194 0
168 195 0
168 194 0
169 195 0
168 194 0
169 195 0
169 195 0
169 195 0
167 193 0
168 194 0
169 195 0
168 194 0
168 194 0
168 194 0
169 195 0
169 195 0
169 195 0
167 193 0
166 192 0
167 193 0
165 191 0
166 192 0
167 193 0
168 193 0
165 191 0
166 192 0
167 193 0
166 192 0
164 190 0
160 186 0
166 191 0
168 192 0
166 192 0
163 189 0
165 191 0
163 188 0
159 184 0
161 187 0
158 184 0
159 184 0
149 174 0
163 188 0
157 183 0
156 181 0
154 179 0
155 180 0
155 179 0
154 179 0
148 173 0
150 175 0
151 177 0
145 170 0
146 170 0
141 166 0
135 159 0
138 162 0
133 157 0
133 157 0
133 156 0
125 147 0
121 143 18
105 130 60
62 94 97
57 90 108
57 90 107
58 91 110
58 92 115
58 91 121
59 93 126
59 94 121
59 93 128
60 95 131
60 94 122
60 95 131
59 94 126
58 92 118
59 93 126
58 91 118
60 94 131
59 93 130
60 94 126
60 92 125
60 92 129
59 91 126
58 90 114
60 93 133
57 87 112
56 86 113
56 85 107
56 84 103
55 81 95
52 76 87
69 85 75
78 92 79
81 92 67
100 104 71
102 104 69
136 132 79
121 118 71
137 134 79
135 132 80
150 144 87
159 152 95
168 160 99
171 163 104
177 169 106
184 175 111
185 175 112
185 176 113
185 176 114
182 175 114
180 174 114
180 174 114
178 173 114
176 172 114
175 171 114
175 171 114
173 171 114
173 170 114
172 170 114
172 170 114
171 170 114
171 170 114
170 169 114
169 169 114
169 169 114
168 168 114
168 168 114
169 169 114
169 169 114
170 169 114
171 169 114
171 170 114
172 170 114
172 170 114
174 171 114
173 171 114
175 172 114
175 171 114
176 172 114
179 173 114
181 174 114
179 174 114
182 175 114
183 175 112
182 174 111
183 174 107
184 175 108
182 173 102
176 170 92
176 171 90
177 175 83
170 172 73
174 173 80
176 179 74
172 181 66
169 179 58
167 181 39
171 189 37
169 188 34
169 186 39
167 190 16
168 191 11
169 193 0
168 193 0
170 195 0
168 193 0
167 193 0
168 194 0
168 194 0
169 195 0
168 193 0
170 194 0
168 194 0
169 195 0
167 193 0
168 193 0
169 195 0
169 195 0
169 194 0
170 195 0
170 196 0
169 195 0
168 194 0
169 195 0
168 194 0
169 195 0
166 192 0
169 195 0
169 195 0
170 195 0
169 195 0
170 195 0
169 195 0
169 195 0
170 196 0
169 195 0
170 195 0
169 195 0
169 195 0
170 195 0
166 192 0
168 194 0
169 195 0
168 194 0
168 194 0
166 192 0
170 195 0
168 194 0
168 194 0
168 194 0
169 194 0
168 194 0
168 194 0
166 192 0
169 195 0
164 190 0
165 191 0
169 194 0
166 192 0
167 193 0
167 193 0
163 189 0
165 191 0
167 193 0
168 194 0
166 191 0
168 193 0
166 191 0
168 194 0
163 189 0
163 189 0
166 192 0
162 187 0
164 190 0
167 192 0
159 185 0
163 189 0
157 182 0
162 187 0
158 183 0
161 187 0
153 178 0
152 178 0
158 183 0
159 184 0
153 178 0
153 178 0
151 176 0
139 163 0
145 169 0
136 161 0
145 170 0
141 166 0
136 158 0
131 156 0
128 151 0
136 160 0
129 153 0
128 150 0
124 146 0
109 131 25
94 119 74
61 94 113
57 90 100
59 93 124
58 92 110
59 92 125
58 92 111
60 94 129
58 92 122
59 93 126
59 92 120
60 94 129
59 92 118
60 95 135
59 94 131
59 93 125
56 89 94
57 91 108
59 91 120
58 91 122
57 89 115
59 92 121
58 89 115
56 87 111
58 89 119
55 85 101
52 79 88
55 81 87
57 81 72
56 81 86
78 93 81
74 86 63
84 95 67
97 102 68
101 105 56
116 115 54
110 112 63
132 129 73
142 138 84
165 158 90
161 155 94
171 163 99
170 162 99
179 170 105
182 174 110
184 175 112
184 175 112
185 176 113
184 176 114
183 175 114
181 174 114
178 173 114
177 172 114
177 172 114
175 171 114
175 172 114
174 171 114
173 171 114
173 170 114
171 170 114
171 170 114
171 170 114
170 169 114
170 169 114
169 169 114
170 169 114
170 169 114
169 169 114
170 169 114
171 170 114
172 170 114
171 170 114
173 170 114
173 170 114
175 172 114
176 172 114
177 172 114
176 172 114
178 173 114
180 174 114
181 174 114
183 175 112
186 176 112
182 174 110
184 175 109
179 171 99
180 172 101
177 171 94
177 173 88
176 172 85
173 172 81
177 179 76
172 175 67
170 175 65
172 183 54
168 183 41
169 183 42
163 180 30
169 188 34
168 188 19
166 188 16
166 189 11
167 192 0
169 194 0
168 193 0
169 194 0
168 193 0
166 191 0
168 194 0
170 195 0
169 194 0
169 194 0
169 195 0
170 196 0
168 193 0
169 195 0
168 195 0
168 194 0
169 195 0
168 194 0
170 195 0
169 195 0
169 195 0
170 195 0
169 194 0
170 195 0
168 195 0
169 195 0
167 193 0
167 193 0
169 195 0
169 194 0
168 194 0
168 194 0
169 195 0
169 195 0
167 194 0
168 195 0
168 193 0
168 194 0
170 196 0
168 195 0
169 194 0
169 194 0
167 194 0
169 194 0
168 194 0
167 194 0
165 190 0
168 194 0
168 195 0
168 194 0
168 194 0
167 192 0
169 194 0
168 193 0
168 194 0
167 193 0
167 192 0
167 193 0
167 193 0
163 190 0
164 190 0
160 185 0
168 193 0
165 190 0
166 192 0
164 190 0
168 193 0
166 192 0
158 184 0
165 191 0
163 188 0
162 187 0
165 191 0
164 190 0
157 183 0
159 184 0
158 184 0
159 185 0
160 186 0
156 182 0
153 179 0
158 183 0
158 184 0
152 178 0
153 179 0
154 180 0
147 171 0
142 167 0
139 163 0
140 163 0
134 158 0
133 156 0
132 155 0
133 157 0
135 159 0
121 143 0
118 140 0
126 148 0
95 116 0
82 106 57
54 87 72
56 90 102
57 91 107
57 91 111
57 90 108
58 91 110
58 92 110
58 91 105
57 91 110
58 91 122
60 94 118
58 92 111
59 93 128
59 93 123
60 93 128
57 89 105
58 91 114
57 89 110
58 90 114
57 89 108
57 88 102
56 87 110
56 85 107
56 86 108
54 83 98
53 77 78
52 75 67
63 86 93
70 87 72
78 89 64
78 88 60
97 102 58
116 116 65
113 114 68
131 128 66
136 133 72
150 145 83
153 148 84
157 152 85
165 159 90
174 166 96
178 169 105
182 173 105
184 175 107
186 176 112
185 176 114
183 175 114
182 175 114
180 174 114
181 174 114
181 174 114
177 172 114
176 172 114
174 171 114
174 171 114
175 171 114
173 171 114
172 170 114
171 170 114
171 170 114
171 170 114
172 170 114
171 170 114
171 170 114
172 170 114
171 170 114
171 170 114
173 170 114
172 170 114
173 170 114
174 171 114
175 171 114
176 172 114
176 172 114
177 173 114
178 173 114
180 174 114
182 175 114
182 175 114
184 176 113
183 175 111
183 175 109
183 175 109
183 174 104
182 174 105
175 169 90
175 171 89
175 170 81
176 173 84
172 175 70
169 174 63
173 178 70
171 178 61
167 178 47
168 182 45
164 183 22
166 185 30
166 188 11
169 192 19
167 193 0
168 192 0
169 195 0
169 193 0
169 195 0
166 192 0
169 194 0
170 195 0
168 192 0
170 195 0
169 195 0
171 196 0
168 193 0
168 195 0
169 195 0
167 193 0
169 194 0
168 194 0
169 195 0
168 195 0
170 195 0
169 195 0
170 196 0
168 195 0
169 195 0
168 195 0
169 195 0
168 194 0
168 195 0
168 194 0
170 195 0
170 195 0
169 195 0
169 195 0
169 194 0
169 195 0
169 195 0
167 193 0
167 193 0
169 194 0
168 195 0
166 192 0
170 196 0
168 193 0
169 195 0
168 194 0
168 194 0
167 194 0
168 194 0
169 195 0
167 193 0
169 195 0
169 195 0
169 194 0
170 196 0
169 194 0
167 193 0
167 193 0
168 194 0
168 195 0
169 194 0
168 193 0
168 193 0
164 190 0
167 193 0
165 191 0
166 192 0
165 190 0
162 187 0
162 187 0
165 191 0
163 189 0
160 185 0
161 187 0
165 191 0
155 181 0
159 185 0
156 182 0
158 184 0
160 185 0
161 186 0
158 183 0
154 179 0
150 176 0
151 176 0
150 175 0
149 174 0
137 161 0
147 172 0
146 170 0
149 174 0
145 169 0
130 154 0
137 161 0
137 160 0
130 153 0
116 139 0
122 144 0
118 139 0
110 132 0
107 128 31
98 120 40
62 92 78
56 89 90
54 87 88
57 91 107
57 91 105
57 91 105
59 93 115
56 89 97
57 91 111
57 91 110
58 92 111
57 89 107
57 90 111
58 92 110
58 90 114
59 92 121
57 89 104
58 90 110
57 89 115
54 85 95
55 85 96
52 80 88
53 80 86
56 84 85
54 81 90
61 83 70
70 86 62
76 90 61
81 92 69
91 98 53
100 105 64
105 107 59
122 121 60
129 127 63
132 129 64
144 140 75
159 152 85
163 156 89
175 167 98
174 166 96
178 169 102
180 171 106
184 175 109
185 175 110
184 175 111
184 176 113
183 175 113
183 175 114
181 174 114
179 174 114
178 173 114
177 173 114
177 172 114
175 171 114
177 172 114
176 172 114
174 171 114
175 171 114
172 170 114
172 170 114
173 170 114
173 171 114
172 170 114
174 171 114
171 170 114
174 171 114
174 171 114
174 171 114
174 171 114
175 172 114
176 172 114
176 172 114
177 173 114
178 173 114
179 174 114
181 174 114
181 174 114
183 175 113
185 176 114
184 175 112
184 175 108
181 173 105
182 173 101
181 172 100
179 171 95
178 171 91
174 171 81
175 174 80
170 175 66
173 177 72
171 176 62
167 177 52
165 180 42
167 184 36
166 182 32
167 187 28
167 188 22
166 188 11
165 189 0
169 194 0
169 194 0
169 194 0
169 195 0
169 194 0
170 195 0
169 194 0
170 195 0
169 195 0
169 195 0
169 194 0
168 195 0
169 194 0
169 194 0
169 194 0
167 193 0
169 194 0
168 194 0
168 194 0
169 195 0
170 196 0
168 194 0
169 195 0
169 195 0
168 194 0
168 194 0
170 195 0
169 195 0
170 195 0
170 196 0
168 195 0
170 195 0
169 195 0
166 193 0
168 194 0
168 194 0
170 195 0
169 195 0
167 193 0
168 194 0
169 195 0
168 193 0
169 195 0
166 192 0
169 195 0
168 194 0
169 195 0
168 194 0
169 195 0
169 195 0
164 190 0
169 195 0
168 193 0
167 193 0
168 193 0
166 192 0
167 194 0
166 192 0
165 191 0
166 192 0
167 193 0
166 191 0
165 190 0
163 190 0
163 189 0
167 193 0
165 191 0
164 189 0
165 191 0
166 192 0
163 189 0
160 186 0
164 189 0
162 188 0
159 185 0
164 189 0
159 184 0
161 186 0
156 181 0
157 183 0
155 180 0
155 181 0
156 182 0
153 178 0
152 177 0
150 176 0
147 172 0
145 169 0
138 163 0
147 172 0
154 179 0
137 160 0
132 156 0
126 148 0
127 150 0
127 151 0
113 135 0
122 144 0
117 138 0
102 123 0
103 123 0
81 102 36
80 105 74
54 87 90
56 89 88
55 89 95
58 91 103
55 88 95
57 90 110
58 91 116
57 91 103
56 88 97
56 90 105
56 88 109
56 89 100
58 91 111
58 91 109
55 87 103
56 88 99
57 89 110
56 86 102
56 87 105
55 85 93
54 84 98
51 78 78
50 75 71
66 84 68
62 83 71
65 81 57
64 79 60
101 105 61
100 105 49
118 119 49
128 127 54
138 136 66
146 141 70
149 144 78
157 150 84
159 153 83
173 164 93
175 167 91
185 174 104
182 173 104
183 174 106
185 175 109
182 174 107
184 175 112
185 176 113
184 176 114
182 175 114
182 175 114
181 174 114
177 173 114
179 173 114
178 173 114
175 172 114
176 172 114
176 172 114
175 172 114
174 171 114
173 171 114
174 171 114
174 171 114
173 171 114
175 172 114
174 171 114
174 171 114
175 172 114
175 171 114
176 172 114
177 172 114
178 173 114
177 173 114
178 173 114
178 173 114
181 174 114
182 175 114
181 174 114
182 175 112
184 175 112
184 175 110
184 174 106
184 174 104
182 172 99
181 172 101
179 170 98
173 169 86
177 172 87
174 174 76
177 175 77
174 177 73
167 174 57
170 174 60
167 180 44
167 178 45
165 181 30
165 184 22
166 187 11
168 190 22
165 189 0
167 192 0
167 192 0
168 194 0
167 193 0
169 194 0
169 193 0
169 194 0
169 194 0
167 193 0
168 194 0
167 193 0
169 195 0
167 192 0
169 195 0
168 193 0
168 193 0
169 195 0
169 194 0
169 195 0
169 195 0
169 195 0
168 195 0
169 195 0
169 195 0
168 194 0
170 195 0
167 193 0
168 195 0
170 195 0
170 195 0
167 194 0
169 195 0
169 194 0
169 194 0
167 193 0
171 196 0
168 194 0
168 194 0
168 194 0
169 195 0
169 194 0
168 194 0
168 194 0
166 192 0
167 193 0
167 193 0
167 193 0
168 194 0
166 193 0
168 194 0
168 193 0
168 194 0
167 194 0
169 195 0
166 192 0
165 191 0
164 191 0
165 191 0
166 192 0
166 192 0
165 191 0
163 189 0
168 194 0
165 191 0
163 189 0
162 188 0
166 192 0
160 186 0
161 187 0
161 187 0
161 187 0
166 192 0
161 186 0
163 188 0
162 188 0
161 187 0
158 184 0
160 185 0
153 179 0
155 181 0
147 172 0
157 182 0
146 172 0
154 179 0
146 171 0
157 182 0
155 179 0
146 170 0
143 168 0
141 165 0
141 165 0
135 159 0
135 157 0
135 159 0
129 152 0
130 154 0
115 137 0
124 146 0
114 135 0
112 132 0
106 126 0
89 107 0
86 105 25
78 101 54
53 84 72
53 86 78
56 89 92
54 86 84
56 89 100
54 87 92
55 87 95
56 89 107
56 88 96
56 88 99
56 88 100
54 86 83
55 86 93
55 86 102
55 86 92
55 86 98
54 85 87
52 81 85
54 84 83
51 78 79
52 80 78
49 72 60
63 83 67
65 81 54
74 88 47
87 94 29
87 94 48
103 105 48
122 122 46
123 124 52
125 126 52
138 135 70
151 146 73
151 147 71
166 159 86
174 166 92
175 167 93
182 172 100
181 172 100
183 173 101
184 175 108
186 176 110
185 176 111
186 176 112
185 176 114
183 175 113
183 175 113
181 174 114
182 175 114
181 174 114
177 173 114
178 173 114
177 173 114
175 172 114
177 172 114
176 172 114
175 172 114
174 171 114
176 172 114
175 171 114
177 172 114
176 172 114
176 172 114
175 171 114
175 172 114
177 172 114
177 172 114
178 173 114
179 174 114
179 173 114
180 174 113
182 175 114
181 174 113
183 175 113
185 176 113
184 175 110
184 175 110
182 173 103
182 173 105
182 173 103
178 170 95
178 170 88
173 168 80
179 172 90
176 174 79
170 172 69
168 173 62
168 175 56
172 181 59
167 181 44
170 180 48
168 184 37
167 186 28
166 188 11
167 188 16
166 190 16
169 193 0
167 192 0
168 193 0
168 194 0
168 193 0
168 194 0
168 193 0
168 193 0
168 194 0
169 194 0
168 193 0
170 195 0
167 194 0
169 195 0
168 193 0
168 194 0
167 191 0
169 195 0
169 195 0
168 194 0
169 195 0
169 195 0
169 194 0
167 193 0
169 195 0
166 193 0
169 195 0
168 194 0
169 194 0
169 195 0
167 193 0
169 195 0
170 196 0
168 194 0
167 193 0
170 195 0
169 195 0
169 195 0
167 193 0
169 195 0
170 196 0
168 193 0
166 193 0
167 193 0
168 194 0
168 194 0
169 195 0
167 193 0
169 194 0
169 195 0
168 194 0
166 193 0
167 193 0
167 193 0
166 192 0
166 191 0
167 194 0
168 194 0
168 193 0
166 191 0
168 194 0
165 190 0
165 191 0
166 192 0
163 189 0
166 192 0
164 190 0
165 191 0
161 186 0
163 188 0
164 190 0
160 186 0
163 189 0
160 186 0
159 185 0
160 185 0
159 185 0
157 183 0
162 188 0
153 178 0
157 182 0
155 180 0
146 171 0
146 170 0
151 176 0
155 180 0
155 180 0
138 163 0
144 169 0
141 166 0
145 170 0
132 156 0
143 167 0
131 155 0
121 143 0
134 157 0
118 140 0
112 134 0
117 139 0
99 119 0
103 124 0
90 109 0
100 119 0
87 105 0
84 102 36
63 86 57
57 84 60
53 84 90
52 84 70
55 87 83
55 87 90
55 87 105
55 87 92
52 84 79
53 85 79
52 83 85
52 82 75
55 87 99
52 81 84
52 82 75
52 81 77
51 79 78
51 79 72
49 76 68
51 76 65
54 78 70
54 76 60
64 82 70
73 84 45
87 94 38
86 91 22
104 106 39
115 118 44
140 141 44
132 131 57
148 144 60
152 147 72
169 161 85
164 157 81
168 161 83
175 167 90
177 168 94
183 173 102
185 175 104
184 174 104
183 174 104
185 175 110
186 176 110
185 176 111
184 175 112
184 176 113
182 175 114
180 174 113
181 174 114
182 175 114
180 174 114
178 173 114
176 172 114
177 172 114
178 173 114
178 173 114
177 172 114
177 172 114
177 173 114
177 173 114
177 172 114
176 172 114
177 172 114
179 173 114
178 173 114
180 174 114
177 173 114
181 174 113
181 174 114
181 174 113
182 175 113
184 175 113
184 176 113
183 175 110
184 175 110
183 174 106
183 174 104
182 172 99
180 172 99
174 167 84
179 171 95
176 169 88
170 167 75
173 172 75
169 172 60
171 175 64
164 170 49
168 174 58
168 182 42
167 183 39
166 181 28
166 184 34
165 184 25
166 189 11
164 188 0
165 189 0
167 193 0
168 193 0
168 194 0
167 191 0
167 192 0
169 193 0
168 193 0
169 195 0
170 194 0
167 193 0
168 194 0
169 194 0
168 193 0
168 193 0
169 195 0
168 194 0
169 195 0
169 195 0
170 195 0
169 195 0
169 195 0
169 195 0
169 195 0
167 193 0
169 195 0
169 195 0
169 195 0
169 195 0
168 194 0
169 195 0
168 195 0
168 195 0
169 195 0
169 195 0
168 194 0
170 196 0
168 194 0
169 195 0
168 194 0
166 192 0
168 194 0
167 194 0
170 195 0
167 193 0
169 195 0
169 195 0
168 194 0
168 194 0
170 195 0
168 193 0
168 194 0
168 194 0
168 194 0
164 190 0
168 193 0
163 189 0
167 193 0
167 192 0
168 193 0
166 192 0
163 189 0
167 193 0
166 192 0
161 187 0
162 187 0
164 190 0
163 189 0
163 189 0
162 188 0
165 190 0
163 189 0
163 189 0
165 191 0
161 186 0
161 187 0
159 185 0
162 187 0
160 186 0
148 174 0
154 179 0
150 176 0
157 183 0
156 181 0
157 182 0
140 164 0
144 169 0
147 172 0
144 167 0
146 171 0
134 159 0
136 160 0
140 164 0
138 162 0
136 159 0
126 147 0
122 145 0
120 142 0
115 139 0
118 139 0
106 126 0
91 111 0
97 116 0
99 117 0
85 102 0
80 97 18
75 93 25
63 84 57
51 80 70
50 81 67
52 84 80
49 79 60
54 86 88
54 85 90
51 82 72
54 86 87
53 84 85
52 82 67
50 79 66
50 79 68
50 79 71
50 78 63
52 81 76
49 77 63
49 75 61
51 73 48
66 83 53
70 83 43
64 73 11
90 95 16
92 99 27
113 118 25
112 114 38
128 127 51
136 133 56
144 142 61
150 146 62
160 154 76
158 153 66
164 158 74
177 168 91
179 170 92
179 170 93
180 171 95
183 174 104
181 172 101
184 175 108
183 174 108
186 176 112
184 175 110
184 176 112
184 176 114
183 175 113
182 174 113
183 175 113
181 174 113
181 174 114
180 174 113
179 174 114
178 173 114
179 174 114
179 173 114
179 173 114
178 173 114
177 173 114
178 173 114
179 173 114
179 173 114
178 173 114
181 174 114
180 174 113
181 175 114
180 174 114
182 175 114
184 176 114
184 176 113
185 176 112
185 176 110
184 175 109
183 174 107
184 174 106
180 171 98
178 170 93
181 172 97
177 169 93
174 167 86
175 170 84
172 170 76
170 169 68
170 170 67
167 173 59
170 174 60
166 174 52
168 178 49
164 178 30
167 183 30
166 186 19
165 182 0
167 188 16
166 188 11
168 191 0
165 190 0
168 194 0
167 192 0
169 194 0
167 192 0
168 194 0
164 189 0
167 193 0
168 193 0
168 194 0
169 194 0
169 194 0
169 194 0
169 194 0
169 195 0
168 194 0
169 194 0
169 195 0
169 195 0
169 195 0
168 195 0
169 194 0
169 195 0
170 196 0
169 195 0
169 195 0
170 195 0
169 195 0
169 195 0
169 194 0
167 193 0
169 195 0
168 194 0
168 194 0
168 194 0
168 194 0
168 194 0
168 194 0
168 195 0
168 194 0
168 194 0
170 195 0
167 193 0
167 193 0
169 194 0
169 195 0
165 192 0
168 195 0
165 191 0
168 194 0
164 190 0
170 195 0
167 192 0
169 195 0
168 194 0
167 193 0
169 194 0
166 192 0
166 192 0
164 190 0
164 190 0
166 192 0
163 189 0
169 195 0
167 193 0
165 191 0
165 191 0
162 189 0
165 190 0
164 190 0
161 186 0
162 188 0
160 186 0
155 181 0
162 187 0
154 179 0
155 180 0
159 185 0
157 182 0
155 181 0
151 176 0
151 176 0
153 178 0
155 180 0
142 166 0
146 171 0
146 171 0
143 169 0
139 163 0
136 160 0
143 166 0
141 166 0
142 166 0
131 154 0
128 151 0
125 148 0
115 137 0
114 135 0
103 124 0
107 128 0
111 131 0
91 110 0
92 109 0
97 115 0
79 95 0
56 72 0
72 87 18
65 82 0
68 84 31
52 73 25
42 68 47
49 78 72
49 79 76
46 75 57
51 82 74
48 76 60
50 79 72
47 74 63
50 80 70
49 78 60
47 75 58
46 73 63
48 71 54
40 63 45
58 72 42
67 77 32
70 76 18
84 88 14
86 89 22
96 101 18
105 110 25
123 123 32
130 128 48
130 128 48
148 144 61
153 149 54
152 148 63
161 156 67
168 162 74
174 166 83
170 164 75
180 171 96
176 168 89
180 172 98
183 174 103
182 173 101
184 174 106
184 175 108
184 175 112
184 176 113
183 175 110
184 176 113
184 175 112
184 176 114
184 175 112
181 174 113
181 174 113
182 175 114
180 174 113
181 174 114
179 174 114
181 174 114
179 173 114
180 174 113
180 174 114
179 173 113
181 174 114
180 174 114
182 175 114
183 175 114
181 174 113
184 176 113
183 175 113
183 175 113
183 175 110
184 175 112
184 175 110
179 172 104
182 173 104
182 173 102
183 174 104
182 173 99
179 170 93
178 170 91
175 167 87
173 167 78
172 168 77
169 167 69
175 173 74
166 168 57
166 173 52
172 178 60
166 178 41
168 183 41
165 180 32
166 184 19
164 184 19
166 186 16
165 188 0
166 190 0
168 193 0
167 193 0
168 193 0
169 193 0
168 193 0
167 193 0
168 193 0
167 191 0
168 194 0
170 195 0
170 195 0
168 194 0
169 194 0
168 193 0
171 196 0
169 194 0
168 194 0
169 195 0
170 195 0
170 195 0
170 195 0
168 194 0
169 195 0
169 195 0
168 194 0
168 194 0
169 195 0
170 195 0
169 195 0
170 196 0
168 194 0
168 194 0
169 195 0
169 195 0
168 194 0
169 195 0
168 194 0
166 192 0
168 194 0
168 194 0
168 194 0
169 194 0
168 193 0
168 195 0
168 194 0
170 196 0
168 194 0
169 195 0
168 194 0
167 192 0
168 194 0
166 192 0
169 195 0
169 195 0
165 191 0
167 193 0
167 193 0
167 193 0
166 192 0
166 192 0
165 190 0
164 189 0
164 189 0
161 187 0
162 188 0
166 192 0
164 190 0
160 185 0
165 191 0
162 188 0
159 185 0
162 188 0
161 186 0
160 186 0
154 180 0
159 185 0
160 186 0
154 180 0
152 178 0
153 180 0
152 177 0
159 184 0
155 181 0
156 180 0
144 169 0
147 172 0
153 178 0
140 165 0
145 169 0
138 163 0
144 168 0
133 156 0
134 157 0
135 159 0
134 157 0
123 146 0
111 134 0
117 139 0
129 151 0
106 127 0
114 135 0
103 124 0
107 125 0
101 119 0
86 103 0
74 90 0
78 95 0
75 89 0
69 82 0
75 88 0
63 77 8
71 85 18
45 61 36
41 58 40
50 69 31
46 67 47
48 68 54
32 52 25
44 65 37
48 65 40
44 56 25
45 57 25
67 75 18
47 55 0
58 65 18
64 71 8
71 78 3
83 87 14
94 99 21
115 118 14
104 106 22
107 110 19
130 130 43
129 128 38
147 144 53
154 150 64
162 156 69
166 160 75
167 160 76
173 165 80
172 165 83
172 165 80
177 169 90
181 171 97
182 173 101
183 173 101
181 172 99
185 175 107
185 176 109
184 174 107
180 173 106
186 176 110
184 175 112
183 175 112
183 175 112
183 175 112
180 174 113
181 174 113
183 175 114
180 174 114
181 174 114
180 174 114
183 175 113
181 174 113
182 174 113
182 175 113
183 175 114
181 174 113
182 175 113
185 176 114
182 175 114
183 175 113
184 175 111
182 174 110
184 175 109
187 177 112
182 173 106
186 176 109
181 173 102
183 174 104
183 173 101
178 170 94
177 169 91
177 169 87
175 168 84
173 168 80
171 167 75
170 168 70
171 172 67
171 174 62
168 174 56
167 173 53
167 178 45
165 181 25
165 183 19
165 184 16
165 187 0
166 185 0
168 192 0
168 192 0
168 192 0
168 193 0
168 193 0
167 192 0
169 194 0
168 194 0
169 194 0
169 194 0
167 193 0
168 193 0
168 193 0
169 193 0
169 194 0
170 195 0
168 193 0
168 194 0
170 195 0
168 194 0
168 195 0
170 195 0
169 195 0
169 195 0
169 194 0
168 194 0
165 192 0
167 192 0
168 194 0
168 195 0
168 193 0
169 194 0
169 195 0
167 193 0
167 193 0
169 194 0
170 195 0
168 194 0
168 195 0
168 194 0
168 194 0
169 194 0
168 194 0
168 194 0
168 194 0
169 195 0
168 194 0
166 193 0
168 194 0
170 195 0
165 191 0
166 192 0
163 189 0
170 195 0
166 192 0
166 192 0
167 194 0
166 192 0
165 190 0
164 190 0
165 191 0
166 192 0
168 193 0
166 192 0
167 194 0
161 187 0
165 190 0
163 190 0
166 192 0
163 189 0
161 187 0
162 188 0
162 188 0
163 189 0
160 185 0
159 185 0
159 184 0
161 186 0
155 180 0
156 182 0
157 182 0
159 184 0
158 184 0
155 181 0
150 175 0
151 176 0
151 176 0
153 178 0
147 172 0
145 169 0
148 173 0
146 171 0
143 168 0
140 164 0
149 174 0
126 149 0
125 148 0
129 152 0
135 158 0
122 143 0
123 144 0
118 139 0
107 128 0
115 135 0
99 118 0
98 116 0
86 105 0
81 98 0
83 99 0
86 104 0
92 109 0
66 82 0
69 85 0
65 79 0
73 84 0
53 65 18
67 79 0
52 63 0
54 66 18
60 72 0
33 42 0
62 70 0
50 57 0
49 57 0
68 77 0
58 66 0
51 59 0
64 72 0
75 82 11
86 92 0
93 100 8
97 101 18
109 113 23
126 130 26
125 125 42
135 135 38
138 136 47
143 140 51
153 150 54
155 151 61
164 158 69
170 163 75
176 167 87
175 168 86
176 169 90
177 169 90
180 171 94
181 172 99
183 173 101
181 173 102
181 173 103
182 173 103
181 173 103
182 173 107
185 176 110
181 173 106
184 175 111
183 175 112
182 174 111
185 176 111
181 174 113
181 174 110
179 173 109
181 174 111
183 175 113
182 174 112
182 175 113
183 175 112
183 175 113
181 173 109
181 174 110
184 176 112
184 175 113
184 175 110
186 176 112
184 175 110
182 174 107
185 175 109
183 174 104
180 172 99
183 173 101
183 174 103
180 171 95
179 170 93
174 167 86
175 167 84
171 165 75
175 169 81
169 165 70
171 168 74
170 171 64
163 168 51
167 171 56
166 176 44
166 174 49
165 180 30
160 173 30
164 183 11
163 182 11
163 184 0
165 186 0
167 192 0
168 193 0
167 191 0
168 193 0
168 194 0
166 191 0
169 195 0
169 195 0
168 193 0
169 194 0
169 193 0
169 195 0
169 195 0
168 194 0
169 194 0
168 194 0
169 195 0
169 194 0
168 193 0
169 195 0
169 195 0
169 195 0
170 196 0
168 194 0
169 195 0
168 195 0
170 195 0
170 195 0
168 194 0
169 195 0
169 194 0
169 194 0
169 195 0
169 195 0
168 194 0
169 194 0
169 195 0
168 193 0
168 194 0
169 195 0
169 195 0
166 192 0
168 194 0
167 194 0
167 193 0
167 192 0
168 193 0
166 192 0
168 194 0
167 193 0
168 194 0
168 194 0
168 193 0
167 193 0
167 193 0
167 192 0
169 194 0
166 192 0
167 193 0
164 189 0
167 193 0
166 192 0
163 189 0
164 190 0
163 189 0
167 192 0
167 192 0
160 186 0
165 191 0
160 187 0
162 189 0
160 185 0
163 189 0
165 190 0
162 188 0
159 185 0
162 188 0
164 190 0
158 183 0
154 179 0
154 180 0
160 186 0
150 175 0
152 176 0
150 176 0
158 183 0
143 168 0
147 172 0
145 170 0
146 171 0
147 171 0
144 168 0
132 156 0
134 158 0
139 163 0
124 147 0
126 148 0
127 149 0
119 142 0
123 144 0
108 129 0
115 137 0
102 124 0
100 120 0
106 125 0
87 106 0
99 118 0
106 125 0
95 111 0
86 101 0
85 100 0
84 100 0
77 91 0
70 84 0
79 92 0
58 70 0
64 79 0
68 80 0
58 71 0
61 71 0
63 76 0
65 75 0
62 73 0
66 77 0
60 70 0
67 75 0
87 96 0
82 90 8
88 96 11
107 113 0
107 110 19
114 118 22
121 124 18
123 125 29
132 131 37
139 137 40
150 145 55
157 153 60
160 155 60
160 156 60
165 159 68
168 161 75
170 164 78
177 169 87
174 167 85
173 166 84
181 172 97
179 170 93
181 172 100
182 173 101
180 172 100
182 173 103
181 172 101
183 174 106
185 176 110
183 174 108
181 173 108
184 175 110
183 174 109
183 174 109
184 175 112
186 177 113
182 174 111
184 175 112
183 175 112
181 174 110
183 175 110
184 175 110
183 175 111
183 175 110
184 175 111
183 175 109
181 173 106
184 175 109
182 174 108
182 174 104
181 173 102
182 173 101
180 172 99
179 170 95
180 172 97
180 171 95
177 169 89
172 165 79
172 165 79
171 165 76
172 167 74
174 169 75
167 167 60
163 164 52
166 170 49
165 172 48
163 174 36
166 177 41
165 180 30
168 183 32
164 182 16
166 187 0
163 181 0
167 191 0
167 190 0
167 191 0
167 191 0
167 191 0
168 193 0
168 194 0
167 192 0
168 193 0
167 191 0
168 193 0
168 193 0
168 193 0
168 192 0
169 194 0
168 193 0
168 194 0
169 195 0
167 193 0
168 195 0
169 195 0
169 194 0
169 195 0
169 195 0
167 193 0
169 195 0
170 195 0
168 194 0
170 195 0
168 194 0
169 195 0
166 193 0
170 195 0
169 194 0
170 195 0
168 195 0
169 195 0
169 195 0
169 195 0
167 193 0
170 195 0
169 194 0
165 191 0
167 193 0
169 195 0
167 193 0
169 195 0
168 193 0
168 194 0
168 194 0
168 194 0
168 194 0
167 193 0
168 194 0
167 193 0
170 195 0
169 194 0
166 192 0
167 192 0
164 190 0
168 194 0
166 192 0
166 192 0
167 193 0
167 194 0
168 194 0
162 188 0
166 192 0
159 185 0
162 187 0
164 190 0
165 191 0
161 187 0
163 189 0
161 186 0
158 184 0
159 184 0
160 186 0
155 180 0
151 177 0
155 181 0
151 177 0
152 178 0
147 172 0
155 181 0
150 174 0
153 178 0
153 178 0
151 176 0
153 177 0
148 172 0
144 169 0
141 165 0
134 158 0
143 166 0
140 163 0
132 156 0
137 159 0
131 155 0
120 143 0
124 146 0
113 135 0
115 137 0
112 134 0
121 143 0
119 139 0
102 123 0
92 110 0
100 117 0
93 110 0
93 111 0
87 103 0
86 102 0
79 93 0
78 93 0
90 105 0
75 89 0
74 89 0
74 88 0
70 83 0
59 69 0
76 89 0
70 82 0
75 87 0
75 85 0
81 91 0
76 87 0
74 84 0
80 91 0
82 91 0
101 110 0
102 108 0
107 112 24
121 124 11
133 135 25
133 132 28
132 132 26
148 146 42
148 145 52
156 152 60
157 153 56
165 160 65
168 162 70
172 165 80
174 166 82
172 165 79
175 167 86
174 167 83
179 170 94
180 171 97
182 173 101
182 173 101
179 170 95
180 172 100
180 172 101
182 173 104
184 175 108
184 175 107
182 174 108
184 175 109
183 174 107
185 175 110
181 174 109
181 173 107
184 175 110
183 174 109
181 173 106
183 174 109
183 174 108
184 175 110
184 175 108
183 174 107
182 173 106
185 175 108
182 173 104
182 173 104
186 176 107
182 172 100
181 172 100
183 173 101
179 170 94
177 169 92
170 164 77
171 165 79
171 164 76
175 167 85
168 162 73
169 165 71
165 162 58
166 164 60
162 166 51
168 173 58
162 172 39
163 174 34
165 181 28
162 178 22
164 182 19
164 185 11
165 186 0
167 188 0
165 189 0
166 189 0
167 192 0
166 191 0
167 191 0
168 192 0
166 191 0
168 193 0
169 194 0
168 194 0
168 193 0
169 195 0
168 193 0
168 193 0
169 194 0
169 194 0
166 191 0
168 194 0
170 195 0
168 194 0
169 195 0
169 195 0
171 196 0
171 196 0
169 195 0
168 195 0
170 195 0
170 196 0
169 195 0
169 195 0
168 194 0
169 195 0
169 195 0
168 195 0
169 195 0
168 194 0
168 194 0
169 194 0
170 195 0
168 194 0
170 195 0
166 192 0
169 194 0
170 195 0
167 194 0
168 194 0
168 193 0
170 195 0
168 194 0
165 191 0
168 194 0
168 194 0
168 194 0
167 193 0
170 195 0
166 192 0
167 193 0
163 189 0
167 193 0
166 192 0
168 194 0
163 190 0
166 192 0
165 192 0
164 190 0
166 191 0
160 186 0
165 191 0
164 190 0
166 192 0
162 188 0
164 190 0
165 191 0
163 189 0
161 186 0
164 190 0
162 187 0
159 184 0
157 183 0
160 186 0
157 183 0
157 183 0
158 183 0
156 182 0
153 180 0
156 181 0
149 175 0
145 169 0
155 180 0
150 176 0
155 180 0
150 176 0
141 165 0
135 159 0
140 164 0
142 166 0
143 167 0
129 153 0
139 162 0
117 138 0
125 147 0
132 154 0
109 131 0
112 134 0
109 129 0
101 119 0
107 127 0
104 123 0
99 119 0
102 120 0
102 121 0
103 120 0
79 95 0
104 121 0
99 115 0
95 111 0
80 96 0
95 110 0
79 94 0
87 100 0
81 94 0
77 92 0
87 99 0
84 96 0
80 94 0
84 96 0
75 86 8
98 108 0
86 96 0
101 108 0
98 105 0
107 112 14
105 109 0
120 121 16
116 119 14
138 138 34
134 134 32
141 139 42
154 150 54
150 147 44
158 155 52
165 160 67
167 161 70
169 162 74
166 160 64
168 162 70
172 165 78
176 168 88
177 169 90
177 169 90
178 170 93
177 169 93
182 172 99
179 171 99
178 170 95
180 172 101
181 172 100
181 173 103
181 172 101
182 173 103
183 174 106
182 174 106
183 174 106
181 173 105
182 173 103
184 175 108
182 174 106
182 174 106
183 174 107
177 170 99
184 174 106
181 173 103
183 174 105
183 174 103
181 172 100
180 172 101
182 173 101
180 172 99
180 171 96
179 170 93
177 169 91
175 168 87
175 168 85
175 167 84
173 166 79
166 161 66
165 161 62
161 159 57
166 165 59
166 164 58
163 166 52
166 174 44
168 175 51
163 174 32
162 175 30
162 179 22
164 181 16
164 184 0
164 185 11
165 186 0
167 190 0
167 192 0
167 192 0
167 192 0
167 193 0
169 193 0
168 192 0
168 194 0
169 194 0
168 193 0
168 194 0
168 193 0
167 193 0
168 195 0
168 192 0
168 194 0
168 194 0
169 193 0
166 192 0
169 195 0
170 195 0
169 195 0
169 195 0
169 195 0
169 194 0
169 195 0
169 195 0
169 195 0
169 195 0
170 195 0
168 194 0
168 194 0
168 194 0
169 195 0
169 195 0
171 196 0
170 196 0
169 195 0
169 195 0
169 194 0
167 192 0
168 194 0
169 195 0
168 194 0
167 193 0
169 194 0
166 192 0
166 192 0
168 194 0
168 193 0
168 194 0
168 194 0
169 195 0
168 194 0
167 192 0
167 193 0
169 195 0
169 195 0
166 192 0
161 187 0
168 194 0
166 192 0
166 192 0
164 190 0
168 193 0
165 191 0
159 185 0
160 186 0
164 190 0
164 190 0
164 190 0
166 192 0
162 188 0
163 189 0
162 188 0
164 190 0
159 186 0
156 182 0
162 187 0
157 182 0
161 186 0
157 183 0
158 183 0
162 188 0
154 179 0
156 181 0
150 176 0
150 175 0
152 177 0
150 175 0
146 171 0
152 176 0
144 169 0
145 171 0
147 171 0
139 164 0
139 162 0
141 165 0
135 159 0
136 158 0
138 162 0
132 156 0
128 150 0
123 145 0
121 143 0
117 138 0
118 139 0
121 140 0
102 121 0
116 134 0
113 133 0
103 122 0
103 122 0
104 122 0
97 114 0
96 112 0
96 112 0
83 100 0
89 104 0
86 101 0
87 103 0
95 111 0
87 100 0
78 91 0
75 88 0
89 102 0
96 109 0
101 111 0
92 103 0
103 114 0
104 112 8
113 121 0
108 113 11
116 121 16
123 125 11
129 130 28
133 132 26
142 141 34
148 145 39
149 146 44
159 155 52
159 155 56
163 158 58
168 161 70
170 163 72
166 161 65
169 163 73
175 167 83
174 167 83
173 166 83
180 171 94
173 166 85
175 167 86
177 170 93
178 169 90
180 171 98
180 172 99
184 174 104
182 173 103
180 171 99
181 172 99
181 173 102
181 173 102
180 172 100
180 172 101
180 172 101
185 175 108
183 174 104
182 174 106
182 173 104
183 174 105
184 174 104
180 172 101
181 172 100
182 173 101
179 171 97
177 169 90
181 172 97
177 169 90
177 169 89
174 167 86
173 167 84
171 165 79
174 166 81
172 165 78
166 161 62
166 161 62
166 163 66
165 165 57
166 167 52
161 166 41
163 169 41
163 171 36
162 173 28
162 175 19
162 179 16
163 180 16
164 183 11
163 186 0
166 187 0
168 190 0
165 189 0
167 191 0
167 191 0
168 192 0
169 193 0
169 193 0
169 194 0
168 193 0
168 194 0
168 193 0
169 192 0
169 195 0
169 194 0
168 193 0
170 195 0
169 195 0
168 193 0
169 195 0
170 195 0
168 194 0
169 195 0
168 194 0
168 194 0
168 195 0
169 195 0
170 195 0
169 195 0
168 195 0
168 194 0
169 194 0
169 195 0
169 194 0
168 194 0
167 193 0
169 195 0
170 196 0
168 194 0
169 195 0
167 193 0
170 196 0
169 194 0
168 194 0
170 195 0
168 195 0
168 195 0
166 192 0
168 194 0
168 194 0
169 195 0
170 195 0
168 193 0
168 195 0
169 195 0
167 193 0
168 194 0
168 194 0
166 191 0
166 191 0
167 193 0
168 194 0
166 191 0
170 195 0
165 191 0
165 191 0
168 194 0
161 187 0
166 192 0
163 189 0
165 190 0
164 190 0
164 190 0
161 187 0
162 188 0
165 191 0
163 189 0
157 182 0
159 185 0
159 184 0
163 189 0
160 186 0
158 183 0
156 181 0
155 180 0
150 175 0
157 183 0
156 181 0
152 177 0
151 175 0
150 174 0
148 172 0
148 173 0
146 170 0
146 171 0
139 163 0
148 172 0
144 169 0
144 168 0
128 150 0
130 153 0
133 156 0
128 150 0
133 155 0
125 148 0
121 143 0
123 144 0
117 138 0
130 152 0
123 143 0
109 130 0
100 119 0
116 136 0
116 134 0
103 121 0
104 123 0
109 128 0
103 120 0
96 113 0
91 107 0
98 114 0
90 105 0
112 128 0
81 97 0
94 107 0
94 109 0
88 101 0
96 110 0
99 111 0
103 112 0
111 122 0
105 113 0
114 121 0
106 111 0
108 112 19
116 120 16
130 133 11
134 135 19
138 136 30
144 142 39
150 147 39
153 150 47
159 155 51
161 157 58
164 159 61
164 160 61
166 161 65
171 164 77
172 165 77
173 165 80
173 166 80
176 168 86
177 169 90
177 169 88
181 171 93
177 169 90
179 170 94
176 168 89
180 171 95
178 170 95
177 169 90
177 169 93
181 172 102
180 172 100
180 171 97
180 172 100
181 173 104
182 173 103
179 171 99
180 172 99
182 173 101
182 173 100
178 170 96
178 170 93
176 169 91
179 170 95
180 172 97
176 168 88
176 168 88
181 172 96
176 168 87
170 164 72
172 165 79
168 162 70
171 164 73
166 161 66
172 165 78
162 160 56
161 162 48
167 167 60
159 162 39
165 169 52
163 169 39
160 167 36
160 170 30
162 176 22
165 181 28
161 179 11
165 184 0
165 186 0
166 185 0
167 189 0
167 192 0
169 193 0
167 193 0
167 193 0
166 190 0
167 192 0
168 193 0
168 192 0
169 193 0
168 192 0
168 193 0
169 195 0
169 194 0
168 193 0
167 192 0
166 191 0
168 194 0
168 194 0
169 195 0
169 195 0
168 195 0
169 195 0
170 195 0
169 195 0
168 194 0
168 195 0
169 195 0
168 195 0
169 195 0
168 194 0
169 195 0
168 194 0
169 195 0
169 194 0
169 195 0
169 195 0
167 193 0
168 193 0
168 194 0
169 195 0
165 192 0
169 194 0
169 195 0
168 194 0
166 192 0
168 194 0
169 195 0
167 193 0
168 194 0
166 192 0
167 192 0
168 194 0
167 193 0
168 194 0
165 191 0
167 193 0
169 195 0
167 192 0
169 194 0
167 192 0
165 190 0
165 191 0
164 189 0
169 195 0
166 191 0
166 192 0
165 191 0
166 190 0
166 192 0
162 188 0
164 190 0
165 191 0
164 190 0
162 188 0
164 189 0
158 184 0
159 184 0
157 183 0
162 187 0
161 186 0
157 183 0
155 180 0
152 177 0
155 180 0
156 181 0
147 172 0
152 176 0
156 181 0
155 180 0
151 176 0
140 165 0
150 173 0
148 172 0
144 169 0
154 178 0
146 170 0
137 161 0
137 162 0
130 153 0
138 162 0
132 155 0
124 146 0
136 159 0
126 148 0
123 145 0
111 133 0
131 152 0
122 144 0
115 136 0
114 134 0
117 135 0
107 127 0
107 128 0
93 112 0
110 129 0
110 129 0
108 127 0
97 114 0
97 114 0
91 106 0
96 110 0
97 113 0
94 108 0
94 110 0
103 119 0
98 110 0
89 101 0
107 120 0
99 111 0
106 117 0
115 124 0
119 124 11
123 128 0
121 126 0
125 129 19
136 138 25
134 133 30
142 141 34
146 144 39
154 150 47
160 155 57
155 153 44
155 152 48
162 158 57
165 160 62
163 158 61
169 163 71
163 159 61
171 164 76
169 163 71
172 165 79
174 167 83
173 166 82
176 168 90
176 168 90
176 168 87
177 169 92
178 170 94
180 171 96
177 169 93
177 170 93
180 172 98
179 171 95
180 171 98
180 171 95
181 172 99
177 169 92
181 172 98
180 171 97
175 168 89
175 168 87
177 169 90
180 171 94
177 169 90
177 169 90
173 166 82
178 170 91
171 164 76
174 167 83
170 164 73
172 165 76
171 164 73
162 158 59
170 164 73
170 164 72
167 163 63
165 163 60
164 165 45
163 169 44
158 163 39
161 169 34
164 174 30
160 169 19
164 180 25
160 176 16
162 181 11
163 184 0
163 183 0
165 188 0
168 190 0
165 188 0
168 192 0
165 189 0
168 193 0
169 192 0
169 194 0
167 192 0
168 194 0
166 192 0
168 192 0
169 194 0
169 193 0
168 194 0
168 193 0
168 193 0
170 194 0
168 193 0
169 194 0
169 195 0
170 195 0
169 195 0
169 195 0
169 195 0
169 194 0
169 195 0
169 195 0
168 195 0
169 195 0
169 195 0
170 196 0
168 194 0
168 194 0
168 194 0
168 194 0
167 192 0
169 195 0
168 194 0
168 194 0
169 195 0
170 195 0
169 195 0
167 194 0
168 194 0
167 193 0
168 194 0
170 195 0
169 194 0
167 193 0
168 193 0
167 194 0
168 193 0
167 192 0
167 193 0
167 193 0
169 195 0
169 194 0
169 195 0
166 192 0
166 191 0
168 194 0
164 190 0
167 193 0
166 191 0
167 193 0
164 190 0
163 189 0
166 192 0
163 189 0
166 193 0
166 191 0
164 190 0
166 191 0
167 192 0
164 190 0
160 186 0
158 183 0
161 187 0
162 187 0
163 188 0
158 183 0
159 185 0
162 187 0
157 182 0
158 184 0
155 180 0
155 180 0
148 174 0
161 186 0
143 168 0
143 168 0
146 171 0
148 173 0
154 178 0
138 162 0
147 171 0
143 167 0
146 171 0
149 173 0
138 161 0
140 163 0
140 164 0
136 161 0
131 154 0
144 167 0
127 150 0
130 151 0
127 149 0
124 144 0
129 150 0
118 138 0
116 135 0
112 132 0
115 135 0
116 135 0
111 131 0
117 135 0
101 120 0
111 127 0
117 136 0
110 129 0
105 122 0
105 121 0
111 128 0
109 124 0
99 116 0
113 130 0
104 119 0
113 128 0
108 121 0
106 115 0
109 119 0
125 132 0
122 127 0
128 132 0
124 125 11
133 136 11
131 133 16
140 140 19
145 143 32
147 144 32
145 144 25
156 152 45
159 155 49
161 157 57
163 159 58
164 159 62
166 160 63
171 164 74
166 160 63
169 163 73
170 164 75
172 166 82
171 165 80
173 166 80
174 166 82
176 168 86
173 167 84
174 166 82
176 168 88
177 169 92
177 168 90
176 168 89
179 171 95
174 167 84
178 170 90
178 170 91
176 168 88
180 172 98
176 168 88
174 167 87
177 169 90
177 169 90
178 170 92
176 168 86
172 165 79
174 167 84
175 167 82
168 163 72
170 164 75
169 163 69
169 163 72
168 162 66
165 160 60
164 159 59
165 160 63
160 160 45
163 164 49
161 163 42
164 168 48
161 167 36
161 169 19
162 176 16
162 174 16
161 177 11
159 174 0
162 178 0
164 186 0
166 186 0
165 187 0
166 190 0
168 191 0
168 192 0
169 193 0
168 193 0
167 190 0
168 193 0
168 193 0
169 195 0
169 193 0
168 193 0
168 193 0
167 193 0
169 195 0
168 192 0
170 195 0
169 194 0
168 193 0
169 194 0
169 195 0
169 195 0
168 195 0
170 195 0
170 196 0
169 195 0
168 194 0
169 194 0
168 194 0
169 195 0
170 196 0
169 195 0
167 193 0
169 195 0
169 195 0
168 194 0
168 194 0
170 195 0
168 193 0
167 193 0
168 193 0
166 192 0
169 195 0
168 195 0
169 195 0
169 194 0
169 194 0
168 194 0
170 195 0
169 195 0
167 194 0
169 195 0
167 193 0
168 194 0
166 192 0
167 193 0
167 193 0
168 194 0
166 192 0
167 193 0
167 192 0
167 193 0
166 191 0
164 190 0
164 191 0
166 191 0
164 190 0
168 194 0
166 192 0
163 189 0
161 187 0
169 195 0
163 189 0
166 192 0
159 184 0
164 190 0
163 189 0
158 184 0
161 187 0
158 184 0
165 190 0
158 184 0
160 185 0
161 186 0
161 186 0
160 186 0
153 177 0
157 182 0
148 174 0
157 183 0
154 179 0
152 177 0
152 176 0
153 177 0
146 172 0
147 171 0
149 174 0
149 172 0
139 162 0
147 171 0
141 164 0
146 170 0
138 162 0
137 160 0
138 160 0
135 159 0
138 161 0
126 149 0
131 154 0
132 154 0
123 145 0
124 145 0
127 148 0
132 153 0
117 138 0
117 137 0
124 144 0
120 140 0
120 139 0
117 137 0
119 138 0
114 134 0
109 125 0
108 126 0
121 136 0
119 137 0
110 122 0
120 135 0
105 119 0
116 130 0
113 123 0
119 130 0
117 125 0
108 114 0
119 128 0
124 130 0
133 134 0
131 134 11
135 135 19
143 142 19
141 139 19
141 138 25
150 149 28
154 151 39
160 155 54
157 154 48
157 154 49
159 156 52
164 159 62
165 159 62
168 162 72
168 162 72
169 162 71
171 165 76
171 164 74
170 164 74
171 165 78
174 167 83
172 165 80
172 165 79
175 167 87
176 168 87
173 166 81
175 167 87
170 164 75
174 167 82
176 168 87
173 166 82
176 168 88
176 168 87
171 165 76
174 166 84
173 165 82
173 166 82
173 166 81
175 167 86
172 166 80
168 163 70
174 167 82
168 162 70
169 162 69
168 162 68
167 161 68
170 163 72
165 159 63
160 157 53
159 158 47
164 162 56
158 161 36
159 163 39
162 168 42
159 165 22
161 170 28
163 175 25
161 176 11
159 174 11
161 177 11
163 183 0
165 184 0
163 185 0
166 190 0
168 192 0
167 191 0
166 191 0
168 192 0
169 192 0
168 194 0
168 193 0
168 192 0
168 192 0
168 192 0
169 195 0
167 192 0
169 194 0
167 191 0
168 193 0
169 194 0
168 193 0
168 194 0
169 193 0
168 194 0
169 195 0
169 194 0
169 195 0
169 195 0
168 195 0
169 195 0
168 194 0
169 194 0
170 195 0
170 195 0
167 193 0
169 195 0
169 195 0
170 195 0
167 193 0
168 194 0
169 194 0
169 195 0
167 194 0
166 192 0
169 195 0
169 194 0
168 194 0
168 194 0
169 194 0
167 193 0
169 194 0
165 191 0
167 193 0
169 195 0
168 194 0
165 190 0
167 193 0
167 193 0
167 193 0
167 192 0
166 192 0
168 193 0
168 194 0
164 189 0
167 193 0
169 195 0
165 191 0
159 185 0
168 194 0
167 193 0
161 187 0
161 187 0
164 190 0
165 191 0
164 190 0
164 190 0
163 189 0
167 192 0
167 193 0
162 187 0
164 189 0
160 186 0
160 185 0
161 187 0
164 189 0
159 184 0
160 186 0
157 182 0
159 185 0
161 187 0
156 181 0
158 184 0
154 179 0
154 179 0
153 177 0
156 182 0
155 180 0
157 182 0
155 179 0
150 174 0
149 174 0
142 167 0
151 175 0
142 165 0
147 170 0
143 166 0
133 157 0
142 165 0
147 171 0
136 158 0
134 156 0
133 156 0
129 150 0
124 143 0
131 154 0
127 149 0
132 153 0
128 150 0
119 139 0
127 148 0
130 149 0
126 145 0
133 154 0
129 148 0
120 139 0
118 136 0
111 129 0
117 135 0
109 126 0
121 139 0
103 116 0
114 126 0
113 126 0
104 117 0
123 135 0
120 129 0
111 118 0
122 126 0
124 130 0
126 131 0
133 136 0
133 135 16
145 145 19
138 137 19
146 143 22
147 145 32
150 147 36
153 150 37
158 154 48
160 157 49
155 153 42
165 160 62
161 157 54
160 156 56
163 158 59
170 164 74
167 161 67
168 162 70
173 165 80
170 163 73
171 164 75
170 163 75
175 168 84
171 165 78
172 165 78
173 166 80
172 165 80
175 167 84
179 170 92
173 166 81
175 167 86
176 168 88
174 166 83
176 168 86
171 164 75
173 166 80
172 165 80
171 164 77
169 163 71
170 163 72
171 164 76
168 162 68
167 161 65
169 162 68
167 161 63
163 159 59
160 156 49
164 159 58
162 158 49
161 159 44
162 165 42
159 164 32
159 164 34
160 166 32
160 168 22
161 172 28
157 168 11
162 174 19
160 174 0
162 178 0
165 183 0
162 182 0
166 188 0
165 187 0
166 187 0
166 189 0
167 190 0
167 190 0
168 193 0
169 193 0
168 194 0
168 192 0
167 192 0
168 193 0
168 192 0
168 193 0
168 194 0
168 193 0
169 194 0
168 192 0
168 193 0
167 193 0
169 194 0
169 195 0
168 195 0
167 193 0
169 195 0
171 196 0
170 195 0
168 194 0
169 194 0
168 194 0
167 193 0
167 193 0
167 193 0
169 194 0
169 195 0
168 194 0
168 194 0
168 194 0
170 196 0
169 195 0
169 195 0
170 195 0
168 193 0
169 194 0
168 194 0
169 195 0
168 194 0
169 194 0
168 194 0
169 194 0
167 194 0
168 195 0
169 194 0
167 193 0
167 193 0
169 195 0
166 192 0
167 193 0
167 193 0
168 194 0
167 192 0
168 194 0
168 193 0
166 192 0
164 190 0
166 192 0
163 189 0
166 191 0
166 192 0
165 191 0
166 192 0
166 192 0
164 189 0
160 185 0
165 190 0
160 186 0
164 189 0
163 188 0
162 187 0
166 191 0
158 185 0
158 183 0
161 187 0
158 183 0
160 185 0
160 185 0
159 185 0
157 183 0
155 180 0
148 173 0
154 180 0
153 178 0
156 180 0
156 181 0
151 176 0
150 174 0
158 183 0
157 182 0
152 177 0
145 168 0
143 168 0
146 171 0
145 168 0
147 171 0
149 173 0
140 164 0
146 169 0
140 162 0
133 157 0
135 158 0
139 160 0
129 149 0
129 150 0
138 158 0
128 150 0
139 160 0
126 148 0
128 150 0
134 155 0
131 150 0
118 139 0
121 141 0
119 138 0
122 140 0
129 146 0
120 137 0
122 138 0
109 127 0
125 144 0
122 136 0
119 134 0
130 143 0
107 118 0
118 127 0
118 129 0
121 128 0
128 134 0
126 131 0
134 135 0
135 137 0
134 133 11
141 139 19
144 142 25
149 145 30
152 149 32
149 146 32
155 152 37
156 152 37
159 154 44
158 155 45
157 154 49
164 158 58
161 157 57
160 156 52
164 159 60
169 162 71
166 161 67
167 162 67
167 161 66
169 163 72
171 163 75
168 162 69
170 164 76
169 164 76
172 165 77
170 163 74
171 165 76
172 165 80
170 163 75
170 164 73
172 165 80
171 164 76
169 163 73
171 164 75
173 166 79
170 163 74
169 163 72
169 163 71
166 161 63
167 162 67
166 161 64
163 158 56
163 158 58
164 159 58
162 156 52
155 153 41
159 156 42
161 159 48
157 160 34
162 163 42
162 167 39
156 161 16
158 166 22
157 167 11
158 172 0
162 177 11
164 182 0
165 184 0
164 184 0
164 184 0
163 182 0
166 185 0
168 190 0
165 187 0
168 192 0
168 191 0
167 191 0
168 192 0
168 192 0
166 189 0
168 192 0
168 194 0
169 193 0
168 193 0
167 192 0
169 194 0
167 191 0
167 191 0
169 194 0
167 193 0
167 192 0
169 195 0
170 195 0
169 195 0
168 195 0
168 194 0
169 194 0
169 195 0
169 195 0
168 194 0
169 195 0
169 195 0
169 194 0
170 195 0
168 195 0
169 194 0
169 195 0
170 196 0
169 195 0
167 193 0
170 195 0
169 194 0
169 194 0
169 195 0
167 194 0
169 194 0
167 193 0
168 194 0
166 192 0
168 194 0
166 192 0
166 192 0
168 194 0
170 195 0
169 195 0
167 193 0
167 193 0
167 194 0
167 193 0
168 194 0
168 194 0
162 187 0
167 193 0
165 191 0
168 194 0
163 189 0
169 194 0
166 192 0
165 191 0
165 191 0
163 189 0
164 190 0
163 189 0
165 191 0
166 192 0
163 188 0
161 187 0
165 191 0
160 185 0
161 187 0
162 187 0
166 192 0
163 189 0
159 184 0
162 189 0
160 185 0
159 184 0
155 181 0
161 186 0
159 184 0
154 179 0
152 177 0
151 176 0
153 177 0
155 179 0
151 177 0
155 180 0
149 174 0
151 176 0
149 173 0
152 177 0
152 177 0
150 175 0
147 172 0
138 163 0
141 164 0
143 167 0
142 165 0
143 166 0
138 161 0
139 163 0
134 156 0
134 157 0
129 151 0
134 156 0
135 157 0
139 161 0
125 147 0
126 149 0
130 150 0
135 154 0
127 149 0
130 149 0
129 149 0
135 155 0
133 152 0
126 144 0
131 149 0
128 143 0
124 140 0
128 144 0
130 146 0
119 129 0
122 133 0
127 136 0
125 134 0
128 133 0
131 134 0
120 124 0
129 131 0
136 139 0
134 136 0
143 142 22
144 142 16
148 146 28
149 147 28
148 146 19
154 150 39
155 151 37
156 152 44
157 153 42
157 154 42
164 158 58
161 157 54
163 159 60
162 158 57
165 159 63
167 161 64
169 162 71
169 162 71
167 161 69
167 161 67
165 159 63
165 160 61
166 161 65
167 161 67
170 163 73
168 162 70
168 162 70
169 163 72
168 162 68
172 164 76
170 163 74
172 164 75
170 164 73
168 162 67
167 161 64
165 160 62
164 159 60
168 162 68
161 156 52
161 156 49
161 157 51
162 157 54
159 154 45
162 158 52
159 158 42
159 158 41
158 161 30
157 160 25
159 164 25
156 164 0
160 172 16
157 167 16
161 172 11
161 177 0
162 177 0
165 185 0
162 182 0
165 187 0
164 185 0
166 188 0
167 190 0
166 191 0
166 189 0
167 190 0
168 191 0
166 191 0
167 190 0
168 191 0
168 192 0
169 193 0
168 193 0
168 193 0
168 192 0
170 194 0
168 193 0
167 192 0
169 193 0
169 193 0
168 193 0
168 194 0
167 193 0
169 194 0
169 194 0
170 195 0
171 196 0
168 195 0
168 194 0
169 195 0
170 196 0
166 192 0
171 196 0
168 194 0
168 194 0
167 194 0
168 194 0
169 195 0
168 195 0
169 195 0
168 194 0
170 195 0
170 195 0
168 194 0
168 194 0
168 194 0
169 194 0
169 195 0
169 194 0
166 192 0
169 195 0
169 195 0
168 194 0
169 194 0
167 193 0
166 192 0
168 194 0
165 191 0
167 193 0
166 192 0
169 195 0
166 193 0
168 194 0
166 192 0
166 192 0
166 191 0
168 194 0
162 188 0
168 193 0
167 193 0
164 191 0
166 191 0
165 190 0
164 190 0
165 191 0
162 188 0
163 188 0
161 187 0
162 188 0
161 187 0
162 187 0
163 189 0
165 190 0
161 187 0
163 189 0
162 187 0
165 191 0
153 178 0
162 187 0
160 187 0
157 182 0
149 173 0
162 188 0
159 184 0
157 182 0
152 178 0
155 180 0
158 183 0
159 185 0
149 174 0
143 167 0
153 178 0
143 168 0
148 172 0
147 171 0
150 174 0
144 167 0
143 166 0
149 172 0
141 163 0
140 164 0
134 156 0
135 158 0
138 160 0
136 159 0
131 150 0
140 161 0
138 158 0
135 156 0
130 150 0
141 160 0
134 154 0
129 151 0
122 139 0
126 146 0
128 147 0
135 154 0
124 142 0
133 150 0
127 142 0
134 152 0
130 144 0
122 134 0
127 138 0
127 135 0
122 131 0
124 131 0
130 134 0
130 132 0
132 137 0
131 131 0
134 133 0
133 131 11
141 138 16
150 147 28
145 142 22
154 150 32
150 148 22
151 149 25
156 152 42
155 150 41
154 151 37
160 155 51
162 157 56
161 156 53
163 158 56
168 162 66
163 158 59
161 158 52
164 159 61
166 160 64
169 162 70
166 161 65
164 159 60
169 162 69
170 164 73
166 160 61
171 164 74
165 160 61
163 158 57
171 164 73
165 159 63
167 161 64
163 159 58
167 162 68
167 161 64
166 161 63
166 160 63
162 158 53
162 157 57
158 155 45
161 156 52
159 154 45
161 157 49
160 157 47
158 157 42
157 155 36
158 158 28
155 159 16
158 161 28
159 167 22
157 168 0
157 167 11
157 171 0
162 176 0
162 179 0
162 179 0
164 182 0
163 180 0
164 183 0
165 186 0
166 188 0
165 187 0
167 190 0
166 188 0
166 188 0
166 188 0
167 192 0
167 192 0
167 192 0
169 194 0
168 192 0
168 194 0
168 193 0
169 193 0
168 192 0
168 192 0
168 192 0
168 193 0
167 192 0
169 193 0
169 195 0
169 195 0
169 194 0
170 195 0
170 195 0
169 195 0
168 194 0
169 195 0
169 195 0
166 192 0
166 193 0
167 193 0
168 194 0
167 193 0
168 194 0
168 195 0
168 194 0
167 193 0
168 193 0
169 195 0
167 194 0
169 195 0
169 195 0
170 195 0
168 194 0
168 194 0
166 193 0
167 193 0
168 193 0
168 194 0
168 194 0
167 193 0
168 193 0
167 193 0
167 193 0
164 191 0
168 194 0
168 194 0
167 192 0
165 191 0
166 192 0
167 193 0
166 191 0
165 191 0
167 192 0
167 192 0
163 190 0
165 191 0
166 192 0
166 191 0
168 193 0
167 192 0
165 190 0
166 192 0
166 192 0
161 187 0
165 191 0
165 191 0
165 190 0
163 189 0
162 187 0
159 185 0
159 185 0
158 184 0
160 186 0
157 182 0
163 188 0
163 188 0
166 190 0
161 187 0
159 184 0
158 182 0
158 183 0
161 187 0
157 183 0
152 177 0
146 169 0
155 180 0
147 172 0
150 175 0
152 177 0
153 177 0
146 170 0
150 174 0
148 171 0
148 172 0
144 167 0
153 176 0
143 167 0
143 166 0
139 162 0
132 155 0
147 168 0
148 171 0
134 155 0
137 158 0
137 158 0
133 154 0
141 163 0
134 155 0
143 162 0
129 149 0
137 157 0
134 151 0
130 148 0
142 159 0
127 145 0
131 148 0
129 146 0
131 146 0
135 149 0
132 146 0
125 137 0
129 139 0
125 134 0
127 132 0
129 136 0
130 136 0
131 133 0
131 134 11
141 140 0
143 143 0
140 139 11
144 142 22
144 142 19
149 145 22
149 145 28
151 148 36
146 144 16
154 151 34
157 152 39
158 154 42
160 156 48
160 156 48
159 156 47
160 156 49
159 155 48
160 156 51
163 158 56
162 158 56
161 157 49
162 157 53
164 158 61
165 159 61
163 158 59
163 158 58
163 158 56
165 159 59
162 157 54
165 160 62
165 160 62
161 157 54
162 158 54
166 160 63
159 155 45
161 157 51
161 157 52
166 161 65
159 154 47
161 157 52
157 154 37
156 153 36
158 153 36
158 154 44
156 156 32
155 156 32
156 159 22
158 161 25
156 162 11
159 165 16
158 169 0
157 170 0
157 170 0
160 172 0
161 180 0
163 181 0
163 181 0
163 182 0
166 186 0
165 186 0
166 188 0
166 188 0
167 191 0
168 191 0
167 190 0
167 189 0
168 192 0
168 192 0
167 190 0
169 193 0
167 192 0
167 191 0
169 194 0
167 190 0
167 193 0
167 192 0
168 193 0
169 194 0
168 193 0
168 193 0
169 195 0
169 194 0
169 195 0
169 195 0
170 195 0
170 195 0
169 195 0
169 195 0
170 195 0
169 195 0
169 195 0
168 194 0
171 196 0
168 194 0
170 195 0
168 195 0
168 194 0
168 195 0
169 195 0
169 195 0
168 194 0
169 195 0
168 194 0
167 193 0
169 195 0
169 195 0
169 195 0
165 191 0
169 195 0
169 195 0
167 194 0
168 194 0
168 194 0
169 195 0
169 194 0
168 194 0
167 193 0
169 195 0
165 191 0
166 192 0
168 193 0
169 195 0
166 192 0
167 193 0
168 194 0
164 189 0
168 193 0
166 192 0
165 191 0
165 190 0
166 191 0
165 191 0
163 189 0
164 189 0
164 189 0
165 191 0
165 191 0
167 192 0
162 188 0
164 190 0
165 191 0
163 188 0
161 187 0
165 191 0
163 188 0
162 188 0
159 185 0
164 189 0
160 185 0
153 178 0
156 181 0
159 185 0
155 180 0
156 182 0
155 180 0
150 175 0
153 178 0
158 183 0
153 178 0
155 179 0
151 176 0
151 176 0
150 174 0
151 175 0
151 176 0
152 176 0
143 168 0
145 169 0
145 169 0
147 170 0
135 157 0
140 160 0
155 178 0
148 169 0
147 168 0
143 164 0
142 164 0
139 161 0
142 162 0
141 163 0
133 152 0
130 149 0
130 151 0
129 148 0
127 145 0
133 152 0
128 144 0
132 150 0
130 146 0
131 148 0
133 148 0
124 137 0
129 143 0
135 145 0
131 142 0
132 138 0
129 132 0
130 134 0
139 141 0
132 135 0
133 133 0
134 134 0
136 135 0
139 137 16
140 136 11
142 139 0
149 146 19
151 147 28
150 146 22
151 148 28
157 154 41
154 151 28
154 151 34
156 152 34
156 153 37
157 154 42
158 154 41
155 151 39
158 155 42
156 152 39
165 159 62
160 156 48
161 156 52
165 159 61
165 159 58
160 156 48
166 161 62
161 157 52
161 157 53
158 155 45
162 157 53
161 158 53
162 157 52
161 156 52
161 156 51
157 154 41
155 152 41
159 154 44
157 153 39
158 153 44
158 153 44
158 155 39
154 153 25
158 157 37
156 155 28
154 157 28
154 157 16
154 157 11
156 161 19
157 163 16
158 165 0
160 171 0
160 170 0
161 175 0
163 178 0
162 179 0
162 180 0
164 182 0
168 189 0
163 184 0
167 188 0
168 190 0
169 192 0
166 188 0
167 190 0
167 188 0
168 192 0
167 192 0
168 190 0
165 188 0
168 193 0
168 190 0
166 191 0
166 191 0
166 189 0
168 193 0
168 192 0
168 194 0
169 194 0
167 191 0
168 194 0
169 195 0
169 195 0
168 194 0
168 195 0
170 195 0
169 195 0
169 195 0
169 195 0
168 195 0
170 195 0
168 195 0
169 194 0
170 196 0
170 195 0
168 195 0
168 194 0
171 196 0
168 195 0
167 194 0
169 195 0
167 193 0
168 194 0
169 194 0
167 193 0
168 195 0
168 194 0
168 194 0
167 193 0
168 194 0
169 194 0
167 193 0
169 195 0
167 193 0
168 194 0
169 195 0
168 193 0
168 194 0
168 194 0
168 194 0
168 193 0
164 189 0
167 193 0
167 193 0
168 194 0
164 190 0
164 190 0
167 193 0
166 192 0
164 190 0
165 190 0
166 192 0
162 188 0
166 193 0
166 192 0
165 191 0
159 185 0
167 192 0
164 190 0
165 191 0
163 188 0
158 184 0
164 189 0
163 188 0
163 189 0
160 185 0
163 189 0
157 182 0
159 184 0
162 187 0
160 184 0
164 190 0
157 182 0
160 183 0
159 185 0
156 181 0
153 178 0
158 183 0
156 182 0
158 182 0
150 175 0
155 179 0
157 182 0
150 175 0
149 173 0
146 170 0
143 167 0
148 171 0
140 164 0
146 171 0
151 176 0
140 163 0
146 169 0
144 167 0
150 173 0
148 171 0
148 170 0
142 164 0
138 160 0
137 159 0
141 161 0
136 157 0
140 158 0
139 160 0
132 151 0
136 154 0
134 152 0
138 156 0
127 144 0
133 149 0
138 153 0
137 151 0
137 152 0
129 138 0
129 138 0
131 138 0
132 137 0
135 140 0
135 139 0
138 141 0
137 138 0
140 140 0
134 134 0
140 137 0
139 138 0
141 138 16
142 139 11
143 139 22
149 146 19
151 149 16
154 150 32
153 150 30
155 150 36
153 151 32
153 150 32
153 152 32
156 153 39
155 153 32
160 154 51
160 156 44
159 155 48
160 155 48
162 157 52
165 159 59
159 155 44
161 155 48
162 157 51
161 157 51
161 156 52
159 155 48
157 153 37
162 157 56
161 156 53
158 153 45
154 152 30
156 152 37
158 154 41
160 156 48
155 151 37
156 151 36
160 156 47
151 152 16
153 151 25
154 154 22
154 155 19
154 156 22
155 161 16
152 158 0
156 165 0
157 164 11
159 171 0
158 170 0
158 170 0
162 178 0
161 176 0
162 177 0
164 181 0
164 182 0
165 185 0
167 188 0
167 189 0
166 187 0
166 187 0
167 191 0
167 190 0
168 192 0
167 191 0
167 189 0
167 190 0
168 192 0
167 191 0
166 190 0
168 193 0
168 192 0
169 193 0
168 193 0
169 195 0
169 194 0
168 191 0
168 195 0
169 195 0
168 195 0
169 194 0
170 195 0
170 195 0
169 195 0
169 195 0
168 194 0
169 195 0
168 194 0
170 196 0
170 196 0
167 194 0
169 195 0
166 193 0
167 193 0
168 193 0
168 194 0
169 195 0
168 194 0
168 194 0
168 194 0
167 192 0
169 194 0
168 194 0
166 192 0
169 195 0
169 195 0
169 194 0
168 194 0
168 194 0
169 194 0
169 195 0
170 195 0
169 195 0
169 194 0
169 194 0
166 192 0
167 193 0
169 195 0
168 194 0
165 191 0
167 193 0
167 193 0
165 190 0
167 194 0
167 193 0
165 191 0
164 189 0
164 190 0
166 191 0
168 194 0
161 187 0
164 190 0
166 191 0
163 188 0
162 188 0
165 192 0
163 189 0
164 190 0
165 191 0
165 190 0
163 189 0
163 187 0
163 189 0
162 188 0
164 189 0
164 189 0
154 178 0
159 184 0
159 184 0
159 184 0
159 184 0
158 182 0
159 183 0
152 177 0
157 182 0
154 179 0
158 183 0
159 184 0
150 176 0
154 179 0
158 183 0
152 177 0
154 180 0
152 176 0
148 173 0
147 171 0
149 172 0
149 172 0
154 177 0
144 168 0
145 168 0
140 164 0
142 165 0
141 162 0
148 168 0
140 161 0
145 164 0
148 170 0
154 173 0
146 166 0
143 163 0
138 156 0
146 166 0
134 153 0
135 153 0
140 158 0
135 150 0
130 144 0
137 152 0
139 152 0
137 150 0
132 145 0
134 143 0
140 148 0
134 142 0
143 148 0
133 135 0
137 139 0
139 141 0
140 140 0
140 138 0
137 136 0
145 143 0
142 138 11
143 140 11
145 141 0
149 146 16
147 144 0
150 147 19
151 147 22
155 150 39
151 148 16
151 148 16
151 148 22
154 152 30
152 149 30
158 154 39
154 151 32
155 153 36
155 152 34
157 153 41
157 153 37
160 156 44
157 153 45
158 154 44
157 153 41
158 153 42
155 150 36
160 156 47
157 153 37
156 152 36
155 152 34
155 152 36
157 152 42
156 151 37
153 150 19
152 149 32
155 152 37
152 149 25
153 152 16
152 152 22
155 156 22
154 155 16
154 159 0
156 162 0
152 156 0
160 171 0
161 172 0
159 168 0
158 169 0
161 174 0
162 177 0
161 177 0
163 180 0
164 182 0
166 187 0
165 184 0
163 182 0
166 188 0
167 187 0
168 189 0
167 189 0
167 189 0
168 190 0
167 191 0
167 191 0
168 193 0
167 190 0
167 189 0
168 192 0
168 193 0
166 190 0
168 193 0
169 194 0
168 193 0
167 193 0
168 193 0
167 191 0
169 195 0
169 194 0
168 194 0
168 194 0
170 195 0
169 195 0
168 193 0
167 194 0
169 195 0
170 195 0
169 195 0
169 195 0
170 195 0
170 195 0
168 194 0
169 195 0
170 195 0
169 195 0
169 195 0
169 194 0
169 195 0
169 194 0
169 194 0
170 195 0
169 195 0
169 195 0
169 194 0
168 194 0
168 194 0
169 195 0
169 195 0
169 195 0
167 193 0
167 194 0
168 194 0
169 195 0
167 192 0
167 193 0
167 193 0
167 193 0
168 193 0
167 193 0
164 189 0
168 194 0
163 189 0
168 194 0
168 194 0
167 193 0
165 190 0
167 193 0
167 193 0
166 192 0
162 187 0
165 191 0
166 192 0
162 188 0
165 192 0
164 189 0
166 192 0
162 188 0
166 192 0
159 184 0
158 183 0
162 188 0
159 184 0
159 185 0
159 184 0
164 189 0
157 183 0
161 187 0
162 187 0
160 184 0
162 186 0
156 182 0
159 183 0
158 182 0
159 184 0
157 181 0
159 183 0
154 179 0
155 180 0
153 177 0
152 176 0
153 177 0
151 175 0
155 178 0
154 179 0
153 177 0
149 173 0
147 171 0
151 175 0
151 173 0
154 179 0
148 170 0
149 170 0
151 174 0
147 168 0
148 170 0
145 167 0
148 167 0
144 164 0
138 157 0
139 159 0
142 164 0
139 158 0
139 158 0
141 157 0
134 151 0
133 150 0
142 157 0
131 144 0
142 158 0
135 147 0
125 135 0
143 152 0
135 144 0
138 145 0
128 133 0
138 143 0
136 139 0
138 142 0
135 136 0
139 139 0
138 135 0
138 135 0
138 135 0
140 138 0
143 138 11
142 137 0
145 139 0
149 146 0
147 143 16
147 144 11
151 147 22
153 149 28
157 152 39
152 148 32
150 146 25
153 150 28
153 150 30
155 151 34
154 151 28
155 151 39
159 154 44
154 152 25
153 150 28
154 149 36
156 151 39
158 152 42
154 150 32
153 151 30
155 151 36
158 152 41
154 151 25
153 147 30
154 151 28
150 148 16
155 153 30
148 145 25
152 149 25
151 151 16
152 151 0
152 152 11
154 157 11
154 156 11
157 161 16
156 162 11
156 162 0
157 165 0
156 165 0
160 169 0
163 178 0
160 173 0
161 176 0
163 181 0
165 183 0
164 182 0
164 186 0
167 187 0
167 189 0
166 188 0
166 189 0
168 189 0
168 191 0
167 190 0
167 190 0
170 192 0
167 189 0
167 191 0
168 192 0
167 190 0
167 192 0
167 191 0
169 193 0
169 192 0
168 193 0
168 194 0
168 193 0
168 193 0
169 194 0
169 195 0
169 195 0
169 195 0
169 195 0
167 193 0
169 195 0
170 195 0
168 194 0
168 194 0
169 195 0
168 194 0
168 194 0
169 195 0
169 195 0
170 195 0
169 195 0
164 191 0
168 194 0
168 194 0
167 193 0
170 195 0
168 193 0
168 194 0
169 194 0
169 195 0
169 195 0
169 195 0
168 194 0
167 193 0
169 195 0
166 192 0
169 195 0
168 193 0
168 194 0
167 193 0
168 194 0
169 194 0
168 194 0
168 195 0
167 193 0
166 192 0
167 193 0
167 193 0
168 194 0
167 192 0
165 191 0
166 192 0
165 192 0
165 191 0
168 194 0
166 192 0
167 192 0
165 191 0
167 193 0
168 194 0
166 191 0
167 193 0
166 191 0
165 192 0
161 187 0
166 192 0
164 190 0
164 189 0
165 191 0
166 192 0
165 191 0
160 185 0
164 189 0
165 191 0
163 189 0
164 190 0
159 185 0
160 185 0
159 183 0
162 188 0
164 189 0
158 183 0
159 184 0
157 183 0
159 183 0
158 182 0
158 183 0
157 181 0
155 180 0
158 182 0
160 185 0
153 178 0
156 179 0
151 174 0
156 180 0
152 175 0
152 175 0
152 176 0
152 176 0
155 178 0
151 174 0
146 168 0
147 169 0
151 173 0
148 168 0
142 159 0
147 166 0
147 168 0
144 164 0
139 157 0
144 163 0
143 163 0
140 156 0
135 150 0
144 159 0
143 158 0
140 156 0
141 155 0
141 153 0
142 153 0
127 134 0
142 151 0
138 145 0
137 141 0
137 138 0
136 137 0
135 137 0
139 138 0
138 139 0
140 138 0
141 139 0
140 137 0
143 140 0
143 139 0
148 143 0
146 142 11
144 139 0
147 144 11
148 144 0
151 148 16
149 145 16
147 144 16
150 146 16
150 144 22
154 152 32
152 148 30
150 147 19
151 148 19
154 151 25
152 148 28
153 149 28
151 147 22
156 153 39
153 149 25
154 149 36
153 148 30
152 149 22
153 149 22
152 149 22
151 148 25
150 146 25
151 147 11
150 147 22
150 147 19
152 150 11
151 150 16
148 147 0
151 151 11
154 157 0
155 158 0
155 159 0
154 157 11
157 166 0
156 163 0
157 166 0
160 172 0
162 174 0
161 172 0
162 178 0
164 183 0
163 180 0
163 183 0
165 185 0
167 188 0
166 186 0
168 187 0
167 189 0
168 191 0
168 191 0
168 191 0
168 190 0
166 188 0
167 191 0
166 189 0
168 192 0
168 192 0
168 192 0
168 192 0
168 192 0
167 191 0
168 192 0
168 194 0
169 195 0
169 194 0
168 194 0
171 196 0
168 194 0
171 196 0
168 193 0
170 196 0
169 195 0
168 194 0
168 195 0
169 195 0
168 194 0
169 195 0
170 196 0
170 195 0
168 194 0
170 195 0
169 194 0
170 196 0
170 195 0
170 195 0
169 195 0
168 193 0
169 195 0
168 195 0
169 195 0
168 194 0
167 193 0
168 194 0
167 192 0
168 193 0
168 194 0
169 195 0
166 192 0
169 194 0
167 192 0
167 193 0
167 193 0
169 195 0
167 193 0
167 193 0
167 194 0
168 193 0
166 192 0
166 192 0
165 190 0
165 191 0
168 194 0
165 190 0
167 193 0
165 191 0
168 194 0
168 193 0
167 193 0
167 193 0
165 191 0
167 193 0
161 187 0
164 190 0
167 192 0
165 190 0
167 194 0
164 190 0
164 190 0
164 190 0
163 189 0
160 185 0
163 190 0
163 189 0
163 188 0
166 191 0
163 189 0
163 188 0
162 187 0
159 183 0
160 185 0
159 185 0
161 186 0
157 183 0
157 181 0
156 181 0
161 186 0
156 180 0
156 180 0
157 182 0
160 185 0
159 184 0
156 179 0
150 175 0
152 177 0
151 174 0
150 173 0
157 181 0
154 177 0
153 177 0
152 176 0
156 179 0
150 172 0
149 171 0
150 173 0
150 171 0
153 176 0
156 175 0
153 174 0
148 168 0
145 167 0
148 169 0
143 163 0
139 154 0
147 164 0
145 162 0
139 156 0
140 156 0
142 160 0
147 164 0
148 159 0
147 162 0
146 156 0
139 148 0
138 145 0
142 144 0
145 151 0
140 143 0
143 148 0
145 147 0
147 147 0
141 139 0
140 137 0
143 141 0
141 138 0
142 136 0
139 134 0
139 134 0
144 139 11
147 144 11
146 139 0
145 139 11
145 140 0
148 144 19
146 142 16
148 143 0
150 145 25
151 147 11
151 147 22
153 149 25
152 148 19
148 144 11
152 149 32
150 147 11
151 147 25
153 149 22
150 145 16
152 146 25
149 146 11
148 144 16
147 145 11
151 146 22
145 141 11
150 147 0
146 140 16
150 148 11
151 147 11
152 151 11
152 154 0
151 150 0
151 156 0
155 158 0
151 154 0
154 156 0
157 166 0
160 171 0
159 173 0
160 173 0
160 171 0
161 175 0
163 178 0
164 183 0
167 184 0
166 186 0
163 181 0
167 188 0
166 183 0
167 188 0
166 188 0
167 189 0
169 191 0
167 189 0
164 187 0
167 189 0
167 189 0
168 192 0
169 192 0
168 192 0
168 191 0
169 193 0
167 192 0
168 192 0
168 192 0
169 194 0
169 194 0
169 194 0
169 193 0
168 194 0
168 194 0
169 195 0
168 194 0
169 195 0
169 195 0
168 194 0
170 195 0
170 196 0
167 193 0
169 195 0
170 195 0
168 194 0
169 195 0
167 193 0
169 195 0
169 195 0
169 195 0
169 195 0
167 193 0
170 196 0
168 195 0
170 195 0
169 195 0
167 194 0
169 195 0
167 194 0
170 196 0
168 194 0
170 195 0
170 195 0
166 192 0
168 194 0
168 194 0
167 192 0
167 193 0
168 194 0
167 193 0
167 194 0
167 193 0
169 195 0
167 193 0
169 194 0
168 194 0
169 194 0
167 193 0
168 194 0
169 194 0
166 192 0
166 192 0
167 192 0
166 191 0
167 193 0
166 192 0
165 189 0
167 192 0
166 191 0
163 188 0
162 188 0
163 188 0
163 188 0
162 188 0
162 187 0
163 189 0
159 185 0
157 182 0
164 190 0
162 188 0
163 188 0
164 189 0
159 184 0
160 185 0
163 187 0
160 185 0
164 189 0
163 188 0
157 181 0
162 186 0
159 184 0
158 183 0
156 180 0
161 185 0
156 181 0
160 185 0
158 183 0
156 182 0
155 179 0
156 180 0
152 175 0
160 184 0
153 177 0
152 175 0
154 178 0
154 175 0
150 172 0
157 180 0
145 166 0
155 178 0
151 173 0
149 171 0
151 172 0
148 167 0
141 160 0
148 169 0
152 172 0
145 166 0
141 158 0
145 162 0
147 164 0
143 159 0
147 164 0
144 158 0
140 152 0
141 155 0
141 152 0
147 157 0
141 151 0
142 151 0
141 149 0
140 143 0
141 144 0
144 144 0
138 138 0
145 144 0
133 130 0
141 137 0
140 136 0
137 131 0
141 136 0
139 134 0
140 134 0
142 136 0
146 142 0
143 139 0
147 142 11
144 138 0
146 141 11
147 143 0
147 143 0
148 142 16
150 145 0
148 144 11
149 143 22
151 148 19
149 144 11
150 145 16
147 144 0
150 148 19
150 146 19
151 147 19
151 146 25
148 144 11
151 146 22
149 145 11
149 144 16
147 144 11
148 144 0
149 146 0
150 149 11
150 151 0
150 148 0
149 148 0
153 155 0
153 157 0
154 159 0
154 158 0
157 164 0
158 166 0
155 161 0
160 171 0
160 172 0
160 174 0
161 174 0
164 181 0
161 178 0
163 181 0
166 185 0
166 185 0
166 184 0
165 186 0
168 189 0
166 188 0
168 189 0
166 186 0
166 189 0
167 189 0
165 187 0
168 192 0
166 189 0
168 191 0
168 192 0
168 191 0
167 192 0
169 193 0
168 192 0
167 193 0
167 191 0
168 193 0
169 194 0
168 193 0
168 194 0
169 195 0
169 195 0
169 195 0
169 195 0
168 194 0
169 195 0
169 195 0
169 194 0
168 194 0
169 195 0
170 196 0
169 195 0
168 194 0
169 195 0
168 194 0
169 195 0
168 194 0
166 192 0
170 195 0
168 194 0
170 196 0
169 195 0
168 194 0
170 195 0
167 193 0
169 195 0
169 194 0
169 195 0
169 195 0
169 194 0
168 193 0
167 194 0
167 192 0
169 194 0
167 194 0
167 193 0
166 192 0
167 193 0
168 194 0
167 193 0
169 194 0
166 192 0
167 193 0
167 193 0
168 193 0
167 192 0
166 192 0
167 193 0
167 192 0
167 193 0
165 192 0
166 192 0
168 194 0
167 193 0
168 193 0
163 190 0
162 188 0
163 189 0
166 192 0
161 187 0
165 191 0
164 190 0
163 189 0
166 193 0
166 192 0
162 187 0
163 188 0
158 184 0
164 190 0
164 189 0
165 191 0
163 188 0
165 190 0
163 188 0
161 186 0
159 185 0
163 188 0
163 188 0
157 181 0
159 184 0
161 187 0
158 184 0
158 181 0
156 181 0
160 185 0
161 186 0
155 178 0
157 181 0
156 180 0
155 179 0
157 181 0
160 184 0
150 174 0
156 180 0
158 181 0
153 175 0
150 171 0
156 179 0
154 177 0
148 168 0
151 172 0
148 170 0
150 171 0
158 178 0
152 169 0
147 164 0
150 167 0
151 170 0
154 171 0
148 162 0
141 155 0
155 171 0
141 154 0
147 159 0
144 156 0
141 151 0
142 150 0
139 144 0
144 149 0
137 138 0
134 135 0
138 139 0
145 147 0
138 136 0
135 134 0
145 144 0
142 139 0
141 138 0
140 135 0
136 132 0
139 132 0
143 137 0
145 139 0
144 138 0
146 139 0
143 137 0
145 139 0
143 137 0
139 134 0
146 141 0
147 143 0
145 139 0
148 143 11
147 142 19
145 140 0
148 143 16
149 145 0
149 144 16
145 139 0
146 142 0
146 142 11
147 142 0
149 143 0
147 144 0
150 146 0
150 147 0
151 148 11
149 149 0
151 151 0
152 152 0
150 153 0
147 149 0
153 157 0
159 164 0
153 158 0
155 165 0
155 163 0
162 172 0
159 169 0
164 176 0
162 177 0
165 180 0
164 180 0
162 177 0
165 183 0
166 186 0
166 186 0
165 186 0
165 186 0
167 187 0
167 187 0
166 188 0
167 188 0
168 190 0
167 189 0
167 189 0
167 190 0
168 192 0
168 191 0
168 192 0
168 191 0
168 191 0
167 192 0
168 189 0
168 193 0
168 193 0
168 193 0
168 193 0
167 192 0
