P3
200 100
255
218 234 255
218 234 255
218 233 255
218 233 255
218 233 255
218 233 255
218 233 255
217 233 255
217 233 255
217 233 255
217 233 255
217 233 255
217 233 255
217 233 255
217 233 255
217 233 255
217 233 255
217 233 255
217 233 255
217 233 255
217 233 255
217 233 255
217 233 255
217 233 255
217 233 255
217 233 255
217 233 255
217 233 255
217 233 255
217 233 255
217 233 255
217 233 255
217 233 255
217 233 255
217 233 255
217 233 255
217 233 255
217 233 255
217 233 255
217 233 255
217 233 255
216 233 255
216 233 255
216 233 255
216 233 255
216 233 255
216 233 255
216 233 255
216 233 255
216 233 255
216 233 255
216 233 255
216 233 255
216 233 255
216 233 255
216 233 255
216 233 255
216 233 255
216 233 255
216 233 255
216 233 255
216 232 255
216 232 255
216 232 255
216 232 255
216 232 255
216 232 255
216 232 255
216 232 255
216 232 255
216 232 255
216 232 255
215 232 255
215 232 255
215 232 255
215 232 255
215 232 255
215 232 255
215 232 255
215 232 255
215 232 255
215 232 255
215 232 255
215 232 255
215 232 255
215 232 255
215 232 255
215 232 255
215 232 255
215 232 255
215 232 255
215 232 255
215 232 255
215 232 255
215 232 255
215 232 255
215 232 255
215 232 255
215 232 255
215 232 255
215 232 255
215 232 255
215 232 255
215 232 255
215 232 255
215 232 255
215 232 255
215 232 255
215 232 255
215 232 255
215 232 255
215 232 255
215 232 255
215 232 255
215 232 255
215 232 255
215 232 255
215 232 255
215 232 255
215 232 255
215 232 255
215 232 255
215 232 255
215 232 255
215 232 255
215 232 255
215 232 255
215 232 255
215 232 255
216 232 255
216 232 255
216 232 255
216 232 255
216 232 255
216 232 255
216 232 255
216 232 255
216 232 255
216 232 255
216 233 255
216 233 255
216 233 255
216 233 255
216 233 255
216 233 255
216 233 255
216 233 255
216 233 255
216 233 255
216 233 255
216 233 255
216 233 255
216 233 255
216 233 255
216 233 255
216 233 255
216 233 255
216 233 255
216 233 255
217 233 255
217 233 255
217 233 255
217 233 255
217 233 255
217 233 255
217 233 255
217 233 255
217 233 255
217 233 255
217 233 255
217 233 255
217 233 255
217 233 255
217 233 255
217 233 255
217 233 255
217 233 255
217 233 255
217 233 255
217 233 255
217 233 255
217 233 255
217 233 255
217 233 255
217 233 255
217 233 255
217 233 255
217 233 255
217 233 255
217 233 255
217 233 255
217 233 255
217 233 255
218 233 255
218 233 255
218 233 255
218 233 255
218 234 255
218 234 255
218 234 255
218 234 255
218 234 255
218 234 255
218 234 255
218 234 255
218 234 255
218 234 255
218 234 255
218 234 255
218 234 255
218 234 255
218 234 255
218 234 255
218 233 255
218 233 255
218 233 255
218 233 255
218 233 255
217 233 255
217 233 255
217 233 255
217 233 255
217 233 255
217 233 255
217 233 255
217 233 255
217 233 255
217 233 255
217 233 255
217 233 255
217 233 255
217 233 255
217 233 255
217 233 255
217 233 255
217 233 255
217 233 255
217 233 255
217 233 255
217 233 255
217 233 255
217 233 255
217 233 255
217 233 255
217 233 255
217 233 255
217 233 255
217 233 255
217 233 255
217 233 255
217 233 255
216 233 255
216 233 255
216 233 255
216 233 255
216 233 255
216 233 255
216 233 255
216 233 255
216 233 255
216 233 255
216 233 255
216 233 255
216 233 255
216 233 255
216 233 255
216 233 255
216 233 255
216 233 255
216 233 255
216 233 255
216 233 255
216 233 255
216 233 255
216 232 255
216 232 255
216 232 255
216 232 255
216 232 255
216 232 255
216 232 255
216 232 255
216 232 255
216 232 255
216 232 255
216 232 255
216 232 255
216 232 255
216 232 255
215 232 255
215 232 255
215 232 255
215 232 255
215 232 255
215 232 255
215 232 255
215 232 255
215 232 255
215 232 255
215 232 255
215 232 255
215 232 255
215 232 255
215 232 255
215 232 255
215 232 255
215 232 255
215 232 255
215 232 255
215 232 255
216 232 255
216 232 255
216 232 255
216 232 255
216 232 255
216 232 255
216 232 255
216 232 255
216 232 255
216 232 255
216 232 255
216 232 255
216 232 255
216 232 255
216 232 255
216 232 255
216 232 255
216 233 255
216 233 255
216 233 255
216 233 255
216 233 255
216 233 255
216 233 255
216 233 255
216 233 255
216 233 255
216 233 255
216 233 255
216 233 255
216 233 255
216 233 255
216 233 255
216 233 255
216 233 255
216 233 255
216 233 255
216 233 255
216 233 255
217 233 255
217 233 255
217 233 255
217 233 255
217 233 255
217 233 255
217 233 255
217 233 255
217 233 255
217 233 255
217 233 255
217 233 255
217 233 255
217 233 255
217 233 255
217 233 255
217 233 255
217 233 255
217 233 255
217 233 255
217 233 255
217 233 255
217 233 255
217 233 255
217 233 255
217 233 255
217 233 255
217 233 255
217 233 255
217 233 255
217 233 255
217 233 255
217 233 255
217 233 255
218 233 255
218 233 255
218 233 255
218 233 255
218 234 255
218 234 255
218 234 255
218 234 255
218 234 255
218 234 255
218 234 255
218 234 255
218 234 255
218 234 255
218 234 255
218 234 255
218 234 255
218 234 255
218 234 255
218 234 255
218 234 255
218 234 255
218 234 255
218 234 255
218 234 255
218 234 255
218 234 255
218 234 255
218 234 255
218 234 255
218 234 255
218 234 255
218 234 255
218 234 255
218 234 255
218 234 255
218 234 255
218 234 255
218 234 255
218 234 255
218 234 255
218 233 255
218 233 255
218 233 255
217 233 255
217 233 255
217 233 255
217 233 255
217 233 255
217 233 255
217 233 255
217 233 255
217 233 255
217 233 255
217 233 255
217 233 255
217 233 255
217 233 255
217 233 255
217 233 255
217 233 255
217 233 255
217 233 255
217 233 255
217 233 255
217 233 255
217 233 255
217 233 255
217 233 255
217 233 255
217 233 255
217 233 255
217 233 255
217 233 255
217 233 255
217 233 255
217 233 255
217 233 255
217 233 255
216 233 255
216 233 255
216 233 255
216 233 255
216 233 255
216 233 255
216 233 255
216 233 255
216 233 255
216 233 255
216 233 255
216 233 255
216 233 255
216 233 255
216 233 255
216 233 255
216 233 255
216 233 255
216 233 255
216 233 255
216 233 255
216 233 255
216 233 255
216 233 255
216 233 255
216 233 255
216 233 255
216 233 255
216 233 255
216 233 255
216 233 255
216 233 255
216 233 255
216 233 255
216 232 255
216 232 255
216 232 255
216 232 255
216 232 255
216 233 255
216 232 255
216 233 255
216 233 255
216 233 255
216 233 255
216 233 255
216 233 255
216 233 255
216 233 255
216 233 255
216 233 255
216 233 255
216 233 255
216 233 255
216 233 255
216 233 255
216 233 255
216 233 255
216 233 255
216 233 255
216 233 255
216 233 255
216 233 255
216 233 255
216 233 255
216 233 255
216 233 255
216 233 255
216 233 255
216 233 255
216 233 255
216 233 255
216 233 255
216 233 255
216 233 255
216 233 255
217 233 255
217 233 255
217 233 255
217 233 255
217 233 255
217 233 255
217 233 255
217 233 255
217 233 255
217 233 255
217 233 255
217 233 255
217 233 255
217 233 255
217 233 255
217 233 255
217 233 255
217 233 255
217 233 255
217 233 255
217 233 255
217 233 255
217 233 255
217 233 255
217 233 255
217 233 255
217 233 255
217 233 255
217 233 255
217 233 255
217 233 255
217 233 255
217 233 255
217 233 255
217 233 255
218 233 255
218 233 255
218 233 255
218 233 255
218 234 255
218 234 255
218 234 255
218 234 255
218 234 255
218 234 255
218 234 255
218 234 255
218 234 255
218 234 255
218 234 255
218 234 255
218 234 255
218 234 255
218 234 255
218 234 255
218 234 255
218 234 255
218 234 255
218 234 255
218 234 255
218 234 255
218 234 255
218 234 255
218 234 255
218 234 255
218 234 255
218 234 255
218 234 255
218 234 255
218 234 255
218 234 255
218 234 255
218 234 255
218 234 255
218 234 255
218 234 255
218 234 255
218 234 255
218 234 255
218 234 255
218 234 255
218 234 255
218 234 255
218 234 255
218 234 255
218 234 255
218 234 255
218 234 255
218 234 255
218 234 255
218 234 255
218 234 255
218 234 255
218 234 255
218 234 255
218 234 255
218 233 255
218 233 255
218 233 255
218 233 255
218 233 255
217 233 255
217 233 255
217 233 255
217 233 255
217 233 255
217 233 255
217 233 255
217 233 255
217 233 255
217 233 255
217 233 255
217 233 255
217 233 255
217 233 255
217 233 255
217 233 255
217 233 255
217 233 255
217 233 255
217 233 255
217 233 255
217 233 255
217 233 255
217 233 255
217 233 255
217 233 255
217 233 255
217 233 255
217 233 255
217 233 255
217 233 255
217 233 255
217 233 255
217 233 255
217 233 255
217 233 255
217 233 255
216 233 255
216 233 255
216 233 255
216 233 255
216 233 255
216 233 255
216 233 255
216 233 255
216 233 255
216 233 255
216 233 255
216 233 255
216 233 255
216 233 255
216 233 255
216 233 255
216 233 255
216 233 255
216 233 255
216 233 255
216 233 255
216 233 255
216 233 255
216 233 255
216 233 255
216 233 255
216 233 255
216 233 255
216 233 255
216 233 255
216 233 255
216 233 255
216 233 255
216 233 255
216 233 255
216 233 255
216 233 255
216 233 255
216 233 255
216 233 255
216 233 255
216 233 255
216 233 255
216 233 255
216 233 255
216 233 255
216 233 255
216 233 255
217 233 255
217 233 255
217 233 255
217 233 255
217 233 255
217 233 255
217 233 255
217 233 255
217 233 255
217 233 255
217 233 255
217 233 255
217 233 255
217 233 255
217 233 255
217 233 255
217 233 255
217 233 255
217 233 255
217 233 255
217 233 255
217 233 255
217 233 255
217 233 255
217 233 255
217 233 255
217 233 255
217 233 255
217 233 255
217 233 255
217 233 255
217 233 255
217 233 255
217 233 255
217 233 255
217 233 255
217 233 255
218 233 255
218 233 255
218 233 255
218 233 255
218 233 255
218 234 255
218 234 255
218 234 255
218 234 255
218 234 255
218 234 255
218 234 255
218 234 255
218 234 255
218 234 255
218 234 255
218 234 255
218 234 255
218 234 255
218 234 255
218 234 255
218 234 255
218 234 255
218 234 255
218 234 255
218 234 255
218 234 255
218 234 255
218 234 255
218 234 255
218 234 255
218 234 255
218 234 255
218 234 255
218 234 255
218 234 255
218 234 255
218 234 255
218 234 255
219 234 255
219 234 255
219 234 255
219 234 255
219 234 255
219 234 255
219 234 255
219 234 255
218 234 255
218 234 255
218 234 255
218 234 255
218 234 255
218 234 255
218 234 255
218 234 255
218 234 255
218 234 255
218 234 255
218 234 255
218 234 255
218 234 255
218 234 255
218 234 255
218 234 255
218 234 255
218 234 255
218 234 255
218 234 255
218 234 255
218 234 255
218 234 255
218 234 255
218 234 255
218 234 255
218 234 255
218 234 255
218 234 255
218 234 255
218 234 255
218 234 255
218 234 255
218 234 255
218 234 255
218 234 255
218 234 255
218 234 255
218 233 255
218 233 255
218 233 255
218 233 255
217 233 255
217 233 255
217 233 255
217 233 255
217 233 255
217 233 255
217 233 255
217 233 255
217 233 255
217 233 255
217 233 255
217 233 255
217 233 255
217 233 255
217 233 255
217 233 255
217 233 255
217 233 255
217 233 255
217 233 255
217 233 255
217 233 255
217 233 255
217 233 255
217 233 255
217 233 255
217 233 255
217 233 255
217 233 255
217 233 255
217 233 255
217 233 255
217 233 255
217 233 255
217 233 255
217 233 255
217 233 255
217 233 255
217 233 255
217 233 255
217 233 255
217 233 255
217 233 255
217 233 255
217 233 255
217 233 255
217 233 255
217 233 255
217 233 255
217 233 255
217 233 255
217 233 255
217 233 255
217 233 255
217 233 255
217 233 255
217 233 255
217 233 255
217 233 255
217 233 255
217 233 255
217 233 255
217 233 255
217 233 255
217 233 255
217 233 255
217 233 255
217 233 255
217 233 255
217 233 255
217 233 255
217 233 255
217 233 255
217 233 255
217 233 255
217 233 255
217 233 255
217 233 255
217 233 255
217 233 255
217 233 255
217 233 255
217 233 255
217 233 255
217 233 255
217 233 255
217 233 255
217 233 255
217 233 255
217 233 255
217 233 255
217 233 255
217 233 255
217 233 255
217 233 255
217 233 255
217 233 255
217 233 255
218 233 255
218 233 255
218 233 255
218 233 255
218 234 255
218 234 255
218 234 255
218 234 255
218 234 255
218 234 255
218 234 255
218 234 255
218 234 255
218 234 255
218 234 255
218 234 255
218 234 255
218 234 255
218 234 255
218 234 255
218 234 255
218 234 255
218 234 255
218 234 255
218 234 255
218 234 255
218 234 255
218 234 255
218 234 255
218 234 255
218 234 255
218 234 255
218 234 255
218 234 255
218 234 255
218 234 255
218 234 255
218 234 255
218 234 255
218 234 255
218 234 255
218 234 255
218 234 255
219 234 255
219 234 255
219 234 255
219 234 255
219 234 255
219 234 255
219 234 255
219 234 255
219 234 255
219 234 255
219 234 255
219 234 255
219 234 255
219 234 255
219 234 255
219 234 255
219 234 255
219 234 255
219 234 255
219 234 255
219 234 255
219 234 255
219 234 255
219 234 255
219 234 255
219 234 255
219 234 255
219 234 255
219 234 255
218 234 255
218 234 255
218 234 255
218 234 255
218 234 255
218 234 255
218 234 255
218 234 255
218 234 255
218 234 255
218 234 255
218 234 255
218 234 255
218 234 255
218 234 255
218 234 255
218 234 255
218 234 255
218 234 255
218 234 255
218 234 255
218 234 255
218 234 255
218 234 255
218 234 255
218 234 255
218 234 255
218 234 255
218 234 255
218 234 255
218 234 255
218 234 255
218 234 255
218 234 255
218 234 255
218 234 255
218 234 255
218 234 255
218 234 255
218 233 255
218 233 255
218 233 255
218 233 255
218 233 255
218 233 255
217 233 255
217 233 255
217 233 255
217 233 255
217 233 255
217 233 255
217 233 255
217 233 255
217 233 255
217 233 255
217 233 255
217 233 255
217 233 255
217 233 255
217 233 255
217 233 255
217 233 255
217 233 255
217 233 255
217 233 255
217 233 255
217 233 255
217 233 255
217 233 255
217 233 255
217 233 255
217 233 255
217 233 255
217 233 255
217 233 255
217 233 255
217 233 255
217 233 255
217 233 255
217 233 255
217 233 255
217 233 255
217 233 255
217 233 255
217 233 255
217 233 255
217 233 255
217 233 255
217 233 255
217 233 255
217 233 255
217 233 255
217 233 255
217 233 255
217 233 255
217 233 255
217 233 255
217 233 255
217 233 255
217 233 255
217 233 255
217 233 255
217 233 255
217 233 255
217 233 255
217 233 255
217 233 255
217 233 255
217 233 255
217 233 255
217 233 255
217 233 255
217 233 255
218 233 255
218 233 255
218 233 255
218 233 255
218 233 255
218 234 255
218 234 255
218 234 255
218 234 255
218 234 255
218 234 255
218 234 255
218 234 255
218 234 255
218 234 255
218 234 255
218 234 255
218 234 255
218 234 255
218 234 255
218 234 255
218 234 255
218 234 255
218 234 255
218 234 255
218 234 255
218 234 255
218 234 255
218 234 255
218 234 255
218 234 255
218 234 255
218 234 255
218 234 255
218 234 255
218 234 255
218 234 255
218 234 255
218 234 255
218 234 255
218 234 255
218 234 255
218 234 255
218 234 255
218 234 255
219 234 255
219 234 255
219 234 255
219 234 255
219 234 255
219 234 255
219 234 255
219 234 255
219 234 255
219 234 255
219 234 255
219 234 255
219 234 255
219 234 255
219 234 255
219 234 255
219 234 255
219 234 255
219 234 255
219 234 255
219 234 255
219 234 255
219 234 255
219 234 255
219 234 255
219 234 255
219 234 255
219 234 255
219 234 255
219 234 255
219 234 255
219 234 255
219 234 255
219 234 255
219 234 255
219 234 255
219 234 255
219 234 255
219 234 255
219 234 255
219 234 255
219 234 255
219 234 255
219 234 255
219 234 255
219 234 255
219 234 255
219 234 255
219 234 255
219 234 255
219 234 255
219 234 255
219 234 255
219 234 255
219 234 255
219 234 255
219 234 255
218 234 255
218 234 255
218 234 255
218 234 255
218 234 255
218 234 255
218 234 255
218 234 255
218 234 255
218 234 255
218 234 255
218 234 255
218 234 255
218 234 255
218 234 255
218 234 255
218 234 255
218 234 255
218 234 255
218 234 255
218 234 255
218 234 255
218 234 255
218 234 255
218 234 255
218 234 255
218 234 255
218 234 255
218 234 255
218 234 255
218 234 255
218 234 255
218 234 255
218 234 255
218 234 255
218 234 255
218 234 255
218 234 255
218 234 255
218 234 255
218 234 255
218 234 255
218 234 255
218 233 255
218 234 255
218 233 255
218 233 255
218 233 255
218 233 255
218 233 255
218 233 255
218 233 255
218 233 255
218 233 255
217 233 255
217 233 255
217 233 255
217 233 255
217 233 255
217 233 255
217 233 255
217 233 255
217 233 255
217 233 255
217 233 255
217 233 255
217 233 255
217 233 255
217 233 255
217 233 255
217 233 255
217 233 255
218 233 255
217 233 255
217 233 255
218 233 255
218 233 255
218 233 255
218 233 255
218 233 255
218 233 255
218 233 255
218 233 255
218 234 255
218 234 255
218 234 255
218 234 255
218 234 255
218 234 255
218 234 255
218 234 255
218 234 255
218 234 255
218 234 255
218 234 255
218 234 255
218 234 255
218 234 255
218 234 255
218 234 255
218 234 255
218 234 255
218 234 255
218 234 255
218 234 255
218 234 255
218 234 255
218 234 255
218 234 255
218 234 255
218 234 255
218 234 255
218 234 255
218 234 255
218 234 255
218 234 255
218 234 255
218 234 255
218 234 255
218 234 255
218 234 255
218 234 255
218 234 255
218 234 255
218 234 255
218 234 255
218 234 255
218 234 255
219 234 255
219 234 255
219 234 255
219 234 255
219 234 255
219 234 255
219 234 255
219 234 255
219 234 255
219 234 255
219 234 255
219 234 255
219 234 255
219 234 255
219 234 255
219 234 255
219 234 255
219 234 255
219 234 255
219 234 255
219 234 255
219 234 255
219 234 255
219 234 255
219 234 255
219 234 255
219 234 255
219 234 255
219 234 255
219 234 255
219 234 255
219 234 255
219 234 255
219 234 255
219 234 255
219 234 255
219 234 255
219 234 255
219 234 255
219 234 255
219 234 255
219 234 255
219 234 255
219 234 255
219 234 255
219 234 255
219 234 255
219 234 255
219 234 255
219 234 255
219 234 255
219 234 255
219 234 255
219 234 255
219 234 255
219 234 255
219 234 255
219 234 255
219 234 255
219 234 255
219 234 255
219 234 255
219 234 255
219 234 255
219 234 255
219 234 255
219 234 255
219 234 255
219 234 255
219 234 255
219 234 255
219 234 255
219 234 255
219 234 255
219 234 255
219 234 255
219 234 255
219 234 255
219 234 255
219 234 255
219 234 255
219 234 255
219 234 255
219 234 255
219 234 255
219 234 255
219 234 255
219 234 255
219 234 255
218 234 255
218 234 255
218 234 255
218 234 255
218 234 255
218 234 255
218 234 255
218 234 255
218 234 255
218 234 255
218 234 255
218 234 255
218 234 255
218 234 255
218 234 255
218 234 255
218 234 255
218 234 255
218 234 255
218 234 255
218 234 255
218 234 255
218 234 255
218 234 255
218 234 255
218 234 255
218 234 255
218 234 255
218 234 255
218 234 255
218 234 255
218 234 255
218 234 255
218 234 255
218 234 255
218 234 255
218 234 255
218 234 255
218 234 255
218 234 255
218 234 255
218 234 255
218 234 255
218 234 255
218 234 255
218 234 255
218 234 255
218 234 255
218 234 255
218 234 255
218 234 255
218 234 255
218 234 255
218 234 255
218 234 255
218 234 255
218 234 255
218 234 255
218 234 255
218 234 255
218 234 255
218 234 255
218 234 255
218 234 255
218 234 255
218 234 255
218 234 255
218 234 255
218 234 255
218 234 255
218 234 255
218 234 255
218 234 255
218 234 255
218 234 255
218 234 255
218 234 255
218 234 255
218 234 255
218 234 255
218 234 255
218 234 255
218 234 255
218 234 255
218 234 255
218 234 255
218 234 255
218 234 255
218 234 255
218 234 255
218 234 255
218 234 255
218 234 255
219 234 255
219 234 255
219 234 255
219 234 255
219 234 255
219 234 255
219 234 255
219 234 255
219 234 255
219 234 255
219 234 255
219 234 255
219 234 255
219 234 255
219 234 255
219 234 255
219 234 255
219 234 255
219 234 255
219 234 255
219 234 255
219 234 255
219 234 255
219 234 255
219 234 255
219 234 255
219 234 255
219 234 255
219 234 255
219 234 255
219 234 255
219 234 255
219 234 255
219 234 255
219 234 255
219 234 255
219 234 255
219 234 255
219 234 255
219 234 255
219 234 255
219 234 255
219 234 255
219 234 255
219 234 255
219 234 255
219 234 255
219 234 255
219 234 255
219 234 255
219 234 255
219 234 255
219 234 255
219 234 255
220 235 255
220 235 255
220 235 255
220 235 255
220 235 255
220 235 255
220 235 255
220 235 255
220 235 255
220 235 255
220 235 255
219 235 255
219 235 255
219 235 255
219 235 255
219 235 255
219 235 255
219 235 255
219 235 255
219 235 255
219 234 255
219 234 255
219 234 255
219 234 255
219 234 255
219 234 255
219 234 255
219 234 255
219 234 255
219 234 255
219 234 255
219 234 255
219 234 255
219 234 255
219 234 255
219 234 255
219 234 255
219 234 255
219 234 255
219 234 255
219 234 255
219 234 255
219 234 255
219 234 255
219 234 255
219 234 255
219 234 255
219 234 255
219 234 255
219 234 255
219 234 255
219 234 255
219 234 255
219 234 255
219 234 255
219 234 255
219 234 255
219 234 255
219 234 255
219 234 255
219 234 255
219 234 255
219 234 255
219 234 255
219 234 255
219 234 255
219 234 255
219 234 255
219 234 255
219 234 255
219 234 255
219 234 255
219 234 255
219 234 255
219 234 255
219 234 255
219 234 255
218 234 255
218 234 255
218 234 255
218 234 255
218 234 255
218 234 255
218 234 255
218 234 255
218 234 255
218 234 255
218 234 255
218 234 255
218 234 255
218 234 255
218 234 255
218 234 255
218 234 255
218 234 255
218 234 255
218 234 255
218 234 255
218 234 255
218 234 255
218 234 255
218 234 255
218 234 255
218 234 255
218 234 255
218 234 255
218 234 255
218 234 255
218 234 255
218 234 255
218 234 255
218 234 255
218 234 255
218 234 255
218 234 255
218 234 255
218 234 255
218 234 255
218 234 255
218 234 255
218 234 255
218 234 255
218 234 255
218 234 255
219 234 255
219 234 255
219 234 255
219 234 255
219 234 255
219 234 255
219 234 255
219 234 255
219 234 255
219 234 255
219 234 255
219 234 255
219 234 255
219 234 255
219 234 255
219 234 255
219 234 255
219 234 255
219 234 255
219 234 255
219 234 255
219 234 255
219 234 255
219 234 255
219 234 255
219 234 255
219 234 255
219 234 255
219 234 255
219 234 255
219 234 255
219 234 255
219 234 255
219 234 255
219 234 255
219 234 255
219 234 255
219 234 255
219 234 255
219 234 255
219 234 255
219 234 255
219 234 255
219 234 255
219 234 255
219 234 255
219 234 255
219 234 255
219 234 255
219 234 255
219 234 255
219 234 255
219 234 255
219 234 255
219 234 255
219 234 255
219 234 255
219 235 255
219 235 255
219 235 255
219 235 255
219 235 255
219 235 255
219 235 255
219 235 255
220 235 255
220 235 255
220 235 255
220 235 255
220 235 255
220 235 255
220 235 255
220 235 255
220 235 255
220 235 255
220 235 255
220 235 255
220 235 255
220 235 255
220 235 255
220 235 255
220 235 255
220 235 255
220 235 255
220 235 255
220 235 255
220 235 255
220 235 255
220 235 255
220 235 255
220 235 255
220 235 255
220 235 255
220 235 255
220 235 255
220 235 255
220 235 255
220 235 255
220 235 255
220 235 255
220 235 255
220 235 255
220 235 255
220 235 255
220 235 255
220 235 255
220 235 255
220 235 255
220 235 255
220 235 255
219 235 255
219 235 255
219 235 255
219 235 255
219 235 255
219 235 255
219 235 255
219 234 255
219 234 255
219 234 255
219 234 255
219 234 255
219 234 255
219 234 255
219 234 255
219 234 255
219 234 255
219 234 255
219 234 255
219 234 255
219 234 255
219 234 255
219 234 255
219 234 255
219 234 255
219 234 255
219 234 255
219 234 255
219 234 255
219 234 255
219 234 255
219 234 255
219 234 255
219 234 255
219 234 255
219 234 255
219 234 255
219 234 255
219 234 255
219 234 255
219 234 255
219 234 255
219 234 255
219 234 255
219 234 255
219 234 255
219 234 255
219 234 255
219 234 255
219 234 255
219 234 255
219 234 255
219 234 255
219 234 255
219 234 255
219 234 255
219 234 255
219 234 255
219 234 255
219 234 255
219 234 255
219 234 255
219 234 255
219 234 255
219 234 255
219 234 255
219 234 255
219 234 255
219 234 255
219 234 255
219 234 255
219 234 255
219 234 255
219 234 255
219 234 255
219 234 255
219 234 255
219 234 255
219 234 255
219 234 255
219 234 255
219 234 255
219 234 255
219 234 255
219 234 255
219 234 255
219 234 255
219 234 255
219 234 255
219 234 255
219 234 255
219 234 255
219 234 255
219 234 255
219 234 255
219 234 255
219 234 255
219 234 255
219 234 255
219 234 255
219 234 255
219 234 255
219 234 255
219 234 255
219 234 255
219 234 255
219 234 255
219 234 255
219 234 255
219 234 255
219 234 255
219 234 255
219 234 255
219 234 255
219 234 255
219 234 255
219 234 255
219 234 255
219 234 255
219 234 255
219 234 255
219 234 255
219 234 255
219 234 255
219 235 255
219 235 255
219 235 255
219 235 255
219 235 255
219 235 255
219 235 255
219 235 255
220 235 255
220 235 255
220 235 255
220 235 255
220 235 255
220 235 255
220 235 255
220 235 255
220 235 255
220 235 255
220 235 255
220 235 255
220 235 255
220 235 255
220 235 255
220 235 255
220 235 255
220 235 255
220 235 255
220 235 255
220 235 255
220 235 255
220 235 255
220 235 255
220 235 255
220 235 255
220 235 255
220 235 255
220 235 255
220 235 255
220 235 255
220 235 255
220 235 255
220 235 255
220 235 255
220 235 255
220 235 255
220 235 255
220 235 255
220 235 255
220 235 255
220 235 255
220 235 255
220 235 255
220 235 255
220 235 255
220 235 255
220 235 255
220 235 255
220 235 255
220 235 255
220 235 255
220 235 255
220 235 255
220 235 255
220 235 255
220 235 255
220 235 255
220 235 255
220 235 255
220 235 255
220 235 255
220 235 255
220 235 255
220 235 255
220 235 255
220 235 255
220 235 255
220 235 255
220 235 255
220 235 255
220 235 255
220 235 255
220 235 255
220 235 255
220 235 255
220 235 255
220 235 255
220 235 255
220 235 255
220 235 255
220 235 255
220 235 255
220 235 255
220 235 255
220 235 255
220 235 255
220 235 255
220 235 255
220 235 255
220 235 255
220 235 255
220 235 255
220 235 255
220 235 255
220 235 255
220 235 255
219 235 255
219 235 255
219 235 255
219 235 255
219 235 255
219 235 255
219 235 255
219 235 255
219 235 255
219 234 255
219 234 255
219 234 255
219 234 255
219 234 255
219 234 255
219 234 255
219 234 255
219 234 255
219 234 255
219 234 255
219 234 255
219 234 255
219 234 255
219 234 255
219 234 255
219 234 255
219 234 255
219 234 255
219 234 255
219 234 255
219 234 255
219 234 255
219 234 255
219 234 255
219 234 255
219 234 255
219 234 255
219 234 255
219 234 255
219 234 255
219 234 255
219 234 255
219 234 255
219 234 255
219 234 255
219 234 255
219 234 255
219 234 255
219 234 255
219 234 255
219 234 255
219 234 255
219 234 255
219 234 255
219 234 255
219 234 255
219 234 255
219 234 255
219 234 255
219 234 255
219 234 255
219 234 255
219 234 255
219 234 255
219 234 255
219 235 255
219 235 255
219 235 255
219 235 255
219 235 255
219 235 255
219 235 255
219 235 255
219 235 255
220 235 255
220 235 255
220 235 255
220 235 255
220 235 255
220 235 255
220 235 255
220 235 255
220 235 255
220 235 255
220 235 255
220 235 255
220 235 255
220 235 255
220 235 255
220 235 255
220 235 255
220 235 255
220 235 255
220 235 255
220 235 255
220 235 255
220 235 255
220 235 255
220 235 255
220 235 255
220 235 255
220 235 255
220 235 255
220 235 255
220 235 255
220 235 255
220 235 255
220 235 255
220 235 255
220 235 255
220 235 255
220 235 255
220 235 255
220 235 255
220 235 255
220 235 255
220 235 255
220 235 255
220 235 255
220 235 255
220 235 255
220 235 255
220 235 255
220 235 255
220 235 255
220 235 255
220 235 255
220 235 255
220 235 255
220 235 255
220 235 255
220 235 255
220 235 255
220 235 255
220 235 255
220 235 255
220 235 255
220 235 255
220 235 255
220 235 255
220 235 255
220 235 255
220 235 255
220 235 255
220 235 255
220 235 255
220 235 255
220 235 255
220 235 255
220 235 255
220 235 255
220 235 255
220 235 255
220 235 255
220 235 255
220 235 255
220 235 255
220 235 255
220 235 255
220 235 255
220 235 255
220 235 255
220 235 255
220 235 255
220 235 255
220 235 255
220 235 255
220 235 255
220 235 255
220 235 255
220 235 255
220 235 255
220 235 255
220 235 255
220 235 255
220 235 255
220 235 255
220 235 255
220 235 255
220 235 255
220 235 255
220 235 255
220 235 255
220 235 255
220 235 255
220 235 255
220 235 255
220 235 255
220 235 255
220 235 255
220 235 255
220 235 255
220 235 255
220 235 255
220 235 255
220 235 255
220 235 255
220 235 255
220 235 255
220 235 255
220 235 255
220 235 255
220 235 255
220 235 255
220 235 255
220 235 255
220 235 255
220 235 255
220 235 255
220 235 255
220 235 255
220 235 255
220 235 255
220 235 255
220 235 255
220 235 255
220 235 255
220 235 255
220 235 255
220 235 255
220 235 255
220 235 255
220 235 255
220 235 255
220 235 255
220 235 255
220 235 255
220 235 255
220 235 255
220 235 255
220 235 255
220 235 255
220 235 255
220 235 255
220 235 255
220 235 255
220 235 255
220 235 255
220 235 255
220 235 255
220 235 255
220 235 255
220 235 255
220 235 255
220 235 255
220 235 255
220 235 255
220 235 255
220 235 255
220 235 255
220 235 255
220 235 255
220 235 255
220 235 255
220 235 255
220 235 255
220 235 255
220 235 255
220 235 255
220 235 255
220 235 255
220 235 255
220 235 255
220 235 255
220 235 255
220 235 255
220 235 255
220 235 255
220 235 255
220 235 255
220 235 255
220 235 255
220 235 255
220 235 255
220 235 255
220 235 255
220 235 255
220 235 255
220 235 255
220 235 255
220 235 255
220 235 255
220 235 255
220 235 255
220 235 255
220 235 255
220 235 255
220 235 255
220 235 255
220 235 255
220 235 255
220 235 255
220 235 255
220 235 255
220 235 255
220 235 255
220 235 255
220 235 255
220 235 255
220 235 255
220 235 255
220 235 255
220 235 255
220 235 255
220 235 255
220 235 255
220 235 255
220 235 255
220 235 255
220 235 255
220 235 255
220 235 255
220 235 255
220 235 255
220 235 255
220 235 255
220 235 255
220 235 255
220 235 255
220 235 255
220 235 255
220 235 255
220 235 255
220 235 255
220 235 255
220 235 255
220 235 255
220 235 255
220 235 255
220 235 255
220 235 255
220 235 255
220 235 255
220 235 255
220 235 255
220 235 255
220 235 255
221 235 255
221 235 255
221 235 255
221 235 255
221 235 255
221 235 255
221 235 255
221 235 255
221 235 255
221 235 255
221 235 255
221 235 255
221 235 255
221 235 255
221 235 255
221 235 255
221 235 255
221 235 255
221 235 255
221 235 255
221 235 255
221 235 255
221 235 255
221 235 255
221 235 255
221 235 255
221 235 255
221 235 255
221 235 255
221 235 255
221 235 255
221 235 255
220 235 255
220 235 255
220 235 255
220 235 255
220 235 255
220 235 255
220 235 255
220 235 255
220 235 255
220 235 255
220 235 255
220 235 255
220 235 255
220 235 255
220 235 255
220 235 255
220 235 255
220 235 255
220 235 255
220 235 255
220 235 255
220 235 255
220 235 255
220 235 255
220 235 255
220 235 255
220 235 255
220 235 255
220 235 255
220 235 255
220 235 255
220 235 255
220 235 255
220 235 255
220 235 255
220 235 255
220 235 255
220 235 255
220 235 255
220 235 255
220 235 255
220 235 255
220 235 255
220 235 255
220 235 255
220 235 255
220 235 255
220 235 255
220 235 255
220 235 255
220 235 255
220 235 255
220 235 255
220 235 255
220 235 255
220 235 255
220 235 255
220 235 255
220 235 255
220 235 255
220 235 255
220 235 255
220 235 255
220 235 255
220 235 255
220 235 255
220 235 255
220 235 255
220 235 255
220 235 255
220 235 255
220 235 255
220 235 255
220 235 255
220 235 255
220 235 255
220 235 255
220 235 255
220 235 255
220 235 255
220 235 255
220 235 255
220 235 255
220 235 255
220 235 255
220 235 255
220 235 255
220 235 255
220 235 255
220 235 255
220 235 255
220 235 255
220 235 255
220 235 255
220 235 255
220 235 255
220 235 255
220 235 255
220 235 255
220 235 255
220 235 255
220 235 255
220 235 255
220 235 255
220 235 255
220 235 255
220 235 255
220 235 255
220 235 255
220 235 255
220 235 255
220 235 255
220 235 255
220 235 255
220 235 255
220 235 255
220 235 255
220 235 255
220 235 255
220 235 255
220 235 255
220 235 255
220 235 255
220 235 255
220 235 255
220 235 255
220 235 255
220 235 255
220 235 255
220 235 255
220 235 255
220 235 255
220 235 255
220 235 255
220 235 255
221 235 255
220 235 255
221 235 255
220 235 255
221 235 255
221 235 255
221 235 255
221 235 255
221 235 255
221 235 255
221 235 255
221 235 255
221 235 255
221 235 255
221 235 255
221 235 255
221 235 255
221 235 255
221 235 255
221 235 255
221 235 255
221 235 255
221 235 255
221 235 255
221 235 255
221 235 255
221 235 255
221 235 255
221 235 255
221 235 255
221 235 255
221 235 255
221 235 255
221 235 255
221 235 255
221 235 255
221 235 255
221 235 255
221 235 255
221 235 255
221 235 255
221 235 255
221 235 255
221 235 255
221 235 255
221 235 255
221 235 255
221 235 255
221 235 255
221 235 255
221 235 255
221 235 255
221 235 255
221 235 255
221 235 255
221 235 255
221 235 255
221 235 255
221 235 255
221 235 255
221 235 255
221 235 255
221 235 255
221 235 255
221 235 255
221 235 255
221 235 255
221 235 255
221 235 255
221 235 255
221 235 255
221 235 255
221 235 255
221 235 255
221 235 255
221 235 255
221 235 255
221 235 255
221 235 255
221 235 255
221 235 255
221 235 255
221 235 255
221 235 255
221 235 255
221 235 255
221 235 255
221 235 255
221 235 255
221 235 255
221 235 255
221 235 255
221 235 255
221 235 255
221 235 255
221 235 255
221 235 255
221 235 255
221 235 255
221 235 255
221 235 255
221 235 255
221 235 255
221 235 255
221 235 255
221 235 255
221 235 255
221 235 255
221 235 255
221 235 255
221 235 255
221 235 255
221 235 255
221 235 255
221 235 255
221 235 255
221 235 255
221 235 255
221 235 255
221 235 255
221 235 255
221 235 255
221 235 255
221 235 255
221 235 255
221 235 255
221 235 255
221 235 255
221 235 255
221 235 255
221 235 255
221 235 255
221 235 255
221 235 255
221 235 255
221 235 255
221 235 255
221 235 255
221 235 255
221 235 255
221 235 255
221 235 255
221 235 255
221 235 255
221 235 255
221 235 255
221 235 255
221 235 255
221 235 255
221 235 255
221 235 255
221 235 255
221 235 255
221 235 255
221 235 255
221 235 255
221 235 255
221 235 255
221 235 255
221 235 255
221 235 255
221 235 255
221 235 255
221 235 255
221 235 255
221 235 255
221 235 255
221 235 255
221 235 255
221 235 255
221 235 255
221 235 255
221 235 255
221 235 255
221 235 255
221 235 255
221 235 255
221 235 255
221 235 255
221 235 255
221 235 255
221 235 255
221 235 255
221 235 255
221 235 255
221 235 255
221 235 255
221 235 255
221 235 255
221 235 255
221 235 255
221 235 255
221 235 255
221 235 255
221 235 255
221 235 255
221 235 255
221 235 255
221 235 255
221 235 255
221 235 255
221 235 255
221 235 255
221 235 255
221 235 255
221 235 255
221 235 255
221 235 255
221 235 255
221 235 255
221 235 255
221 235 255
221 235 255
221 235 255
221 235 255
221 235 255
221 235 255
221 235 255
221 235 255
221 235 255
221 235 255
221 235 255
221 235 255
221 235 255
221 235 255
221 235 255
221 235 255
221 235 255
221 235 255
221 235 255
221 235 255
221 235 255
221 235 255
221 235 255
221 235 255
221 235 255
221 235 255
221 235 255
221 235 255
221 235 255
221 235 255
221 235 255
221 235 255
221 235 255
221 235 255
221 235 255
221 235 255
221 235 255
221 235 255
221 235 255
221 235 255
221 235 255
221 235 255
221 235 255
221 235 255
221 235 255
221 235 255
221 235 255
221 235 255
221 235 255
221 235 255
221 235 255
221 235 255
221 235 255
221 235 255
221 235 255
221 235 255
221 235 255
221 235 255
221 235 255
221 235 255
221 235 255
221 235 255
221 235 255
221 235 255
221 235 255
221 235 255
221 235 255
221 235 255
221 235 255
221 235 255
221 235 255
221 235 255
221 235 255
221 235 255
221 235 255
221 235 255
221 235 255
221 235 255
221 235 255
221 235 255
221 235 255
221 235 255
221 235 255
221 235 255
221 235 255
221 235 255
221 235 255
221 235 255
221 235 255
221 235 255
221 235 255
221 235 255
221 235 255
221 235 255
221 235 255
221 235 255
221 235 255
221 235 255
221 235 255
221 235 255
221 235 255
221 235 255
221 235 255
221 235 255
221 235 255
221 235 255
221 235 255
221 235 255
221 235 255
221 235 255
221 235 255
221 235 255
221 235 255
221 235 255
221 235 255
221 235 255
221 235 255
221 235 255
221 235 255
221 235 255
221 235 255
221 235 255
221 235 255
221 235 255
221 235 255
221 235 255
221 235 255
221 235 255
221 235 255
221 235 255
221 235 255
221 235 255
221 235 255
221 235 255
221 235 255
221 235 255
221 235 255
221 235 255
221 235 255
221 235 255
221 235 255
221 235 255
221 235 255
221 235 255
221 235 255
221 235 255
221 235 255
221 235 255
221 235 255
221 235 255
221 235 255
221 235 255
221 235 255
221 235 255
221 235 255
221 235 255
221 235 255
221 235 255
221 235 255
221 235 255
221 235 255
221 235 255
221 235 255
221 235 255
221 235 255
221 235 255
221 235 255
221 235 255
221 235 255
221 235 255
221 235 255
221 235 255
221 235 255
221 235 255
221 235 255
221 235 255
221 235 255
221 235 255
221 235 255
221 235 255
221 235 255
221 235 255
221 235 255
221 235 255
221 235 255
221 235 255
221 235 255
221 235 255
221 235 255
221 235 255
221 235 255
221 235 255
221 235 255
221 235 255
221 235 255
221 235 255
221 235 255
221 235 255
221 235 255
221 235 255
221 235 255
221 235 255
221 235 255
221 235 255
221 235 255
221 235 255
221 235 255
221 235 255
221 235 255
221 235 255
221 235 255
221 235 255
221 235 255
221 235 255
221 235 255
221 235 255
221 235 255
221 235 255
221 235 255
221 235 255
221 235 255
221 235 255
221 236 255
221 236 255
221 236 255
221 236 255
221 236 255
221 236 255
221 236 255
221 236 255
221 236 255
221 236 255
221 236 255
221 236 255
221 236 255
221 236 255
221 236 255
221 236 255
221 236 255
221 236 255
221 236 255
221 236 255
221 236 255
221 236 255
221 236 255
221 236 255
221 236 255
221 236 255
221 236 255
221 236 255
221 236 255
221 236 255
221 236 255
221 236 255
221 236 255
221 236 255
221 236 255
221 236 255
221 236 255
221 236 255
222 236 255
221 236 255
222 236 255
221 236 255
222 236 255
222 236 255
222 236 255
222 236 255
221 236 255
222 236 255
222 236 255
222 236 255
222 236 255
222 236 255
222 236 255
222 236 255
222 236 255
222 236 255
222 236 255
222 236 255
222 236 255
222 236 255
222 236 255
222 236 255
222 236 255
222 236 255
222 236 255
222 236 255
222 236 255
222 236 255
222 236 255
222 236 255
222 236 255
222 236 255
222 236 255
222 236 255
222 236 255
222 236 255
222 236 255
222 236 255
222 236 255
222 236 255
222 236 255
222 236 255
222 236 255
222 236 255
222 236 255
222 236 255
222 236 255
222 236 255
222 236 255
222 236 255
222 236 255
222 236 255
222 236 255
222 236 255
222 236 255
222 236 255
222 236 255
222 236 255
222 236 255
222 236 255
222 236 255
222 236 255
222 236 255
222 236 255
222 236 255
222 236 255
222 236 255
222 236 255
222 236 255
222 236 255
222 236 255
222 236 255
222 236 255
222 236 255
222 236 255
222 236 255
222 236 255
222 236 255
222 236 255
222 236 255
222 236 255
222 236 255
222 236 255
222 236 255
222 236 255
222 236 255
222 236 255
222 236 255
222 236 255
222 236 255
222 236 255
222 236 255
222 236 255
222 236 255
222 236 255
222 236 255
222 236 255
222 236 255
222 236 255
222 236 255
222 236 255
222 236 255
222 236 255
222 236 255
222 236 255
222 236 255
222 236 255
222 236 255
222 236 255
222 236 255
222 236 255
222 236 255
222 236 255
222 236 255
222 236 255
221 236 255
222 236 255
221 236 255
222 236 255
221 236 255
222 236 255
221 236 255
221 236 255
221 236 255
221 236 255
221 236 255
221 236 255
221 236 255
221 236 255
221 236 255
221 236 255
221 236 255
221 236 255
221 236 255
221 236 255
221 236 255
221 236 255
221 236 255
221 236 255
221 236 255
221 236 255
221 236 255
221 236 255
221 236 255
221 236 255
221 236 255
221 236 255
221 236 255
221 236 255
221 236 255
221 236 255
221 236 255
221 236 255
221 236 255
221 236 255
221 236 255
221 236 255
221 236 255
221 236 255
221 236 255
222 236 255
222 236 255
222 236 255
222 236 255
222 236 255
222 236 255
222 236 255
222 236 255
222 236 255
222 236 255
222 236 255
222 236 255
222 236 255
222 236 255
222 236 255
222 236 255
222 236 255
222 236 255
222 236 255
222 236 255
222 236 255
222 236 255
222 236 255
222 236 255
222 236 255
222 236 255
222 236 255
222 236 255
222 236 255
222 236 255
222 236 255
222 236 255
222 236 255
222 236 255
222 236 255
222 236 255
222 236 255
222 236 255
222 236 255
222 236 255
222 236 255
222 236 255
222 236 255
222 236 255
222 236 255
222 236 255
222 236 255
222 236 255
222 236 255
222 236 255
222 236 255
222 236 255
222 236 255
222 236 255
222 236 255
222 236 255
222 236 255
222 236 255
222 236 255
222 236 255
222 236 255
222 236 255
222 236 255
222 236 255
222 236 255
222 236 255
222 236 255
222 236 255
222 236 255
222 236 255
222 236 255
222 236 255
222 236 255
222 236 255
222 236 255
222 236 255
222 236 255
222 236 255
222 236 255
222 236 255
222 236 255
222 236 255
222 236 255
222 236 255
222 236 255
222 236 255
222 236 255
222 236 255
222 236 255
222 236 255
222 236 255
222 236 255
222 236 255
222 236 255
222 236 255
222 236 255
222 236 255
222 236 255
222 236 255
222 236 255
222 236 255
222 236 255
222 236 255
222 236 255
222 236 255
222 236 255
222 236 255
222 236 255
222 236 255
222 236 255
222 236 255
222 236 255
222 236 255
222 236 255
222 236 255
222 236 255
222 236 255
222 236 255
222 236 255
222 236 255
222 236 255
222 236 255
222 236 255
222 236 255
222 236 255
222 236 255
222 236 255
222 236 255
222 236 255
222 236 255
222 236 255
222 236 255
222 236 255
222 236 255
222 236 255
222 236 255
222 236 255
222 236 255
222 236 255
222 236 255
222 236 255
222 236 255
222 236 255
222 236 255
222 236 255
222 236 255
222 236 255
222 236 255
222 236 255
222 236 255
222 236 255
222 236 255
222 236 255
222 236 255
222 236 255
222 236 255
222 236 255
222 236 255
222 236 255
222 236 255
222 236 255
222 236 255
222 236 255
222 236 255
222 236 255
222 236 255
222 236 255
222 236 255
222 236 255
222 236 255
222 236 255
222 236 255
222 236 255
222 236 255
222 236 255
222 236 255
222 236 255
222 236 255
222 236 255
222 236 255
222 236 255
222 236 255
222 236 255
222 236 255
222 236 255
222 236 255
222 236 255
222 236 255
222 236 255
222 236 255
222 236 255
222 236 255
222 236 255
222 236 255
222 236 255
222 236 255
222 236 255
222 236 255
222 236 255
222 236 255
222 236 255
222 236 255
222 236 255
222 236 255
222 236 255
222 236 255
222 236 255
222 236 255
222 236 255
222 236 255
222 236 255
222 236 255
222 236 255
222 236 255
222 236 255
222 236 255
222 236 255
222 236 255
222 236 255
222 236 255
222 236 255
222 236 255
222 236 255
222 236 255
222 236 255
222 236 255
222 236 255
222 236 255
222 236 255
222 236 255
222 236 255
222 236 255
222 236 255
222 236 255
222 236 255
222 236 255
222 236 255
222 236 255
222 236 255
222 236 255
222 236 255
222 236 255
222 236 255
222 236 255
222 236 255
222 236 255
222 236 255
222 236 255
222 236 255
222 236 255
222 236 255
222 236 255
222 236 255
222 236 255
222 236 255
222 236 255
222 236 255
222 236 255
222 236 255
222 236 255
222 236 255
222 236 255
222 236 255
222 236 255
222 236 255
222 236 255
222 236 255
222 236 255
222 236 255
222 236 255
222 236 255
222 236 255
222 236 255
222 236 255
223 236 255
223 236 255
223 236 255
223 236 255
223 236 255
223 236 255
223 236 255
223 236 255
223 236 255
223 236 255
223 236 255
223 236 255
223 236 255
223 236 255
223 236 255
223 236 255
223 236 255
223 236 255
223 236 255
223 236 255
223 236 255
223 236 255
223 236 255
223 236 255
223 236 255
223 236 255
223 236 255
223 236 255
223 236 255
223 236 255
223 236 255
223 236 255
223 236 255
223 236 255
223 236 255
223 236 255
223 236 255
223 236 255
223 236 255
223 236 255
223 236 255
223 236 255
223 236 255
223 236 255
223 236 255
223 236 255
223 236 255
223 236 255
223 236 255
223 236 255
222 236 255
223 236 255
223 236 255
223 236 255
222 236 255
222 236 255
222 236 255
222 236 255
222 236 255
222 236 255
222 236 255
222 236 255
222 236 255
222 236 255
222 236 255
222 236 255
222 236 255
222 236 255
222 236 255
222 236 255
222 236 255
222 236 255
222 236 255
222 236 255
222 236 255
222 236 255
222 236 255
222 236 255
222 236 255
222 236 255
222 236 255
222 236 255
222 236 255
222 236 255
222 236 255
222 236 255
222 236 255
222 236 255
222 236 255
222 236 255
222 236 255
222 236 255
222 236 255
222 236 255
222 236 255
222 236 255
222 236 255
222 236 255
222 236 255
222 236 255
222 236 255
222 236 255
222 236 255
222 236 255
222 236 255
222 236 255
222 236 255
222 236 255
222 236 255
222 236 255
222 236 255
222 236 255
222 236 255
222 236 255
222 236 255
222 236 255
222 236 255
222 236 255
222 236 255
222 236 255
222 236 255
222 236 255
222 236 255
222 236 255
222 236 255
222 236 255
222 236 255
222 236 255
222 236 255
222 236 255
222 236 255
222 236 255
222 236 255
222 236 255
222 236 255
222 236 255
222 236 255
222 236 255
222 236 255
222 236 255
222 236 255
222 236 255
222 236 255
222 236 255
222 236 255
222 236 255
222 236 255
222 236 255
222 236 255
222 236 255
222 236 255
222 236 255
222 236 255
222 236 255
222 236 255
222 236 255
222 236 255
222 236 255
222 236 255
222 236 255
223 236 255
223 236 255
223 236 255
223 236 255
223 236 255
223 236 255
223 236 255
223 236 255
223 236 255
223 236 255
223 236 255
223 236 255
223 236 255
223 236 255
223 236 255
223 236 255
223 236 255
223 236 255
223 236 255
223 236 255
223 236 255
223 236 255
223 236 255
223 236 255
223 236 255
223 236 255
223 236 255
223 236 255
223 236 255
223 236 255
223 236 255
223 236 255
223 236 255
223 236 255
223 236 255
223 236 255
223 237 255
223 237 255
223 237 255
223 237 255
223 237 255
223 237 255
223 237 255
223 237 255
223 237 255
223 237 255
223 237 255
223 237 255
223 237 255
223 237 255
223 237 255
223 237 255
223 237 255
223 237 255
223 237 255
223 237 255
223 237 255
223 237 255
223 237 255
223 237 255
223 237 255
223 237 255
223 237 255
223 237 255
223 237 255
223 237 255
223 237 255
223 237 255
223 237 255
223 237 255
223 237 255
223 237 255
223 237 255
223 237 255
223 237 255
223 237 255
223 237 255
223 237 255
223 237 255
223 237 255
223 237 255
223 237 255
223 237 255
223 237 255
223 237 255
223 237 255
223 237 255
223 237 255
223 237 255
223 237 255
223 237 255
223 237 255
223 237 255
223 237 255
223 237 255
223 237 255
223 236 255
223 236 255
223 236 255
223 236 255
223 236 255
223 236 255
223 236 255
223 236 255
223 236 255
223 236 255
223 236 255
223 236 255
223 236 255
223 236 255
223 236 255
223 236 255
223 236 255
223 236 255
223 236 255
223 236 255
223 236 255
223 236 255
223 236 255
223 236 255
223 236 255
223 236 255
223 236 255
223 236 255
223 236 255
223 236 255
223 236 255
223 236 255
223 236 255
223 236 255
223 236 255
223 236 255
222 236 255
222 236 255
222 236 255
222 236 255
222 236 255
222 236 255
222 236 255
222 236 255
222 236 255
222 236 255
222 236 255
222 236 255
222 236 255
222 236 255
222 236 255
222 236 255
222 236 255
222 236 255
222 236 255
222 236 255
222 236 255
222 236 255
222 236 255
222 236 255
222 236 255
222 236 255
222 236 255
222 236 255
222 236 255
222 236 255
222 236 255
222 236 255
222 236 255
222 236 255
222 236 255
222 236 255
222 236 255
222 236 255
222 236 255
223 236 255
223 236 255
223 236 255
223 236 255
223 236 255
223 236 255
223 236 255
223 236 255
223 236 255
223 236 255
223 236 255
223 236 255
223 236 255
223 236 255
223 236 255
223 236 255
223 236 255
223 236 255
223 236 255
223 236 255
223 236 255
223 236 255
223 236 255
223 236 255
223 236 255
223 236 255
223 236 255
223 236 255
223 236 255
223 236 255
223 236 255
223 236 255
223 236 255
223 236 255
223 236 255
223 237 255
223 236 255
223 237 255
223 237 255
223 237 255
223 237 255
223 237 255
223 237 255
223 237 255
223 237 255
223 237 255
223 237 255
223 237 255
223 237 255
223 237 255
223 237 255
223 237 255
223 237 255
223 237 255
223 237 255
223 237 255
223 237 255
223 237 255
223 237 255
223 237 255
223 237 255
223 237 255
223 237 255
223 237 255
223 237 255
223 237 255
223 237 255
223 237 255
223 237 255
223 237 255
223 237 255
224 237 255
224 237 255
224 237 255
224 237 255
224 237 255
224 237 255
224 237 255
224 237 255
224 237 255
224 237 255
224 237 255
224 237 255
224 237 255
224 237 255
224 237 255
224 237 255
224 237 255
224 237 255
224 237 255
224 237 255
224 237 255
224 237 255
224 237 255
224 237 255
224 237 255
224 237 255
224 237 255
224 237 255
224 237 255
224 237 255
224 237 255
224 237 255
224 237 255
224 237 255
224 237 255
224 237 255
224 237 255
224 237 255
224 237 255
224 237 255
224 237 255
224 237 255
224 237 255
224 237 255
224 237 255
224 237 255
224 237 255
224 237 255
223 237 255
223 237 255
223 237 255
223 237 255
223 237 255
223 237 255
223 237 255
223 237 255
223 237 255
223 237 255
223 237 255
223 237 255
223 237 255
223 237 255
223 237 255
223 237 255
223 237 255
223 237 255
223 237 255
223 237 255
223 237 255
223 237 255
223 237 255
223 237 255
223 237 255
223 237 255
223 237 255
223 237 255
223 237 255
223 237 255
223 237 255
223 237 255
223 237 255
223 237 255
223 237 255
223 237 255
223 236 255
223 236 255
223 236 255
223 236 255
223 236 255
223 236 255
223 236 255
223 236 255
223 236 255
223 236 255
223 236 255
223 236 255
223 236 255
223 236 255
223 236 255
223 236 255
223 236 255
223 236 255
223 236 255
223 236 255
223 236 255
223 236 255
223 236 255
223 236 255
223 236 255
223 236 255
223 236 255
223 236 255
223 236 255
223 236 255
223 236 255
223 236 255
223 236 255
223 236 255
223 236 255
223 236 255
222 236 255
222 236 255
222 236 255
222 236 255
223 236 255
223 236 255
223 236 255
223 236 255
223 236 255
223 236 255
223 236 255
223 236 255
223 236 255
223 236 255
223 236 255
223 236 255
223 236 255
223 236 255
223 236 255
223 236 255
223 236 255
223 237 255
223 237 255
223 237 255
223 237 255
223 237 255
223 237 255
223 237 255
223 237 255
223 237 255
223 237 255
223 237 255
223 237 255
223 237 255
223 237 255
223 237 255
223 237 255
223 237 255
223 237 255
223 237 255
223 237 255
223 237 255
223 237 255
223 237 255
223 237 255
223 237 255
223 237 255
223 237 255
223 237 255
223 237 255
223 237 255
223 237 255
223 237 255
223 237 255
224 237 255
224 237 255
224 237 255
224 237 255
224 237 255
224 237 255
224 237 255
224 237 255
224 237 255
224 237 255
224 237 255
224 237 255
224 237 255
224 237 255
224 237 255
224 237 255
224 237 255
224 237 255
224 237 255
224 237 255
224 237 255
224 237 255
224 237 255
224 237 255
224 237 255
224 237 255
224 237 255
224 237 255
224 237 255
224 237 255
224 237 255
224 237 255
224 237 255
224 237 255
224 237 255
224 237 255
224 237 255
224 237 255
224 237 255
224 237 255
224 237 255
224 237 255
224 237 255
224 237 255
224 237 255
224 237 255
224 237 255
224 237 255
224 237 255
224 237 255
224 237 255
224 237 255
224 237 255
224 237 255
224 237 255
224 237 255
224 237 255
224 237 255
224 237 255
224 237 255
224 237 255
224 237 255
224 237 255
224 237 255
224 237 255
224 237 255
224 237 255
224 237 255
224 237 255
224 237 255
224 237 255
224 237 255
224 237 255
224 237 255
224 237 255
224 237 255
224 237 255
224 237 255
224 237 255
224 237 255
224 237 255
224 237 255
224 237 255
224 237 255
224 237 255
224 237 255
224 237 255
224 237 255
224 237 255
224 237 255
224 237 255
224 237 255
224 237 255
224 237 255
224 237 255
224 237 255
224 237 255
224 237 255
223 237 255
223 237 255
223 237 255
223 237 255
223 237 255
223 237 255
223 237 255
223 237 255
223 237 255
223 237 255
223 237 255
223 237 255
223 237 255
223 237 255
223 237 255
223 237 255
223 237 255
223 237 255
223 237 255
223 237 255
223 237 255
223 237 255
223 237 255
223 237 255
223 237 255
223 237 255
223 237 255
223 237 255
223 237 255
223 237 255
223 237 255
223 237 255
223 237 255
223 237 255
223 236 255
223 236 255
223 236 255
223 236 255
223 236 255
223 236 255
223 236 255
223 236 255
223 236 255
223 236 255
223 236 255
223 236 255
223 236 255
223 236 255
223 236 255
223 236 255
223 236 255
223 236 255
223 237 255
223 237 255
223 237 255
223 237 255
223 237 255
223 237 255
223 237 255
223 237 255
223 237 255
223 237 255
223 237 255
223 237 255
223 237 255
223 237 255
223 237 255
223 237 255
223 237 255
223 237 255
223 237 255
223 237 255
223 237 255
223 237 255
223 237 255
223 237 255
223 237 255
223 237 255
223 237 255
223 237 255
223 237 255
223 237 255
223 237 255
223 237 255
224 237 255
224 237 255
224 237 255
224 237 255
224 237 255
224 237 255
224 237 255
224 237 255
224 237 255
224 237 255
224 237 255
224 237 255
224 237 255
224 237 255
224 237 255
224 237 255
224 237 255
224 237 255
224 237 255
224 237 255
224 237 255
224 237 255
224 237 255
224 237 255
224 237 255
224 237 255
224 237 255
224 237 255
224 237 255
224 237 255
224 237 255
224 237 255
224 237 255
224 237 255
224 237 255
224 237 255
224 237 255
224 237 255
224 237 255
224 237 255
224 237 255
224 237 255
224 237 255
224 237 255
224 237 255
225 237 255
225 237 255
225 237 255
225 237 255
225 237 255
225 237 255
225 237 255
225 237 255
225 237 255
225 237 255
225 237 255
225 237 255
225 237 255
225 237 255
225 238 255
225 238 255
225 238 255
225 238 255
225 238 255
225 238 255
225 238 255
225 238 255
225 238 255
225 238 255
225 238 255
225 238 255
225 238 255
225 238 255
225 238 255
225 238 255
225 238 255
225 238 255
225 238 255
225 237 255
225 237 255
225 237 255
225 237 255
225 237 255
225 237 255
225 237 255
225 237 255
225 237 255
225 237 255
225 237 255
225 237 255
225 237 255
224 237 255
224 237 255
224 237 255
224 237 255
224 237 255
224 237 255
224 237 255
224 237 255
224 237 255
224 237 255
224 237 255
224 237 255
224 237 255
224 237 255
224 237 255
224 237 255
224 237 255
224 237 255
224 237 255
224 237 255
224 237 255
224 237 255
224 237 255
224 237 255
224 237 255
224 237 255
224 237 255
224 237 255
224 237 255
224 237 255
224 237 255
224 237 255
224 237 255
224 237 255
224 237 255
224 237 255
224 237 255
224 237 255
224 237 255
224 237 255
224 237 255
224 237 255
224 237 255
224 237 255
224 237 255
223 237 255
223 237 255
223 237 255
223 237 255
223 237 255
223 237 255
223 237 255
223 237 255
223 237 255
223 237 255
223 237 255
223 237 255
223 237 255
223 237 255
223 237 255
223 237 255
223 237 255
223 237 255
223 237 255
223 237 255
223 237 255
223 237 255
223 237 255
223 237 255
223 237 255
223 237 255
223 237 255
223 237 255
223 237 255
223 237 255
223 237 255
223 237 255
223 237 255
223 237 255
223 237 255
223 237 255
223 237 255
223 237 255
223 237 255
223 237 255
223 237 255
223 237 255
223 237 255
223 237 255
223 237 255
223 237 255
223 237 255
224 237 255
224 237 255
224 237 255
224 237 255
224 237 255
224 237 255
224 237 255
224 237 255
224 237 255
224 237 255
224 237 255
224 237 255
224 237 255
224 237 255
224 237 255
224 237 255
224 237 255
224 237 255
224 237 255
224 237 255
224 237 255
224 237 255
224 237 255
224 237 255
224 237 255
224 237 255
224 237 255
224 237 255
224 237 255
224 237 255
224 237 255
224 237 255
224 237 255
224 237 255
224 237 255
224 237 255
224 237 255
224 237 255
224 237 255
224 237 255
224 237 255
224 237 255
225 237 255
225 237 255
225 237 255
225 237 255
225 237 255
225 237 255
225 237 255
225 237 255
225 238 255
225 238 255
225 238 255
225 238 255
225 238 255
225 238 255
225 238 255
225 238 255
225 238 255
225 238 255
225 238 255
225 238 255
225 238 255
225 238 255
225 238 255
225 238 255
225 238 255
225 238 255
225 238 255
225 238 255
225 238 255
225 238 255
225 238 255
225 238 255
225 238 255
225 238 255
225 238 255
225 238 255
225 238 255
225 238 255
225 238 255
225 238 255
225 238 255
225 238 255
225 238 255
225 238 255
225 238 255
225 238 255
225 238 255
225 238 255
225 238 255
225 238 255
225 238 255
225 238 255
225 238 255
225 238 255
225 238 255
225 238 255
225 238 255
225 238 255
225 238 255
225 238 255
225 238 255
225 238 255
225 238 255
225 238 255
225 238 255
225 238 255
225 238 255
225 238 255
225 238 255
225 238 255
225 238 255
225 238 255
225 238 255
225 238 255
225 238 255
225 238 255
225 238 255
225 237 255
225 237 255
225 237 255
225 237 255
225 237 255
225 237 255
225 237 255
225 237 255
224 237 255
224 237 255
224 237 255
224 237 255
224 237 255
224 237 255
224 237 255
224 237 255
224 237 255
224 237 255
224 237 255
224 237 255
224 237 255
224 237 255
224 237 255
224 237 255
224 237 255
224 237 255
224 237 255
224 237 255
224 237 255
224 237 255
224 237 255
224 237 255
224 237 255
224 237 255
224 237 255
224 237 255
224 237 255
224 237 255
224 237 255
224 237 255
224 237 255
224 237 255
224 237 255
224 237 255
224 237 255
224 237 255
224 237 255
224 237 255
224 237 255
224 237 255
224 237 255
223 237 255
223 237 255
223 237 255
223 237 255
223 237 255
223 237 255
223 237 255
223 237 255
223 237 255
223 237 255
223 237 255
223 237 255
223 237 255
223 237 255
223 237 255
224 237 255
224 237 255
224 237 255
224 237 255
224 237 255
224 237 255
224 237 255
224 237 255
224 237 255
224 237 255
224 237 255
224 237 255
224 237 255
224 237 255
224 237 255
224 237 255
224 237 255
224 237 255
224 237 255
224 237 255
224 237 255
224 237 255
224 237 255
224 237 255
224 237 255
224 237 255
224 237 255
224 237 255
224 237 255
224 237 255
224 237 255
224 237 255
224 237 255
224 237 255
224 237 255
224 237 255
224 237 255
224 237 255
224 237 255
224 237 255
224 237 255
224 237 255
224 237 255
225 237 255
225 237 255
225 237 255
225 237 255
225 237 255
225 237 255
225 237 255
225 238 255
225 238 255
225 238 255
225 238 255
225 238 255
225 238 255
225 238 255
225 238 255
225 238 255
225 238 255
225 238 255
225 238 255
225 238 255
225 238 255
225 238 255
225 238 255
225 238 255
225 238 255
225 238 255
225 238 255
225 238 255
225 238 255
225 238 255
225 238 255
225 238 255
226 238 255
226 238 255
226 238 255
226 238 255
226 238 255
226 238 255
226 238 255
226 238 255
226 238 255
226 238 255
226 238 255
226 238 255
226 238 255
226 238 255
226 238 255
226 238 255
226 238 255
226 238 255
226 238 255
226 238 255
226 238 255
226 238 255
226 238 255
226 238 255
226 238 255
226 238 255
226 238 255
226 238 255
226 238 255
226 238 255
226 238 255
226 238 255
226 238 255
226 238 255
226 238 255
226 238 255
226 238 255
226 238 255
226 238 255
226 238 255
226 238 255
226 238 255
226 238 255
226 238 255
226 238 255
226 238 255
226 238 255
226 238 255
226 238 255
226 238 255
225 238 255
225 238 255
225 238 255
225 238 255
225 238 255
225 238 255
225 238 255
225 238 255
225 238 255
225 238 255
225 238 255
225 238 255
225 238 255
225 238 255
225 238 255
225 238 255
225 238 255
225 238 255
225 238 255
225 238 255
225 238 255
225 238 255
225 238 255
225 238 255
225 238 255
225 238 255
225 237 255
225 237 255
225 237 255
225 237 255
225 237 255
225 237 255
224 237 255
224 237 255
224 237 255
224 237 255
224 237 255
224 237 255
224 237 255
224 237 255
224 237 255
224 237 255
224 237 255
224 237 255
224 237 255
224 237 255
224 237 255
224 237 255
224 237 255
224 237 255
224 237 255
224 237 255
224 237 255
224 237 255
224 237 255
224 237 255
224 237 255
224 237 255
224 237 255
224 237 255
224 237 255
224 237 255
224 237 255
224 237 255
224 237 255
224 237 255
224 237 255
224 237 255
224 237 255
224 237 255
224 237 255
224 237 255
224 237 255
224 237 255
224 237 255
224 237 255
224 237 255
224 237 255
224 237 255
224 237 255
224 237 255
224 237 255
224 237 255
224 237 255
224 237 255
224 237 255
224 237 255
224 237 255
224 237 255
224 237 255
224 237 255
224 237 255
224 237 255
224 237 255
224 237 255
224 237 255
224 237 255
224 237 255
224 237 255
224 237 255
224 237 255
224 237 255
224 237 255
224 237 255
224 237 255
224 237 255
225 237 255
225 237 255
225 237 255
225 237 255
225 237 255
225 237 255
225 237 255
225 238 255
225 238 255
225 238 255
225 238 255
225 238 255
225 238 255
225 238 255
225 238 255
225 238 255
225 238 255
225 238 255
225 238 255
225 238 255
225 238 255
225 238 255
225 238 255
225 238 255
225 238 255
225 238 255
225 238 255
225 238 255
225 238 255
225 238 255
226 238 255
226 238 255
226 238 255
226 238 255
226 238 255
226 238 255
226 238 255
226 238 255
226 238 255
226 238 255
226 238 255
226 238 255
226 238 255
226 238 255
226 238 255
226 238 255
226 238 255
226 238 255
226 238 255
226 238 255
226 238 255
226 238 255
226 238 255
226 238 255
226 238 255
226 238 255
226 238 255
226 238 255
226 238 255
226 238 255
226 238 255
226 238 255
226 238 255
226 238 255
226 238 255
226 238 255
226 238 255
226 238 255
226 238 255
226 238 255
226 238 255
226 238 255
226 238 255
226 238 255
226 238 255
226 238 255
226 238 255
226 238 255
226 238 255
226 238 255
226 238 255
226 238 255
226 238 255
226 238 255
226 238 255
226 238 255
226 238 255
226 238 255
226 238 255
226 238 255
226 238 255
226 238 255
226 238 255
226 238 255
226 238 255
226 238 255
226 238 255
226 238 255
226 238 255
226 238 255
226 238 255
226 238 255
226 238 255
226 238 255
226 238 255
226 238 255
226 238 255
226 238 255
225 238 255
225 238 255
225 238 255
225 238 255
225 238 255
225 238 255
225 238 255
225 238 255
225 238 255
225 238 255
225 238 255
225 238 255
225 238 255
225 238 255
225 238 255
225 238 255
225 238 255
225 238 255
225 238 255
225 238 255
225 238 255
225 238 255
225 238 255
225 237 255
225 237 255
225 237 255
225 237 255
225 237 255
225 237 255
225 237 255
224 237 255
224 237 255
224 237 255
224 237 255
224 237 255
224 237 255
224 237 255
224 237 255
224 237 255
224 237 255
224 237 255
224 237 255
224 237 255
224 237 255
224 237 255
224 237 255
224 237 255
224 237 255
224 237 255
224 237 255
224 237 255
224 237 255
224 237 255
224 237 255
224 237 255
224 237 255
224 237 255
224 237 255
224 237 255
224 237 255
224 237 255
224 237 255
224 237 255
224 237 255
224 237 255
224 237 255
224 237 255
224 237 255
224 237 255
224 237 255
224 237 255
224 237 255
224 237 255
224 237 255
224 237 255
224 237 255
224 237 255
224 237 255
224 237 255
224 237 255
225 237 255
225 237 255
225 237 255
225 237 255
225 237 255
225 237 255
225 237 255
225 237 255
225 238 255
225 238 255
225 238 255
225 238 255
225 238 255
225 238 255
225 238 255
225 238 255
225 238 255
225 238 255
225 238 255
225 238 255
225 238 255
225 238 255
225 238 255
225 238 255
225 238 255
225 238 255
225 238 255
225 238 255
225 238 255
225 238 255
226 238 255
226 238 255
226 238 255
226 238 255
226 238 255
226 238 255
226 238 255
226 238 255
226 238 255
226 238 255
226 238 255
226 238 255
226 238 255
226 238 255
226 238 255
226 238 255
226 238 255
226 238 255
226 238 255
226 238 255
226 238 255
226 238 255
226 238 255
226 238 255
226 238 255
226 239 255
227 239 255
227 239 255
227 239 255
227 239 255
227 239 255
227 239 255
227 239 255
227 239 255
227 239 255
227 239 255
227 239 255
227 239 255
227 239 255
227 239 255
227 239 255
227 239 255
227 239 255
227 239 255
227 239 255
227 239 255
227 239 255
227 239 255
227 239 255
227 239 255
227 239 255
227 239 255
227 239 255
227 239 255
227 239 255
227 239 255
227 239 255
227 239 255
227 239 255
227 239 255
227 239 255
227 239 255
227 239 255
227 239 255
227 239 255
227 239 255
227 239 255
227 239 255
227 239 255
227 239 255
227 239 255
227 239 255
227 239 255
227 239 255
227 239 255
226 239 255
226 238 255
226 238 255
226 238 255
226 238 255
226 238 255
226 238 255
226 238 255
226 238 255
226 238 255
226 238 255
226 238 255
226 238 255
226 238 255
226 238 255
226 238 255
226 238 255
226 238 255
226 238 255
226 238 255
226 238 255
226 238 255
226 238 255
226 238 255
226 238 255
226 238 255
226 238 255
225 238 255
225 238 255
225 238 255
225 238 255
225 238 255
225 238 255
225 238 255
225 238 255
225 238 255
225 238 255
225 238 255
225 238 255
225 238 255
225 238 255
225 238 255
225 238 255
225 238 255
225 238 255
225 238 255
225 238 255
225 238 255
225 238 255
225 238 255
225 237 255
225 237 255
225 237 255
225 237 255
225 237 255
225 237 255
225 237 255
225 237 255
224 237 255
224 237 255
224 237 255
224 237 255
224 237 255
224 237 255
224 237 255
224 237 255
224 237 255
224 237 255
224 237 255
224 237 255
224 237 255
224 237 255
224 237 255
224 237 255
224 237 255
224 237 255
224 237 255
224 237 255
224 237 255
224 237 255
224 237 255
224 237 255
224 237 255
224 237 255
225 237 255
225 237 255
225 237 255
225 237 255
225 237 255
225 237 255
225 237 255
225 238 255
225 238 255
225 238 255
225 238 255
225 238 255
225 238 255
225 238 255
225 238 255
225 238 255
225 238 255
225 238 255
225 238 255
225 238 255
225 238 255
225 238 255
225 238 255
225 238 255
225 238 255
225 238 255
225 238 255
225 238 255
225 238 255
225 238 255
225 238 255
226 238 255
226 238 255
226 238 255
226 238 255
226 238 255
226 238 255
226 238 255
226 238 255
226 238 255
226 238 255
226 238 255
226 238 255
226 238 255
226 238 255
226 238 255
226 238 255
226 238 255
226 238 255
226 238 255
226 238 255
226 238 255
226 238 255
226 238 255
226 239 255
227 239 255
227 239 255
227 239 255
227 239 255
227 239 255
227 239 255
227 239 255
227 239 255
227 239 255
227 239 255
227 239 255
227 239 255
227 239 255
227 239 255
227 239 255
227 239 255
227 239 255
227 239 255
227 239 255
227 239 255
227 239 255
227 239 255
227 239 255
227 239 255
227 239 255
227 239 255
227 239 255
227 239 255
228 239 255
228 239 255
228 239 255
228 239 255
228 239 255
228 239 255
228 239 255
228 239 255
228 239 255
228 239 255
228 239 255
228 239 255
228 239 255
228 239 255
228 239 255
228 239 255
228 239 255
228 239 255
227 239 255
227 239 255
227 239 255
227 239 255
227 239 255
227 239 255
227 239 255
227 239 255
227 239 255
227 239 255
227 239 255
227 239 255
227 239 255
227 239 255
227 239 255
227 239 255
227 239 255
227 239 255
227 239 255
227 239 255
227 239 255
227 239 255
227 239 255
227 239 255
227 239 255
227 239 255
227 239 255
227 239 255
227 239 255
226 238 255
226 238 255
226 238 255
226 238 255
226 238 255
226 238 255
226 238 255
226 238 255
226 238 255
226 238 255
226 238 255
226 238 255
226 238 255
226 238 255
226 238 255
226 238 255
226 238 255
226 238 255
226 238 255
226 238 255
226 238 255
226 238 255
226 238 255
225 238 255
225 238 255
225 238 255
225 238 255
225 238 255
225 238 255
225 238 255
225 238 255
225 238 255
225 238 255
225 238 255
225 238 255
225 238 255
225 238 255
225 238 255
225 238 255
225 238 255
225 238 255
225 238 255
225 238 255
225 238 255
225 238 255
225 238 255
225 237 255
225 237 255
225 237 255
225 237 255
225 237 255
225 237 255
225 237 255
225 237 255
224 237 255
224 237 255
224 237 255
224 237 255
224 237 255
224 237 255
224 237 255
224 237 255
225 237 255
225 237 255
225 237 255
225 237 255
225 237 255
225 238 255
225 238 255
225 238 255
225 238 255
225 238 255
225 238 255
225 238 255
225 238 255
225 238 255
225 238 255
225 238 255
225 238 255
225 238 255
225 238 255
225 238 255
225 238 255
225 238 255
225 238 255
225 238 255
225 238 255
225 238 255
225 238 255
225 238 255
225 238 255
225 238 255
226 238 255
226 238 255
226 238 255
226 238 255
226 238 255
226 238 255
226 238 255
226 238 255
226 238 255
226 238 255
226 238 255
226 238 255
226 238 255
226 238 255
226 238 255
226 238 255
226 238 255
226 238 255
226 238 255
226 238 255
226 238 255
226 238 255
226 238 255
226 239 255
227 239 255
227 239 255
227 239 255
227 239 255
227 239 255
227 239 255
227 239 255
227 239 255
227 239 255
227 239 255
227 239 255
227 239 255
227 239 255
227 239 255
227 239 255
227 239 255
227 239 255
227 239 255
227 239 255
228 239 255
228 239 255
228 239 255
228 239 255
228 239 255
228 239 255
228 239 255
228 239 255
228 239 255
228 239 255
228 239 255
228 239 255
228 239 255
228 239 255
228 239 255
227 238 252
225 237 248
220 233 234
221 234 238
216 230 224
215 229 221
216 230 223
214 229 218
213 227 215
208 224 201
214 228 218
208 224 201
206 222 196
209 225 206
214 228 218
213 228 217
213 227 214
215 229 223
215 229 223
219 232 231
222 235 240
219 232 233
224 236 246
227 239 254
228 239 255
228 239 255
228 239 255
228 239 255
228 239 255
228 239 255
228 239 255
228 239 255
228 239 255
228 239 255
228 239 255
228 239 255
228 239 255
228 239 255
227 239 255
227 239 255
227 239 255
227 239 255
227 239 255
227 239 255
227 239 255
227 239 255
227 239 255
227 239 255
227 239 255
227 239 255
227 239 255
227 239 255
227 239 255
227 239 255
227 239 255
227 239 255
227 239 255
227 239 255
227 239 255
226 239 255
226 238 255
226 238 255
226 238 255
226 238 255
226 238 255
226 238 255
226 238 255
226 238 255
226 238 255
226 238 255
226 238 255
226 238 255
226 238 255
226 238 255
226 238 255
226 238 255
226 238 255
226 238 255
226 238 255
226 238 255
226 238 255
226 238 255
225 238 255
225 238 255
225 238 255
225 238 255
225 238 255
225 238 255
225 238 255
225 238 255
225 238 255
225 238 255
225 238 255
225 238 255
225 238 255
225 238 255
225 238 255
225 238 255
225 238 255
225 238 255
225 238 255
225 238 255
225 238 255
225 238 255
225 238 255
225 238 255
225 238 255
225 237 255
225 237 255
225 237 255
225 237 255
225 237 255
225 238 255
225 238 255
225 238 255
225 238 255
225 238 255
225 238 255
225 238 255
225 238 255
225 238 255
225 238 255
225 238 255
225 238 255
225 238 255
225 238 255
225 238 255
225 238 255
225 238 255
225 238 255
225 238 255
225 238 255
225 238 255
226 238 255
226 238 255
226 238 255
226 238 255
226 238 255
226 238 255
226 238 255
226 238 255
226 238 255
226 238 255
226 238 255
226 238 255
226 238 255
226 238 255
226 238 255
226 238 255
226 238 255
226 238 255
226 238 255
226 238 255
226 238 255
226 238 255
226 239 255
227 239 255
227 239 255
227 239 255
227 239 255
227 239 255
227 239 255
227 239 255
227 239 255
227 239 255
227 239 255
227 239 255
227 239 255
227 239 255
227 239 255
227 239 255
227 239 255
227 239 255
227 239 255
227 239 255
227 239 255
228 239 255
228 239 255
228 239 255
228 239 255
228 239 255
228 239 255
228 239 255
228 239 255
228 239 255
228 239 255
228 239 255
228 239 254
223 236 244
218 232 230
207 223 198
207 223 198
206 222 193
193 212 153
194 213 157
192 212 151
183 205 114
178 202 92
176 200 76
172 197 36
168 195 0
170 196 0
169 195 0
170 196 0
168 195 0
170 196 0
170 195 0
169 195 0
168 195 0
169 195 0
169 195 0
168 194 0
169 195 0
169 195 0
170 195 0
170 195 0
168 194 0
169 195 0
169 195 0
169 195 0
168 194 0
170 195 0
169 195 0
169 195 0
172 197 44
179 202 95
179 202 92
188 209 133
186 207 127
190 210 142
196 214 161
200 217 175
207 223 199
208 224 201
219 233 231
224 236 245
228 239 254
228 239 255
228 239 255
228 239 255
228 239 255
228 239 255
228 239 255
228 239 255
228 239 255
228 239 255
228 239 255
228 239 255
227 239 255
227 239 255
227 239 255
227 239 255
227 239 255
227 239 255
227 239 255
227 239 255
227 239 255
227 239 255
227 239 255
227 239 255
227 239 255
227 239 255
227 239 255
227 239 255
227 239 255
227 239 255
227 239 255
227 239 255
226 238 255
226 238 255
226 238 255
226 238 255
226 238 255
226 238 255
226 238 255
226 238 255
226 238 255
226 238 255
226 238 255
226 238 255
226 238 255
226 238 255
226 238 255
226 238 255
226 238 255
226 238 255
226 238 255
226 238 255
226 238 255
226 238 255
226 238 255
226 238 255
225 238 255
225 238 255
225 238 255
225 238 255
225 238 255
225 238 255
225 238 255
225 238 255
225 238 255
225 238 255
225 238 255
225 238 255
225 238 255
225 238 255
225 238 255
225 238 255
225 238 255
225 238 255
225 238 255
225 238 255
225 238 255
225 238 255
225 238 255
225 238 255
225 238 255
225 238 255
225 238 255
225 238 255
225 238 255
225 238 255
225 238 255
225 238 255
226 238 255
226 238 255
226 238 255
226 238 255
226 238 255
226 238 255
226 238 255
226 238 255
226 238 255
226 238 255
226 238 255
226 238 255
226 238 255
226 238 255
226 238 255
226 238 255
226 238 255
226 238 255
226 238 255
226 238 255
226 238 255
226 238 255
226 238 255
226 238 255
227 239 255
227 239 255
227 239 255
227 239 255
227 239 255
227 239 255
227 239 255
227 239 255
227 239 255
227 239 255
227 239 255
227 239 255
227 239 255
227 239 255
227 239 255
227 239 255
227 239 255
227 239 255
227 239 255
228 239 255
228 239 255
228 239 255
228 239 255
228 239 255
228 239 255
228 239 255
228 239 255
228 239 255
228 239 255
228 239 255
228 239 255
225 237 248
215 229 221
213 228 217
205 222 193
197 216 169
184 206 122
184 206 117
175 199 76
171 196 25
169 195 0
169 195 0
170 195 0
169 195 0
170 195 0
169 195 0
169 195 0
170 195 0
171 196 0
168 195 0
170 195 0
170 195 0
171 196 0
169 195 0
169 195 0
170 195 0
170 196 0
170 195 0
169 195 0
170 195 0
169 195 0
169 195 0
169 195 0
170 195 0
170 195 0
168 195 0
170 196 0
169 195 0
170 196 0
169 195 0
170 195 0
169 195 0
169 195 0
170 195 0
170 195 0
169 195 0
170 195 0
170 195 0
169 195 0
169 195 0
170 195 0
171 196 0
171 196 0
169 195 0
169 195 0
169 195 0
170 195 0
170 196 0
169 195 0
178 201 80
183 205 111
196 215 163
201 218 179
201 218 181
212 227 212
217 231 227
224 237 246
228 239 255
228 239 255
228 239 255
228 239 255
228 239 255
228 239 255
228 239 255
228 239 255
228 239 255
228 239 255
228 239 255
227 239 255
227 239 255
227 239 255
227 239 255
227 239 255
227 239 255
227 239 255
227 239 255
227 239 255
227 239 255
227 239 255
227 239 255
227 239 255
227 239 255
227 239 255
227 239 255
227 239 255
227 239 255
227 239 255
227 239 255
226 238 255
226 238 255
226 238 255
226 238 255
226 238 255
226 238 255
226 238 255
226 238 255
226 238 255
226 238 255
226 238 255
226 238 255
226 238 255
226 238 255
226 238 255
226 238 255
226 238 255
226 238 255
226 238 255
226 238 255
226 238 255
226 238 255
226 238 255
226 238 255
225 238 255
225 238 255
225 238 255
225 238 255
225 238 255
225 238 255
225 238 255
225 238 255
225 238 255
225 238 255
225 238 255
225 238 255
225 238 255
225 238 255
225 238 255
225 238 255
226 238 255
226 238 255
226 238 255
226 238 255
226 238 255
226 238 255
226 238 255
226 238 255
226 238 255
226 238 255
226 238 255
226 238 255
226 238 255
226 238 255
226 238 255
226 238 255
226 238 255
226 238 255
226 238 255
226 238 255
226 238 255
226 238 255
226 238 255
226 238 255
226 239 255
227 239 255
227 239 255
227 239 255
227 239 255
227 239 255
227 239 255
227 239 255
227 239 255
227 239 255
227 239 255
227 239 255
227 239 255
227 239 255
227 239 255
227 239 255
227 239 255
227 239 255
227 239 255
227 239 255
228 239 255
228 239 255
228 239 255
228 239 255
228 239 255
228 239 255
228 239 255
228 239 255
228 239 255
228 239 255
228 239 255
228 239 255
227 239 253
217 231 227
206 222 196
200 218 179
191 211 149
185 206 122
174 198 62
170 196 0
170 196 0
168 195 0
170 195 0
170 195 0
169 195 0
169 195 0
170 195 0
169 195 0
170 195 0
170 195 0
168 195 0
170 195 0
170 196 0
170 196 0
170 195 0
170 196 0
169 195 0
169 195 0
169 195 0
169 195 0
170 195 0
169 195 0
169 195 0
170 196 0
170 195 0
169 195 0
169 195 0
169 195 0
168 195 0
169 195 0
170 196 0
170 196 0
169 195 0
169 195 0
169 195 0
170 195 0
170 195 0
169 195 0
169 195 0
168 194 0
169 195 0
168 195 0
169 195 0
169 195 0
170 195 0
169 195 0
170 195 0
169 195 0
170 196 0
169 195 0
171 196 0
169 195 0
170 195 0
169 195 0
170 195 0
170 195 0
169 195 0
170 195 0
170 195 0
169 195 0
170 195 0
169 195 0
169 195 0
169 195 0
170 196 0
171 197 44
182 204 114
190 210 142
201 219 182
207 223 199
217 231 226
224 236 244
228 239 254
228 239 255
228 239 255
228 239 255
228 239 255
228 239 255
228 239 255
228 239 255
228 239 255
228 239 255
228 239 255
228 239 255
227 239 255
227 239 255
227 239 255
227 239 255
227 239 255
227 239 255
227 239 255
227 239 255
227 239 255
227 239 255
227 239 255
227 239 255
227 239 255
227 239 255
227 239 255
227 239 255
227 239 255
227 239 255
227 239 255
226 239 255
226 238 255
226 238 255
226 238 255
226 238 255
226 238 255
226 238 255
226 238 255
226 238 255
226 238 255
226 238 255
226 238 255
226 238 255
226 238 255
226 238 255
226 238 255
226 238 255
226 238 255
226 238 255
226 238 255
226 238 255
226 238 255
226 238 255
226 238 255
226 238 255
225 238 255
225 238 255
225 238 255
225 238 255
226 238 255
226 238 255
226 238 255
226 238 255
226 238 255
226 238 255
226 238 255
226 238 255
226 238 255
226 238 255
226 238 255
226 238 255
226 238 255
226 238 255
226 238 255
226 238 255
226 238 255
226 238 255
226 238 255
226 238 255
226 238 255
226 239 255
227 239 255
227 239 255
227 239 255
227 239 255
227 239 255
227 239 255
227 239 255
227 239 255
227 239 255
227 239 255
227 239 255
227 239 255
227 239 255
227 239 255
227 239 255
227 239 255
227 239 255
227 239 255
227 239 255
228 239 255
228 239 255
228 239 255
228 239 255
228 239 255
228 239 255
228 239 255
228 239 255
228 239 255
228 239 255
228 239 255
228 239 255
228 239 254
224 236 245
213 228 215
203 220 188
195 213 155
179 202 95
172 197 44
168 195 0
170 196 0
170 195 0
168 195 0
171 196 0
170 195 0
168 195 0
169 195 0
169 195 0
170 196 0
171 196 0
169 195 0
169 195 0
169 195 0
169 195 0
170 195 0
170 196 0
171 196 0
170 195 0
169 195 0
169 195 0
170 195 0
169 195 0
169 195 0
170 195 0
170 195 0
169 195 0
169 195 0
170 195 0
168 195 0
169 195 0
169 195 0
170 195 0
170 195 0
170 195 0
169 195 0
169 195 0
169 195 0
170 195 0
170 195 0
169 195 0
169 195 0
170 196 0
170 195 0
170 195 0
170 195 0
169 195 0
170 195 0
170 196 0
168 194 0
169 195 0
169 195 0
168 195 0
169 195 0
169 195 0
168 195 0
169 195 0
169 195 0
169 195 0
169 195 0
169 195 0
170 195 0
169 195 0
168 195 0
169 195 0
169 195 0
169 195 0
169 195 0
170 195 0
170 196 0
170 195 0
169 195 0
171 196 0
169 195 0
170 196 0
169 195 0
169 195 0
169 195 0
169 195 0
169 195 0
174 198 62
185 206 125
193 213 155
203 220 189
211 226 209
221 233 234
228 239 254
228 239 255
228 239 255
228 239 255
228 239 255
228 239 255
228 239 255
228 239 255
228 239 255
228 239 255
228 239 255
228 239 255
228 239 255
227 239 255
227 239 255
227 239 255
227 239 255
227 239 255
227 239 255
227 239 255
227 239 255
227 239 255
227 239 255
227 239 255
227 239 255
227 239 255
227 239 255
227 239 255
227 239 255
227 239 255
227 239 255
227 239 255
226 239 255
226 238 255
226 238 255
226 238 255
226 238 255
226 238 255
226 238 255
226 238 255
226 238 255
226 238 255
226 238 255
226 238 255
226 238 255
226 238 255
226 238 255
226 238 255
226 238 255
226 238 255
226 238 255
226 238 255
226 238 255
226 238 255
226 238 255
226 238 255
226 238 255
226 238 255
226 238 255
226 238 255
226 238 255
226 238 255
226 238 255
226 238 255
226 238 255
226 238 255
226 238 255
226 238 255
226 239 255
227 239 255
227 239 255
227 239 255
227 239 255
227 239 255
227 239 255
227 239 255
227 239 255
227 239 255
227 239 255
227 239 255
227 239 255
227 239 255
227 239 255
227 239 255
227 239 255
227 239 255
227 239 255
227 239 255
227 239 255
228 239 255
228 239 255
228 239 255
228 239 255
228 239 255
228 239 255
228 239 255
228 239 255
228 239 255
228 239 255
228 239 255
228 240 255
228 240 255
226 237 249
216 230 224
202 219 182
194 214 159
186 207 127
175 199 67
170 196 0
170 195 0
169 195 0
170 196 0
170 195 0
170 195 0
171 196 0
170 196 0
170 196 0
169 195 0
170 195 0
170 196 0
170 196 0
169 195 0
169 195 0
170 196 0
169 195 0
170 195 0
169 195 0
170 195 0
169 195 0
170 195 0
169 195 0
169 195 0
170 195 0
169 195 0
169 195 0
170 195 0
169 195 0
169 195 0
169 195 0
169 195 0
170 195 0
170 196 0
170 195 0
169 195 0
170 195 0
169 195 0
170 195 0
169 195 0
170 195 0
170 195 0
170 195 0
168 195 0
170 195 0
169 195 0
170 196 0
171 196 0
170 195 0
169 195 0
170 195 0
170 195 0
169 195 0
170 195 0
169 195 0
169 195 0
169 195 0
170 195 0
169 195 0
170 196 0
168 195 0
170 196 0
169 195 0
170 196 0
169 195 0
170 195 0
170 195 0
169 195 0
170 195 0
170 196 0
169 195 0
170 196 0
169 195 0
169 195 0
170 195 0
171 196 0
169 195 0
170 196 0
169 195 0
169 195 0
170 196 0
169 195 0
170 196 0
169 195 0
169 195 0
169 195 0
170 196 0
168 195 0
169 195 0
170 195 0
169 195 0
169 195 0
174 199 67
187 208 130
192 212 149
210 225 207
215 229 221
223 235 241
228 240 255
228 240 255
228 239 255
228 239 255
228 239 255
228 239 255
228 239 255
228 239 255
228 239 255
228 239 255
228 239 255
228 239 255
228 239 255
228 239 255
227 239 255
227 239 255
227 239 255
227 239 255
227 239 255
227 239 255
227 239 255
227 239 255
227 239 255
227 239 255
227 239 255
227 239 255
227 239 255
227 239 255
227 239 255
227 239 255
227 239 255
227 239 255
227 239 255
226 239 255
226 238 255
226 238 255
226 238 255
226 238 255
226 238 255
226 238 255
226 238 255
226 238 255
226 238 255
226 238 255
226 238 255
226 238 255
226 238 255
226 238 255
226 238 255
226 238 255
226 238 255
226 238 255
226 238 255
226 238 255
226 238 255
226 239 255
227 239 255
227 239 255
227 239 255
227 239 255
227 239 255
227 239 255
227 239 255
227 239 255
227 239 255
227 239 255
227 239 255
227 239 255
227 239 255
227 239 255
227 239 255
227 239 255
227 239 255
227 239 255
227 239 255
227 239 255
228 239 255
228 239 255
228 239 255
228 239 255
228 239 255
228 239 255
228 239 255
228 239 255
228 239 255
228 239 255
228 239 255
228 239 255
228 240 255
228 240 255
228 239 254
220 233 233
204 221 189
198 217 175
192 212 151
176 200 76
169 195 0
170 195 0
169 195 0
170 195 0
170 196 0
170 195 0
170 195 0
171 196 0
169 195 0
169 195 0
170 195 0
169 195 0
170 195 0
169 195 0
168 195 0
169 195 0
170 195 0
169 195 0
170 195 0
169 195 0
171 196 0
170 195 0
169 195 0
169 195 0
169 195 0
170 196 0
168 195 0
169 195 0
170 195 0
170 196 0
170 195 0
169 195 0
169 195 0
169 195 0
170 196 0
169 195 0
169 195 0
169 195 0
170 196 0
170 195 0
170 196 0
172 196 0
169 195 0
169 195 0
169 195 0
169 195 0
169 195 0
170 195 0
169 195 0
170 195 0
170 195 0
168 194 0
169 195 0
169 195 0
169 195 0
169 195 0
170 196 0
170 195 0
169 195 0
169 195 0
170 196 0
169 195 0
169 195 0
170 195 0
169 195 0
169 195 0
169 195 0
170 196 0
169 195 0
169 195 0
168 194 0
169 195 0
169 195 0
170 196 0
169 195 0
170 195 0
170 195 0
169 195 0
169 195 0
170 195 0
170 195 0
169 195 0
170 195 0
170 195 0
168 194 0
169 195 0
170 195 0
169 195 0
168 195 0
170 195 0
170 195 0
170 196 0
170 195 0
169 195 0
169 195 0
169 195 0
170 196 0
169 195 0
169 195 0
170 195 0
169 195 0
169 195 0
170 195 0
169 195 0
178 201 80
188 208 133
197 216 169
208 224 201
220 233 234
228 239 254
228 240 255
228 240 255
228 239 255
228 239 255
228 239 255
228 239 255
228 239 255
228 239 255
228 239 255
228 239 255
228 239 255
228 239 255
228 239 255
228 239 255
227 239 255
227 239 255
227 239 255
227 239 255
227 239 255
227 239 255
227 239 255
227 239 255
227 239 255
227 239 255
227 239 255
227 239 255
227 239 255
227 239 255
227 239 255
227 239 255
227 239 255
227 239 255
227 239 255
227 239 255
226 238 255
226 238 255
226 238 255
226 238 255
226 238 255
226 238 255
226 238 255
226 238 255
226 238 255
226 239 255
227 239 255
227 239 255
227 239 255
227 239 255
227 239 255
227 239 255
227 239 255
227 239 255
227 239 255
227 239 255
227 239 255
227 239 255
227 239 255
227 239 255
227 239 255
227 239 255
227 239 255
227 239 255
227 239 255
227 239 255
227 239 255
228 239 255
228 239 255
228 239 255
228 239 255
228 239 255
228 239 255
228 239 255
228 239 255
228 239 255
228 239 255
228 239 255
228 239 255
228 240 255
228 240 255
228 239 254
220 233 236
212 227 212
197 215 167
183 205 114
175 199 72
169 195 0
170 195 0
170 196 0
170 196 0
171 196 0
169 195 0
169 195 0
170 195 0
170 196 0
171 196 0
170 195 0
168 195 0
169 195 0
170 195 0
169 195 0
169 195 0
169 195 0
169 195 0
170 196 0
169 195 0
170 195 0
169 195 0
170 195 0
169 195 0
171 196 0
169 195 0
171 196 0
170 195 0
170 195 0
169 195 0
169 195 0
170 195 0
170 196 0
170 195 0
170 196 0
169 195 0
170 195 0
169 195 0
169 195 0
169 195 0
169 195 0
169 195 0
170 195 0
169 195 0
169 195 0
171 196 0
170 195 0
169 195 0
169 195 0
169 195 0
170 195 0
169 195 0
169 195 0
171 196 0
169 195 0
168 194 0
169 195 0
169 195 0
170 196 0
169 195 0
169 195 0
169 195 0
169 195 0
169 195 0
168 195 0
169 195 0
170 195 0
169 195 0
169 195 0
170 196 0
169 195 0
169 195 0
169 195 0
169 195 0
168 195 0
170 195 0
170 195 0
170 196 0
169 195 0
169 195 0
170 196 0
170 196 0
170 195 0
169 195 0
169 195 0
169 195 0
170 195 0
168 195 0
169 195 0
170 196 0
170 195 0
169 195 0
168 195 0
169 195 0
169 195 0
168 195 0
169 195 0
170 196 0
170 195 0
168 195 0
170 195 0
169 195 0
169 195 0
170 196 0
169 195 0
170 196 0
170 196 0
171 196 0
170 196 0
170 195 0
170 196 0
171 196 0
169 195 0
169 195 0
174 198 57
184 206 111
197 215 165
210 225 206
220 233 233
228 240 255
228 240 255
228 240 255
228 239 255
228 239 255
228 239 255
228 239 255
228 239 255
228 239 255
228 239 255
228 239 255
228 239 255
228 239 255
228 239 255
228 239 255
227 239 255
227 239 255
227 239 255
227 239 255
227 239 255
227 239 255
227 239 255
227 239 255
227 239 255
227 239 255
227 239 255
227 239 255
227 239 255
227 239 255
227 239 255
227 239 255
227 239 255
227 239 255
227 239 255
227 239 255
227 239 255
226 239 255
226 238 255
227 239 255
227 239 255
227 239 255
227 239 255
227 239 255
227 239 255
227 239 255
227 239 255
227 239 255
227 239 255
227 239 255
227 239 255
227 239 255
227 239 255
227 239 255
227 239 255
227 239 255
228 239 255
228 239 255
228 239 255
228 239 255
228 239 255
228 239 255
228 239 255
228 239 255
228 239 255
228 239 255
228 239 255
228 239 255
228 240 255
228 240 255
228 240 255
228 240 255
220 233 233
206 222 194
197 215 165
189 210 137
171 196 25
171 196 0
170 195 0
168 195 0
169 195 0
171 196 0
170 196 0
169 195 0
170 196 0
170 195 0
170 195 0
169 195 0
171 196 0
170 195 0
170 195 0
169 195 0
168 195 0
169 195 0
169 195 0
171 196 0
170 196 0
169 195 0
169 195 0
170 195 0
170 196 0
168 194 0
169 195 0
171 196 0
171 196 0
170 195 0
170 195 0
169 195 0
169 195 0
169 195 0
168 195 0
169 195 0
169 195 0
169 195 0
168 195 0
170 196 0
170 195 0
168 195 0
167 194 0
169 195 0
170 195 0
169 195 0
169 195 0
169 195 0
169 195 0
170 195 0
169 195 0
168 195 0
171 196 0
170 195 0
169 195 0
169 195 0
170 195 0
170 195 0
169 195 0
170 195 0
169 195 0
169 195 0
170 196 0
169 195 0
169 195 0
169 195 0
168 194 0
170 196 0
169 195 0
169 195 0
170 195 0
169 195 0
170 195 0
169 195 0
169 195 0
170 195 0
170 195 0
169 195 0
170 195 0
169 195 0
170 195 0
169 195 0
169 195 0
169 195 0
169 195 0
170 196 0
169 195 0
170 195 0
171 196 0
169 195 0
169 195 0
168 195 0
169 195 0
169 195 0
169 195 0
169 195 0
169 195 0
170 195 0
169 195 0
169 195 0
170 195 0
169 195 0
169 195 0
168 195 0
169 195 0
169 195 0
169 195 0
169 195 0
170 196 0
169 195 0
169 195 0
169 195 0
171 196 0
169 195 0
169 195 0
170 195 0
169 195 0
170 196 0
169 195 0
169 195 0
170 195 0
170 196 0
169 195 0
170 196 0
170 196 0
177 201 84
182 205 111
201 219 182
209 225 204
217 231 227
228 240 255
228 240 255
228 240 255
228 240 255
228 239 255
228 239 255
228 239 255
228 239 255
228 239 255
228 239 255
228 239 255
228 239 255
228 239 255
228 239 255
228 239 255
228 239 255
227 239 255
227 239 255
227 239 255
227 239 255
227 239 255
227 239 255
227 239 255
227 239 255
227 239 255
227 239 255
227 239 255
227 239 255
227 239 255
227 239 255
227 239 255
227 239 255
227 239 255
227 239 255
227 239 255
227 239 255
227 239 255
227 239 255
227 239 255
227 239 255
227 239 255
227 239 255
227 239 255
227 239 255
228 239 255
228 239 255
228 239 255
228 239 255
228 239 255
228 239 255
228 239 255
228 239 255
228 239 255
228 239 255
228 239 255
228 239 255
228 240 255
228 240 255
228 240 255
228 240 255
228 240 255
222 235 240
217 231 226
200 218 177
188 209 135
176 200 80
171 196 0
169 195 0
169 195 0
170 195 0
169 195 0
169 195 0
169 195 0
171 196 0
170 195 0
171 196 0
169 195 0
170 195 0
169 195 0
169 195 0
170 196 0
169 195 0
171 196 0
169 195 0
170 196 0
168 195 0
169 195 0
170 196 0
169 195 0
170 195 0
169 195 0
170 195 0
170 196 0
169 195 0
170 196 0
169 195 0
169 195 0
171 196 0
170 195 0
170 195 0
170 195 0
169 195 0
169 195 0
169 195 0
170 195 0
169 195 0
171 196 0
169 195 0
170 195 0
169 195 0
169 195 0
170 195 0
169 195 0
172 196 0
169 195 0
170 195 0
169 195 0
169 195 0
170 195 0
170 195 0
169 195 0
169 195 0
169 195 0
169 195 0
169 195 0
169 195 0
170 195 0
170 195 0
169 195 0
170 195 0
169 195 0
168 195 0
169 195 0
168 195 0
169 195 0
169 195 0
170 195 0
169 195 0
170 195 0
170 195 0
169 195 0
169 195 0
168 194 0
168 194 0
168 195 0
169 195 0
169 195 0
171 196 0
169 195 0
168 195 0
169 195 0
169 195 0
170 195 0
170 195 0
170 196 0
170 195 0
169 195 0
170 195 0
170 195 0
170 195 0
169 195 0
168 195 0
169 195 0
170 195 0
169 195 0
170 195 0
170 196 0
169 195 0
168 195 0
169 195 0
170 195 0
168 195 0
170 196 0
170 196 0
170 195 0
168 195 0
170 196 0
170 196 0
170 195 0
170 196 0
170 195 0
169 195 0
170 195 0
169 195 0
169 195 0
170 195 0
169 195 0
169 195 0
169 195 0
169 195 0
170 196 0
169 195 0
170 195 0
169 195 0
169 195 0
169 195 0
170 196 0
170 196 0
169 195 0
169 195 0
172 197 51
186 207 127
202 219 182
212 227 214
225 237 245
228 240 255
228 240 255
228 240 255
228 240 255
228 239 255
228 239 255
228 239 255
228 239 255
228 239 255
228 239 255
228 239 255
228 239 255
228 239 255
228 239 255
228 239 255
228 239 255
228 239 255
227 239 255
227 239 255
227 239 255
227 239 255
227 239 255
227 239 255
227 239 255
227 239 255
227 239 255
227 239 255
227 239 255
227 239 255
227 239 255
227 239 255
227 239 255
227 239 255
228 239 255
228 239 255
228 239 255
228 239 255
228 239 255
228 239 255
228 239 255
228 239 255
228 239 255
228 239 255
228 239 255
228 239 255
228 239 255
228 240 255
228 240 255
228 240 255
228 240 255
228 240 255
228 239 254
216 230 221
210 225 206
196 214 159
178 201 92
169 195 0
169 195 0
170 195 0
170 196 0
170 195 0
169 195 0
169 195 0
170 195 0
170 196 0
169 195 0
168 194 0
170 195 0
170 195 0
170 195 0
169 195 0
171 196 0
169 195 0
170 195 0
169 195 0
171 196 0
170 196 0
168 195 0
169 195 0
169 195 0
170 195 0
170 195 0
170 195 0
170 195 0
169 195 0
169 195 0
168 194 0
168 195 0
168 195 0
169 195 0
169 195 0
170 195 0
170 195 0
168 195 0
169 195 0
168 195 0
170 195 0
169 195 0
169 195 0
169 195 0
171 196 0
168 195 0
169 195 0
169 195 0
169 195 0
170 196 0
170 195 0
170 196 0
170 195 0
171 196 0
170 195 0
169 195 0
168 195 0
169 195 0
168 194 0
169 195 0
169 195 0
170 195 0
171 196 0
169 195 0
170 195 0
170 196 0
169 195 0
169 195 0
170 196 0
169 195 0
169 195 0
170 196 0
168 195 0
169 195 0
170 195 0
168 195 0
170 195 0
169 195 0
170 195 0
169 195 0
171 196 0
170 195 0
168 195 0
170 195 0
170 195 0
169 195 0
169 195 0
169 195 0
168 195 0
171 196 0
169 195 0
170 195 0
169 195 0
169 195 0
169 195 0
170 195 0
169 195 0
169 195 0
170 195 0
170 195 0
169 195 0
171 196 0
170 195 0
169 195 0
169 195 0
169 195 0
169 195 0
169 195 0
170 195 0
169 195 0
170 196 0
169 195 0
170 196 0
169 195 0
170 196 0
169 195 0
170 195 0
170 195 0
169 195 0
171 196 0
169 195 0
170 196 0
170 195 0
170 195 0
170 196 0
170 196 0
169 195 0
170 195 0
170 195 0
170 195 0
170 195 0
169 195 0
169 195 0
169 195 0
170 195 0
170 196 0
169 195 0
170 196 0
170 195 0
170 195 0
169 195 0
170 196 0
170 195 0
171 196 0
183 205 117
193 212 155
202 219 182
214 228 217
227 238 252
228 240 255
228 240 255
228 240 255
228 240 255
228 240 255
228 239 255
228 239 255
228 239 255
228 239 255
228 239 255
228 239 255
228 239 255
228 239 255
228 239 255
228 239 255
228 239 255
228 239 255
228 239 255
227 239 255
227 239 255
227 239 255
227 239 255
227 239 255
228 239 255
228 239 255
228 239 255
228 239 255
228 239 255
228 239 255
228 239 255
228 239 255
228 239 255
228 239 255
228 239 255
228 239 255
228 239 255
228 240 255
228 240 255
228 240 255
228 240 255
228 240 255
229 240 255
222 235 240
209 225 206
200 218 177
185 206 122
170 195 25
170 196 0
169 195 0
170 196 0
169 195 0
170 196 0
169 195 0
169 195 0
169 195 0
168 195 0
170 196 0
168 195 0
169 195 0
171 196 0
170 196 0
169 195 0
169 195 0
169 195 0
170 195 0
169 195 0
168 194 0
169 195 0
169 195 0
169 195 0
169 195 0
170 196 0
169 195 0
170 195 0
170 195 0
169 195 0
170 195 0
169 195 0
170 196 0
169 195 0
171 196 0
169 195 0
169 195 0
168 194 0
170 196 0
169 195 0
169 195 0
169 195 0
170 196 0
169 195 0
169 195 0
171 196 0
170 195 0
169 195 0
170 195 0
170 195 0
169 195 0
169 195 0
169 195 0
169 195 0
168 195 0
169 195 0
169 195 0
170 195 0
170 196 0
169 195 0
170 195 0
171 196 0
169 195 0
169 195 0
169 195 0
170 195 0
169 195 0
170 196 0
170 196 0
170 195 0
170 196 0
169 195 0
169 195 0
170 195 0
169 195 0
169 195 0
169 195 0
169 194 0
169 195 0
169 195 0
169 195 0
169 195 0
169 195 0
170 195 0
171 189 42
175 189 60
178 187 70
170 191 36
170 195 0
170 195 0
169 195 0
169 195 0
170 196 0
170 195 0
170 195 0
170 195 0
170 195 0
169 195 0
170 195 0
168 195 0
169 195 0
169 195 0
169 195 0
169 195 0
170 195 0
169 195 0
170 195 0
169 195 0
169 195 0
170 195 0
169 195 0
169 195 0
170 196 0
170 195 0
168 194 0
170 195 0
169 195 0
169 195 0
169 195 0
168 195 0
169 195 0
168 195 0
171 196 0
170 195 0
168 195 0
168 194 0
169 195 0
170 195 0
171 196 0
170 195 0
170 195 0
168 194 0
169 195 0
170 196 0
170 195 0
168 194 0
170 195 0
169 195 0
169 195 0
169 195 0
170 196 0
170 196 0
170 196 0
169 195 0
170 195 0
169 195 0
171 196 0
169 195 0
171 196 0
171 196 0
169 195 0
170 195 0
171 196 0
170 196 25
181 204 105
193 213 153
207 223 199
222 235 238
229 240 255
228 240 255
228 240 255
228 240 255
228 240 255
228 240 255
228 239 255
228 239 255
228 239 255
228 239 255
228 239 255
228 239 255
228 239 255
228 239 255
228 239 255
228 239 255
228 239 255
228 239 255
228 239 255
228 239 255
228 239 255
228 239 255
228 239 255
228 239 255
228 239 255
228 239 255
228 239 255
228 240 255
228 240 255
228 240 255
228 240 255
228 240 255
229 240 255
229 240 255
223 235 241
202 219 184
189 209 135
179 202 99
170 195 0
170 195 0
170 196 0
169 195 0
169 195 0
169 195 0
170 195 0
170 196 0
170 195 0
170 195 0
170 196 0
171 196 0
169 195 0
170 195 0
169 195 0
170 195 0
169 195 0
170 195 0
169 195 0
169 195 0
170 196 0
170 195 0
168 194 0
169 195 0
169 195 0
169 195 0
170 195 0
169 195 0
168 195 0
170 195 0
169 195 0
169 195 0
170 195 0
169 195 0
169 195 0
169 195 0
169 195 0
169 195 0
170 195 0
170 195 0
169 195 0
170 196 0
168 195 0
169 195 0
169 195 0
169 195 0
168 195 0
170 195 0
169 195 0
169 195 0
169 195 0
169 195 0
170 195 0
170 195 0
169 195 0
169 195 0
170 196 0
170 195 0
170 195 0
168 195 0
169 195 0
170 195 0
169 195 0
170 195 0
169 195 0
169 195 0
170 195 0
169 195 0
170 196 0
170 196 0
169 195 0
168 194 0
169 195 0
170 195 0
170 196 0
170 196 0
168 194 0
169 195 0
168 194 0
169 195 0
169 195 0
169 195 0
171 196 0
169 195 0
169 195 0
169 195 0
174 185 61
183 177 102
183 175 114
178 173 114
177 172 114
182 175 114
185 178 104
173 190 49
169 195 0
170 196 0
170 195 0
170 196 0
169 195 0
169 195 0
168 195 0
171 196 0
169 195 0
169 195 0
169 195 0
169 195 0
170 195 0
168 195 0
169 195 0
169 195 0
169 195 0
169 195 0
169 195 0
170 195 0
170 196 0
169 195 0
170 196 0
169 195 0
168 195 0
170 195 0
169 195 0
169 195 0
169 195 0
169 195 0
170 195 0
171 196 0
169 195 0
170 196 0
169 195 0
170 195 0
170 195 0
168 195 0
169 195 0
169 195 0
169 195 0
169 195 0
169 195 0
169 195 0
169 195 0
170 196 0
170 196 0
170 195 0
168 195 0
170 195 0
169 195 0
170 196 0
169 195 0
170 196 0
169 195 0
169 195 0
169 195 0
169 195 0
169 195 0
170 196 0
169 195 0
170 195 0
169 195 0
169 195 0
170 195 0
168 194 0
169 195 0
170 195 0
177 201 84
191 211 144
205 221 191
221 233 234
228 239 253
229 240 255
228 240 255
228 240 255
228 240 255
228 240 255
228 240 255
228 239 255
228 239 255
228 239 255
228 239 255
228 239 255
228 239 255
228 239 255
228 239 255
228 239 255
228 239 255
228 239 255
228 240 255
228 240 255
228 240 255
228 240 255
228 240 255
229 240 255
229 240 255
227 238 250
218 232 228
194 214 159
189 209 135
173 198 57
170 195 0
170 196 0
170 196 0
169 195 0
169 195 0
170 196 0
169 195 0
169 195 0
169 195 0
173 197 0
170 196 0
170 195 0
169 195 0
170 195 0
169 195 0
168 195 0
171 196 0
170 195 0
169 195 0
169 195 0
170 196 0
169 195 0
169 195 0
170 196 0
169 195 0
169 195 0
170 195 0
169 195 0
169 195 0
170 195 0
169 195 0
170 196 0
169 195 0
170 196 0
170 196 0
169 195 0
169 195 0
169 195 0
170 195 0
168 195 0
169 195 0
171 196 0
169 195 0
170 196 0
171 196 0
170 196 0
169 195 0
170 195 0
169 195 0
169 195 0
168 194 0
168 195 0
169 195 0
169 195 0
170 195 0
169 195 0
169 195 0
169 195 0
169 195 0
169 195 0
169 195 0
170 195 0
170 195 0
169 195 0
170 195 0
169 195 0
169 195 0
169 195 0
169 195 0
169 195 0
170 195 0
170 195 0
171 196 0
169 195 0
169 195 0
169 195 0
170 195 0
169 195 0
168 195 0
170 195 0
169 194 0
169 195 0
169 195 0
169 194 0
169 195 0
170 196 0
169 195 0
169 195 0
170 196 0
175 185 63
188 177 113
177 172 114
170 169 114
166 168 114
166 167 114
169 169 114
175 172 114
186 177 113
174 182 66
169 195 0
170 195 0
169 195 0
169 195 0
170 196 0
169 195 0
169 195 0
169 195 0
169 195 0
170 196 0
168 195 0
169 195 0
170 195 0
169 195 0
169 195 0
169 195 0
169 195 0
169 195 0
170 195 0
171 196 0
169 195 0
169 195 0
168 195 0
170 195 0
169 195 0
169 195 0
169 195 0
169 195 0
169 195 0
169 195 0
170 195 0
169 195 0
168 195 0
169 195 0
169 195 0
170 196 0
171 196 0
169 195 0
169 195 0
169 195 0
169 195 0
169 195 0
170 195 0
169 195 0
170 195 0
170 195 0
169 195 0
169 195 0
170 195 0
170 195 0
171 196 0
169 195 0
169 195 0
171 196 0
169 195 0
170 196 0
171 196 0
169 195 0
170 195 0
169 195 0
169 195 0
169 195 0
169 195 0
169 195 0
168 195 0
169 195 0
170 195 0
168 195 0
170 195 0
171 196 0
170 195 0
175 199 67
190 210 140
203 220 186
217 231 226
227 239 252
229 240 255
229 240 255
228 240 255
228 240 255
228 240 255
228 240 255
228 240 255
228 239 255
228 239 255
228 239 255
228 240 255
228 240 255
228 240 255
228 240 255
229 240 255
229 240 255
221 234 237
209 224 203
199 217 171
182 204 111
172 197 36
170 195 0
170 195 0
169 195 0
169 195 0
170 195 0
170 196 0
168 195 0
171 196 0
168 194 0
170 195 0
170 196 0
170 195 0
169 195 0
169 195 0
169 195 0
170 196 0
170 195 0
170 196 0
170 195 0
170 195 0
169 195 0
170 196 0
170 195 0
169 195 0
169 195 0
169 195 0
168 195 0
170 195 0
169 195 0
169 195 0
170 195 0
169 195 0
168 194 0
169 195 0
168 195 0
171 196 0
170 195 0
169 195 0
170 196 0
170 195 0
169 195 0
170 195 0
169 195 0
170 195 0
168 195 0
170 195 0
169 195 0
169 195 0
169 195 0
169 195 0
170 195 0
169 195 0
170 195 0
169 195 0
169 195 0
169 195 0
170 196 0
169 195 0
170 195 0
170 195 0
170 196 0
170 195 0
170 195 0
170 195 0
168 195 0
169 195 0
170 195 0
169 195 0
170 196 0
169 195 0
171 196 0
168 195 0
169 195 0
169 195 0
169 195 0
170 195 0
168 194 0
170 196 0
170 195 0
171 196 0
169 195 0
170 195 0
170 195 0
170 195 0
170 195 0
170 196 0
170 195 0
169 195 0
169 194 0
170 196 0
170 195 0
169 195 0
164 176 44
191 179 112
180 174 114
171 170 114
166 167 114
163 166 114
162 166 114
165 167 114
170 169 114
178 173 114
187 177 110
169 187 37
169 195 0
170 196 0
169 195 0
169 195 0
170 196 0
168 194 0
169 195 0
169 195 0
169 195 0
170 196 0
170 195 0
169 195 0
169 195 0
169 195 0
169 195 0
168 195 0
168 195 0
170 196 0
168 195 0
169 195 0
170 196 0
169 195 0
168 195 0
169 195 0
170 195 0
169 195 0
169 195 0
168 195 0
171 196 0
169 195 0
169 195 0
169 195 0
170 195 0
169 195 0
170 196 0
168 194 0
169 195 0
169 195 0
169 195 0
169 195 0
170 196 0
169 195 0
170 195 0
169 195 0
170 195 0
170 195 0
169 195 0
170 195 0
170 195 0
169 195 0
169 195 0
168 195 0
169 195 0
169 195 0
169 195 0
170 196 0
168 195 0
169 195 0
170 195 0
169 195 0
170 195 0
169 195 0
170 196 0
169 195 0
169 195 0
170 196 0
169 195 0
171 196 0
170 195 0
170 195 0
169 195 0
171 196 0
169 195 0
171 196 0
173 198 57
181 204 108
202 219 184
214 229 218
227 238 250
229 240 255
229 240 255
229 240 255
228 240 255
228 240 255
228 240 255
229 240 255
229 240 255
223 236 242
208 223 199
197 216 167
181 204 105
169 195 0
170 195 0
170 196 0
170 196 0
171 196 0
170 196 0
169 195 0
170 196 0
172 196 0
169 195 0
169 195 0
169 195 0
170 195 0
170 195 0
171 196 0
169 195 0
168 195 0
169 195 0
170 195 0
170 195 0
169 195 0
169 195 0
170 196 0
171 196 0
170 196 0
169 195 0
169 195 0
169 195 0
169 195 0
168 195 0
169 195 0
170 195 0
169 195 0
169 195 0
170 196 0
168 195 0
170 195 0
168 195 0
169 195 0
169 195 0
170 195 0
170 195 0
169 195 0
170 196 0
169 195 0
169 195 0
169 195 0
169 195 0
168 195 0
169 195 0
169 195 0
170 195 0
171 196 0
169 195 0
169 195 0
169 195 0
170 196 0
168 195 0
170 196 0
169 195 0
170 196 0
169 195 0
169 195 0
170 195 0
169 195 0
169 195 0
170 195 0
170 195 0
169 195 0
169 195 0
170 195 0
169 195 0
169 195 0
168 195 0
170 196 0
170 195 0
169 195 0
169 195 0
169 195 0
169 195 0
170 195 0
168 194 0
168 194 0
168 194 0
169 195 0
170 195 0
168 194 0
169 195 0
169 195 0
169 195 0
169 194 0
168 195 0
162 188 57
150 177 88
148 173 94
159 185 62
168 193 0
177 170 81
190 178 114
179 173 114
172 170 114
167 168 114
165 167 114
164 167 114
166 168 114
170 169 114
177 172 114
186 177 114
180 174 84
169 194 0
169 195 0
169 195 0
170 195 0
168 194 0
170 195 0
170 195 0
169 195 0
170 195 0
169 195 0
169 195 0
170 196 0
169 195 0
169 195 0
170 195 0
169 195 0
169 195 0
169 195 0
171 196 0
170 195 0
168 195 0
170 195 0
169 195 0
169 195 0
170 196 0
169 195 0
170 195 0
170 196 0
168 195 0
170 195 0
170 195 0
168 195 0
169 195 0
170 196 0
169 195 0
169 195 0
169 195 0
169 195 0
170 195 0
169 195 0
168 195 0
168 195 0
170 196 0
168 194 0
170 195 0
168 195 0
169 195 0
170 195 0
170 195 0
169 195 0
169 195 0
169 195 0
169 195 0
170 195 0
170 195 0
169 195 0
170 195 0
169 195 0
170 196 0
171 196 0
170 195 0
170 195 0
169 195 0
170 195 0
170 195 0
170 195 0
169 195 0
169 195 0
170 195 0
169 195 0
169 195 0
170 196 0
169 195 0
170 196 0
168 195 0
170 195 0
168 194 0
170 196 0
169 195 0
185 207 125
195 214 161
211 226 209
221 234 237
229 240 255
229 240 255
193 212 153
176 200 76
169 195 0
169 195 0
171 196 0
169 195 0
170 195 0
169 195 0
170 196 0
170 195 0
168 195 0
170 195 0
169 195 0
169 195 0
170 196 0
169 195 0
169 195 0
169 195 0
169 195 0
171 196 0
170 195 0
169 195 0
170 195 0
170 196 0
169 195 0
171 196 0
170 195 0
170 195 0
169 195 0
170 195 0
170 196 0
170 195 0
169 195 0
169 195 0
170 195 0
171 196 0
170 196 0
170 195 0
169 195 0
169 195 0
170 195 0
170 195 0
168 195 0
169 195 0
169 195 0
169 195 0
169 195 0
170 195 0
170 195 0
169 195 0
170 195 0
169 195 0
169 195 0
170 195 0
170 195 0
170 196 0
169 195 0
169 195 0
170 195 0
170 195 0
168 195 0
168 194 0
168 195 0
170 196 0
170 195 0
169 195 0
168 194 0
169 195 0
170 195 0
169 195 0
169 195 0
171 196 0
169 195 0
170 195 0
170 195 0
170 195 0
169 194 0
169 195 0
170 195 0
168 194 0
170 195 0
169 195 0
170 196 0
169 194 0
169 195 0
168 195 0
169 195 0
170 195 0
169 195 0
169 195 0
169 195 0
169 195 0
170 195 0
169 194 0
169 195 0
169 195 18
135 162 115
92 123 162
60 97 181
59 97 181
60 97 181
60 97 181
88 116 163
146 147 134
190 178 113
179 172 113
176 172 114
172 170 114
170 169 114
169 169 114
171 170 114
174 171 114
181 174 114
188 178 114
181 171 92
167 191 0
170 195 0
169 195 0
169 195 0
170 195 0
169 195 0
169 194 0
169 195 0
170 195 0
170 195 0
170 196 0
170 196 0
169 195 0
170 195 0
169 195 0
169 195 0
168 194 0
169 195 0
169 195 0
170 195 0
169 195 0
169 195 0
171 196 0
170 195 0
170 195 0
168 194 0
172 197 0
169 195 0
169 195 0
170 195 0
169 195 0
169 195 0
170 196 0
169 195 0
169 195 0
169 195 0
169 195 0
169 195 0
171 196 0
169 195 0
169 195 0
170 196 0
169 195 0
169 195 0
169 195 0
170 195 0
170 195 0
170 196 0
170 196 0
170 195 0
170 196 0
170 195 0
169 195 0
170 195 0
169 195 0
169 195 0
171 196 0
170 196 0
170 195 0
169 195 0
171 196 0
169 195 0
170 195 0
169 195 0
170 196 0
169 195 0
169 195 0
170 195 0
169 195 0
169 195 0
170 195 0
169 195 0
170 195 0
168 194 0
169 195 0
170 195 0
171 196 0
169 195 0
170 195 0
170 195 0
170 195 0
169 195 0
169 195 0
178 201 88
193 212 151
170 196 0
170 195 0
170 196 0
169 195 0
169 195 0
169 195 0
170 195 0
170 195 0
169 195 0
170 195 0
169 195 0
169 195 0
169 195 0
169 195 0
170 196 0
171 196 0
171 196 0
170 196 0
170 195 0
169 195 0
170 195 0
170 195 0
170 196 0
169 195 0
169 195 0
169 195 0
169 195 0
170 195 0
169 195 0
169 195 0
168 195 0
170 195 0
169 195 0
169 195 0
170 196 0
169 195 0
170 196 0
169 195 0
169 195 0
169 195 0
170 195 0
170 195 0
168 195 0
169 195 0
169 195 0
169 195 0
170 195 0
170 196 0
168 194 0
170 196 0
171 196 0
169 195 0
170 195 0
169 195 0
169 195 0
169 195 0
169 195 0
169 195 0
169 195 0
171 196 0
169 195 0
171 196 0
169 195 0
168 195 0
170 195 0
170 195 0
170 195 0
170 195 0
170 195 0
170 195 0
170 195 0
169 195 0
169 195 0
169 195 0
169 195 0
169 195 0
170 196 0
169 195 0
170 196 0
170 196 0
170 195 0
170 195 0
168 194 0
169 195 0
170 195 0
169 195 0
170 195 0
169 195 0
169 195 0
170 196 0
168 195 0
169 195 0
169 195 0
168 194 0
167 193 31
100 129 156
61 98 181
60 98 181
60 98 181
60 98 181
60 98 181
60 98 181
60 98 181
61 98 181
90 111 167
89 97 90
125 128 95
169 165 110
178 173 114
177 173 114
179 173 114
181 174 114
185 176 114
193 180 113
175 167 79
164 187 0
169 194 0
168 194 0
170 196 0
169 195 0
169 195 0
169 195 0
168 194 0
169 195 0
170 195 0
169 195 0
170 195 0
170 195 0
169 195 0
170 196 0
168 195 0
169 195 0
170 195 0
169 195 0
170 196 0
169 195 0
170 196 0
170 195 0
170 195 0
169 195 0
170 195 0
169 195 0
169 195 0
170 195 0
169 195 0
170 195 0
169 195 0
172 196 0
169 195 0
169 195 0
170 195 0
168 195 0
167 194 0
170 195 0
170 195 0
169 195 0
169 195 0
169 195 0
170 196 0
170 195 0
170 196 0
169 195 0
170 195 0
169 195 0
169 195 0
169 195 0
169 195 0
169 195 0
169 195 0
170 196 0
169 195 0
170 195 0
168 195 0
171 196 0
171 196 0
169 195 0
170 195 0
169 195 0
170 195 0
169 195 0
170 196 0
170 195 0
168 195 0
169 195 0
170 195 0
171 196 0
169 195 0
170 195 0
169 195 0
170 195 0
170 195 0
170 195 0
169 195 0
170 195 0
169 195 0
169 195 0
170 195 0
170 195 0
170 195 0
170 196 0
169 195 0
168 195 0
170 196 0
170 196 0
170 196 0
169 195 0
169 195 0
170 195 0
169 195 0
169 195 0
170 195 0
170 195 0
170 195 0
170 196 0
168 195 0
169 195 0
169 195 0
170 196 0
169 195 0
169 195 0
169 195 0
170 195 0
169 195 0
170 196 0
171 196 0
169 195 0
170 196 0
169 195 0
170 195 0
170 195 0
169 195 0
170 195 0
169 195 0
170 195 0
170 196 0
170 195 0
171 196 0
170 195 0
168 195 0
170 195 0
169 195 0
169 195 0
168 195 0
170 195 0
169 195 0
170 196 0
170 195 0
169 195 0
170 196 0
168 195 0
170 195 0
169 195 0
170 195 0
169 195 0
170 195 0
169 195 0
169 195 0
169 195 0
170 195 0
169 195 0
169 195 0
168 195 0
169 195 0
170 195 0
168 194 0
169 195 0
169 195 0
170 196 0
169 195 0
169 195 0
171 196 0
169 195 0
170 195 0
169 195 0
169 195 0
169 195 0
170 196 0
169 195 0
170 195 0
170 195 0
171 196 0
169 195 0
169 195 0
170 195 0
168 194 0
167 194 0
169 195 0
169 195 0
169 195 0
169 195 0
167 194 0
168 194 0
169 195 0
168 193 0
107 136 150
61 98 179
61 98 181
61 98 181
61 98 181
60 98 181
60 98 181
61 98 181
61 98 181
61 99 181
62 99 180
59 92 157
55 69 60
111 114 85
183 173 113
186 177 114
187 177 114
191 179 114
193 180 112
187 175 99
156 154 36
166 188 0
169 193 0
168 193 0
170 196 0
170 195 0
169 195 0
168 195 0
168 194 0
170 195 0
169 195 0
169 195 0
169 195 0
169 195 0
169 195 0
170 195 0
169 195 0
171 196 0
170 195 0
169 195 0
170 195 0
169 195 0
169 195 0
169 195 0
169 195 0
169 195 0
170 195 0
169 195 0
170 195 0
170 195 0
170 196 0
168 195 0
168 195 0
169 195 0
169 195 0
169 195 0
169 195 0
169 195 0
170 195 0
169 195 0
169 195 0
169 195 0
168 195 0
169 195 0
170 195 0
170 195 0
170 195 0
170 196 0
169 195 0
169 195 0
170 195 0
171 196 0
169 195 0
169 195 0
169 195 0
170 195 0
169 195 0
170 195 0
170 195 0
170 195 0
169 195 0
170 195 0
170 196 0
169 195 0
170 195 0
172 196 0
170 195 0
170 196 0
169 195 0
169 195 0
169 195 0
170 195 0
169 195 0
169 195 0
170 195 0
170 195 0
170 195 0
170 195 0
169 195 0
171 196 0
169 195 0
170 195 0
170 196 0
169 195 0
170 195 0
169 195 0
169 195 0
170 196 0
170 195 0
169 195 0
170 196 0
170 195 0
169 195 0
170 195 0
168 195 0
169 195 0
169 195 0
170 195 0
169 195 0
170 195 0
170 195 0
170 196 0
170 196 0
169 195 0
170 195 0
170 195 0
169 195 0
168 195 0
169 195 0
170 195 0
168 195 0
170 195 0
169 195 0
169 195 0
169 195 0
170 195 0
169 195 0
170 195 0
170 196 0
170 195 0
170 195 0
170 195 0
169 195 0
169 195 0
169 195 0
170 195 0
169 195 0
169 195 0
169 195 0
170 195 0
170 196 0
169 195 0
169 195 0
168 194 0
169 195 0
168 195 0
169 195 0
170 195 0
170 195 0
168 195 0
169 195 0
168 194 0
171 196 0
169 195 0
170 195 0
169 195 0
169 195 0
169 195 0
168 195 0
169 195 0
168 195 0
169 195 0
169 195 0
169 195 0
169 195 0
170 195 0
170 195 0
169 194 0
169 194 0
170 195 0
170 196 0
169 195 0
170 196 0
169 195 0
169 195 0
168 195 0
169 195 0
169 195 0
170 195 0
169 194 0
170 195 0
169 195 0
170 195 0
168 194 0
169 195 0
169 194 0
170 196 0
166 192 0
166 192 0
137 163 103
62 99 181
62 99 179
62 99 179
61 99 181
61 99 181
61 98 181
61 98 179
61 98 181
62 99 181
62 99 181
61 98 176
62 99 177
53 77 116
60 75 64
174 164 99
189 177 104
189 176 103
183 172 93
173 165 75
162 158 52
151 154 19
169 194 0
169 193 0
168 194 0
169 195 0
168 194 0
168 194 0
170 195 0
170 195 0
169 195 0
169 195 0
168 194 0
169 195 0
169 195 0
170 195 0
169 195 0
169 195 0
170 196 0
170 196 0
170 196 0
169 195 0
169 195 0
169 195 0
169 195 0
171 196 0
168 195 0
170 195 0
169 195 0
169 195 0
170 196 0
169 195 0
171 196 0
169 195 0
169 195 0
170 196 0
170 196 0
170 196 0
170 196 0
169 195 0
170 195 0
169 195 0
170 195 0
168 195 0
169 195 0
169 195 0
169 195 0
170 195 0
170 196 0
169 195 0
169 195 0
168 195 0
170 195 0
169 195 0
169 195 0
170 195 0
170 195 0
171 196 0
170 196 0
169 195 0
169 195 0
169 195 0
170 195 0
170 196 0
170 196 0
169 195 0
170 196 0
169 195 0
169 195 0
170 196 0
169 195 0
169 195 0
169 195 0
169 195 0
170 195 0
169 195 0
169 195 0
169 195 0
169 195 0
170 195 0
170 195 0
168 195 0
170 195 0
169 195 0
170 195 0
170 195 0
169 195 0
170 196 0
169 195 0
169 195 0
169 195 0
168 195 0
170 195 0
169 195 0
170 196 0
170 196 0
170 195 0
169 195 0
171 196 0
169 195 0
170 196 0
168 194 0
171 196 0
171 196 0
169 195 0
169 195 0
171 196 0
169 195 0
169 195 0
168 195 0
170 196 0
169 195 0
169 195 0
169 195 0
170 195 0
169 195 0
170 195 0
169 195 0
170 196 0
169 195 0
170 196 0
168 195 0
169 195 0
170 195 0
169 195 0
169 195 0
170 196 0
170 196 0
170 195 0
169 195 0
169 195 0
170 195 0
170 195 0
169 195 0
169 195 0
170 195 0
169 195 0
169 195 0
169 195 0
170 195 0
169 195 0
169 195 0
170 196 0
170 195 0
169 195 0
169 195 0
169 195 0
169 195 0
171 196 0
169 195 0
169 195 0
169 195 0
170 195 0
170 195 0
169 195 0
170 195 0
170 196 0
171 196 0
170 196 0
170 196 0
169 195 0
168 195 0
169 195 0
168 195 0
169 195 0
169 195 0
169 195 0
169 195 0
170 195 0
169 195 0
170 196 0
168 194 0
167 194 0
171 196 0
168 194 0
169 195 0
168 193 0
170 195 0
168 194 0
166 192 0
86 118 163
62 99 178
62 99 178
62 99 179
62 99 180
62 99 180
62 99 181
61 98 177
62 99 179
62 99 180
62 99 180
63 99 177
62 99 176
61 95 158
68 79 48
144 143 42
156 154 37
155 153 30
154 153 25
151 151 0
150 149 0
156 166 0
168 192 0
169 194 0
168 192 0
169 194 0
168 194 0
169 194 0
169 195 0
168 194 0
170 195 0
170 195 0
169 195 0
170 195 0
170 195 0
169 195 0
169 195 0
170 195 0
168 195 0
169 195 0
169 195 0
170 195 0
170 195 0
169 195 0
170 195 0
168 195 0
170 196 0
169 195 0
169 195 0
169 195 0
169 195 0
170 195 0
169 195 0
170 195 0
170 195 0
169 195 0
170 195 0
169 195 0
170 195 0
169 195 0
169 195 0
169 195 0
170 196 0
170 195 0
169 195 0
170 195 0
170 195 0
168 195 0
170 195 0
169 195 0
169 195 0
169 195 0
170 195 0
169 195 0
171 196 0
169 195 0
170 196 0
170 195 0
170 196 0
168 194 0
170 196 0
168 194 0
168 195 0
170 195 0
171 196 0
169 195 0
168 195 0
169 195 0
169 195 0
169 195 0
169 195 0
169 195 0
170 195 0
169 195 0
170 195 0
170 196 0
170 195 0
170 195 0
169 195 0
169 195 0
170 196 0
169 195 0
171 196 0
169 195 0
170 195 0
168 195 0
169 195 0
169 195 0
170 196 0
170 195 0
169 195 0
169 195 0
169 195 0
169 195 0
169 195 0
170 195 0
169 195 0
169 195 0
169 195 0
168 195 0
170 195 0
170 195 0
169 195 0
168 195 0
171 196 0
170 196 0
169 195 0
169 195 0
170 195 0
170 195 0
170 196 0
170 195 0
169 195 0
169 195 0
169 195 0
170 196 0
170 196 0
169 195 0
170 195 0
170 195 0
169 195 0
168 195 0
169 195 0
170 195 0
169 195 0
169 195 0
169 195 0
169 195 0
169 195 0
170 195 0
169 195 0
169 195 0
170 195 0
169 195 0
169 195 0
170 195 0
169 195 0
169 195 0
168 195 0
169 195 0
170 195 0
169 195 0
169 195 0
170 195 0
168 195 0
169 195 0
169 195 0
170 195 0
168 195 0
169 195 0
170 196 0
169 195 0
169 195 0
170 195 0
170 195 0
169 195 0
170 195 0
169 195 0
170 195 0
170 195 0
170 195 0
168 195 0
169 195 0
169 195 0
169 195 0
168 195 0
169 195 0
170 196 0
169 195 0
168 195 0
169 194 0
168 194 0
172 197 51
175 199 80
180 202 111
175 199 99
170 195 44
170 195 0
167 193 0
156 182 62
63 99 171
61 98 171
62 99 175
63 100 181
62 99 176
61 98 179
62 99 180
62 99 176
62 99 176
63 100 180
62 99 175
63 99 178
63 99 168
62 99 169
97 105 72
133 134 0
146 146 0
148 148 0
149 148 0
148 148 0
151 150 0
167 187 0
167 190 0
169 192 0
167 193 0
168 193 0
168 195 0
169 194 0
169 195 0
168 194 0
168 195 0
170 195 0
169 195 0
169 195 0
169 195 0
169 194 0
170 195 0
169 195 0
168 195 0
170 196 0
168 195 0
170 196 0
169 195 0
169 195 0
169 195 0
169 195 0
169 195 0
169 195 0
170 195 0
170 195 0
169 195 0
168 194 0
170 195 0
169 195 0
170 195 0
168 194 0
170 195 0
168 195 0
168 194 0
169 195 0
168 195 0
170 195 0
169 195 0
170 195 0
170 195 0
169 195 0
169 195 0
168 195 0
170 196 0
169 195 0
169 195 0
169 195 0
169 195 0
170 195 0
170 195 0
168 195 0
170 195 0
171 196 0
169 195 0
170 196 0
169 195 0
169 195 0
170 195 0
169 195 0
169 195 0
169 195 0
170 195 0
168 195 0
169 195 0
169 195 0
169 195 0
170 195 0
170 195 0
170 195 0
171 196 0
169 195 0
169 195 0
168 195 0
170 195 0
169 195 0
169 195 0
169 195 0
169 195 0
170 195 0
169 195 0
169 195 0
169 195 0
170 195 0
170 196 0
170 196 0
169 195 0
170 195 0
169 195 0
169 195 0
170 195 0
169 195 0
169 195 0
170 196 0
169 195 0
170 195 0
171 196 0
171 196 0
169 195 0
170 195 0
169 195 0
169 195 0
170 195 0
169 195 0
170 196 0
171 196 0
171 196 0
169 195 0
169 195 0
169 195 0
169 195 0
169 195 0
170 196 0
169 195 0
169 195 0
169 195 0
168 195 0
170 196 0
169 195 0
169 195 0
169 195 0
171 196 0
170 196 0
169 195 0
170 195 0
169 195 0
169 195 0
171 196 0
169 195 0
170 196 0
171 196 0
168 195 0
170 195 0
170 195 0
170 195 0
169 195 0
169 195 0
170 195 0
170 195 0
170 195 0
169 195 0
170 196 0
168 195 0
170 195 0
169 195 0
169 195 0
170 195 0
168 194 0
169 195 0
169 195 0
168 195 0
169 195 0
170 196 0
169 195 0
170 196 0
169 195 0
168 194 0
170 196 0
168 194 0
170 196 0
169 195 0
170 195 0
168 195 0
170 195 0
169 195 0
169 195 0
183 205 125
198 217 182
198 218 189
194 214 184
190 211 171
192 212 171
198 217 193
194 214 175
175 198 117
133 160 110
62 98 164
63 99 175
62 99 174
62 99 173
62 99 176
62 98 173
63 100 177
63 99 175
62 99 173
63 99 175
63 99 170
63 99 170
64 100 172
63 99 164
93 98 70
118 116 0
139 138 0
146 143 0
144 139 0
148 144 0
159 171 0
164 184 0
167 187 0
169 191 0
168 191 0
168 192 0
167 192 0
168 194 0
167 192 0
168 194 0
170 195 0
169 194 0
170 196 0
167 193 0
169 195 0
168 195 0
170 195 0
169 195 0
169 195 0
169 195 0
169 195 0
170 195 0
168 194 0
170 195 0
170 195 0
169 195 0
169 195 0
171 196 0
169 195 0
169 195 0
170 195 0
169 195 0
168 195 0
170 195 0
168 195 0
169 195 0
169 195 0
169 195 0
169 195 0
170 195 0
169 195 0
170 195 0
169 195 0
170 195 0
169 195 0
171 196 0
170 195 0
169 195 0
170 195 0
170 195 0
168 195 0
170 195 0
170 196 0
169 195 0
169 195 0
169 195 0
169 195 0
171 196 0
170 195 0
170 195 0
169 195 0
169 195 0
169 195 0
170 196 0
168 195 0
171 196 0
169 195 0
170 196 0
170 195 0
170 195 0
169 195 0
170 195 0
169 195 0
169 195 0
170 196 0
170 195 0
168 195 0
170 196 0
170 196 0
170 195 0
169 195 0
170 195 0
170 195 0
170 196 0
169 195 0
169 195 0
169 195 0
169 195 0
170 196 0
170 195 0
170 196 0
169 195 0
169 195 0
169 195 0
170 195 0
170 195 0
169 195 0
171 196 0
168 195 0
169 195 0
171 196 0
170 195 0
170 195 0
169 195 0
168 195 0
170 195 0
170 195 0
168 194 0
168 195 0
169 195 0
170 196 0
170 195 0
169 195 0
171 196 0
169 195 0
169 195 0
169 195 0
169 195 0
169 195 0
169 195 0
169 195 0
169 195 0
169 195 0
170 195 0
169 195 0
169 195 0
169 195 0
169 195 0
169 195 0
168 195 0
169 195 0
169 195 0
169 195 0
169 195 0
170 196 0
170 195 0
170 195 0
169 195 0
170 195 0
170 195 0
169 195 0
169 195 0
170 195 0
170 195 0
170 195 0
169 195 0
171 196 0
170 195 0
169 195 0
169 195 0
169 195 0
170 195 0
170 196 0
170 195 0
170 195 0
169 195 0
169 195 0
169 195 0
168 195 0
169 195 0
168 195 0
168 194 0
169 195 0
169 195 0
169 195 0
171 196 0
168 194 0
169 195 0
172 197 51
193 213 165
187 208 153
174 199 95
171 197 72
171 197 62
169 194 62
170 196 67
169 194 67
173 198 92
150 173 140
75 108 174
61 98 159
61 97 163
62 99 172
63 100 178
64 100 173
62 99 172
63 99 175
63 100 176
62 99 166
64 100 176
63 100 173
63 99 168
62 99 165
63 99 162
98 97 77
118 110 0
124 113 0
129 120 0
146 144 0
159 166 0
165 181 0
164 180 0
165 184 0
167 190 0
168 193 0
166 190 0
166 191 0
168 192 0
168 194 0
168 192 0
168 194 0
171 196 0
169 195 0
169 194 0
168 193 0
169 195 0
170 195 0
169 195 0
169 195 0
170 196 0
169 195 0
170 196 0
169 195 0
169 195 0
170 196 0
169 195 0
168 195 0
169 195 0
170 195 0
170 195 0
169 195 0
170 195 0
170 195 0
170 195 0
169 195 0
170 195 0
169 195 0
170 195 0
169 195 0
170 195 0
170 195 0
169 195 0
169 195 0
169 195 0
168 194 0
170 195 0
169 195 0
169 195 0
169 195 0
169 195 0
169 195 0
170 195 0
169 195 0
170 195 0
170 195 0
169 195 0
170 195 0
169 195 0
168 195 0
169 195 0
170 195 0
168 195 0
168 195 0
170 195 0
170 195 0
170 195 0
170 195 0
169 195 0
169 195 0
170 196 0
169 195 0
169 195 0
169 195 0
170 195 0
170 196 0
169 195 0
169 195 0
169 195 0
169 195 0
169 195 0
168 195 0
170 196 0
169 195 0
170 195 0
169 195 0
171 196 0
169 195 0
169 195 0
170 195 0
169 195 0
170 195 0
169 195 0
168 194 0
168 194 0
170 196 0
168 195 0
170 196 0
169 195 0
169 195 0
170 196 0
168 194 0
169 195 0
168 195 0
169 195 0
169 195 0
170 195 0
170 195 0
169 195 0
169 195 0
170 195 0
169 195 0
170 196 0
170 195 0
168 194 0
169 195 0
169 195 0
170 195 0
169 195 0
169 195 0
170 195 0
170 196 0
170 195 0
168 195 0
170 195 0
169 195 0
170 195 0
170 196 0
170 196 0
171 196 0
170 195 0
170 195 0
170 196 0
169 195 0
170 195 0
170 195 0
170 196 0
170 195 0
169 195 0
169 195 0
170 196 0
170 196 0
170 195 0
169 195 0
169 195 0
171 196 0
171 196 0
169 195 0
170 195 0
168 195 0
169 195 0
169 195 0
169 195 0
169 195 0
170 196 0
171 196 0
168 194 0
169 195 0
170 195 0
168 194 0
169 195 0
169 195 0
168 195 0
169 195 0
169 195 0
168 194 0
167 194 0
168 194 0
169 194 0
192 213 163
180 203 114
170 195 72
169 195 62
170 197 84
169 195 72
170 197 84
167 193 80
169 195 102
166 192 72
158 183 92
97 125 160
78 111 167
60 95 153
62 98 163
62 98 165
62 98 164
63 99 165
62 99 166
63 99 169
62 98 168
63 99 161
62 99 163
63 99 165
62 98 158
62 98 154
100 98 54
115 107 0
125 122 0
142 141 0
145 148 0
156 164 0
159 170 0
162 178 0
165 182 0
165 184 0
168 193 0
168 191 0
168 192 0
168 193 0
167 193 0
169 195 0
169 195 0
168 193 0
169 195 0
170 195 0
170 195 0
170 195 0
169 195 0
168 195 0
169 195 0
169 195 0
170 195 0
170 195 0
169 195 0
168 194 0
169 195 0
171 196 0
169 195 0
169 195 0
169 195 0
168 195 0
170 196 0
169 195 0
170 195 0
170 195 0
169 195 0
170 195 0
169 195 0
169 195 0
168 195 0
170 195 0
169 195 0
169 195 0
170 196 0
170 196 0
169 195 0
170 195 0
169 195 0
169 195 0
170 195 0
170 196 0
170 195 0
169 195 0
169 195 0
170 195 0
169 195 0
169 195 0
170 195 0
170 196 0
169 195 0
170 195 0
170 196 0
169 195 0
169 195 0
169 195 0
170 195 0
169 195 0
169 195 0
168 195 0
170 195 0
170 195 0
170 196 0
169 195 0
168 195 0
170 196 0
169 195 0
170 195 0
168 195 0
169 195 0
168 195 0
170 195 0
169 195 0
170 196 0
168 194 0
169 195 0
170 195 0
170 196 0
171 196 0
170 196 0
170 195 0
168 194 0
170 195 0
169 195 0
169 195 0
169 195 0
169 195 0
168 195 0
170 196 0
169 195 0
170 196 0
169 195 0
169 195 0
170 195 0
169 195 0
169 195 0
170 196 0
170 195 0
170 196 0
170 195 0
170 196 0
168 195 0
169 195 0
169 195 0
169 195 0
169 195 0
170 196 0
170 195 0
171 196 0
170 195 0
169 195 0
169 195 0
169 195 0
170 196 0
169 195 0
170 195 0
168 194 0
170 196 0
169 195 0
170 195 0
168 195 0
170 195 0
170 196 0
169 195 0
170 195 0
169 195 0
169 195 0
171 196 0
169 195 0
170 195 0
169 195 0
170 195 0
170 195 0
170 195 0
169 195 0
170 195 0
170 195 0
169 195 0
169 195 0
169 195 0
171 196 0
169 195 0
170 196 0
168 194 0
169 195 0
169 195 0
170 196 0
170 195 0
169 195 0
170 195 0
169 195 0
169 195 0
167 194 0
168 195 0
169 194 0
169 195 0
168 194 0
168 195 0
168 194 0
186 207 133
182 205 125
173 198 80
171 197 80
169 195 57
169 195 62
170 196 76
169 195 51
168 194 57
164 190 62
161 186 36
164 189 92
118 144 143
98 126 145
66 101 152
61 97 154
61 97 154
62 98 162
62 97 152
63 98 160
63 99 161
63 98 155
64 100 167
63 98 157
63 99 164
62 97 143
70 99 113
112 117 0
130 135 0
144 153 0
142 144 0
157 167 0
155 167 0
163 179 0
163 180 0
165 187 0
166 189 0
168 187 0
167 192 0
166 191 0
168 192 0
169 193 0
169 193 0
169 195 0
168 194 0
169 194 0
169 194 0
169 195 0
169 195 0
169 195 0
170 196 0
170 195 0
169 195 0
170 195 0
170 195 0
168 194 0
169 195 0
169 195 0
170 195 0
170 195 0
169 195 0
170 195 0
170 195 0
169 195 0
169 195 0
169 195 0
170 196 0
169 195 0
169 195 0
170 195 0
168 195 0
169 195 0
169 195 0
169 195 0
169 195 0
169 195 0
169 195 0
169 195 0
169 195 0
169 195 0
170 196 0
169 195 0
169 195 0
169 195 0
169 195 0
169 195 0
170 196 0
169 195 0
169 195 0
169 195 0
170 195 0
168 195 0
170 196 0
169 195 0
169 195 0
169 195 0
169 195 0
170 195 0
170 195 0
169 195 0
170 195 0
170 195 0
169 195 0
169 195 0
169 195 0
169 195 0
169 195 0
169 195 0
168 195 0
170 195 0
169 195 0
170 196 0
170 195 0
170 195 0
171 196 0
170 195 0
169 195 0
168 195 0
171 196 0
169 195 0
170 195 0
168 195 0
169 195 0
171 196 0
169 195 0
170 195 0
170 195 0
169 195 0
170 196 0
169 195 0
170 195 0
170 195 0
168 195 0
170 195 0
170 195 0
169 195 0
169 195 0
169 195 0
170 196 0
169 195 0
169 195 0
170 196 0
171 196 0
170 196 0
169 195 0
169 195 0
171 196 0
170 196 0
170 195 0
169 195 0
170 196 0
169 195 0
170 195 0
169 195 0
170 195 0
169 195 0
169 195 0
168 195 0
170 196 0
170 196 0
169 195 0
169 195 0
168 194 0
168 195 0
170 195 0
170 195 0
169 195 0
168 195 0
170 195 0
169 195 0
169 195 0
171 196 0
169 195 0
170 196 0
169 195 0
169 195 0
169 195 0
170 196 0
170 195 0
169 195 0
170 195 0
170 195 0
170 196 0
170 196 0
169 195 0
169 195 0
169 195 0
170 195 0
169 195 0
169 195 0
169 194 0
169 195 0
169 195 0
169 195 0
168 195 0
169 195 0
169 195 0
169 195 0
169 195 0
169 195 25
188 210 149
171 195 72
170 195 67
167 193 67
171 197 76
166 193 67
167 194 72
165 191 51
164 190 76
167 194 80
164 190 84
159 184 74
138 162 74
89 116 133
82 112 147
61 96 151
62 97 148
63 99 159
63 99 157
63 99 157
63 98 155
63 99 157
61 97 150
63 99 156
61 96 139
60 95 127
105 124 78
127 140 0
138 150 0
139 153 0
147 160 0
157 172 0
162 178 0
160 178 0
164 186 0
166 187 0
166 187 0
165 188 0
167 191 0
168 192 0
167 192 0
167 193 0
169 194 0
168 194 0
169 195 0
167 193 0
169 194 0
171 196 0
168 194 0
169 195 0
169 195 0
169 195 0
169 195 0
170 195 0
169 195 0
169 195 0
169 195 0
170 195 0
169 195 0
169 195 0
169 195 0
170 196 0
169 195 0
169 195 0
168 195 0
169 195 0
171 196 0
171 196 0
169 195 0
169 195 0
169 195 0
170 195 0
170 195 0
169 195 0
169 195 0
170 195 0
169 195 0
169 195 0
170 195 0
169 195 0
169 195 0
170 195 0
168 195 0
170 196 0
168 194 0
170 195 0
170 196 0
169 195 0
169 195 0
169 195 0
169 195 0
169 195 0
168 195 0
170 195 0
169 195 0
170 196 0
168 195 0
170 196 0
169 195 0
169 195 0
170 195 0
169 195 0
168 195 0
170 195 0
169 195 0
169 195 0
170 195 0
169 195 0
168 195 0
170 196 0
170 195 0
170 195 0
170 195 0
169 195 0
169 195 0
169 195 0
169 195 0
169 195 0
170 196 0
169 195 0
169 195 0
170 196 0
171 196 0
170 196 0
169 195 0
171 196 0
169 195 0
169 195 0
169 195 0
170 196 0
169 195 0
169 195 0
169 195 0
171 196 0
171 196 0
168 194 0
169 195 0
170 195 0
169 195 0
170 195 0
169 195 0
170 195 0
168 195 0
170 195 0
170 196 0
169 195 0
170 195 0
168 195 0
170 196 0
169 195 0
170 195 0
170 195 0
170 195 0
169 195 0
170 195 0
170 195 0
169 195 0
169 195 0
170 195 0
170 195 0
170 195 0
170 196 0
169 195 0
168 195 0
171 196 0
170 196 0
170 195 0
169 195 0
168 195 0
169 195 0
170 195 0
169 195 0
170 196 0
170 195 0
169 195 0
169 195 0
169 195 0
170 196 0
169 195 0
170 195 0
170 195 0
170 195 0
169 195 0
169 195 0
169 195 0
169 195 0
170 196 0
169 195 0
169 195 0
169 195 0
169 195 0
170 195 0
169 195 0
169 195 0
169 194 0
169 195 0
171 196 0
169 195 0
170 195 0
171 196 36
176 200 95
171 196 62
170 196 99
169 195 76
169 195 62
169 195 76
168 193 57
167 192 67
168 194 99
162 187 80
158 183 80
157 182 84
150 174 80
108 132 129
83 111 124
68 102 145
59 93 129
61 96 145
61 96 135
61 96 135
62 97 147
60 95 130
60 95 135
60 94 122
60 95 126
75 103 95
114 132 18
140 157 0
134 150 0
145 161 0
151 167 0
154 171 0
157 177 0
163 183 0
165 188 0
165 187 0
166 189 0
166 189 0
168 191 0
168 192 0
168 193 0
166 192 0
168 193 0
169 194 0
169 195 0
168 194 0
170 194 0
168 193 0
169 195 0
169 195 0
169 195 0
168 194 0
169 195 0
169 195 0
168 195 0
169 195 0
168 195 0
169 195 0
169 195 0
169 195 0
169 195 0
168 195 0
169 195 0
170 195 0
169 195 0
168 195 0
170 195 0
169 195 0
169 195 0
169 195 0
169 195 0
168 194 0
169 195 0
169 195 0
169 195 0
169 195 0
169 195 0
169 195 0
170 195 0
169 195 0
169 195 0
170 195 0
169 195 0
170 196 0
168 195 0
169 195 0
169 195 0
170 195 0
170 196 0
169 195 0
170 196 0
170 195 0
169 195 0
170 195 0
169 195 0
169 195 0
170 195 0
171 196 0
169 195 0
169 195 0
169 195 0
170 195 0
170 195 0
169 195 0
169 195 0
169 195 0
169 195 0
170 196 0
169 195 0
169 195 0
169 195 0
170 195 0
168 195 0
169 195 0
170 196 0
169 195 0
169 195 0
169 195 0
169 195 0
168 194 0
170 195 0
170 195 0
170 195 0
171 196 0
169 195 0
170 195 0
169 195 0
171 196 0
169 195 0
170 195 0
169 195 0
169 195 0
169 195 0
170 195 0
169 195 0
171 196 0
170 195 0
169 195 0
170 196 0
168 194 0
169 195 0
170 195 0
170 195 0
170 196 0
171 196 0
170 196 0
170 195 0
170 196 0
170 195 0
170 195 0
169 195 0
169 195 0
169 195 0
169 195 0
170 195 0
169 195 0
169 195 0
169 195 0
169 195 0
169 195 0
168 195 0
169 195 0
169 195 0
168 195 0
170 195 0
169 195 0
169 195 0
169 195 0
169 195 0
168 194 0
169 195 0
168 195 0
169 195 0
170 195 0
170 195 0
169 195 0
169 195 0
170 196 0
170 195 0
170 195 0
170 195 0
170 195 0
170 195 0
169 195 0
169 195 0
169 195 0
170 196 0
169 195 0
170 195 0
168 194 0
170 196 0
170 195 0
170 196 0
169 195 0
169 195 0
169 194 0
168 194 0
169 195 0
170 195 0
173 198 72
175 199 76
169 194 67
169 194 44
171 197 80
169 195 92
173 198 102
167 194 88
169 194 95
168 194 67
163 188 80
166 190 92
148 172 72
153 175 107
126 146 82
94 119 88
76 107 115
58 92 108
58 93 118
59 93 118
60 94 122
59 94 122
58 92 115
60 95 126
56 90 102
73 99 80
103 121 0
126 147 0
139 160 0
145 166 0
153 175 0
150 170 0
154 177 0
157 179 0
160 183 0
163 186 0
164 185 0
166 189 0
166 189 0
168 193 0
165 190 0
169 194 0
167 193 0
169 195 0
168 194 0
169 195 0
169 194 0
169 194 0
168 194 0
168 194 0
169 195 0
170 195 0
167 194 0
169 195 0
170 195 0
170 196 0
169 195 0
170 196 0
168 195 0
170 195 0
170 195 0
170 195 0
169 195 0
169 195 0
169 195 0
169 195 0
170 195 0
169 195 0
170 195 0
170 195 0
170 195 0
170 195 0
169 195 0
170 196 0
169 195 0
169 195 0
169 195 0
170 195 0
169 195 0
169 195 0
169 195 0
169 195 0
168 195 0
169 195 0
170 196 0
169 195 0
169 195 0
171 196 0
169 195 0
169 195 0
170 195 0
169 195 0
169 195 0
169 195 0
169 195 0
169 195 0
170 195 0
169 195 0
169 195 0
170 195 0
169 195 0
169 195 0
170 195 0
170 195 0
168 195 0
169 195 0
170 196 0
170 195 0
170 196 0
170 195 0
169 195 0
169 195 0
169 195 0
169 195 0
169 195 0
168 195 0
170 195 0
169 195 0
170 196 0
168 195 0
170 195 0
169 195 0
169 195 0
170 195 0
169 195 0
170 195 0
170 196 0
170 195 0
170 195 0
169 195 0
169 195 0
170 195 0
170 196 0
170 195 0
169 195 0
169 195 0
168 195 0
169 195 0
170 196 0
169 195 0
168 195 0
169 195 0
169 195 0
168 194 0
169 195 0
169 195 0
170 195 0
170 196 0
170 196 0
170 196 0
169 195 0
170 195 0
169 195 0
170 196 0
168 194 0
170 195 0
169 195 0
170 196 0
169 195 0
169 195 0
170 196 0
169 195 0
169 195 0
171 196 0
169 195 0
169 195 0
171 196 0
168 195 0
168 194 0
170 195 0
169 195 0
170 195 0
168 194 0
169 195 0
169 195 0
169 195 0
170 195 0
169 195 0
170 195 0
169 195 0
169 195 0
169 195 0
169 195 0
169 195 0
170 195 0
169 195 0
169 195 0
167 193 0
170 195 0
169 195 0
169 195 0
169 195 0
169 195 0
169 195 0
169 195 0
169 194 0
169 195 0
170 195 0
168 194 0
169 195 0
170 195 57
173 197 76
168 193 62
171 196 67
169 194 72
171 196 99
166 191 67
168 193 76
169 193 84
164 190 62
161 186 76
156 180 88
160 184 102
148 171 92
129 149 76
106 127 62
81 108 102
67 92 57
53 83 78
57 90 92
57 90 103
55 88 97
55 88 94
60 90 86
70 92 47
103 122 18
112 133 0
133 154 0
136 158 0
147 169 0
151 174 0
157 179 0
157 179 0
164 187 0
163 187 0
165 190 0
166 189 0
167 190 0
166 192 0
166 192 0
168 193 0
168 193 0
168 194 0
169 193 0
167 193 0
169 195 0
168 194 0
169 195 0
168 194 0
169 194 0
169 195 0
169 195 0
170 195 0
169 194 0
169 194 0
168 194 0
168 194 0
170 195 0
169 195 0
170 195 0
170 195 0
170 195 0
169 195 0
169 195 0
169 195 0
170 195 0
168 194 0
169 194 0
169 195 0
169 195 0
169 195 0
169 195 0
169 195 0
170 196 0
170 195 0
170 196 0
169 195 0
169 195 0
169 195 0
169 195 0
170 195 0
169 195 0
170 195 0
170 196 0
169 195 0
170 195 0
169 195 0
169 195 0
169 195 0
171 196 0
168 195 0
171 196 0
169 195 0
169 195 0
171 196 0
170 195 0
170 196 0
169 195 0
169 195 0
169 195 0
170 195 0
171 196 0
169 195 0
169 195 0
170 195 0
169 195 0
169 195 0
169 195 0
170 196 0
169 195 0
171 196 0
171 196 0
170 195 0
170 196 0
169 195 0
169 195 0
170 195 0
169 195 0
170 195 0
170 195 0
170 196 0
169 195 0
170 195 0
170 195 0
169 195 0
169 195 0
170 195 0
168 195 0
169 195 0
169 195 0
169 195 0
169 195 0
170 195 0
169 195 0
170 195 0
169 195 0
169 195 0
169 195 0
169 195 0
169 195 0
170 195 0
170 196 0
170 196 0
168 195 0
168 195 0
170 195 0
170 195 0
170 196 0
171 196 0
170 196 0
169 195 0
168 194 0
169 195 0
170 196 0
170 195 0
169 195 0
169 195 0
169 195 0
169 195 0
169 195 0
168 195 0
170 196 0
170 195 0
169 195 0
170 195 0
169 195 0
169 195 0
170 195 0
169 195 0
169 195 0
169 195 0
169 195 0
168 194 0
169 195 0
170 195 0
167 194 0
169 195 0
169 195 0
169 195 0
168 195 0
169 195 0
169 195 0
170 195 0
170 195 0
170 195 0
170 195 0
170 195 0
169 195 0
169 195 0
169 195 0
169 195 0
170 195 0
169 195 0
169 195 0
168 193 0
169 195 0
168 194 0
168 194 0
170 195 0
169 195 0
168 193 0
169 193 65
165 189 62
161 186 67
170 196 84
168 193 84
169 194 99
167 192 80
164 189 76
165 190 51
166 191 92
157 181 67
158 182 88
151 175 92
149 169 95
118 138 0
103 123 18
95 114 25
76 94 0
78 95 18
55 74 18
70 89 44
74 90 18
78 94 0
106 125 0
109 130 0
130 153 0
139 161 0
140 163 0
150 173 0
146 170 0
160 183 0
156 180 0
159 184 0
163 187 0
165 190 0
166 191 0
166 192 0
163 188 0
165 190 0
166 191 0
166 191 0
168 193 0
167 193 0
170 195 0
168 194 0
169 195 0
169 195 0
169 195 0
169 194 0
167 193 0
169 195 0
169 195 0
168 194 0
169 195 0
169 195 0
170 196 0
170 195 0
170 195 0
169 195 0
170 195 0
170 195 0
169 195 0
168 195 0
170 195 0
169 195 0
168 195 0
169 195 0
169 194 0
169 195 0
169 195 0
171 196 0
170 195 0
170 195 0
169 195 0
170 196 0
169 194 0
170 196 0
170 195 0
169 195 0
169 195 0
169 195 0
169 195 0
170 195 0
169 195 0
169 195 0
170 196 0
170 195 0
169 195 0
169 195 0
169 195 0
169 195 0
169 195 0
170 195 0
169 195 0
170 196 0
170 195 0
168 195 0
170 196 0
169 195 0
170 196 0
169 195 0
170 195 0
169 195 0
170 196 0
169 195 0
169 195 0
169 195 0
169 195 0
169 195 0
169 195 0
170 195 0
170 196 0
169 195 0
170 195 0
170 195 0
170 195 0
170 196 0
169 195 0
170 195 0
170 195 0
170 195 0
169 195 0
170 195 0
169 195 0
170 195 0
170 196 0
171 196 0
170 195 0
170 195 0
169 195 0
169 195 0
171 196 0
169 195 0
169 195 0
170 196 0
170 195 0
168 195 0
170 195 0
169 195 0
169 195 0
169 195 0
169 195 0
169 195 0
169 195 0
170 195 0
169 195 0
169 195 0
170 196 0
170 195 0
170 195 0
169 195 0
170 196 0
169 195 0
170 195 0
170 195 0
168 195 0
170 195 0
169 195 0
171 196 0
169 195 0
169 195 0
169 195 0
169 195 0
169 195 0
169 195 0
168 195 0
169 195 0
169 195 0
169 195 0
169 195 0
169 195 0
170 195 0
169 195 0
169 195 0
171 196 0
170 196 0
170 195 0
168 195 0
168 195 0
171 196 0
169 195 0
168 194 0
169 195 0
169 195 0
169 195 0
170 195 0
170 195 0
168 195 0
169 195 0
170 195 0
169 195 0
169 194 0
169 194 0
169 195 0
168 194 0
170 195 0
170 195 0
170 195 0
168 194 0
169 195 0
172 196 44
170 194 72
167 191 74
170 195 70
170 195 88
171 196 99
171 197 76
166 191 62
164 188 84
160 184 76
153 177 88
149 172 84
149 172 72
142 165 51
129 152 44
133 156 25
119 141 0
113 133 0
103 121 0
101 120 0
104 121 0
96 116 0
104 123 0
112 133 0
127 148 0
141 164 0
141 165 0
152 177 0
144 169 0
157 182 0
154 178 0
160 184 0
159 184 0
165 190 0
165 190 0
166 191 0
167 193 0
167 193 0
167 192 0
168 193 0
167 192 0
168 194 0
170 195 0
169 195 0
169 195 0
168 194 0
169 195 0
168 194 0
168 194 0
168 195 0
168 194 0
170 195 0
168 195 0
170 196 0
169 195 0
169 195 0
170 196 0
169 195 0
170 195 0
169 195 0
168 194 0
170 195 0
169 195 0
170 195 0
170 195 0
169 195 0
169 195 0
170 195 0
168 195 0
170 195 0
169 195 0
169 195 0
169 195 0
171 196 0
169 195 0
169 195 0
170 195 0
169 195 0
169 195 0
170 195 0
169 195 0
168 195 0
170 195 0
169 195 0
169 195 0
170 196 0
169 195 0
168 195 0
168 194 0
169 195 0
169 195 0
169 195 0
171 196 0
169 195 0
169 195 0
170 195 0
170 195 0
169 195 0
170 195 0
169 195 0
169 195 0
170 195 0
169 195 0
168 195 0
170 195 0
170 195 0
169 195 0
170 196 0
169 195 0
169 195 0
169 195 0
169 195 0
168 195 0
169 195 0
169 195 0
168 195 0
171 196 0
169 195 0
169 195 0
168 195 0
169 195 0
168 195 0
169 195 0
170 195 0
170 196 0
171 196 0
170 195 0
170 196 0
169 195 0
169 195 0
171 196 0
169 195 0
170 196 0
169 195 0
170 196 0
169 195 0
169 195 0
170 195 0
169 195 0
170 195 0
169 195 0
169 195 0
170 195 0
168 195 0
170 195 0
170 196 0
170 195 0
170 195 0
170 195 0
170 195 0
170 195 0
169 195 0
171 196 0
169 195 0
169 195 0
169 195 0
169 195 0
169 195 0
170 195 0
169 195 0
169 195 0
169 195 0
169 195 0
169 195 0
169 195 0
170 195 0
169 195 0
169 195 0
170 196 0
170 195 0
170 195 0
170 195 0
170 195 0
169 195 0
170 195 0
170 195 0
169 195 0
170 195 0
169 195 0
171 196 0
170 195 0
170 195 0
168 194 0
169 195 0
169 195 0
168 194 0
169 195 0
170 195 0
169 195 0
170 196 0
169 195 0
168 194 0
169 195 0
169 195 0
167 193 0
167 194 0
169 195 0
169 195 0
169 195 0
169 194 0
164 190 0
171 195 72
171 195 78
170 194 80
170 195 78
176 200 102
169 194 92
171 197 76
169 193 76
173 196 105
166 189 102
157 181 80
153 176 76
157 179 76
139 162 25
138 162 0
137 160 0
117 139 0
128 150 0
116 139 0
119 140 0
124 147 0
123 145 0
132 156 0
134 157 0
140 163 0
149 174 0
155 180 0
150 174 0
161 185 0
157 182 0
163 187 0
161 185 0
160 185 0
167 192 0
165 190 0
167 192 0
166 192 0
167 193 0
169 194 0
168 193 0
169 195 0
168 194 0
169 195 0
170 195 0
168 193 0
169 194 0
169 195 0
168 194 0
169 194 0
170 195 0
168 195 0
170 195 0
168 194 0
169 195 0
169 195 0
169 195 0
169 195 0
169 195 0
169 195 0
170 196 0
169 195 0
169 195 0
171 196 0
169 194 0
170 195 0
170 195 0
170 196 0
169 195 0
171 196 0
169 195 0
170 195 0
169 195 0
171 196 0
170 196 0
168 195 0
170 195 0
170 196 0
169 195 0
169 195 0
170 195 0
169 195 0
169 195 0
170 195 0
170 195 0
169 195 0
169 195 0
170 195 0
170 195 0
170 195 0
169 195 0
170 195 0
168 194 0
169 195 0
169 195 0
169 195 0
169 195 0
169 195 0
170 196 0
169 195 0
169 195 0
170 195 0
168 195 0
169 195 0
170 196 0
169 195 0
170 195 0
170 196 0
170 195 0
169 195 0
169 195 0
169 195 0
168 195 0
169 195 0
170 195 0
170 196 0
170 195 0
168 195 0
170 195 0
169 195 0
169 195 0
169 195 0
169 195 0
170 195 0
170 195 0
170 196 0
169 195 0
170 196 0
170 195 0
170 196 0
168 194 0
169 195 0
170 196 0
170 196 0
171 196 0
170 195 0
169 195 0
169 195 0
169 195 0
169 195 0
169 195 0
170 195 0
169 195 0
170 195 0
169 195 0
169 195 0
170 195 0
170 195 0
169 195 0
169 195 0
169 195 0
170 196 0
170 195 0
169 195 0
170 195 0
169 195 0
169 195 0
169 195 0
170 196 0
169 195 0
168 195 0
169 195 0
170 196 0
169 195 0
169 195 0
169 195 0
170 195 0
169 195 0
169 195 0
170 195 0
170 196 0
170 195 0
170 195 0
169 195 0
169 195 0
170 195 0
170 196 0
169 195 0
170 195 0
169 195 0
170 195 0
170 195 0
169 195 0
170 196 0
169 195 0
169 195 0
170 195 0
169 195 0
169 195 0
170 195 0
168 194 0
169 195 0
169 195 0
167 193 0
168 194 0
170 195 0
167 194 0
168 195 0
166 192 0
171 196 0
168 194 18
167 193 18
164 188 31
165 190 62
172 196 84
173 197 72
174 198 88
173 196 84
176 199 102
161 185 62
163 188 67
152 176 76
161 184 92
155 179 36
152 177 25
147 172 0
144 167 0
145 169 0
141 165 0
132 156 0
134 157 0
138 162 0
139 163 0
142 166 0
154 180 0
151 176 0
148 174 0
159 184 0
160 184 0
157 181 0
165 191 0
164 189 0
164 189 0
160 186 0
164 189 0
167 193 0
168 194 0
166 192 0
168 194 0
168 194 0
166 191 0
168 194 0
169 194 0
169 194 0
169 195 0
170 195 0
169 194 0
169 194 0
167 193 0
170 195 0
170 195 0
169 195 0
170 195 0
168 194 0
169 195 0
169 195 0
170 195 0
169 195 0
170 195 0
170 196 0
170 195 0
170 196 0
169 195 0
169 195 0
170 195 0
169 195 0
169 195 0
170 195 0
168 194 0
169 195 0
169 195 0
169 194 0
170 195 0
169 195 0
170 195 0
169 195 0
169 195 0
171 196 0
170 196 0
169 195 0
169 195 0
169 195 0
169 195 0
169 195 0
169 195 0
169 195 0
170 196 0
168 195 0
169 195 0
170 195 0
168 194 0
171 196 0
170 195 0
169 195 0
170 196 0
169 195 0
169 195 0
169 195 0
168 195 0
170 195 0
169 195 0
169 195 0
170 195 0
170 195 0
169 195 0
169 195 0
169 195 0
169 195 0
168 194 0
170 196 0
169 195 0
169 195 0
169 195 0
171 196 0
168 195 0
170 195 0
169 195 0
170 195 0
170 195 0
171 196 0
169 195 0
171 196 0
169 195 0
170 195 0
170 195 0
169 195 0
169 195 0
169 195 0
170 196 0
169 195 0
169 195 0
170 195 0
170 196 0
170 195 0
169 195 0
171 196 0
168 195 0
170 195 0
170 195 0
169 195 0
170 196 0
170 195 0
169 195 0
170 195 0
168 194 0
169 195 0
169 195 0
169 195 0
170 195 0
170 195 0
169 195 0
169 195 0
169 195 0
170 195 0
169 195 0
169 195 0
170 196 0
169 195 0
169 195 0
169 195 0
169 195 0
169 195 0
168 195 0
169 195 0
170 195 0
169 195 0
170 195 0
169 195 0
170 195 0
168 194 0
169 195 0
170 195 0
168 195 0
169 195 0
169 195 0
170 195 0
169 195 0
169 195 0
169 195 0
170 196 0
168 195 0
169 195 0
169 195 0
168 195 0
171 196 0
169 195 0
170 195 0
170 195 0
169 195 0
169 195 0
168 194 0
170 196 0
168 194 0
169 195 0
169 195 0
168 194 0
168 194 0
169 194 0
168 194 0
169 195 0
168 194 0
167 193 0
167 193 25
167 192 18
167 191 40
168 193 67
170 193 72
167 192 76
165 191 76
169 194 76
166 191 67
161 185 62
160 184 62
160 184 25
156 181 0
148 173 0
144 167 0
148 172 0
150 175 0
150 174 0
142 167 0
147 172 0
144 170 0
147 172 0
148 172 0
145 170 0
158 183 0
161 186 0
158 183 0
159 184 0
164 189 0
163 188 0
165 190 0
166 191 0
167 194 0
166 191 0
166 191 0
168 194 0
168 192 0
169 195 0
169 195 0
169 194 0
168 194 0
168 194 0
169 194 0
170 195 0
170 195 0
165 191 0
170 195 0
168 194 0
169 195 0
170 195 0
168 194 0
168 195 0
170 195 0
171 196 0
170 196 0
169 195 0
169 195 0
169 195 0
168 194 0
169 195 0
169 195 0
169 195 0
170 195 0
169 195 0
170 196 0
169 195 0
169 195 0
169 195 0
170 195 0
169 195 0
170 196 0
170 196 0
170 195 0
169 195 0
169 195 0
169 195 0
170 195 0
169 195 0
169 195 0
169 195 0
169 195 0
169 195 0
169 195 0
169 195 0
169 195 0
168 195 0
169 195 0
170 195 0
169 195 0
169 195 0
169 195 0
169 195 0
169 195 0
170 196 0
170 196 0
170 195 0
170 196 0
169 195 0
170 195 0
169 195 0
169 195 0
169 195 0
170 195 0
169 195 0
170 195 0
169 195 0
169 195 0
170 195 0
168 195 0
169 195 0
169 195 0
170 195 0
169 195 0
169 195 0
168 195 0
170 196 0
170 195 0
169 195 0
170 196 0
169 195 0
169 195 0
169 195 0
170 195 0
169 195 0
169 195 0
169 195 0
170 196 0
169 195 0
169 195 0
170 195 0
169 195 0
170 195 0
170 195 0
170 195 0
169 195 0
169 195 0
169 195 0
169 195 0
170 195 0
168 195 0
169 195 0
170 195 0
168 195 0
170 196 0
170 196 0
169 195 0
170 196 0
170 195 0
169 195 0
169 195 0
169 195 0
169 195 0
169 195 0
169 195 0
169 195 0
168 195 0
169 195 0
169 195 0
168 195 0
168 195 0
169 195 0
170 195 0
168 195 0
170 196 0
169 195 0
169 195 0
170 195 0
168 194 0
170 195 0
170 195 0
169 195 0
170 195 0
168 195 0
168 195 0
169 195 0
170 196 0
170 195 0
169 195 0
168 195 0
170 195 0
170 196 0
169 195 0
169 195 0
170 196 0
168 194 0
169 195 0
169 195 0
169 195 0
169 195 0
169 195 0
169 195 0
169 195 0
169 195 0
169 195 0
167 193 0
170 195 0
167 193 0
169 194 0
169 195 0
168 194 0
169 194 25
174 198 67
173 198 67
169 192 57
172 197 88
169 193 67
170 196 88
166 190 25
166 190 57
171 195 76
164 188 51
164 190 0
158 183 0
158 183 0
152 178 0
157 183 0
152 177 0
157 182 0
151 177 0
150 175 0
160 185 0
160 186 0
157 183 0
161 187 0
165 191 0
158 183 0
161 187 0
159 186 0
163 189 0
161 187 0
164 190 0
165 190 0
167 193 0
166 191 0
166 192 0
166 192 0
167 193 0
167 192 0
167 193 0
168 194 0
168 194 0
168 194 0
168 193 0
167 193 0
168 193 0
169 194 0
169 194 0
170 195 0
169 194 0
169 194 0
169 194 0
170 195 0
170 195 0
170 195 0
169 195 0
168 194 0
169 195 0
169 195 0
169 195 0
170 195 0
169 195 0
170 195 0
169 195 0
169 195 0
169 195 0
170 195 0
171 196 0
171 196 0
170 195 0
170 195 0
170 195 0
170 196 0
170 195 0
170 196 0
169 195 0
169 195 0
169 195 0
169 195 0
170 195 0
169 195 0
169 195 0
170 196 0
169 195 0
169 195 0
171 196 0
169 195 0
170 196 0
169 195 0
168 195 0
169 195 0
169 195 0
171 196 0
170 196 0
170 195 0
169 195 0
169 195 0
170 195 0
169 195 0
170 196 0
169 195 0
169 195 0
172 196 0
169 195 0
169 195 0
170 196 0
170 195 0
169 195 0
169 195 0
170 195 0
170 195 0
169 195 0
168 195 0
169 195 0
169 195 0
169 195 0
170 196 0
169 195 0
169 195 0
170 196 0
169 195 0
170 195 0
169 195 0
170 196 0
169 195 0
170 196 0
170 195 0
169 195 0
169 195 0
170 196 0
169 195 0
169 195 0
170 196 0
168 194 0
169 195 0
169 195 0
169 195 0
169 195 0
168 194 0
169 195 0
170 196 0
169 195 0
169 195 0
170 195 0
170 196 0
169 195 0
169 195 0
170 196 0
169 195 0
169 195 0
170 195 0
170 196 0
170 195 0
169 195 0
169 195 0
170 195 0
170 195 0
169 195 0
171 196 0
169 195 0
170 195 0
171 196 0
171 196 0
168 195 0
169 195 0
170 195 0
169 195 0
169 195 0
170 195 0
169 195 0
169 195 0
170 195 0
169 195 0
169 195 0
169 195 0
170 195 0
168 195 0
169 195 0
169 195 0
169 195 0
169 195 0
169 195 0
171 196 0
169 195 0
169 195 0
170 195 0
168 194 0
169 195 0
170 196 0
169 195 0
169 195 0
169 195 0
169 195 0
169 195 0
169 195 0
168 194 0
170 195 0
168 194 0
168 194 0
167 193 0
167 193 0
170 195 25
168 193 25
173 197 62
173 197 57
169 193 72
171 196 76
170 194 80
168 193 57
165 190 51
164 188 62
166 192 25
163 188 0
156 181 0
164 188 0
161 185 0
159 183 0
159 185 0
156 182 0
158 184 0
157 183 0
159 185 0
161 186 0
157 183 0
163 188 0
159 184 0
155 180 0
163 189 0
162 188 0
168 194 0
167 193 0
165 191 0
168 193 0
168 194 0
166 191 0
168 194 0
166 192 0
169 195 0
168 193 0
168 193 0
166 192 0
166 192 0
169 194 0
169 194 0
170 195 0
168 195 0
169 194 0
168 195 0
169 194 0
168 195 0
169 195 0
169 195 0
167 193 0
170 195 0
168 194 0
169 195 0
169 195 0
170 195 0
169 195 0
169 195 0
169 195 0
169 195 0
170 196 0
170 195 0
169 195 0
170 195 0
170 195 0
170 195 0
169 195 0
168 194 0
170 195 0
170 195 0
169 195 0
169 195 0
170 195 0
170 195 0
169 195 0
169 195 0
170 195 0
171 196 0
169 195 0
170 195 0
170 195 0
169 195 0
170 195 0
169 195 0
170 195 0
169 195 0
169 195 0
169 195 0
170 195 0
168 194 0
170 195 0
170 195 0
169 195 0
169 195 0
168 195 0
170 195 0
168 195 0
168 195 0
170 195 0
168 194 0
169 195 0
169 195 0
169 195 0
170 195 0
169 195 0
169 195 0
170 195 0
169 195 0
169 195 0
171 196 0
168 194 0
169 195 0
169 195 0
169 195 0
170 195 0
169 195 0
169 195 0
170 195 0
169 195 0
170 196 0
169 195 0
170 195 0
170 195 0
170 195 0
170 195 0
169 195 0
170 196 0
169 195 0
169 195 0
170 196 0
169 195 0
170 195 0
170 195 0
169 195 0
169 195 0
169 195 0
170 195 0
169 195 0
169 195 0
170 196 0
170 196 0
168 195 0
169 195 0
169 195 0
169 195 0
170 196 0
170 195 0
170 195 0
169 195 0
169 195 0
170 196 0
170 195 0
169 195 0
169 195 0
170 195 0
169 195 0
169 195 0
168 195 0
169 195 0
170 195 0
169 195 0
169 195 0
170 195 0
169 195 0
171 196 0
169 195 0
170 195 0
170 195 0
169 195 0
170 195 0
169 195 0
169 195 0
169 195 0
169 195 0
168 195 0
170 195 0
169 195 0
170 195 0
169 195 0
170 195 0
169 195 0
169 195 0
170 195 0
169 195 0
168 195 0
170 195 0
170 195 0
169 195 0
170 195 0
167 194 0
169 195 0
169 195 0
168 193 0
169 194 0
168 194 0
170 196 0
167 193 0
169 195 0
167 193 0
167 192 0
171 196 36
169 194 25
170 195 36
168 192 36
170 194 57
171 194 57
170 194 44
167 191 0
168 193 0
168 192 0
166 191 0
165 189 0
159 184 0
163 188 0
158 183 0
162 188 0
160 186 0
153 179 0
161 186 0
163 189 0
165 191 0
162 188 0
164 190 0
165 191 0
163 189 0
165 191 0
167 193 0
166 191 0
166 191 0
167 192 0
166 192 0
166 192 0
169 195 0
167 193 0
166 192 0
168 194 0
168 194 0
166 192 0
169 195 0
170 195 0
167 193 0
169 195 0
168 194 0
168 194 0
169 195 0
169 195 0
169 195 0
170 195 0
169 195 0
168 194 0
170 195 0
168 194 0
171 196 0
169 195 0
169 195 0
170 196 0
168 195 0
169 195 0
168 195 0
169 195 0
169 195 0
168 195 0
170 195 0
169 195 0
169 195 0
170 195 0
170 196 0
170 196 0
169 195 0
169 195 0
169 195 0
169 195 0
168 194 0
169 195 0
170 195 0
169 195 0
169 195 0
170 195 0
170 196 0
170 195 0
169 195 0
169 195 0
169 195 0
168 194 0
170 195 0
169 195 0
169 195 0
169 195 0
168 195 0
170 196 0
169 195 0
169 195 0
169 195 0
169 195 0
169 195 0
169 195 0
169 195 0
169 195 0
169 195 0
170 195 0
170 195 0
170 195 0
170 196 0
168 195 0
169 195 0
170 195 0
171 196 0
169 195 0
169 195 0
169 195 0
169 195 0
170 195 0
168 194 0
169 195 0
169 195 0
170 196 0
169 195 0
170 195 0
170 196 0
169 195 0
169 195 0
171 196 0
170 196 0
169 195 0
170 195 0
168 195 0
169 195 0
170 195 0
169 195 0
169 195 0
170 195 0
170 196 0
170 195 0
169 195 0
169 195 0
168 195 0
170 195 0
171 196 0
170 195 0
170 196 0
171 196 0
169 195 0
169 195 0
169 195 0
170 196 0
170 195 0
169 195 0
169 195 0
169 195 0
169 195 0
170 196 0
170 195 0
169 195 0
169 195 0
171 196 0
170 195 0
169 195 0
170 195 0
170 195 0
168 194 0
170 195 0
169 195 0
168 195 0
170 195 0
170 195 0
170 195 0
168 195 0
168 195 0
169 195 0
169 195 0
169 195 0
169 195 0
170 196 0
168 195 0
170 195 0
168 195 0
169 195 0
169 195 0
170 196 0
170 195 0
168 195 0
170 195 0
169 195 0
169 195 0
169 195 0
170 195 0
169 195 0
170 195 0
169 194 0
169 195 0
168 194 0
169 195 0
169 194 0
169 195 0
169 195 0
168 194 0
168 194 0
163 189 0
168 194 0
171 196 0
169 194 0
169 194 0
168 192 0
170 195 25
165 190 0
171 196 25
168 193 0
168 192 0
167 192 0
166 191 0
167 192 0
162 188 0
168 193 0
161 186 0
162 188 0
163 189 0
163 188 0
168 193 0
163 189 0
162 188 0
163 189 0
164 190 0
156 181 0
163 189 0
164 190 0
166 192 0
164 190 0
167 193 0
167 192 0
165 191 0
167 193 0
167 192 0
168 194 0
166 191 0
168 194 0
166 192 0
169 195 0
168 194 0
168 194 0
168 193 0
169 195 0
169 194 0
170 195 0
169 195 0
169 195 0
169 194 0
168 194 0
170 196 0
170 195 0
170 195 0
169 195 0
171 196 0
168 195 0
170 195 0
168 194 0
169 195 0
169 195 0
169 194 0
170 195 0
168 194 0
169 195 0
169 195 0
170 195 0
169 195 0
171 196 0
170 196 0
168 195 0
170 195 0
170 195 0
169 195 0
169 195 0
171 196 0
170 195 0
169 195 0
169 195 0
169 195 0
170 196 0
169 195 0
169 195 0
169 195 0
170 195 0
171 196 0
169 195 0
170 195 0
169 195 0
170 195 0
169 195 0
168 195 0
169 195 0
169 195 0
170 195 0
170 195 0
170 195 0
170 196 0
169 195 0
170 196 0
168 195 0
169 195 0
171 196 0
169 195 0
170 196 0
169 195 0
169 195 0
170 195 0
171 196 0
170 195 0
168 194 0
170 196 0
169 195 0
170 195 0
168 195 0
169 195 0
169 195 0
169 195 0
169 195 0
169 195 0
169 195 0
170 195 0
169 195 0
169 195 0
169 195 0
170 195 0
169 195 0
170 196 0
170 196 0
170 195 0
169 195 0
169 195 0
169 195 0
168 195 0
170 195 0
169 195 0
170 195 0
169 195 0
169 195 0
170 195 0
169 195 0
169 195 0
170 195 0
169 195 0
170 196 0
169 195 0
170 196 0
169 195 0
170 195 0
170 195 0
169 195 0
168 195 0
169 195 0
169 195 0
171 196 0
170 196 0
168 195 0
169 195 0
169 195 0
169 195 0
170 195 0
170 196 0
170 195 0
169 195 0
169 195 0
169 195 0
169 195 0
169 195 0
169 195 0
169 195 0
170 196 0
169 195 0
169 195 0
170 196 0
169 195 0
169 195 0
169 195 0
168 194 0
169 195 0
169 195 0
169 195 0
168 194 0
169 195 0
169 195 0
170 195 0
169 195 0
169 195 0
168 194 0
170 196 0
168 195 0
170 195 0
169 195 0
168 195 0
170 195 0
167 193 0
169 195 0
168 194 0
168 194 0
167 193 0
170 195 0
168 193 0
168 193 0
170 195 0
170 195 0
170 195 0
170 194 0
171 195 0
169 194 0
168 193 0
169 193 0
170 194 0
170 195 0
169 194 0
169 194 0
167 192 0
167 192 0
167 193 0
163 189 0
168 193 0
164 190 0
163 189 0
165 190 0
161 186 0
165 190 0
163 189 0
164 190 0
166 191 0
164 189 0
168 193 0
167 194 0
165 191 0
167 192 0
170 195 0
166 192 0
167 193 0
168 194 0
166 192 0
169 194 0
167 193 0
166 193 0
167 193 0
168 194 0
169 195 0
168 194 0
168 194 0
170 195 0
169 195 0
169 195 0
169 195 0
169 195 0
169 194 0
170 195 0
170 195 0
169 195 0
169 195 0
169 195 0
168 194 0
168 195 0
169 195 0
168 194 0
170 195 0
169 195 0
170 195 0
169 195 0
169 195 0
169 195 0
169 195 0
170 195 0
170 195 0
169 194 0
171 196 0
169 195 0
170 195 0
169 195 0
170 196 0
169 195 0
170 195 0
170 195 0
169 195 0
169 195 0
169 195 0
170 195 0
170 195 0
169 195 0
170 195 0
169 195 0
170 195 0
169 195 0
169 195 0
169 195 0
169 195 0
170 196 0
170 195 0
170 195 0
170 196 0
169 195 0
169 195 0
170 195 0
169 195 0
169 195 0
169 195 0
169 195 0
170 195 0
170 195 0
170 195 0
169 195 0
169 195 0
171 196 0
170 195 0
170 195 0
169 195 0
170 195 0
168 195 0
169 195 0
168 194 0
170 195 0
170 196 0
169 195 0
170 195 0
169 195 0
170 195 0
168 195 0
169 195 0
170 195 0
170 196 0
169 195 0
171 196 0
169 195 0
171 196 0
170 195 0
168 195 0
169 195 0
169 195 0
170 195 0
170 195 0
169 195 0
169 195 0
169 195 0
171 196 0
170 195 0
170 195 0
167 194 0
170 195 0
169 195 0
169 195 0
168 195 0
169 195 0
169 195 0
170 195 0
169 195 0
170 195 0
170 196 0
169 195 0
169 195 0
168 194 0
170 195 0
169 195 0
169 195 0
169 195 0
169 195 0
169 195 0
169 195 0
169 195 0
170 195 0
170 196 0
170 196 0
169 195 0
168 195 0
169 195 0
170 195 0
169 195 0
170 195 0
169 195 0
169 195 0
169 195 0
170 196 0
168 194 0
169 195 0
168 194 0
169 195 0
170 195 0
170 195 0
169 195 0
170 196 0
170 195 0
169 194 0
169 195 0
168 195 0
170 195 0
170 195 0
169 195 0
169 195 0
169 195 0
169 195 0
169 195 0
170 195 0
169 194 0
168 194 0
169 195 0
169 194 0
169 195 0
167 192 0
171 196 0
169 194 0
169 194 0
171 195 0
168 193 0
165 191 0
171 195 0
170 194 0
169 194 0
165 190 0
169 194 0
169 194 0
166 192 0
165 190 0
166 192 0
166 191 0
164 190 0
166 192 0
164 190 0
165 191 0
165 191 0
169 195 0
166 192 0
168 194 0
166 192 0
166 193 0
164 190 0
168 194 0
164 189 0
167 193 0
166 192 0
169 195 0
168 194 0
169 194 0
169 194 0
168 194 0
167 193 0
169 195 0
169 195 0
168 194 0
169 194 0
168 194 0
168 194 0
170 195 0
170 195 0
169 194 0
169 195 0
169 195 0
169 195 0
169 195 0
168 194 0
170 195 0
168 194 0
168 195 0
170 196 0
168 195 0
169 195 0
169 195 0
170 195 0
170 195 0
169 195 0
169 195 0
170 195 0
169 195 0
171 196 0
169 195 0
168 194 0
169 195 0
169 195 0
169 195 0
169 195 0
169 195 0
170 195 0
169 195 0
170 195 0
170 196 0
169 195 0
169 195 0
169 195 0
169 195 0
170 195 0
169 195 0
169 195 0
169 195 0
170 196 0
170 196 0
169 195 0
170 195 0
169 195 0
169 195 0
170 196 0
169 195 0
170 195 0
169 195 0
170 196 0
169 195 0
170 195 0
169 195 0
169 195 0
169 195 0
170 196 0
171 196 0
169 195 0
170 196 0
169 195 0
168 195 0
171 196 0
168 195 0
170 195 0
169 195 0
169 195 0
169 195 0
169 195 0
168 195 0
169 195 0
170 195 0
171 196 0
170 195 0
169 195 0
169 195 0
170 196 0
171 196 0
170 195 0
170 196 0
169 195 0
169 195 0
168 195 0
170 195 0
171 196 0
170 195 0
169 195 0
170 195 0
171 196 0
170 195 0
169 195 0
169 195 0
169 195 0
170 195 0
170 195 0
169 195 0
169 195 0
170 195 0
169 195 0
169 195 0
169 195 0
169 195 0
168 195 0
169 195 0
168 195 0
169 195 0
170 195 0
170 195 0
168 195 0
169 195 0
169 195 0
168 194 0
171 196 0
170 196 0
169 195 0
170 195 0
169 195 0
169 195 0
170 195 0
169 195 0
169 195 0
170 196 0
169 195 0
170 195 0
170 195 0
169 195 0
168 195 0
169 195 0
169 195 0
169 195 0
169 195 0
170 195 0
169 195 0
168 195 0
170 195 0
169 195 0
169 195 0
167 194 0
169 195 0
170 196 0
170 195 0
170 195 0
169 194 0
170 195 0
169 195 0
169 195 0
169 195 0
170 195 0
169 195 0
170 196 0
169 195 0
169 195 0
170 195 0
169 195 0
169 195 0
170 195 0
167 192 0
170 195 0
170 195 0
169 195 0
171 195 0
172 196 0
167 192 0
168 193 0
169 194 0
168 193 0
169 194 0
168 193 0
168 193 0
169 194 0
165 191 0
164 189 0
165 192 0
166 192 0
168 194 0
166 192 0
165 191 0
167 193 0
165 191 0
168 193 0
168 194 0
167 193 0
165 191 0
168 194 0
169 194 0
167 194 0
168 193 0
166 192 0
168 194 0
167 193 0
168 194 0
168 194 0
170 195 0
169 195 0
168 194 0
168 194 0
168 194 0
168 194 0
170 195 0
169 194 0
170 195 0
170 196 0
169 195 0
169 195 0
170 195 0
168 195 0
170 195 0
169 195 0
168 195 0
169 195 0
168 194 0
169 195 0
170 196 0
170 195 0
169 195 0
169 194 0
170 195 0
169 195 0
170 196 0
169 195 0
169 195 0
170 195 0
169 195 0
170 195 0
169 195 0
168 195 0
169 195 0
169 195 0
170 195 0
170 195 0
169 195 0
169 195 0
169 195 0
170 195 0
169 195 0
170 196 0
170 195 0
169 195 0
169 195 0
169 195 0
169 195 0
170 195 0
169 195 0
170 195 0
170 195 0
169 195 0
169 195 0
169 195 0
169 195 0
170 196 0
169 195 0
170 195 0
169 195 0
170 196 0
170 196 0
169 195 0
169 195 0
171 196 0
169 195 0
170 195 0
169 195 0
170 196 0
169 195 0
169 195 0
169 195 0
169 195 0
170 195 0
170 195 0
170 195 0
169 195 0
169 195 0
169 195 0
170 195 0
169 195 0
169 195 0
169 195 0
169 195 0
170 195 0
169 195 0
170 195 0
170 196 0
169 195 0
169 195 0
171 196 0
169 195 0
168 195 0
169 195 0
169 195 0
169 195 0
169 195 0
170 196 0
168 195 0
170 195 0
170 195 0
168 195 0
170 195 0
169 195 0
169 195 0
170 196 0
169 195 0
168 195 0
170 195 0
169 195 0
170 196 0
168 195 0
169 195 0
169 195 0
170 195 0
170 195 0
169 195 0
171 196 0
169 195 0
170 195 0
170 196 0
168 195 0
170 196 0
169 195 0
169 195 0
170 195 0
170 195 0
170 196 0
170 196 0
169 195 0
169 195 0
169 195 0
169 195 0
168 195 0
168 194 0
170 195 0
169 195 0
169 195 0
170 195 0
169 195 0
170 195 0
168 194 0
170 195 0
168 195 0
169 195 0
169 195 0
170 195 0
169 195 0
168 194 0
170 195 0
167 194 0
169 195 0
168 194 0
168 194 0
169 194 0
169 195 0
168 194 0
168 194 0
169 195 0
169 195 0
166 193 0
166 191 0
169 194 0
167 193 0
168 194 0
169 195 0
169 194 0
169 194 0
168 193 0
167 192 0
170 195 0
167 192 0
170 195 0
168 193 0
168 193 0
167 193 0
166 192 0
168 194 0
166 192 0
167 193 0
167 193 0
165 191 0
167 193 0
168 194 0
167 193 0
168 193 0
166 192 0
165 191 0
168 194 0
169 195 0
167 192 0
166 191 0
168 194 0
170 196 0
165 191 0
168 194 0
169 195 0
169 195 0
169 194 0
167 193 0
170 196 0
168 195 0
169 194 0
169 194 0
171 196 0
167 193 0
169 195 0
168 194 0
169 195 0
169 195 0
169 195 0
169 195 0
169 195 0
168 194 0
169 195 0
169 195 0
169 195 0
170 195 0
169 195 0
169 195 0
169 195 0
170 195 0
170 196 0
168 195 0
170 195 0
170 196 0
169 195 0
168 195 0
169 194 0
169 195 0
170 195 0
169 195 0
169 195 0
169 195 0
170 196 0
169 195 0
170 196 0
169 195 0
169 195 0
169 195 0
169 195 0
170 196 0
168 194 0
169 195 0
169 195 0
171 196 0
169 195 0
170 195 0
171 196 0
169 195 0
169 195 0
170 195 0
169 195 0
169 195 0
170 196 0
170 195 0
168 194 0
170 195 0
169 195 0
168 195 0
170 195 0
170 195 0
168 195 0
169 195 0
170 195 0
170 196 0
168 194 0
170 195 0
170 196 0
170 195 0
170 195 0
169 195 0
169 195 0
169 195 0
169 195 0
170 195 0
169 195 0
169 195 0
170 195 0
170 195 0
170 195 0
168 194 0
170 196 0
171 196 0
169 195 0
170 195 0
170 195 0
170 195 0
169 195 0
170 196 0
169 195 0
170 196 0
170 195 0
168 195 0
169 195 0
170 196 0
170 195 0
170 195 0
169 195 0
170 196 0
169 195 0
170 195 0
168 195 0
169 195 0
168 195 0
170 195 0
170 195 0
170 196 0
169 195 0
169 195 0
170 196 0
169 195 0
170 195 0
169 195 0
169 195 0
170 195 0
168 195 0
169 195 0
169 195 0
169 195 0
169 195 0
169 195 0
169 195 0
169 195 0
169 195 0
169 195 0
170 195 0
168 194 0
169 195 0
169 195 0
169 195 0
169 195 0
168 194 0
170 195 0
169 195 0
169 195 0
170 195 0
169 195 0
169 195 0
169 195 0
169 195 0
169 195 0
167 194 0
169 195 0
169 195 0
168 194 0
168 194 0
170 195 0
168 194 0
170 195 0
169 195 0
169 195 0
169 195 0
169 195 0
168 194 0
169 195 0
169 195 0
170 195 0
167 194 0
167 193 0
169 195 0
169 195 0
168 194 0
169 195 0
170 195 0
169 194 0
170 195 0
169 195 0
169 194 0
167 193 0
165 191 0
171 196 0
170 195 0
169 194 0
169 194 0
167 193 0
167 193 0
167 193 0
165 191 0
166 192 0
168 194 0
168 194 0
168 194 0
168 193 0
168 195 0
166 192 0
168 193 0
168 194 0
167 193 0
168 194 0
168 194 0
168 194 0
169 195 0
168 194 0
168 194 0
168 194 0
169 195 0
169 195 0
168 194 0
168 194 0
169 195 0
167 193 0
170 195 0
168 195 0
166 193 0
169 195 0
169 195 0
168 194 0
169 195 0
168 194 0
168 195 0
169 195 0
168 193 0
170 195 0
170 195 0
168 195 0
170 195 0
170 195 0
170 195 0
171 196 0
170 195 0
169 195 0
169 195 0
170 195 0
171 196 0
169 195 0
170 195 0
169 195 0
169 195 0
169 195 0
169 195 0
169 195 0
169 195 0
168 194 0
170 195 0
170 196 0
170 195 0
170 195 0
169 195 0
169 195 0
169 195 0
169 195 0
169 195 0
169 195 0
170 195 0
169 195 0
169 195 0
168 195 0
170 195 0
169 195 0
170 195 0
168 195 0
168 195 0
170 195 0
169 195 0
170 196 0
169 195 0
170 196 0
170 195 0
169 195 0
170 196 0
169 195 0
169 195 0
169 195 0
170 195 0
169 195 0
169 195 0
170 195 0
169 195 0
170 196 0
171 196 0
169 195 0
168 195 0
170 195 0
170 195 0
171 196 0
169 195 0
171 196 0
169 195 0
170 196 0
169 195 0
169 195 0
169 195 0
169 195 0
171 196 0
169 195 0
170 195 0
168 195 0
168 195 0
170 195 0
168 195 0
170 196 0
169 195 0
170 196 0
169 195 0
169 195 0
169 195 0
169 195 0
169 195 0
170 195 0
169 195 0
169 195 0
170 195 0
170 195 0
170 195 0
168 195 0
169 195 0
170 195 0
169 195 0
169 195 0
170 195 0
169 195 0
171 196 0
170 195 0
169 195 0
169 195 0
170 195 0
170 195 0
170 195 0
170 196 0
170 195 0
169 195 0
170 195 0
168 194 0
170 196 0
170 195 0
171 196 0
169 195 0
169 195 0
169 195 0
169 195 0
169 195 0
170 195 0
169 195 0
169 195 0
170 196 0
170 195 0
170 195 0
169 195 0
170 195 0
170 196 0
168 195 0
169 195 0
170 195 0
171 196 0
169 195 0
170 196 0
168 194 0
170 195 0
170 195 0
169 195 0
170 195 0
170 195 0
169 194 0
170 195 0
169 194 0
169 195 0
168 194 0
169 194 0
169 194 0
166 192 0
168 194 0
168 194 0
170 195 0
168 195 0
169 194 0
167 193 0
168 194 0
169 194 0
168 193 0
171 196 0
169 195 0
165 192 0
167 193 0
168 194 0
168 193 0
170 195 0
168 194 0
166 193 0
168 194 0
169 195 0
167 193 0
166 192 0
168 194 0
166 192 0
167 193 0
167 193 0
169 195 0
169 195 0
168 194 0
167 192 0
166 191 0
169 194 0
168 194 0
169 195 0
167 193 0
170 195 0
170 195 0
169 195 0
169 195 0
169 195 0
168 194 0
168 195 0
169 195 0
168 194 0
169 195 0
169 195 0
169 195 0
170 195 0
169 195 0
169 195 0
169 195 0
170 195 0
169 195 0
169 194 0
169 195 0
170 196 0
168 194 0
169 195 0
171 196 0
169 195 0
169 195 0
169 195 0
170 195 0
170 195 0
169 195 0
169 195 0
169 195 0
169 195 0
169 195 0
169 195 0
170 196 0
169 195 0
169 195 0
169 195 0
168 195 0
170 195 0
169 195 0
170 195 0
170 196 0
170 195 0
170 196 0
169 195 0
169 195 0
170 196 0
170 195 0
171 196 0
169 195 0
170 195 0
169 195 0
169 195 0
171 196 0
169 195 0
170 195 0
169 195 0
169 195 0
169 195 0
169 195 0
169 195 0
170 196 0
169 195 0
170 195 0
169 195 0
170 196 0
169 195 0
170 195 0
169 195 0
169 195 0
170 196 0
170 195 0
169 195 0
170 195 0
169 195 0
169 195 0
169 195 0
169 195 0
169 195 0
170 196 0
169 195 0
170 196 0
170 195 0
169 195 0
169 195 0
169 195 0
170 195 0
169 195 0
169 195 0
170 195 0
169 195 0
169 195 0
169 195 0
169 195 0
169 195 0
170 195 0
169 195 0
169 195 0
168 195 0
170 195 0
171 196 0
170 195 0
169 195 0
169 195 0
170 195 0
170 196 0
169 195 0
169 195 0
169 195 0
170 195 0
169 195 0
169 195 0
169 195 0
169 195 0
168 195 0
168 195 0
169 195 0
170 196 0
168 195 0
170 195 0
169 195 0
170 195 0
170 195 0
170 195 0
169 195 0
170 195 0
170 196 0
169 195 0
170 195 0
169 195 0
169 195 0
169 195 0
170 195 0
169 195 0
170 196 0
170 195 0
169 195 0
169 195 0
169 195 0
168 195 0
171 196 0
169 195 0
170 195 0
170 195 0
169 195 0
169 194 0
169 195 0
169 195 0
169 195 0
169 195 0
170 195 0
169 195 0
170 195 0
169 195 0
168 194 0
168 194 0
169 195 0
169 195 0
169 194 0
168 194 0
168 195 0
169 195 0
168 194 0
168 194 0
170 196 0
168 194 0
168 194 0
168 195 0
169 195 0
167 193 0
168 194 0
168 193 0
169 195 0
168 194 0
169 195 0
167 194 0
168 194 0
167 193 0
167 194 0
169 194 0
168 194 0
168 193 0
168 194 0
169 194 0
167 193 0
169 195 0
169 195 0
167 194 0
167 193 0
167 194 0
168 194 0
166 192 0
168 194 0
168 194 0
170 195 0
169 195 0
168 194 0
170 195 0
168 194 0
170 195 0
168 193 0
169 195 0
169 195 0
169 195 0
169 194 0
168 194 0
169 195 0
170 195 0
169 195 0
169 195 0
167 194 0
169 195 0
169 195 0
168 195 0
168 195 0
169 195 0
171 196 0
170 195 0
170 195 0
169 195 0
170 195 0
169 195 0
169 195 0
169 195 0
170 196 0
169 195 0
169 195 0
170 195 0
170 196 0
170 195 0
169 195 0
169 195 0
168 195 0
170 195 0
169 195 0
170 195 0
169 195 0
168 194 0
170 195 0
170 195 0
169 195 0
170 196 0
168 194 0
169 195 0
170 195 0
169 195 0
171 196 0
169 195 0
170 195 0
170 195 0
170 195 0
170 195 0
170 196 0
169 195 0
170 195 0
169 195 0
169 195 0
168 194 0
170 195 0
169 195 0
170 195 0
170 195 0
169 195 0
169 195 0
169 195 0
168 195 0
169 195 0
168 195 0
169 195 0
169 195 0
169 195 0
169 195 0
170 195 0
170 195 0
169 195 0
169 195 0
169 195 0
169 195 0
168 195 0
169 195 0
169 195 0
169 195 0
169 195 0
169 195 0
169 195 0
168 195 0
170 196 0
169 195 0
170 195 0
169 195 0
171 196 0
170 196 0
169 195 0
170 196 0
169 195 0
170 195 0
170 196 0
170 195 0
170 196 0
168 195 0
170 195 0
169 195 0
169 195 0
169 195 0
169 195 0
169 195 0
169 195 0
169 195 0
169 195 0
169 195 0
170 195 0
170 196 0
169 195 0
169 195 0
170 195 0
168 195 0
170 195 0
170 195 0
169 195 0
169 195 0
169 195 0
170 195 0
170 195 0
169 195 0
169 195 0
170 195 0
170 195 0
169 195 0
170 196 0
170 195 0
170 196 0
169 195 0
171 196 0
170 196 0
169 195 0
170 196 0
169 195 0
169 195 0
169 195 0
169 195 0
170 196 0
169 195 0
169 195 0
169 195 0
169 195 0
170 195 0
168 194 0
169 195 0
170 196 0
169 195 0
170 195 0
170 195 0
169 195 0
170 195 0
170 195 0
169 194 0
171 196 0
168 194 0
170 195 0
169 195 0
168 194 0
169 195 0
168 195 0
170 195 0
168 194 0
169 195 0
169 195 0
169 194 0
168 194 0
172 196 0
166 192 0
169 195 0
169 195 0
168 194 0
170 196 0
168 194 0
168 194 0
168 194 0
169 194 0
166 192 0
168 194 0
169 195 0
166 192 0
168 194 0
170 195 0
168 194 0
167 193 0
167 194 0
167 193 0
170 195 0
167 193 0
168 194 0
168 194 0
169 195 0
168 194 0
169 194 0
169 195 0
170 195 0
168 194 0
169 195 0
169 195 0
169 195 0
170 195 0
170 195 0
169 195 0
169 195 0
170 195 0
170 195 0
168 194 0
168 194 0
169 194 0
170 195 0
171 196 0
168 194 0
170 195 0
168 194 0
169 195 0
169 195 0
170 195 0
170 195 0
168 195 0
169 195 0
170 195 0
169 195 0
168 194 0
169 195 0
169 195 0
169 195 0
169 195 0
169 195 0
170 195 0
169 195 0
170 196 0
169 195 0
169 195 0
169 195 0
169 195 0
169 195 0
169 195 0
169 195 0
169 195 0
169 195 0
169 195 0
169 195 0
170 196 0
169 195 0
169 195 0
168 194 0
170 195 0
169 195 0
169 195 0
170 195 0
169 195 0
170 196 0
170 196 0
168 195 0
169 195 0
171 196 0
170 195 0
168 195 0
169 195 0
169 195 0
169 195 0
170 195 0
169 195 0
169 195 0
168 195 0
168 195 0
169 195 0
169 195 0
170 195 0
170 196 0
169 195 0
169 195 0
169 195 0
170 195 0
170 195 0
170 195 0
169 195 0
169 195 0
170 196 0
168 195 0
169 195 0
169 195 0
169 195 0
169 195 0
169 195 0
168 195 0
170 195 0
170 196 0
170 195 0
170 195 0
170 195 0
169 195 0
169 195 0
169 195 0
169 195 0
170 195 0
169 195 0
170 195 0
169 195 0
171 196 0
169 195 0
170 196 0
169 195 0
168 195 0
168 195 0
169 195 0
170 196 0
169 195 0
170 195 0
169 195 0
169 195 0
170 195 0
168 195 0
169 195 0
169 195 0
169 195 0
169 195 0
169 195 0
169 195 0
170 195 0
169 195 0
170 196 0
169 195 0
169 195 0
171 196 0
170 195 0
170 196 0
169 195 0
169 195 0
168 195 0
170 195 0
169 195 0
168 195 0
169 195 0
169 195 0
168 195 0
168 195 0
170 195 0
169 195 0
170 195 0
169 194 0
168 194 0
169 195 0
169 195 0
169 195 0
169 195 0
169 195 0
170 195 0
170 195 0
170 196 0
169 195 0
169 194 0
170 196 0
169 195 0
168 194 0
168 194 0
169 195 0
169 194 0
169 195 0
169 195 0
169 195 0
168 194 0
169 195 0
169 195 0
170 195 0
168 194 0
170 195 0
168 194 0
168 193 0
170 196 0
168 193 0
168 193 0
168 194 0
167 194 0
169 195 0
169 195 0
169 195 0
168 194 0
169 195 0
168 194 0
165 191 0
168 194 0
170 195 0
168 194 0
167 193 0
167 193 0
167 194 0
168 193 0
168 194 0
169 195 0
168 194 0
166 193 0
169 195 0
169 195 0
169 194 0
167 192 0
168 194 0
168 194 0
168 194 0
169 195 0
168 193 0
168 195 0
167 193 0
170 195 0
170 195 0
169 194 0
170 195 0
169 195 0
170 195 0
169 195 0
167 193 0
168 194 0
169 195 0
169 194 0
170 195 0
169 195 0
170 195 0
170 195 0
170 196 0
170 195 0
170 195 0
169 195 0
170 195 0
168 195 0
169 195 0
169 195 0
170 195 0
170 195 0
169 195 0
169 195 0
169 195 0
170 195 0
169 195 0
170 195 0
171 196 0
169 195 0
170 195 0
169 195 0
169 195 0
169 195 0
169 195 0
170 196 0
169 195 0
170 196 0
169 195 0
169 195 0
169 195 0
169 195 0
171 196 0
169 195 0
170 196 0
169 195 0
170 195 0
169 195 0
169 195 0
170 195 0
169 195 0
170 195 0
168 195 0
169 195 0
169 195 0
169 195 0
168 195 0
168 195 0
170 195 0
169 195 0
169 195 0
169 195 0
170 195 0
170 196 0
170 196 0
170 195 0
170 195 0
169 195 0
169 195 0
170 195 0
169 195 0
170 195 0
170 196 0
171 196 0
170 195 0
169 195 0
169 195 0
170 196 0
169 195 0
169 195 0
168 195 0
169 195 0
169 195 0
171 196 0
170 196 0
170 196 0
169 195 0
170 195 0
169 195 0
169 195 0
170 195 0
170 195 0
169 195 0
170 195 0
169 195 0
170 195 0
169 195 0
169 195 0
171 196 0
169 195 0
169 195 0
169 195 0
169 195 0
169 195 0
169 195 0
170 195 0
168 195 0
169 195 0
170 195 0
169 195 0
169 195 0
169 195 0
170 195 0
169 195 0
169 195 0
170 195 0
169 195 0
169 195 0
170 195 0
170 196 0
170 195 0
169 195 0
170 196 0
170 196 0
170 195 0
169 195 0
169 195 0
169 195 0
169 195 0
170 196 0
170 195 0
170 195 0
169 195 0
169 195 0
170 195 0
170 196 0
168 195 0
170 196 0
169 195 0
169 195 0
168 195 0
171 196 0
168 195 0
170 195 0
168 194 0
168 194 0
170 195 0
169 195 0
168 195 0
169 195 0
169 195 0
169 195 0
167 194 0
170 195 0
166 192 0
170 195 0
169 195 0
169 195 0
168 195 0
169 194 0
169 194 0
169 195 0
167 193 0
166 192 0
170 196 0
168 194 0
169 195 0
169 195 0
169 195 0
167 193 0
169 195 0
168 193 0
168 194 0
168 194 0
168 194 0
168 195 0
169 195 0
169 194 0
169 195 0
169 194 0
168 194 0
169 195 0
169 195 0
168 194 0
169 195 0
166 192 0
168 194 0
168 193 0
170 196 0
168 194 0
170 195 0
168 194 0
169 195 0
169 194 0
169 195 0
168 194 0
169 195 0
169 195 0
169 195 0
170 196 0
169 195 0
169 195 0
169 194 0
170 195 0
169 194 0
169 194 0
170 195 0
169 195 0
168 195 0
168 194 0
169 195 0
170 195 0
167 194 0
170 195 0
169 195 0
169 195 0
169 195 0
170 195 0
170 195 0
169 195 0
170 195 0
169 195 0
169 195 0
170 196 0
169 195 0
170 195 0
170 196 0
170 196 0
169 195 0
169 195 0
169 195 0
172 196 0
170 196 0
170 196 0
169 195 0
169 195 0
168 195 0
169 195 0
169 195 0
170 195 0
169 195 0
169 195 0
170 195 0
168 195 0
171 196 0
170 195 0
170 195 0
169 195 0
169 195 0
169 195 0
170 195 0
169 195 0
170 195 0
169 195 0
169 195 0
170 195 0
169 195 0
169 195 0
169 195 0
169 195 0
170 195 0
170 195 0
169 195 0
169 195 0
169 195 0
170 195 0
169 195 0
169 195 0
169 195 0
169 195 0
169 195 0
169 195 0
169 195 0
170 195 0
169 195 0
171 196 0
170 195 0
170 195 0
170 195 0
169 195 0
170 195 0
169 195 0
170 196 0
169 195 0
169 195 0
170 195 0
169 195 0
169 195 0
169 195 0
170 196 0
169 195 0
170 195 0
169 195 0
169 195 0
170 195 0
170 195 0
169 195 0
170 195 0
169 195 0
170 195 0
170 195 0
170 195 0
170 195 0
169 195 0
170 195 0
169 195 0
170 195 0
170 195 0
170 195 0
170 196 0
169 195 0
169 195 0
170 195 0
169 195 0
169 195 0
169 195 0
170 195 0
170 195 0
169 195 0
170 195 0
169 195 0
170 195 0
169 195 0
170 195 0
169 195 0
169 195 0
169 195 0
169 195 0
170 195 0
171 196 0
170 195 0
169 195 0
171 196 0
167 194 0
169 195 0
169 195 0
169 195 0
169 195 0
168 195 0
168 195 0
169 195 0
170 196 0
169 195 0
168 195 0
169 195 0
168 194 0
171 196 0
169 195 0
168 194 0
170 195 0
169 195 0
169 194 0
168 195 0
168 195 0
169 195 0
167 193 0
168 195 0
169 194 0
168 193 0
169 195 0
168 194 0
169 195 0
168 194 0
167 193 0
170 195 0
170 196 0
170 195 0
168 194 0
168 194 0
170 195 0
167 193 0
168 194 0
167 193 0
170 195 0
170 195 0
170 195 0
170 196 0
168 194 0
169 195 0
169 194 0
167 193 0
168 194 0
170 195 0
167 193 0
168 193 0
169 195 0
167 193 0
170 195 0
169 194 0
169 194 0
169 195 0
169 195 0
169 194 0
169 195 0
168 194 0
169 195 0
170 195 0
169 195 0
169 195 0
169 195 0
168 194 0
171 196 0
168 194 0
169 195 0
170 196 0
169 195 0
169 194 0
168 195 0
169 195 0
168 195 0
168 195 0
170 196 0
169 195 0
171 196 0
170 195 0
169 195 0
170 196 0
167 194 0
171 196 0
170 195 0
168 195 0
169 195 0
170 195 0
168 195 0
171 196 0
169 195 0
170 195 0
169 195 0
170 195 0
168 194 0
169 195 0
170 195 0
169 195 0
169 195 0
170 195 0
169 195 0
169 195 0
169 195 0
171 196 0
169 195 0
169 195 0
169 195 0
170 196 0
170 196 0
170 195 0
169 195 0
169 195 0
169 195 0
169 195 0
169 195 0
169 195 0
170 195 0
170 196 0
169 195 0
169 195 0
169 195 0
168 195 0
169 195 0
169 195 0
171 196 0
169 195 0
168 194 0
170 196 0
170 196 0
171 196 0
170 195 0
169 195 0
171 196 0
169 195 0
169 195 0
171 196 0
170 196 0
169 195 0
170 195 0
169 195 0
170 195 0
170 196 0
169 195 0
170 195 0
170 195 0
169 195 0
169 195 0
169 195 0
169 195 0
170 195 0
168 195 0
169 195 0
168 195 0
169 195 0
169 195 0
169 195 0
169 195 0
170 195 0
170 195 0
170 195 0
169 195 0
170 195 0
170 195 0
169 195 0
168 195 0
169 195 0
169 195 0
169 195 0
169 195 0
170 195 0
169 195 0
169 195 0
169 195 0
169 194 0
169 195 0
169 195 0
169 195 0
169 195 0
169 195 0
169 195 0
169 195 0
168 195 0
170 195 0
168 195 0
169 195 0
169 195 0
169 195 0
172 196 0
170 195 0
170 195 0
170 196 0
170 195 0
170 195 0
170 195 0
168 195 0
170 195 0
170 195 0
169 195 0
168 195 0
169 195 0
169 195 0
169 195 0
170 195 0
167 193 0
169 195 0
170 195 0
170 196 0
169 195 0
167 193 0
168 194 0
169 195 0
170 195 0
169 195 0
170 195 0
169 195 0
168 194 0
169 195 0
169 195 0
168 195 0
170 195 0
170 195 0
170 195 0
168 195 0
170 195 0
167 194 0
169 195 0
169 195 0
169 195 0
169 195 0
168 194 0
169 195 0
170 195 0
169 195 0
168 194 0
169 195 0
169 195 0
169 195 0
168 194 0
168 194 0
168 194 0
168 195 0
168 194 0
169 195 0
168 195 0
169 195 0
169 194 0
168 194 0
170 195 0
168 194 0
170 195 0
170 195 0
168 195 0
170 195 0
168 194 0
168 194 0
170 195 0
169 195 0
169 195 0
169 195 0
167 194 0
167 193 0
169 195 0
169 195 0
169 195 0
170 195 0
169 195 0
170 195 0
168 195 0
170 195 0
169 195 0
169 195 0
170 195 0
170 195 0
169 195 0
168 195 0
170 195 0
170 195 0
169 195 0
169 194 0
169 195 0
170 195 0
169 195 0
169 195 0
169 194 0
170 195 0
169 195 0
168 195 0
170 195 0
170 195 0
169 195 0
170 195 0
170 195 0
168 195 0
170 195 0
169 195 0
168 194 0
170 196 0
169 195 0
170 195 0
170 196 0
170 195 0
169 195 0
170 195 0
169 195 0
169 195 0
169 195 0
169 195 0
170 196 0
170 195 0
170 195 0
168 195 0
169 195 0
169 195 0
170 195 0
169 195 0
169 195 0
168 195 0
170 195 0
169 195 0
169 195 0
169 195 0
170 195 0
170 195 0
170 195 0
171 196 0
168 195 0
169 195 0
170 195 0
171 196 0
169 195 0
169 195 0
168 194 0
169 195 0
170 195 0
169 195 0
170 195 0
169 195 0
168 195 0
169 195 0
169 195 0
170 195 0
169 195 0
170 195 0
169 195 0
169 195 0
169 195 0
170 195 0
169 195 0
169 195 0
170 195 0
169 195 0
168 195 0
168 195 0
169 195 0
170 195 0
170 196 0
169 195 0
169 195 0
170 195 0
169 195 0
170 195 0
170 195 0
170 195 0
169 195 0
168 195 0
170 195 0
169 195 0
169 195 0
170 195 0
169 195 0
168 195 0
168 195 0
169 195 0
169 195 0
170 196 0
168 194 0
170 196 0
169 195 0
170 196 0
169 195 0
169 195 0
169 195 0
170 195 0
171 196 0
169 195 0
168 195 0
170 195 0
170 195 0
169 195 0
167 194 0
168 195 0
169 195 0
169 195 0
169 195 0
170 195 0
169 195 0
168 195 0
169 195 0
169 195 0
169 195 0
169 195 0
169 195 0
168 194 0
170 195 0
169 195 0
169 195 0
170 195 0
170 195 0
169 195 0
168 194 0
168 195 0
168 194 0
169 195 0
169 194 0
168 195 0
169 195 0
170 196 0
169 195 0
170 195 0
169 195 0
169 195 0
169 195 0
169 194 0
169 195 0
169 195 0
169 195 0
169 195 0
170 195 0
169 195 0
168 194 0
169 194 0
169 195 0
168 194 0
169 195 0
169 195 0
168 194 0
168 194 0
169 195 0
169 195 0
170 195 0
168 194 0
170 195 0
168 194 0
169 195 0
169 194 0
169 195 0
169 195 0
169 194 0
167 193 0
168 195 0
169 195 0
169 195 0
170 195 0
168 194 0
168 194 0
168 194 0
168 194 0
167 193 0
169 195 0
169 194 0
170 195 0
169 195 0
169 195 0
168 194 0
170 195 0
169 194 0
170 195 0
170 195 0
169 195 0
169 195 0
169 195 0
169 194 0
169 195 0
169 195 0
169 195 0
170 195 0
167 193 0
169 195 0
169 195 0
169 195 0
169 195 0
170 195 0
169 195 0
169 195 0
170 195 0
171 196 0
169 195 0
169 195 0
170 196 0
169 195 0
170 195 0
169 195 0
170 195 0
168 195 0
168 194 0
169 195 0
169 195 0
170 195 0
169 195 0
170 196 0
169 195 0
168 195 0
169 195 0
168 194 0
170 195 0
169 195 0
169 195 0
168 194 0
168 195 0
168 195 0
169 195 0
169 195 0
169 195 0
169 195 0
171 196 0
171 196 0
169 195 0
170 196 0
170 196 0
170 195 0
170 195 0
170 196 0
170 195 0
169 195 0
168 195 0
169 195 0
170 195 0
170 195 0
169 195 0
169 195 0
169 195 0
169 195 0
169 195 0
170 196 0
169 195 0
170 195 0
169 195 0
170 195 0
169 195 0
169 195 0
169 195 0
170 195 0
168 195 0
169 195 0
170 195 0
168 195 0
169 195 0
169 195 0
170 195 0
169 195 0
169 195 0
170 195 0
170 195 0
170 196 0
169 195 0
168 194 0
169 195 0
170 196 0
168 195 0
170 196 0
170 196 0
168 195 0
168 195 0
169 195 0
169 195 0
170 195 0
170 195 0
170 196 0
169 195 0
170 196 0
170 195 0
170 195 0
170 195 0
169 195 0
169 195 0
170 196 0
169 195 0
168 195 0
169 195 0
169 195 0
169 195 0
170 196 0
169 195 0
170 195 0
169 195 0
169 195 0
170 195 0
170 196 0
169 195 0
169 195 0
168 195 0
170 196 0
170 195 0
170 195 0
170 195 0
169 195 0
169 195 0
170 195 0
169 195 0
168 194 0
169 195 0
170 195 0
170 195 0
169 195 0
170 196 0
169 195 0
168 194 0
169 195 0
170 196 0
169 195 0
170 195 0
170 195 0
169 195 0
169 195 0
169 195 0
169 195 0
169 195 0
170 195 0
169 194 0
169 195 0
169 195 0
169 194 0
170 195 0
168 194 0
170 195 0
169 195 0
169 194 0
168 194 0
168 195 0
169 195 0
170 195 0
170 195 0
167 193 0
168 194 0
169 195 0
169 195 0
169 195 0
169 195 0
171 196 0
168 194 0
169 195 0
169 195 0
167 194 0
170 195 0
169 195 0
168 194 0
170 195 0
169 195 0
169 195 0
168 194 0
169 195 0
169 195 0
169 194 0
171 196 0
169 195 0
170 196 0
169 195 0
169 195 0
169 195 0
168 194 0
169 195 0
171 196 0
169 195 0
169 195 0
169 195 0
168 194 0
169 195 0
168 195 0
170 195 0
170 195 0
170 195 0
167 193 0
169 195 0
169 194 0
168 194 0
169 195 0
169 195 0
169 195 0
169 195 0
170 195 0
170 195 0
170 196 0
169 195 0
169 195 0
168 195 0
169 195 0
169 195 0
170 196 0
169 195 0
170 196 0
168 195 0
168 195 0
169 195 0
169 195 0
168 194 0
169 195 0
167 194 0
169 195 0
170 195 0
170 195 0
169 195 0
169 195 0
168 195 0
168 195 0
169 195 0
169 195 0
170 195 0
170 195 0
170 195 0
168 194 0
169 195 0
169 195 0
170 195 0
169 195 0
169 195 0
170 195 0
170 195 0
170 196 0
169 195 0
169 195 0
170 195 0
170 196 0
169 195 0
170 195 0
169 195 0
168 194 0
168 194 0
171 196 0
169 195 0
170 195 0
169 195 0
169 195 0
169 195 0
169 195 0
169 195 0
169 195 0
169 195 0
170 196 0
169 195 0
169 195 0
170 196 0
169 195 0
169 195 0
168 195 0
169 195 0
169 195 0
170 195 0
168 195 0
169 195 0
169 195 0
169 195 0
171 196 0
170 196 0
171 196 0
169 195 0
170 195 0
169 195 0
169 195 0
169 195 0
169 195 0
170 195 0
169 195 0
169 195 0
169 195 0
169 195 0
169 195 0
169 195 0
169 195 0
169 195 0
170 196 0
169 195 0
170 196 0
170 195 0
169 195 0
169 195 0
170 195 0
170 195 0
169 195 0
170 196 0
169 195 0
169 195 0
169 195 0
168 195 0
169 195 0
169 195 0
170 195 0
169 195 0
169 195 0
170 195 0
168 195 0
169 195 0
169 195 0
169 195 0
170 195 0
170 196 0
170 195 0
169 195 0
170 196 0
168 194 0
170 195 0
169 195 0
169 195 0
169 195 0
168 194 0
169 195 0
171 196 0
170 195 0
167 194 0
169 195 0
170 195 0
170 195 0
169 195 0
168 194 0
169 195 0
169 195 0
169 195 0
169 195 0
168 195 0
169 195 0
169 195 0
169 194 0
169 195 0
168 195 0
168 194 0
169 195 0
169 195 0
169 195 0
168 194 0
169 195 0
169 195 0
169 194 0
168 194 0
167 193 0
169 194 0
170 195 0
170 195 0
169 195 0
169 195 0
170 195 0
169 195 0
168 194 0
170 196 0
168 194 0
169 195 0
168 194 0
169 195 0
169 195 0
169 195 0
169 195 0
170 195 0
170 195 0
168 194 0
169 195 0
169 195 0
168 194 0
169 194 0
169 195 0
167 194 0
168 194 0
169 195 0
170 196 0
169 195 0
168 194 0
168 194 0
169 195 0
169 195 0
171 196 0
170 196 0
170 195 0
168 194 0
169 195 0
168 195 0
170 196 0
169 195 0
169 195 0
170 195 0
170 196 0
169 195 0
168 194 0
169 195 0
169 194 0
170 196 0
170 195 0
169 195 0
168 195 0
168 194 0
170 196 0
168 195 0
170 195 0
171 196 0
170 195 0
169 195 0
169 195 0
169 195 0
170 195 0
168 194 0
169 195 0
169 195 0
169 195 0
169 195 0
170 195 0
170 196 0
170 195 0
169 195 0
169 195 0
171 196 0
170 195 0
170 195 0
170 195 0
169 195 0
169 195 0
168 195 0
170 195 0
168 195 0
169 195 0
170 196 0
169 195 0
170 195 0
169 195 0
169 195 0
170 195 0
169 195 0
170 195 0
171 196 0
169 195 0
169 195 0
170 195 0
171 196 0
170 196 0
170 195 0
169 195 0
169 195 0
169 195 0
169 195 0
169 195 0
169 195 0
170 195 0
169 195 0
169 195 0
169 195 0
170 196 0
168 195 0
170 195 0
169 195 0
168 195 0
170 196 0
170 195 0
169 195 0
169 195 0
169 195 0
169 195 0
170 195 0
169 195 0
170 196 0
169 195 0
169 195 0
170 196 0
169 195 0
169 195 0
170 195 0
169 195 0
170 195 0
170 196 0
169 195 0
170 195 0
169 195 0
171 196 0
169 195 0
170 195 0
171 196 0
168 195 0
169 195 0
169 195 0
169 195 0
170 195 0
171 196 0
170 195 0
170 195 0
169 195 0
169 195 0
169 195 0
169 195 0
171 196 0
169 195 0
169 195 0
169 195 0
170 196 0
170 195 0
169 195 0
169 195 0
169 195 0
169 195 0
169 195 0
168 195 0
170 195 0
170 195 0
170 195 0
170 196 0
169 195 0
169 195 0
170 195 0
168 194 0
169 195 0
168 195 0
169 194 0
168 194 0
168 194 0
169 195 0
168 195 0
169 195 0
169 195 0
169 195 0
169 195 0
169 195 0
170 195 0
170 195 0
169 195 0
170 195 0
170 195 0
169 195 0
168 194 0
169 195 0
167 193 0
170 195 0
169 195 0
170 195 0
168 194 0
169 195 0
168 194 0
169 194 0
168 194 0
167 193 0
168 194 0
169 195 0
169 195 0
169 195 0
169 195 0
169 195 0
169 195 0
167 193 0
169 195 0
168 194 0
169 195 0
168 194 0
168 194 0
169 195 0
169 195 0
170 195 0
170 195 0
169 195 0
169 195 0
169 195 0
170 195 0
170 195 0
170 195 0
170 195 0
167 193 0
170 195 0
170 195 0
169 194 0
169 195 0
169 195 0
170 195 0
170 195 0
170 195 0
169 195 0
169 195 0
168 195 0
169 195 0
169 195 0
168 194 0
168 195 0
169 195 0
169 195 0
168 195 0
170 195 0
170 195 0
170 195 0
170 195 0
169 195 0
169 195 0
168 195 0
169 195 0
168 194 0
170 195 0
170 195 0
169 195 0
169 195 0
169 195 0
169 195 0
169 195 0
168 194 0
169 195 0
170 196 0
170 196 0
169 195 0
171 196 0
171 196 0
170 196 0
170 195 0
169 195 0
169 195 0
170 195 0
170 195 0
168 195 0
169 195 0
170 195 0
168 195 0
169 195 0
171 196 0
169 195 0
169 195 0
169 195 0
170 195 0
169 195 0
169 195 0
169 195 0
170 196 0
169 195 0
170 195 0
169 195 0
170 195 0
170 195 0
169 195 0
169 195 0
170 196 0
168 194 0
169 195 0
170 195 0
169 195 0
169 195 0
170 195 0
169 195 0
169 195 0
170 195 0
169 195 0
170 195 0
170 196 0
169 195 0
170 195 0
169 195 0
170 195 0
169 195 0
169 195 0
169 195 0
169 195 0
171 196 0
168 195 0
169 195 0
169 195 0
169 195 0
169 195 0
170 195 0
169 195 0
169 195 0
170 196 0
170 195 0
168 194 0
170 195 0
169 195 0
168 194 0
168 194 0
171 196 0
169 195 0
169 195 0
170 195 0
169 195 0
169 195 0
169 195 0
171 196 0
170 195 0
169 195 0
170 195 0
169 195 0
170 195 0
169 195 0
169 195 0
169 195 0
169 195 0
169 195 0
169 195 0
169 195 0
169 195 0
169 195 0
169 195 0
169 195 0
169 195 0
168 194 0
171 196 0
169 195 0
169 195 0
169 195 0
170 196 0
169 195 0
169 195 0
170 195 0
169 195 0
168 194 0
169 195 0
169 195 0
169 195 0
169 195 0
169 195 0
169 195 0
169 195 0
169 195 0
168 194 0
170 195 0
169 195 0
169 195 0
169 195 0
169 195 0
169 195 0
170 195 0
169 195 0
170 196 0
169 195 0
168 195 0
169 195 0
169 195 0
169 194 0
169 195 0
170 196 0
169 195 0
169 195 0
168 194 0
169 195 0
169 195 0
169 195 0
168 194 0
168 193 0
168 194 0
168 194 0
169 195 0
168 195 0
168 194 0
169 195 0
168 194 0
169 195 0
169 195 0
169 195 0
169 195 0
168 194 0
169 194 0
169 194 0
169 195 0
170 196 0
169 195 0
170 195 0
169 195 0
167 194 0
169 195 0
168 194 0
169 195 0
168 194 0
167 194 0
169 194 0
168 194 0
170 195 0
167 193 0
170 195 0
169 195 0
169 195 0
169 195 0
170 195 0
169 195 0
169 195 0
170 195 0
170 195 0
169 195 0
170 196 0
170 195 0
170 195 0
168 195 0
170 195 0
169 195 0
170 196 0
168 195 0
170 195 0
171 196 0
170 195 0
170 195 0
169 195 0
169 194 0
169 195 0
170 195 0
170 196 0
169 195 0
171 196 0
169 195 0
170 195 0
170 195 0
170 195 0
169 195 0
170 196 0
169 195 0
168 194 0
169 195 0
168 195 0
169 195 0
170 196 0
170 196 0
171 196 0
169 195 0
170 195 0
169 195 0
169 195 0
169 195 0
170 195 0
169 195 0
169 195 0
169 195 0
170 195 0
170 195 0
169 195 0
169 195 0
169 195 0
169 195 0
169 195 0
170 195 0
170 196 0
170 195 0
170 195 0
169 195 0
169 195 0
169 195 0
169 195 0
169 195 0
169 194 0
169 195 0
169 195 0
170 195 0
169 195 0
170 195 0
171 196 0
169 195 0
169 195 0
169 195 0
170 195 0
169 195 0
169 195 0
169 195 0
169 195 0
169 195 0
169 195 0
169 195 0
169 195 0
170 195 0
170 196 0
169 195 0
170 195 0
170 196 0
169 195 0
169 195 0
169 195 0
170 195 0
171 196 0
168 195 0
170 195 0
169 195 0
170 196 0
170 195 0
169 195 0
169 195 0
170 195 0
168 195 0
169 195 0
170 196 0
170 195 0
169 195 0
169 195 0
169 195 0
168 195 0
169 195 0
169 195 0
169 195 0
170 196 0
170 195 0
170 195 0
170 195 0
168 195 0
168 194 0
169 195 0
169 195 0
169 195 0
168 195 0
169 195 0
170 196 0
169 195 0
170 195 0
169 195 0
169 195 0
170 195 0
169 195 0
169 195 0
169 195 0
169 195 0
169 195 0
170 196 0
169 195 0
169 195 0
169 195 0
168 194 0
168 194 0
170 196 0
170 196 0
169 195 0
170 195 0
168 194 0
170 195 0
169 195 0
170 195 0
169 195 0
170 195 0
169 195 0
169 195 0
169 195 0
168 194 0
169 195 0
168 195 0
169 195 0
169 195 0
170 195 0
170 195 0
169 195 0
169 195 0
169 194 0
170 195 0
170 196 0
169 195 0
169 195 0
167 193 0
168 194 0
170 196 0
168 194 0
168 194 0
168 194 0
170 195 0
170 195 0
170 195 0
169 195 0
170 195 0
168 194 0
169 195 0
170 196 0
168 195 0
168 194 0
169 195 0
169 195 0
168 194 0
170 196 0
170 195 0
169 195 0
166 193 0
169 194 0
169 195 0
170 195 0
169 195 0
169 195 0
170 196 0
169 195 0
169 195 0
168 194 0
169 195 0
169 194 0
169 195 0
169 195 0
170 195 0
169 195 0
170 196 0
169 195 0
170 195 0
170 195 0
170 195 0
169 195 0
170 195 0
169 195 0
169 195 0
169 195 0
169 195 0
169 195 0
171 196 0
169 195 0
170 195 0
169 195 0
169 195 0
170 195 0
171 196 0
170 196 0
170 195 0
170 195 0
170 196 0
170 196 0
169 195 0
169 195 0
169 195 0
170 195 0
169 195 0
169 195 0
170 196 0
169 195 0
169 195 0
170 195 0
169 195 0
169 195 0
170 195 0
169 195 0
169 195 0
169 195 0
169 195 0
169 195 0
169 195 0
169 195 0
169 195 0
170 195 0
169 195 0
169 195 0
169 195 0
170 195 0
168 194 0
169 195 0
169 195 0
170 195 0
169 195 0
170 195 0
169 195 0
170 195 0
169 195 0
171 196 0
170 195 0
169 195 0
170 196 0
169 195 0
169 195 0
169 195 0
171 196 0
169 195 0
169 195 0
170 195 0
169 195 0
169 195 0
170 195 0
169 195 0
168 195 0
170 195 0
170 195 0
170 195 0
170 195 0
169 195 0
169 195 0
170 195 0
169 195 0
169 195 0
170 196 0
170 196 0
170 195 0
170 196 0
169 195 0
169 195 0
170 195 0
169 195 0
169 195 0
170 196 0
170 195 0
169 195 0
169 195 0
169 195 0
169 195 0
169 195 0
169 195 0
170 195 0
170 195 0
169 195 0
169 195 0
169 195 0
169 195 0
170 195 0
170 195 0
169 195 0
168 195 0
169 195 0
170 196 0
169 195 0
169 195 0
169 195 0
169 195 0
169 195 0
169 195 0
170 196 0
170 196 0
170 195 0
169 195 0
169 195 0
168 194 0
169 195 0
169 195 0
169 195 0
169 194 0
170 195 0
170 195 0
170 195 0
169 195 0
170 195 0
169 195 0
170 195 0
170 195 0
168 195 0
170 195 0
169 195 0
170 195 0
168 195 0
168 194 0
170 195 0
169 195 0
169 195 0
170 196 0
169 195 0
170 195 0
169 195 0
170 195 0
170 195 0
169 195 0
167 194 0
169 195 0
168 195 0
169 195 0
169 195 0
170 195 0
170 195 0
169 195 0
169 195 0
168 194 0
170 195 0
167 194 0
167 194 0
169 195 0
168 194 0
170 196 0
167 193 0
169 195 0
170 195 0
168 194 0
170 196 0
168 194 0
170 195 0
169 195 0
166 192 0
167 193 0
169 195 0
170 195 0
169 194 0
169 195 0
170 195 0
170 195 0
169 195 0
169 195 0
169 195 0
169 195 0
169 195 0
169 195 0
169 195 0
168 195 0
170 194 0
168 195 0
169 195 0
169 195 0
169 195 0
168 195 0
168 194 0
168 195 0
169 195 0
168 194 0
170 195 0
169 195 0
170 195 0
168 194 0
169 195 0
170 195 0
170 195 0
169 195 0
168 195 0
170 195 0
170 195 0
170 195 0
170 196 0
169 195 0
169 195 0
169 195 0
169 195 0
169 194 0
168 195 0
169 195 0
170 195 0
170 195 0
169 195 0
170 195 0
171 196 0
170 195 0
169 195 0
169 195 0
169 195 0
169 195 0
169 195 0
169 195 0
170 195 0
169 195 0
169 195 0
169 195 0
168 195 0
169 195 0
170 196 0
169 195 0
170 195 0
169 195 0
170 196 0
169 195 0
170 195 0
170 195 0
169 195 0
169 195 0
168 195 0
167 194 0
169 195 0
170 195 0
169 195 0
169 195 0
169 195 0
168 195 0
170 195 0
169 195 0
169 195 0
170 195 0
170 195 0
170 195 0
170 195 0
169 195 0
170 196 0
170 195 0
168 195 0
168 195 0
170 196 0
169 195 0
169 195 0
169 195 0
168 195 0
169 195 0
168 195 0
170 196 0
169 195 0
171 196 0
170 196 0
169 195 0
170 195 0
168 195 0
170 196 0
170 195 0
169 195 0
170 195 0
169 195 0
169 195 0
170 195 0
169 195 0
169 195 0
168 194 0
169 195 0
168 195 0
169 195 0
169 195 0
169 195 0
170 195 0
170 196 0
170 196 0
170 196 0
168 195 0
170 196 0
169 195 0
170 195 0
169 195 0
170 196 0
169 195 0
168 195 0
170 195 0
169 195 0
169 195 0
170 195 0
169 195 0
169 195 0
169 195 0
168 195 0
170 196 0
170 196 0
169 195 0
168 195 0
170 195 0
169 195 0
169 195 0
169 195 0
170 195 0
169 195 0
168 195 0
168 194 0
170 195 0
170 195 0
169 195 0
170 195 0
169 195 0
170 196 0
170 195 0
169 195 0
170 195 0
170 196 0
170 196 0
169 195 0
170 195 0
170 196 0
169 195 0
169 195 0
171 196 0
169 195 0
169 195 0
170 196 0
170 196 0
170 196 0
169 194 0
169 195 0
169 195 0
168 194 0
170 195 0
167 194 0
170 195 0
169 195 0
169 195 0
170 196 0
169 195 0
168 195 0
169 195 0
168 194 0
168 194 0
168 195 0
170 196 0
168 195 0
169 195 0
169 195 0
170 196 0
170 195 0
168 194 0
168 194 0
168 195 0
169 195 0
169 195 0
168 195 0
168 194 0
170 195 0
169 194 0
168 194 0
169 195 0
170 195 0
170 196 0
169 195 0
169 195 0
169 195 0
169 195 0
170 195 0
169 195 0
169 195 0
170 195 0
169 195 0
169 195 0
169 195 0
170 195 0
169 195 0
169 195 0
169 195 0
169 195 0
170 195 0
169 195 0
170 195 0
169 195 0
169 195 0
169 195 0
169 195 0
170 195 0
168 194 0
170 195 0
170 195 0
170 195 0
169 195 0
170 196 0
169 195 0
169 194 0
170 195 0
169 195 0
170 195 0
169 195 0
170 195 0
170 195 0
169 195 0
169 195 0
170 195 0
170 195 0
170 195 0
169 195 0
170 195 0
169 195 0
170 195 0
168 195 0
168 195 0
169 195 0
169 195 0
169 195 0
169 195 0
168 195 0
170 196 0
168 195 0
169 195 0
169 195 0
169 195 0
169 195 0
170 195 0
169 195 0
169 195 0
169 195 0
170 196 0
169 195 0
169 195 0
171 196 0
169 195 0
169 195 0
170 196 0
169 195 0
169 195 0
169 195 0
169 195 0
169 195 0
170 195 0
170 195 0
168 195 0
169 195 0
170 195 0
169 195 0
171 196 0
170 195 0
169 195 0
170 195 0
169 195 0
170 195 0
171 196 0
170 195 0
170 195 0
170 195 0
170 195 0
170 195 0
169 195 0
170 196 0
170 195 0
169 195 0
169 195 0
171 196 0
171 196 0
169 195 0
170 196 0
169 195 0
169 195 0
170 195 0
169 195 0
169 195 0
170 196 0
170 195 0
170 195 0
169 195 0
169 195 0
168 195 0
169 195 0
169 195 0
169 195 0
169 195 0
170 195 0
169 195 0
170 196 0
168 194 0
170 196 0
169 195 0
169 195 0
169 195 0
169 195 0
168 195 0
168 194 0
169 195 0
169 195 0
170 196 0
170 195 0
169 195 0
170 195 0
168 195 0
170 196 0
170 195 0
170 195 0
168 195 0
169 195 0
169 195 0
169 195 0
171 196 0
170 195 0
169 194 0
169 195 0
170 195 0
169 195 0
169 195 0
169 195 0
170 196 0
169 195 0
169 195 0
169 195 0
169 195 0
169 195 0
169 195 0
169 195 0
169 195 0
168 194 0
169 195 0
168 194 0
169 195 0
169 195 0
169 195 0
169 195 0
169 195 0
170 195 0
169 195 0
168 194 0
170 195 0
170 195 0
170 195 0
170 195 0
170 195 0
170 195 0
169 195 0
167 194 0
169 195 0
169 195 0
170 196 0
168 195 0
169 194 0
168 195 0
170 196 0
169 195 0
170 195 0
169 195 0
170 195 0
170 195 0
168 194 0
169 195 0
170 195 0
169 195 0
170 196 0
169 195 0
168 195 0
170 195 0
170 195 0
171 196 0
168 194 0
170 195 0
170 195 0
168 194 0
169 195 0
168 194 0
170 196 0
169 195 0
170 195 0
168 195 0
170 195 0
170 196 0
168 195 0
169 195 0
169 195 0
170 196 0
170 195 0
169 195 0
169 195 0
169 195 0
170 195 0
168 194 0
169 195 0
170 195 0
169 195 0
169 195 0
169 195 0
170 195 0
168 195 0
169 195 0
170 196 0
170 195 0
169 195 0
170 195 0
170 196 0
170 196 0
169 195 0
169 195 0
169 195 0
170 195 0
169 195 0
169 195 0
170 196 0
170 195 0
170 195 0
169 195 0
169 195 0
170 195 0
170 195 0
169 195 0
170 195 0
168 194 0
170 195 0
170 195 0
169 195 0
170 195 0
169 195 0
169 195 0
169 195 0
169 195 0
169 195 0
170 195 0
170 195 0
169 195 0
170 195 0
169 195 0
169 195 0
170 195 0
170 196 0
169 195 0
170 195 0
168 195 0
169 195 0
168 195 0
169 195 0
169 195 0
169 195 0
169 195 0
169 195 0
168 195 0
169 195 0
170 195 0
169 195 0
170 195 0
170 195 0
168 194 0
170 195 0
169 195 0
171 196 0
169 195 0
170 195 0
171 196 0
170 195 0
169 195 0
168 195 0
169 195 0
169 195 0
169 195 0
170 195 0
169 195 0
170 195 0
169 195 0
170 196 0
169 195 0
169 195 0
171 196 0
169 195 0
169 195 0
169 195 0
168 195 0
169 195 0
170 196 0
169 195 0
170 195 0
168 195 0
169 195 0
169 195 0
169 195 0
170 195 0
168 195 0
169 195 0
169 195 0
170 195 0
168 194 0
168 194 0
169 195 0
170 196 0
169 195 0
170 195 0
168 195 0
170 195 0
169 195 0
169 195 0
169 195 0
169 195 0
168 195 0
170 195 0
170 196 0
169 195 0
169 195 0
170 195 0
170 195 0
168 195 0
170 195 0
169 195 0
170 195 0
169 194 0
169 195 0
169 195 0
170 195 0
170 195 0
167 194 0
169 195 0
169 195 0
169 195 0
171 196 0
170 196 0
170 195 0
169 195 0
170 195 0
169 195 0
168 194 0
169 195 0
171 196 0
170 195 0
169 195 0
169 195 0
169 195 0
169 195 0
169 195 0
170 195 0
170 195 0
170 195 0
171 196 0
170 195 0
169 195 0
169 195 0
168 194 0
169 195 0
168 195 0
170 195 0
169 195 0
169 195 0
170 195 0
168 194 0
168 194 0
169 195 0
168 194 0
169 195 0
168 195 0
169 195 0
169 194 0
168 194 0
169 195 0
168 194 0
170 196 0
169 195 0
171 196 0
169 194 0
169 195 0
169 195 0
170 195 0
169 195 0
170 196 0
169 195 0
169 195 0
169 195 0
170 195 0
169 195 0
169 195 0
168 194 0
169 195 0
169 195 0
170 195 0
169 195 0
169 195 0
169 195 0
167 193 0
169 195 0
169 195 0
169 195 0
171 196 0
170 195 0
169 195 0
169 195 0
169 195 0
168 195 0
169 195 0
169 195 0
170 195 0
169 195 0
169 195 0
169 195 0
169 195 0
169 195 0
169 195 0
169 195 0
170 195 0
170 195 0
169 195 0
169 195 0
169 195 0
169 194 0
169 195 0
169 195 0
170 195 0
169 195 0
169 195 0
168 195 0
169 195 0
169 195 0
169 195 0
170 195 0
169 195 0
169 195 0
169 195 0
169 195 0
170 195 0
170 196 0
170 195 0
170 195 0
169 195 0
170 195 0
169 195 0
169 195 0
170 195 0
169 195 0
170 195 0
170 195 0
169 195 0
169 195 0
170 196 0
169 195 0
169 195 0
170 195 0
169 195 0
170 195 0
169 195 0
170 195 0
169 195 0
169 195 0
171 196 0
171 196 0
169 195 0
170 196 0
170 196 0
170 196 0
169 195 0
169 195 0
170 195 0
169 195 0
169 195 0
169 195 0
168 195 0
169 195 0
169 195 0
169 195 0
170 195 0
170 195 0
169 195 0
170 196 0
170 195 0
170 196 0
168 195 0
169 195 0
170 195 0
169 195 0
170 196 0
169 195 0
169 195 0
169 195 0
169 195 0
170 196 0
169 195 0
170 195 0
170 196 0
168 195 0
169 195 0
169 195 0
169 195 0
169 195 0
169 195 0
169 195 0
170 195 0
169 195 0
169 195 0
170 195 0
170 195 0
169 195 0
169 195 0
170 195 0
170 195 0
170 195 0
168 194 0
169 195 0
169 195 0
170 196 0
169 195 0
169 195 0
170 195 0
169 195 0
170 196 0
170 195 0
169 195 0
169 195 0
170 195 0
169 195 0
170 195 0
169 195 0
169 195 0
170 195 0
169 195 0
169 195 0
169 195 0
170 196 0
168 194 0
170 195 0
170 195 0
170 195 0
170 196 0
170 195 0
170 195 0
169 195 0
169 195 0
169 195 0
169 195 0
170 195 0
169 195 0
170 196 0
170 195 0
170 195 0
169 195 0
168 194 0
170 195 0
169 195 0
169 195 0
170 195 0
169 195 0
169 195 0
169 195 0
168 194 0
168 194 0
169 195 0
168 194 0
169 195 0
168 194 0
169 195 0
169 195 0
169 194 0
169 195 0
170 195 0
168 194 0
167 193 0
168 194 0
170 196 0
168 194 0
169 195 0
169 195 0
168 194 0
169 195 0
169 195 0
170 195 0
169 195 0
168 194 0
169 195 0
169 195 0
169 195 0
167 194 0
170 195 0
169 195 0
169 195 0
169 195 0
168 195 0
168 194 0
170 195 0
169 195 0
170 196 0
169 195 0
169 195 0
170 195 0
168 194 0
170 195 0
169 195 0
169 195 0
169 195 0
169 195 0
170 195 0
169 195 0
169 195 0
169 195 0
170 195 0
169 195 0
169 195 0
169 195 0
169 195 0
171 196 0
170 195 0
170 195 0
170 195 0
169 195 0
169 195 0
169 195 0
169 195 0
170 195 0
169 195 0
169 195 0
169 195 0
170 195 0
168 194 0
168 195 0
169 195 0
169 195 0
169 195 0
168 195 0
169 195 0
169 195 0
169 195 0
169 195 0
170 195 0
169 195 0
169 195 0
170 195 0
171 196 0
168 195 0
169 195 0
170 196 0
169 195 0
170 195 0
170 195 0
170 195 0
169 195 0
170 196 0
169 195 0
170 195 0
170 195 0
170 196 0
169 195 0
169 195 0
169 195 0
169 195 0
170 196 0
169 195 0
170 195 0
168 195 0
169 195 0
170 195 0
171 196 0
171 196 0
169 195 0
169 195 0
169 195 0
169 195 0
169 195 0
168 195 0
171 196 0
170 195 0
169 195 0
169 195 0
170 195 0
169 195 0
169 195 0
169 195 0
170 195 0
170 195 0
169 195 0
169 195 0
169 195 0
170 195 0
169 195 0
169 195 0
169 195 0
168 195 0
170 195 0
168 195 0
170 195 0
168 195 0
169 195 0
168 195 0
169 195 0
170 195 0
168 195 0
169 195 0
169 195 0
170 195 0
169 195 0
168 195 0
170 195 0
169 195 0
169 195 0
169 195 0
169 195 0
170 196 0
169 195 0
169 195 0
170 196 0
169 195 0
169 195 0
169 195 0
168 194 0
168 194 0
169 195 0
171 196 0
168 195 0
169 195 0
169 195 0
169 195 0
168 194 0
169 195 0
168 194 0
170 195 0
169 195 0
169 195 0
167 194 0
170 195 0
168 195 0
169 195 0
169 195 0
170 196 0
170 195 0
169 195 0
169 195 0
170 195 0
169 195 0
170 195 0
170 195 0
169 195 0
169 195 0
169 195 0
170 195 0
168 195 0
169 195 0
169 195 0
170 195 0
169 195 0
169 195 0
169 195 0
168 194 0
171 196 0
169 195 0
169 195 0
170 195 0
169 194 0
169 195 0
168 194 0
169 195 0
169 195 0
169 195 0
168 194 0
168 194 0
168 194 0
169 195 0
169 195 0
169 195 0
170 195 0
170 195 0
169 195 0
169 195 0
169 194 0
169 195 0
170 196 0
170 195 0
171 196 0
170 195 0
169 195 0
170 195 0
169 194 0
169 195 0
169 195 0
168 194 0
168 195 0
170 196 0
168 194 0
170 196 0
169 195 0
170 196 0
168 194 0
169 195 0
170 195 0
169 195 0
169 195 0
169 195 0
168 194 0
169 195 0
169 195 0
168 194 0
168 195 0
169 195 0
170 196 0
169 195 0
170 195 0
170 195 0
170 196 0
168 195 0
170 195 0
169 194 0
170 196 0
169 195 0
170 196 0
169 195 0
169 195 0
169 195 0
169 195 0
170 195 0
168 195 0
169 195 0
169 194 0
170 195 0
170 195 0
169 195 0
170 195 0
170 195 0
169 195 0
169 195 0
169 195 0
169 195 0
168 195 0
170 196 0
169 195 0
169 195 0
170 195 0
170 195 0
169 195 0
168 195 0
171 196 0
169 195 0
169 195 0
169 195 0
169 195 0
168 194 0
169 195 0
170 195 0
169 195 0
168 195 0
169 195 0
169 195 0
169 195 0
170 195 0
171 196 0
169 195 0
170 196 0
170 196 0
169 195 0
169 195 0
170 195 0
168 195 0
169 195 0
169 195 0
170 196 0
170 195 0
170 195 0
170 195 0
169 195 0
168 194 0
169 195 0
169 195 0
170 195 0
169 195 0
170 195 0
169 195 0
169 195 0
169 195 0
169 195 0
169 195 0
169 195 0
170 195 0
169 195 0
169 195 0
168 194 0
169 195 0
169 195 0
169 195 0
170 196 0
170 195 0
169 195 0
169 195 0
170 195 0
169 195 0
169 195 0
169 195 0
169 195 0
168 195 0
169 195 0
170 195 0
170 195 0
170 196 0
169 195 0
170 195 0
170 195 0
169 195 0
171 196 0
169 195 0
169 195 0
169 195 0
170 196 0
169 195 0
170 195 0
170 196 0
169 195 0
170 195 0
170 195 0
169 195 0
168 195 0
169 195 0
169 195 0
170 195 0
169 195 0
169 195 0
168 194 0
169 195 0
170 195 0
170 195 0
169 195 0
169 195 0
170 195 0
168 195 0
169 195 0
170 195 0
169 195 0
169 195 0
170 195 0
168 195 0
170 196 0
169 194 0
169 195 0
169 195 0
169 195 0
168 195 0
170 195 0
169 195 0
169 195 0
170 196 0
169 195 0
169 195 0
171 196 0
169 195 0
169 195 0
169 195 0
170 195 0
169 195 0
170 195 0
169 195 0
171 196 0
169 195 0
170 196 0
168 195 0
169 195 0
169 195 0
168 194 0
168 194 0
169 195 0
168 195 0
169 195 0
169 195 0
169 195 0
169 195 0
170 195 0
169 195 0
169 194 0
169 195 0
170 195 0
168 195 0
170 196 0
170 195 0
168 194 0
169 195 0
169 194 0
169 195 0
168 194 0
169 195 0
169 194 0
169 195 0
169 195 0
170 195 0
169 195 0
169 195 0
170 195 0
170 196 0
168 195 0
169 195 0
168 194 0
169 195 0
170 195 0
169 195 0
170 195 0
169 194 0
170 196 0
169 195 0
168 194 0
170 196 0
170 195 0
169 195 0
169 195 0
169 195 0
170 195 0
170 195 0
170 195 0
170 195 0
169 195 0
168 195 0
170 196 0
170 196 0
169 195 0
170 195 0
168 194 0
170 195 0
169 195 0
169 195 0
169 195 0
170 196 0
170 196 0
170 195 0
169 195 0
170 195 0
170 196 0
168 194 0
171 196 0
169 195 0
169 195 0
168 195 0
169 195 0
170 196 0
169 195 0
169 195 0
169 195 0
169 195 0
169 195 0
169 195 0
169 195 0
169 195 0
169 195 0
170 196 0
170 195 0
170 195 0
169 195 0
170 195 0
169 195 0
168 195 0
170 195 0
168 195 0
170 195 0
169 195 0
169 195 0
169 195 0
169 195 0
170 196 0
169 195 0
169 195 0
169 195 0
169 195 0
169 195 0
169 195 0
169 195 0
169 195 0
169 195 0
170 195 0
169 195 0
170 195 0
169 195 0
169 195 0
170 195 0
169 195 0
169 195 0
169 195 0
168 195 0
170 195 0
169 195 0
170 195 0
170 195 0
169 195 0
170 195 0
170 195 0
169 195 0
170 196 0
169 195 0
169 195 0
169 195 0
171 196 0
169 195 0
169 195 0
170 195 0
170 195 0
170 195 0
168 195 0
170 195 0
169 195 0
170 195 0
169 195 0
170 196 0
169 195 0
169 195 0
169 195 0
169 195 0
168 195 0
171 196 0
170 196 0
170 195 0
170 195 0
169 195 0
171 196 0
169 195 0
169 195 0
170 195 0
170 196 0
169 195 0
169 194 0
169 195 0
169 195 0
171 196 0
169 195 0
169 195 0
170 195 0
169 195 0
168 195 0
169 195 0
169 195 0
169 195 0
169 195 0
169 195 0
168 194 0
170 195 0
169 195 0
170 196 0
168 194 0
170 196 0
169 195 0
169 195 0
168 194 0
169 195 0
170 196 0
169 195 0
169 195 0
170 195 0
170 195 0
167 193 0
169 195 0
168 195 0
169 195 0
170 196 0
169 195 0
170 196 0
170 196 0
170 195 0
169 195 0
170 195 0
169 195 0
169 195 0
170 195 0
170 195 0
170 195 0
169 195 0
170 196 0
169 195 0
170 195 0
169 195 0
169 195 0
169 195 0
170 196 0
168 195 0
169 195 0
170 196 0
169 194 0
169 194 0
170 196 0
169 195 0
170 195 0
169 195 0
170 196 0
169 195 0
169 195 0
169 195 0
169 195 0
169 195 0
169 195 0
169 195 0
169 195 0
169 195 0
168 195 0
169 195 0
169 195 0
170 195 0
169 195 0
170 195 0
171 196 0
170 195 0
170 196 0
168 195 0
170 195 0
170 196 0
170 195 0
170 195 0
169 195 0
170 196 0
170 195 0
169 195 0
169 195 0
171 196 0
170 196 0
170 195 0
170 195 0
169 195 0
170 195 0
170 195 0
169 195 0
172 196 0
169 195 0
169 195 0
169 195 0
169 195 0
169 195 0
169 195 0
169 195 0
170 195 0
170 195 0
169 195 0
169 195 0
170 196 0
169 195 0
169 195 0
168 195 0
170 196 0
169 195 0
170 195 0
169 195 0
170 195 0
169 195 0
169 195 0
170 195 0
170 195 0
169 195 0
169 195 0
169 195 0
169 195 0
170 196 0
169 195 0
168 195 0
169 195 0
170 195 0
170 195 0
169 195 0
169 195 0
170 196 0
169 195 0
169 195 0
170 196 0
169 195 0
170 195 0
170 195 0
170 196 0
169 195 0
170 195 0
169 195 0
169 195 0
169 195 0
169 195 0
170 195 0
170 196 0
170 195 0
169 195 0
170 196 0
170 195 0
169 195 0
170 195 0
170 195 0
170 196 0
169 195 0
170 196 0
170 196 0
171 196 0
169 195 0
170 195 0
170 196 0
170 195 0
169 195 0
169 195 0
169 195 0
169 195 0
169 195 0
169 195 0
169 195 0
169 195 0
169 195 0
169 195 0
170 196 0
170 195 0
170 196 0
170 196 0
169 195 0
168 195 0
169 195 0
169 195 0
168 195 0
169 195 0
170 195 0
170 195 0
169 195 0
169 195 0
170 195 0
171 196 0
169 195 0
169 195 0
169 195 0
169 195 0
169 195 0
169 195 0
170 195 0
170 196 0
169 195 0
169 195 0
169 195 0
169 195 0
169 195 0
169 195 0
170 195 0
169 195 0
169 194 0
169 195 0
170 195 0
169 195 0
169 195 0
169 195 0
169 194 0
168 194 0
169 195 0
168 194 0
170 195 0
169 194 0
170 196 0
169 195 0
169 195 0
170 195 0
169 195 0
170 195 0
169 194 0
169 195 0
169 195 0
169 194 0
169 195 0
169 195 0
168 194 0
170 195 0
169 195 0
168 194 0
169 195 0
169 195 0
169 195 0
170 195 0
170 195 0
170 195 0
169 195 0
169 195 0
169 195 0
169 195 0
169 195 0
169 195 0
169 195 0
168 194 0
168 194 0
169 195 0
169 195 0
168 195 0
169 195 0
169 195 0
170 195 0
168 194 0
170 195 0
169 195 0
169 195 0
169 195 0
170 195 0
169 195 0
169 195 0
169 195 0
169 195 0
169 195 0
169 195 0
170 196 0
170 196 0
168 194 0
170 196 0
169 195 0
169 195 0
170 195 0
170 195 0
169 195 0
169 195 0
170 195 0
169 195 0
169 195 0
170 195 0
170 195 0
169 195 0
170 195 0
170 195 0
169 195 0
168 195 0
168 195 0
169 195 0
170 195 0
170 195 0
169 195 0
168 195 0
170 195 0
170 195 0
169 195 0
170 195 0
170 195 0
169 195 0
170 195 0
171 196 0
169 195 0
169 195 0
169 195 0
169 195 0
170 195 0
169 195 0
170 196 0
169 195 0
170 195 0
170 195 0
170 195 0
168 195 0
170 195 0
168 194 0
169 195 0
169 195 0
169 195 0
169 195 0
169 195 0
169 195 0
169 195 0
169 195 0
170 195 0
169 195 0
169 195 0
169 195 0
170 196 0
168 195 0
169 195 0
169 195 0
170 196 0
169 195 0
169 195 0
169 195 0
169 195 0
169 195 0
169 195 0
169 195 0
170 195 0
168 194 0
169 195 0
169 195 0
169 195 0
171 196 0
168 195 0
170 196 0
169 195 0
169 195 0
170 195 0
169 195 0
170 195 0
169 195 0
169 195 0
170 195 0
169 195 0
171 196 0
168 194 0
170 196 0
169 195 0
169 195 0
169 195 0
169 195 0
170 195 0
169 195 0
168 195 0
170 195 0
169 195 0
168 195 0
169 195 0
169 194 0
169 195 0
171 196 0
170 195 0
171 196 0
171 196 0
169 195 0
168 195 0
168 195 0
169 195 0
169 195 0
169 195 0
169 195 0
169 195 0
170 195 0
169 195 0
170 195 0
169 195 0
168 195 0
170 195 0
169 195 0
169 195 0
169 195 0
169 195 0
170 195 0
168 194 0
169 195 0
168 195 0
170 195 0
169 195 0
170 195 0
170 195 0
169 195 0
170 195 0
169 195 0
169 195 0
168 194 0
170 195 0
169 195 0
170 196 0
170 195 0
169 195 0
170 196 0
170 196 0
169 195 0
169 195 0
169 195 0
168 195 0
169 195 0
170 195 0
168 195 0
169 195 0
170 196 0
170 195 0
171 196 0
169 195 0
170 195 0
169 195 0
169 195 0
169 195 0
170 195 0
170 195 0
169 195 0
169 195 0
169 195 0
170 196 0
168 195 0
168 195 0
169 195 0
169 195 0
169 195 0
169 195 0
170 196 0
170 195 0
169 195 0
169 195 0
168 195 0
170 195 0
169 195 0
170 195 0
169 195 0
170 195 0
169 195 0
169 195 0
169 195 0
170 195 0
169 195 0
168 194 0
169 195 0
170 195 0
169 195 0
170 196 0
169 195 0
170 195 0
169 195 0
169 195 0
169 195 0
170 195 0
170 195 0
169 195 0
168 195 0
170 195 0
170 195 0
170 195 0
170 196 0
170 195 0
170 196 0
169 195 0
169 195 0
169 195 0
169 195 0
168 195 0
169 195 0
170 195 0
168 195 0
170 195 0
169 195 0
170 195 0
169 195 0
169 195 0
170 195 0
169 195 0
170 195 0
169 195 0
169 195 0
169 195 0
170 195 0
169 195 0
169 195 0
169 195 0
170 195 0
168 195 0
170 196 0
170 195 0
169 195 0
169 195 0
169 195 0
171 196 0
169 195 0
169 195 0
170 195 0
170 196 0
170 195 0
169 195 0
168 195 0
170 195 0
169 195 0
170 195 0
170 196 0
169 195 0
169 195 0
169 195 0
170 195 0
169 195 0
169 195 0
169 195 0
170 195 0
168 194 0
170 195 0
170 195 0
169 195 0
170 195 0
169 195 0
169 195 0
169 195 0
169 195 0
170 195 0
170 195 0
170 195 0
169 195 0
168 195 0
169 195 0
169 195 0
169 195 0
169 195 0
169 195 0
169 195 0
170 195 0
170 195 0
170 196 0
168 194 0
170 195 0
169 195 0
169 195 0
170 195 0
171 196 0
169 195 0
169 195 0
169 195 0
168 195 0
170 195 0
169 195 0
169 195 0
169 195 0
168 194 0
168 194 0
170 196 0
169 195 0
169 195 0
170 195 0
169 195 0
169 195 0
171 196 0
169 195 0
169 195 0
169 195 0
170 195 0
170 195 0
170 195 0
169 195 0
170 195 0
170 195 0
170 195 0
171 196 0
169 195 0
169 195 0
168 194 0
170 195 0
169 195 0
170 195 0
169 195 0
170 196 0
170 195 0
169 195 0
169 195 0
169 195 0
169 195 0
169 195 0
169 195 0
169 195 0
170 196 0
168 195 0
169 195 0
169 195 0
169 195 0
171 196 0
169 195 0
170 195 0
169 195 0
170 195 0
169 195 0
170 195 0
169 195 0
169 195 0
170 196 0
169 195 0
169 195 0
169 194 0
169 195 0
169 195 0
169 195 0
170 195 0
169 195 0
169 195 0
170 195 0
168 194 0
169 195 0
169 195 0
169 195 0
167 193 0
169 195 0
170 195 0
169 195 0
169 195 0
168 194 0
168 195 0
169 195 0
170 195 0
170 195 0
168 194 0
170 195 0
170 196 0
169 195 0
168 194 0
168 194 0
169 195 0
169 195 0
170 196 0
169 195 0
169 195 0
170 196 0
169 194 0
169 195 0
169 195 0
170 195 0
169 195 0
169 195 0
169 195 0
169 195 0
169 195 0
170 195 0
170 195 0
169 195 0
170 196 0
169 195 0
169 195 0
170 196 0
170 195 0
168 194 0
168 194 0
169 195 0
169 195 0
170 195 0
168 194 0
169 195 0
168 195 0
168 195 0
169 195 0
170 195 0
169 195 0
170 195 0
169 195 0
169 195 0
169 195 0
170 195 0
168 195 0
169 195 0
169 195 0
169 195 0
169 195 0
171 196 0
170 196 0
170 196 0
170 195 0
169 195 0
169 195 0
170 195 0
169 195 0
171 196 0
170 195 0
169 195 0
169 195 0
170 196 0
169 195 0
170 195 0
170 195 0
170 195 0
170 196 0
171 196 0
169 195 0
169 195 0
170 195 0
169 195 0
168 194 0
170 196 0
168 195 0
170 195 0
170 196 0
169 195 0
169 195 0
169 195 0
169 195 0
169 195 0
169 195 0
170 195 0
169 195 0
168 195 0
170 195 0
170 195 0
171 196 0
170 196 0
169 195 0
169 195 0
170 196 0
169 195 0
169 195 0
169 195 0
169 195 0
169 195 0
168 195 0
168 195 0
169 195 0
170 196 0
169 195 0
170 195 0
169 195 0
170 196 0
169 195 0
169 195 0
168 195 0
168 195 0
169 195 0
170 195 0
169 195 0
169 195 0
169 195 0
170 196 0
169 195 0
170 195 0
169 195 0
169 195 0
170 195 0
170 195 0
168 195 0
170 195 0
169 195 0
168 195 0
170 195 0
169 195 0
169 195 0
170 195 0
169 195 0
169 195 0
169 195 0
169 195 0
169 195 0
170 195 0
169 195 0
169 195 0
170 195 0
170 195 0
170 196 0
169 195 0
168 194 0
170 195 0
168 194 0
170 196 0
170 195 0
169 195 0
170 195 0
169 195 0
169 195 0
170 195 0
169 195 0
169 195 0
170 196 0
169 195 0
169 195 0
171 196 0
168 195 0
169 195 0
169 195 0
169 195 0
169 195 0
169 195 0
170 195 0
169 195 0
170 196 0
170 196 0
169 195 0
169 195 0
169 195 0
170 195 0
169 195 0
169 195 0
169 195 0
170 196 0
169 194 0
169 195 0
169 194 0
170 195 0
168 194 0
168 195 0
169 195 0
169 195 0
170 196 0
169 195 0
169 195 0
169 195 0
169 195 0
169 195 0
170 195 0
167 194 0
169 195 0
170 195 0
169 195 0
169 195 0
169 195 0
170 195 0
169 195 0
171 196 0
168 195 0
170 195 0
169 194 0
169 195 0
169 195 0
170 195 0
170 196 0
170 195 0
169 195 0
170 195 0
169 195 0
170 195 0
170 195 0
169 195 0
169 195 0
169 195 0
170 195 0
168 194 0
168 195 0
170 195 0
168 195 0
170 195 0
169 195 0
169 195 0
169 195 0
169 195 0
169 195 0
169 195 0
170 196 0
169 195 0
170 195 0
169 195 0
170 196 0
170 195 0
170 195 0
170 195 0
170 196 0
170 195 0
170 195 0
169 195 0
170 196 0
169 195 0
170 195 0
170 195 0
169 195 0
170 195 0
169 195 0
169 195 0
169 195 0
170 196 0
169 195 0
169 195 0
169 195 0
169 195 0
170 195 0
169 195 0
168 195 0
169 195 0
169 195 0
169 195 0
170 195 0
171 196 0
170 196 0
169 195 0
169 195 0
168 195 0
169 195 0
169 195 0
170 195 0
169 195 0
170 196 0
169 195 0
170 196 0
169 195 0
169 195 0
169 195 0
170 195 0
169 195 0
170 195 0
168 195 0
170 196 0
169 195 0
170 195 0
170 196 0
171 196 0
169 195 0
169 195 0
169 195 0
169 195 0
169 195 0
169 195 0
169 195 0
169 195 0
170 195 0
169 195 0
170 195 0
170 195 0
169 195 0
169 195 0
170 195 0
169 195 0
169 195 0
169 195 0
170 195 0
169 195 0
169 195 0
169 195 0
170 195 0
168 195 0
169 195 0
169 195 0
169 195 0
169 195 0
169 195 0
170 195 0
170 196 0
170 195 0
170 195 0
170 196 0
169 195 0
169 195 0
170 195 0
170 195 0
169 195 0
169 194 0
169 195 0
170 195 0
169 195 0
170 195 0
170 196 0
169 195 0
169 195 0
170 195 0
170 196 0
169 195 0
169 195 0
170 195 0
169 195 0
168 194 0
169 195 0
169 195 0
169 195 0
169 195 0
169 195 0
168 195 0
169 195 0
169 195 0
170 196 0
169 195 0
169 195 0
170 196 0
170 195 0
168 195 0
170 195 0
169 195 0
170 196 0
170 195 0
169 195 0
170 195 0
170 196 0
169 195 0
170 195 0
168 195 0
169 195 0
168 194 0
168 195 0
169 195 0
169 195 0
170 196 0
168 195 0
169 195 0
170 195 0
169 195 0
170 195 0
169 195 0
169 195 0
170 195 0
169 195 0
171 196 0
168 195 0
169 195 0
169 195 0
171 196 0
170 195 0
170 195 0
170 195 0
170 195 0
169 195 0
170 195 0
168 194 0
168 194 0
169 194 0
169 195 0
171 196 0
170 196 0
170 195 0
169 195 0
170 195 0
168 194 0
169 195 0
169 195 0
169 195 0
169 195 0
170 195 0
168 195 0
169 195 0
169 195 0
169 195 0
170 195 0
169 195 0
170 196 0
169 195 0
168 195 0
170 196 0
170 195 0
170 195 0
169 195 0
169 195 0
169 195 0
169 195 0
169 195 0
169 194 0
169 195 0
169 195 0
170 195 0
170 195 0
170 195 0
169 195 0
170 195 0
169 195 0
169 195 0
169 195 0
170 196 0
168 194 0
169 195 0
170 195 0
170 195 0
169 195 0
169 195 0
168 194 0
170 195 0
170 195 0
170 196 0
169 195 0
169 195 0
167 194 0
168 195 0
169 195 0
170 195 0
169 195 0
169 195 0
170 195 0
169 195 0
169 195 0
169 195 0
169 195 0
169 195 0
170 195 0
169 195 0
168 195 0
170 196 0
170 195 0
168 195 0
169 195 0
169 195 0
170 195 0
169 195 0
169 195 0
170 195 0
169 195 0
170 196 0
169 195 0
170 195 0
170 195 0
169 195 0
170 196 0
169 195 0
169 195 0
170 195 0
170 195 0
170 195 0
169 195 0
170 195 0
169 195 0
169 195 0
170 195 0
169 195 0
169 195 0
169 195 0
170 196 0
168 194 0
168 194 0
169 195 0
170 195 0
169 195 0
170 195 0
168 195 0
169 195 0
170 195 0
170 196 0
168 195 0
169 195 0
169 195 0
169 195 0
169 195 0
169 195 0
170 195 0
170 195 0
170 195 0
168 195 0
169 195 0
170 196 0
169 195 0
169 195 0
169 195 0
169 195 0
170 196 0
168 195 0
170 195 0
170 195 0
169 195 0
170 196 0
168 195 0
170 195 0
169 195 0
170 195 0
170 196 0
168 195 0
169 195 0
169 195 0
169 195 0
171 196 0
170 195 0
169 195 0
170 195 0
169 195 0
169 195 0
170 195 0
169 195 0
169 195 0
169 195 0
170 195 0
169 195 0
169 195 0
168 194 0
170 196 0
170 195 0
169 195 0
170 195 0
170 195 0
169 195 0
170 195 0
169 195 0
168 194 0
170 195 0
168 195 0
170 196 0
169 195 0
169 195 0
170 196 0
170 196 0
169 195 0
169 195 0
170 196 0
169 195 0
168 195 0
168 195 0
169 195 0
169 195 0
169 195 0
169 195 0
168 195 0
170 195 0
169 195 0
169 195 0
169 195 0
169 195 0
170 195 0
169 195 0
169 195 0
169 195 0
168 194 0
169 195 0
169 195 0
169 195 0
169 195 0
170 196 0
169 195 0
169 195 0
169 195 0
170 195 0
170 195 0
169 195 0
169 195 0
170 195 0
169 195 0
169 195 0
169 195 0
169 195 0
169 195 0
169 195 0
169 195 0
168 194 0
168 194 0
169 195 0
169 195 0
170 195 0
171 196 0
170 195 0
169 194 0
169 195 0
169 195 0
170 195 0
170 195 0
168 195 0
169 195 0
171 196 0
170 195 0
170 196 0
169 195 0
170 196 0
168 194 0
170 196 0
169 195 0
169 195 0
169 195 0
168 194 0
169 195 0
170 195 0
170 195 0
171 196 0
168 194 0
168 195 0
169 195 0
169 195 0
169 195 0
169 195 0
169 195 0
169 195 0
169 195 0
169 195 0
169 195 0
170 195 0
170 195 0
170 195 0
169 195 0
169 195 0
169 195 0
169 195 0
170 195 0
169 195 0
170 195 0
169 195 0
169 195 0
169 195 0
170 196 0
169 195 0
170 195 0
170 195 0
170 195 0
168 195 0
170 195 0
169 195 0
169 195 0
170 195 0
169 195 0
169 195 0
169 195 0
171 196 0
170 195 0
170 195 0
169 195 0
169 195 0
169 195 0
169 195 0
169 195 0
169 195 0
169 195 0
168 194 0
168 194 0
170 195 0
171 196 0
169 195 0
169 195 0
169 195 0
169 195 0
170 195 0
169 195 0
171 196 0
168 195 0
170 195 0
170 195 0
169 195 0
170 196 0
170 196 0
169 195 0
170 195 0
169 195 0
169 195 0
169 195 0
170 195 0
169 195 0
169 195 0
170 195 0
170 195 0
168 195 0
170 195 0
170 196 0
170 196 0
170 195 0
169 195 0
169 195 0
170 196 0
170 195 0
170 195 0
169 195 0
169 195 0
171 196 0
169 195 0
168 195 0
168 195 0
168 195 0
170 195 0
170 195 0
169 195 0
169 195 0
169 195 0
169 195 0
169 195 0
169 195 0
170 195 0
169 195 0
169 195 0
169 195 0
169 195 0
169 195 0
169 195 0
169 195 0
169 195 0
169 195 0
168 195 0
170 195 0
169 195 0
169 195 0
170 195 0
170 195 0
169 195 0
169 195 0
170 196 0
171 196 0
169 195 0
171 196 0
169 195 0
170 196 0
170 195 0
170 195 0
168 195 0
169 195 0
169 195 0
169 195 0
168 195 0
170 195 0
170 195 0
170 195 0
170 195 0
169 195 0
170 195 0
169 195 0
169 195 0
171 196 0
170 195 0
170 195 0
170 196 0
170 195 0
169 195 0
170 195 0
169 195 0
169 195 0
170 196 0
168 195 0
169 195 0
169 195 0
168 194 0
170 196 0
170 195 0
168 194 0
168 195 0
169 195 0
170 195 0
169 195 0
170 195 0
169 195 0
169 195 0
169 195 0
169 195 0
170 195 0
170 195 0
170 195 0
169 195 0
169 194 0
170 195 0
169 194 0
170 195 0
169 194 0
169 195 0
170 195 0
169 195 0
170 195 0
169 195 0
169 195 0
170 195 0
169 195 0
170 195 0
169 195 0
170 195 0
169 195 0
170 196 0
170 195 0
168 194 0
169 195 0
169 195 0
169 195 0
169 195 0
168 195 0
169 195 0
170 195 0
168 194 0
171 196 0
169 195 0
169 195 0
170 196 0
169 195 0
169 195 0
170 195 0
168 195 0
169 195 0
168 194 0
169 195 0
169 195 0
169 195 0
170 195 0
170 196 0
169 195 0
170 195 0
169 195 0
169 195 0
169 195 0
169 195 0
169 195 0
169 195 0
170 195 0
169 195 0
169 195 0
168 194 0
169 195 0
169 195 0
169 195 0
169 195 0
169 195 0
170 195 0
169 195 0
168 195 0
169 195 0
169 195 0
170 195 0
170 195 0
169 195 0
168 194 0
170 196 0
169 195 0
169 195 0
169 195 0
169 195 0
170 195 0
169 195 0
168 195 0
170 196 0
169 195 0
170 195 0
169 195 0
170 195 0
170 195 0
170 195 0
169 195 0
170 195 0
169 195 0
168 194 0
169 194 0
169 195 0
169 195 0
170 195 0
168 194 0
171 196 0
169 195 0
169 195 0
170 195 0
170 195 0
169 195 0
169 195 0
169 195 0
169 195 0
169 195 0
170 196 0
169 195 0
170 195 0
170 195 0
169 195 0
167 194 0
169 195 0
168 195 0
169 195 0
169 195 0
170 195 0
170 195 0
169 195 0
169 195 0
169 195 0
169 195 0
169 195 0
170 195 0
169 195 0
170 195 0
169 195 0
170 195 0
169 195 0
169 195 0
170 195 0
169 195 0
170 195 0
169 195 0
169 195 0
169 195 0
170 195 0
171 196 0
168 195 0
169 195 0
170 195 0
168 194 0
169 195 0
170 196 0
168 195 0
169 195 0
168 195 0
170 195 0
169 195 0
169 195 0
170 195 0
170 195 0
170 195 0
169 195 0
170 195 0
168 194 0
170 195 0
170 195 0
169 195 0
170 195 0
169 195 0
170 195 0
169 195 0
169 195 0
169 195 0
169 195 0
170 195 0
170 196 0
169 195 0
168 194 0
169 195 0
170 195 0
169 195 0
169 195 0
170 195 0
169 195 0
168 194 0
168 195 0
168 195 0
169 195 0
169 195 0
170 195 0
168 195 0
169 195 0
169 195 0
170 196 0
169 195 0
171 196 0
169 195 0
170 195 0
169 195 0
169 195 0
169 195 0
169 195 0
169 195 0
170 195 0
170 196 0
170 195 0
170 195 0
170 195 0
169 195 0
168 195 0
169 195 0
170 195 0
168 195 0
170 195 0
168 194 0
169 195 0
170 195 0
168 194 0
169 195 0
170 195 0
169 195 0
170 196 0
170 195 0
169 195 0
169 195 0
169 195 0
170 195 0
168 195 0
170 195 0
169 195 0
170 195 0
168 195 0
169 195 0
169 195 0
169 195 0
170 195 0
169 195 0
169 195 0
170 195 0
169 195 0
170 195 0
170 195 0
171 196 0
169 195 0
170 196 0
169 195 0
169 195 0
169 195 0
170 195 0
169 195 0
169 195 0
169 195 0
170 195 0
168 195 0
169 195 0
170 195 0
169 195 0
169 195 0
169 195 0
169 194 0
171 196 0
169 195 0
169 195 0
169 195 0
169 195 0
170 196 0
170 195 0
169 195 0
169 195 0
170 196 0
169 195 0
169 195 0
169 195 0
170 195 0
169 195 0
169 195 0
169 195 0
169 195 0
170 195 0
169 195 0
170 196 0
169 195 0
170 196 0
169 195 0
170 195 0
170 195 0
169 195 0
168 195 0
168 194 0
169 195 0
170 195 0
170 195 0
170 196 0
169 195 0
170 195 0
170 195 0
170 195 0
169 195 0
170 195 0
170 195 0
170 195 0
170 195 0
169 195 0
168 194 0
169 195 0
